library/cube/400H_Soft_001.cube
# CINEGRADE LAB — Premium Cinematic LUT
# Title: 400H Soft
# Category: Fuji 400H Emulation
# Description: Pastel tones, green shadows, airy feel emulating Fuji Pro 400H
# Mood: Soft, pastel, delicate
# Variant: 2
# Generated: 2026-05-21T16:12:49.569290
TITLE "400H Soft"
LUT_3D_SIZE 33
0.150487 0.147858 0.166514
0.169975 0.149030 0.167747
0.189930 0.150232 0.169009
0.210283 0.151460 0.170296
0.230984 0.152710 0.171605
0.251995 0.153980 0.172935
0.273286 0.155268 0.174281
0.294832 0.156573 0.175644
0.316612 0.157893 0.177023
0.338611 0.159227 0.178415
0.360812 0.160575 0.179820
0.383203 0.161935 0.181237
0.405774 0.163307 0.182666
0.428514 0.164689 0.184105
0.451414 0.166083 0.185555
0.474467 0.167486 0.187015
0.497666 0.168899 0.188485
0.521005 0.170321 0.189963
0.544477 0.171752 0.191450
0.568078 0.173192 0.192946
0.591801 0.174640 0.194449
0.615644 0.176095 0.195960
0.639602 0.177559 0.197479
0.663671 0.179030 0.199005
0.687847 0.180508 0.200538
0.712128 0.181993 0.202078
0.736509 0.183485 0.203624
0.760988 0.184983 0.205177
0.785563 0.186488 0.206737
0.810231 0.188000 0.208302
0.834988 0.189517 0.209874
0.836983 0.189594 0.210019
0.836995 0.189546 0.210040
0.154612 0.170232 0.170662
0.174101 0.171403 0.171896
0.194057 0.172604 0.173159
0.214410 0.173831 0.174447
0.235112 0.175080 0.175757
0.256124 0.176349 0.177088
0.277416 0.177637 0.178435
0.298963 0.178941 0.179800
0.320745 0.180260 0.181179
0.342744 0.181594 0.182572
0.364946 0.182941 0.183978
0.387339 0.184300 0.185396
0.409910 0.185671 0.186826
0.432651 0.187054 0.188267
0.455553 0.188447 0.189718
0.478608 0.189849 0.191179
0.501808 0.191262 0.192650
0.525148 0.192684 0.194129
0.548621 0.194115 0.195617
0.572223 0.195554 0.197114
0.595949 0.197002 0.198618
0.619793 0.198457 0.200131
0.643753 0.199921 0.201651
0.667823 0.201392 0.203178
0.692001 0.202870 0.204712
0.716283 0.204355 0.206253
0.740666 0.205847 0.207800
0.765148 0.207345 0.209355
0.789724 0.208851 0.210915
0.814394 0.210362 0.212481
0.839154 0.211880 0.214054
0.841150 0.211957 0.214200
0.841163 0.211910 0.214222
0.158839 0.193136 0.174911
0.178328 0.194306 0.176146
0.198284 0.195507 0.177410
0.218639 0.196733 0.178700
0.239342 0.197981 0.180011
0.260355 0.199250 0.181342
0.281648 0.200537 0.182691
0.303195 0.201840 0.184056
0.324978 0.203159 0.185437
0.346978 0.204492 0.186831
0.369182 0.205839 0.188238
0.391576 0.207198 0.189658
0.414148 0.208569 0.191088
0.436891 0.209951 0.192530
0.459794 0.211343 0.193983
0.482850 0.212746 0.195445
0.506052 0.214159 0.196916
0.529393 0.215580 0.198397
0.552868 0.217011 0.199886
0.576471 0.218450 0.201384
0.600199 0.219898 0.202889
0.624045 0.221354 0.204403
0.648006 0.222817 0.205924
0.672078 0.224288 0.207452
0.696258 0.225766 0.208987
0.720542 0.227251 0.210530
0.744927 0.228744 0.212078
0.769410 0.230243 0.213634
0.793989 0.231748 0.215195
0.818660 0.233260 0.216763
0.843422 0.234778 0.218336
0.845420 0.234856 0.218483
0.845435 0.234810 0.218505
0.163151 0.216491 0.179248
0.182642 0.217661 0.180484
0.202599 0.218861 0.181749
0.222955 0.220086 0.183040
0.243658 0.221335 0.184352
0.264672 0.222603 0.185684
0.285966 0.223889 0.187034
0.307515 0.225193 0.188401
0.329299 0.226511 0.189782
0.351300 0.227844 0.191177
0.373505 0.229190 0.192586
0.395900 0.230549 0.194006
0.418474 0.231920 0.195438
0.441218 0.233301 0.196881
0.464122 0.234694 0.198334
0.487179 0.236097 0.199798
0.510383 0.237509 0.201270
0.533726 0.238931 0.202752
0.557202 0.240362 0.204242
0.580808 0.241801 0.205741
0.604536 0.243249 0.207248
0.628384 0.244705 0.208763
0.652347 0.246169 0.210285
0.676421 0.247640 0.211814
0.700603 0.249119 0.213350
0.724889 0.250604 0.214894
0.749276 0.252097 0.216444
0.773761 0.253596 0.218000
0.798342 0.255102 0.219563
0.823016 0.256615 0.221131
0.847780 0.258134 0.222706
0.849779 0.258213 0.222853
0.849795 0.258168 0.222876
0.167540 0.240241 0.183662
0.187031 0.241410 0.184898
0.206989 0.242609 0.186165
0.227346 0.243835 0.187456
0.248051 0.245082 0.188770
0.269066 0.246351 0.190103
0.290361 0.247637 0.191454
0.311911 0.248940 0.192822
0.333696 0.250258 0.194204
0.355698 0.251591 0.195601
0.377904 0.252937 0.197010
0.400301 0.254296 0.198432
0.422876 0.255667 0.199865
0.445621 0.257049 0.201309
0.468527 0.258441 0.202763
0.491586 0.259844 0.204228
0.514791 0.261257 0.205701
0.538136 0.262679 0.207184
0.561614 0.264110 0.208676
0.585221 0.265550 0.210176
0.608951 0.266998 0.211683
0.632801 0.268455 0.213199
0.656766 0.269919 0.214722
0.680842 0.271391 0.216253
0.705026 0.272870 0.217790
0.729314 0.274356 0.219335
0.753703 0.275849 0.220886
0.778190 0.277349 0.222443
0.802773 0.278856 0.224007
0.827449 0.280369 0.225577
0.852216 0.281889 0.227153
0.854216 0.281970 0.227301
0.854233 0.281926 0.227325
0.171997 0.264340 0.188144
0.191489 0.265509 0.189382
0.211448 0.266709 0.190649
0.231805 0.267934 0.191942
0.252511 0.269182 0.193257
0.273528 0.270450 0.194591
0.294824 0.271736 0.195943
0.316375 0.273039 0.197312
0.338161 0.274357 0.198695
0.360165 0.275690 0.200093
0.382372 0.277037 0.201503
0.404770 0.278396 0.202926
0.427347 0.279767 0.204360
0.450094 0.281149 0.205805
0.473001 0.282542 0.207261
0.496062 0.283945 0.208726
0.519268 0.285358 0.210201
0.542615 0.286781 0.211685
0.566095 0.288213 0.213178
0.589704 0.289653 0.214679
0.613436 0.291102 0.216188
0.637288 0.292559 0.217705
0.661254 0.294024 0.219229
0.685332 0.295496 0.220761
0.709518 0.296976 0.222299
0.733808 0.298463 0.223845
0.758200 0.299957 0.225397
0.782689 0.301458 0.226956
0.807275 0.302966 0.228520
0.831953 0.304480 0.230091
0.856722 0.306001 0.231669
0.858724 0.306083 0.231817
0.858742 0.306041 0.231842
0.176514 0.288756 0.192689
0.196008 0.289925 0.193928
0.215968 0.291124 0.195196
0.236327 0.292349 0.196490
0.257034 0.293597 0.197806
0.278051 0.294866 0.199141
0.299348 0.296152 0.200495
0.320901 0.297455 0.201864
0.342688 0.298774 0.203249
0.364694 0.300108 0.204647
0.386903 0.301454 0.206059
0.409302 0.302814 0.207483
0.431881 0.304185 0.208918
0.454629 0.305568 0.210364
0.477538 0.306961 0.211821
0.500600 0.308365 0.213288
0.523809 0.309779 0.214764
0.547157 0.311202 0.216249
0.570639 0.312635 0.217743
0.594249 0.314076 0.219245
0.617984 0.315526 0.220755
0.641837 0.316983 0.222273
0.665806 0.318449 0.223798
0.689886 0.319923 0.225331
0.714074 0.321404 0.226871
0.738366 0.322892 0.228417
0.762760 0.324387 0.229971
0.787252 0.325889 0.231530
0.811840 0.327398 0.233096
0.836520 0.328914 0.234669
0.861292 0.330436 0.236247
0.863295 0.330520 0.236396
0.863315 0.330479 0.236422
0.181089 0.313459 0.197291
0.200583 0.314629 0.198531
0.220544 0.315829 0.199801
0.240904 0.317054 0.201095
0.261613 0.318302 0.202412
0.282631 0.319571 0.203749
0.303930 0.320858 0.205103
0.325484 0.322162 0.206474
0.347273 0.323481 0.207860
0.369280 0.324815 0.209259
0.391490 0.326162 0.210672
0.413891 0.327522 0.212097
0.436471 0.328895 0.213534
0.459221 0.330278 0.214981
0.482132 0.331672 0.216439
0.505196 0.333077 0.217906
0.528406 0.334492 0.219384
0.551756 0.335916 0.220870
0.575240 0.337349 0.222365
0.598853 0.338792 0.223868
0.622589 0.340242 0.225379
0.646445 0.341701 0.226898
0.670416 0.343168 0.228425
0.694498 0.344643 0.229959
0.718688 0.346125 0.231500
0.742983 0.347615 0.233047
0.767379 0.349111 0.234602
0.791873 0.350615 0.236163
0.816463 0.352125 0.237730
0.841146 0.353642 0.239303
0.865920 0.355166 0.240883
0.867925 0.355251 0.241033
0.867946 0.355212 0.241059
0.185715 0.338429 0.201947
0.205210 0.339599 0.203188
0.225173 0.340799 0.204458
0.245534 0.342025 0.205754
0.266244 0.343274 0.207072
0.287264 0.344543 0.208410
0.308564 0.345831 0.209765
0.330119 0.347136 0.211137
0.351910 0.348456 0.212524
0.373918 0.349790 0.213925
0.396130 0.351138 0.215338
0.418533 0.352499 0.216764
0.441115 0.353872 0.218202
0.463866 0.355257 0.219651
0.486779 0.356652 0.221109
0.509845 0.358058 0.222578
0.533057 0.359474 0.224057
0.556409 0.360899 0.225544
0.579895 0.362334 0.227040
0.603509 0.363777 0.228544
0.627248 0.365229 0.230057
0.651106 0.366690 0.231577
0.675079 0.368158 0.233105
0.699164 0.369634 0.234640
0.723356 0.371118 0.236182
0.747653 0.372609 0.237731
0.772052 0.374107 0.239286
0.796548 0.375612 0.240848
0.821141 0.377124 0.242417
0.845827 0.378643 0.243991
0.870603 0.380168 0.245571
0.872610 0.380256 0.245723
0.872632 0.380219 0.245749
0.190389 0.363645 0.206652
0.209886 0.364816 0.207894
0.229850 0.366017 0.209165
0.250212 0.367244 0.210462
0.270923 0.368493 0.211781
0.291945 0.369764 0.213120
0.313246 0.371052 0.214477
0.334803 0.372358 0.215850
0.356596 0.373679 0.217237
0.378606 0.375014 0.218639
0.400819 0.376364 0.220054
0.423224 0.377726 0.221481
0.445807 0.379100 0.222920
0.468561 0.380486 0.224370
0.491475 0.381882 0.225830
0.514543 0.383289 0.227300
0.537757 0.384706 0.228779
0.561111 0.386133 0.230268
0.584599 0.387569 0.231765
0.608216 0.389014 0.233270
0.631957 0.390468 0.234784
0.655817 0.391929 0.236305
0.679793 0.393399 0.237834
0.703880 0.394877 0.239370
0.728075 0.396363 0.240913
0.752374 0.397855 0.242463
0.776775 0.399355 0.244020
0.801274 0.400863 0.245583
0.825870 0.402376 0.247153
0.850558 0.403897 0.248728
0.875337 0.405424 0.250310
0.877345 0.405514 0.250462
0.877369 0.405480 0.250489
0.195109 0.389092 0.211403
0.214607 0.390264 0.212646
0.234572 0.391466 0.213919
0.254936 0.392694 0.215217
0.275649 0.393944 0.216537
0.296672 0.395216 0.217877
0.317975 0.396505 0.219234
0.339534 0.397812 0.220609
0.361327 0.399134 0.221998
0.383339 0.400471 0.223401
0.405555 0.401822 0.224817
0.427961 0.403185 0.226245
0.450546 0.404561 0.227685
0.473302 0.405948 0.229135
0.496218 0.407346 0.230597
0.519288 0.408755 0.232068
0.542505 0.410174 0.233548
0.565861 0.411602 0.235038
0.589351 0.413040 0.236536
0.612970 0.414486 0.238043
0.636713 0.415942 0.239557
0.660576 0.417405 0.241080
0.684553 0.418877 0.242610
0.708643 0.420357 0.244147
0.732840 0.421844 0.245692
0.757142 0.423339 0.247243
0.781546 0.424841 0.248801
0.806048 0.426350 0.250365
0.830646 0.427866 0.251936
0.855337 0.429389 0.253512
0.880119 0.430919 0.255095
0.882129 0.431011 0.255248
0.882154 0.430979 0.255276
0.199872 0.414756 0.216198
0.219371 0.415929 0.217442
0.239338 0.417132 0.218716
0.259703 0.418361 0.220015
0.280417 0.419613 0.221336
0.301442 0.420886 0.222677
0.322747 0.422177 0.224036
0.344307 0.423485 0.225411
0.366103 0.424809 0.226801
0.388116 0.426147 0.228206
0.410334 0.427499 0.229623
0.432741 0.428865 0.231052
0.455329 0.430242 0.232493
0.478087 0.431631 0.233945
0.501005 0.433031 0.235407
0.524077 0.434441 0.236879
0.547296 0.435862 0.238361
0.570654 0.437292 0.239852
0.594146 0.438731 0.241351
0.617768 0.440180 0.242859
0.641513 0.441637 0.244375
0.665378 0.443103 0.245899
0.689359 0.444577 0.247430
0.713451 0.446059 0.248968
0.737651 0.447548 0.250514
0.761955 0.449046 0.252066
0.786361 0.450550 0.253625
0.810866 0.452062 0.255190
0.835467 0.453580 0.256762
0.860161 0.455105 0.258340
0.884946 0.456637 0.259924
0.886957 0.456732 0.260077
0.886984 0.456703 0.260106
0.204675 0.440626 0.221035
0.224176 0.441800 0.222280
0.244144 0.443004 0.223555
0.264511 0.444235 0.224855
0.285227 0.445489 0.226177
0.306253 0.446763 0.227520
0.327559 0.448055 0.228879
0.349121 0.449365 0.230256
0.370919 0.450691 0.231647
0.392934 0.452031 0.233052
0.415154 0.453385 0.234470
0.437563 0.454752 0.235901
0.460153 0.456131 0.237343
0.482913 0.457522 0.238796
0.505834 0.458924 0.240259
0.528908 0.460336 0.241733
0.552128 0.461759 0.243216
0.575489 0.463191 0.244707
0.598984 0.464633 0.246208
0.622608 0.466084 0.247717
0.646356 0.467543 0.249234
0.670223 0.469011 0.250759
0.694206 0.470488 0.252291
0.718301 0.471972 0.253831
0.742503 0.473464 0.255377
0.766811 0.474964 0.256931
0.791220 0.476471 0.258491
0.815727 0.477985 0.260058
0.840331 0.479506 0.261630
0.865028 0.481034 0.263209
0.889816 0.482569 0.264795
0.891829 0.482667 0.264949
0.891857 0.482641 0.264978
0.209516 0.466690 0.225911
0.229019 0.467866 0.227157
0.248988 0.469072 0.228433
0.269357 0.470304 0.229735
0.290074 0.471560 0.231058
0.311102 0.472836 0.232401
0.332411 0.474130 0.233762
0.353975 0.475442 0.235139
0.375774 0.476769 0.236532
0.397792 0.478111 0.237938
0.420013 0.479467 0.239358
0.442425 0.480836 0.240789
0.465017 0.482218 0.242232
0.487778 0.483611 0.243687
0.510701 0.485015 0.245151
0.533778 0.486430 0.246626
0.557001 0.487855 0.248109
0.580364 0.489289 0.249602
0.603861 0.490734 0.251104
0.627487 0.492187 0.252614
0.651238 0.493649 0.254132
0.675108 0.495120 0.255658
0.699094 0.496599 0.257192
0.723191 0.498086 0.258732
0.747396 0.499580 0.260280
0.771706 0.501083 0.261835
0.796118 0.502593 0.263396
0.820629 0.504110 0.264964
0.845236 0.505634 0.266538
0.869936 0.507165 0.268118
0.894727 0.508703 0.269705
0.896741 0.508804 0.269859
0.896771 0.508781 0.269890
0.214394 0.492940 0.230825
0.233898 0.494118 0.232072
0.253870 0.495326 0.233349
0.274240 0.496560 0.234652
0.294959 0.497818 0.235976
0.315989 0.499096 0.237320
0.337299 0.500392 0.238682
0.358865 0.501706 0.240061
0.380666 0.503036 0.241454
0.402686 0.504380 0.242862
0.424909 0.505739 0.244282
0.447323 0.507110 0.245715
0.469917 0.508494 0.247159
0.492681 0.509889 0.248615
0.515607 0.511296 0.250080
0.538686 0.512713 0.251556
0.561911 0.514141 0.253041
0.585276 0.515578 0.254535
0.608776 0.517025 0.256038
0.632405 0.518481 0.257549
0.656158 0.519946 0.259069
0.680031 0.521419 0.260596
0.704019 0.522901 0.262130
0.728120 0.524391 0.263672
0.752328 0.525889 0.265221
0.776641 0.527394 0.266777
0.801056 0.528907 0.268339
0.825569 0.530427 0.269908
0.850179 0.531955 0.271483
0.874882 0.533489 0.273065
0.899677 0.535030 0.274652
0.901692 0.535135 0.274808
0.901723 0.535116 0.274839
0.219307 0.519368 0.235774
0.238813 0.520548 0.237023
0.258786 0.521758 0.238301
0.279158 0.522995 0.239605
0.299879 0.524255 0.240930
0.320911 0.525535 0.242276
0.342223 0.526834 0.243639
0.363791 0.528150 0.245018
0.385594 0.529482 0.246413
0.407616 0.530829 0.247822
0.429841 0.532190 0.249243
0.452258 0.533564 0.250677
0.474854 0.534951 0.252123
0.497621 0.536349 0.253579
0.520548 0.537758 0.255046
0.543630 0.539178 0.256522
0.566857 0.540609 0.258009
0.590226 0.542049 0.259504
0.613728 0.543499 0.261008
0.637360 0.544958 0.262520
0.661115 0.546426 0.264041
0.684991 0.547903 0.265569
0.708982 0.549387 0.267105
0.733085 0.550881 0.268648
0.757296 0.552382 0.270198
0.781612 0.553890 0.271755
0.806030 0.555407 0.273318
0.830547 0.556930 0.274888
0.855160 0.558461 0.276465
0.879866 0.559999 0.278047
0.904664 0.561543 0.279636
0.906681 0.561652 0.279792
0.906714 0.561636 0.279824
0.224254 0.545967 0.240759
0.243761 0.547149 0.242008
0.263736 0.548362 0.243288
0.284110 0.549601 0.244592
0.304833 0.550864 0.245919
0.325867 0.552146 0.247265
0.347181 0.553448 0.248630
0.368751 0.554767 0.250010
0.390556 0.556102 0.251406
0.412580 0.557452 0.252816
0.434808 0.558816 0.254238
0.457227 0.560192 0.255674
0.479825 0.561582 0.257120
0.502594 0.562983 0.258578
0.525524 0.564395 0.260046
0.548608 0.565818 0.261523
0.571839 0.567252 0.263011
0.595209 0.568695 0.264507
0.618715 0.570148 0.266012
0.642349 0.571611 0.267526
0.666107 0.573082 0.269047
0.689986 0.574562 0.270577
0.713980 0.576050 0.272114
0.738086 0.577547 0.273658
0.762300 0.579052 0.275209
0.786619 0.580564 0.276767
0.811040 0.582084 0.278332
0.835560 0.583611 0.279903
0.860176 0.585145 0.281481
0.884886 0.586687 0.283064
0.909687 0.588235 0.284654
0.911706 0.588348 0.284811
0.911740 0.588336 0.284844
0.229232 0.572731 0.245776
0.248741 0.573916 0.247027
0.268718 0.575131 0.248307
0.289094 0.576373 0.249613
0.309819 0.577638 0.250941
0.330855 0.578924 0.252288
0.352171 0.580229 0.253654
0.373744 0.581551 0.255035
0.395551 0.582888 0.256432
0.417578 0.584241 0.257843
0.439808 0.585608 0.259267
0.462229 0.586988 0.260703
0.484830 0.588381 0.262151
0.507601 0.589785 0.263610
0.530534 0.591201 0.265079
0.553620 0.592627 0.266558
0.576854 0.594064 0.268046
0.600227 0.595511 0.269544
0.623735 0.596967 0.271050
0.647372 0.598433 0.272565
0.671134 0.599908 0.274087
0.695015 0.601392 0.275618
0.719012 0.602884 0.277156
0.743121 0.604384 0.278701
0.767338 0.605892 0.280254
0.791661 0.607409 0.281813
0.816085 0.608932 0.283379
0.840608 0.610463 0.284951
0.865228 0.612002 0.286530
0.889941 0.613547 0.288115
0.914745 0.615100 0.289706
0.916766 0.615217 0.289863
0.916801 0.615209 0.289897
0.234242 0.599654 0.250826
0.253753 0.600842 0.252077
0.273732 0.602060 0.253359
0.294110 0.603305 0.254666
0.314837 0.604573 0.255995
0.335875 0.605862 0.257343
0.357193 0.607170 0.258710
0.378768 0.608495 0.260093
0.400578 0.609836 0.261491
0.422607 0.611192 0.262903
0.444839 0.612563 0.264328
0.467263 0.613946 0.265765
0.489866 0.615342 0.267214
0.512640 0.616750 0.268674
0.535576 0.618169 0.270144
0.558665 0.619599 0.271624
0.581901 0.621040 0.273114
0.605277 0.622490 0.274612
0.628788 0.623950 0.276120
0.652428 0.625420 0.277635
0.676192 0.626899 0.279159
0.700077 0.628386 0.280691
0.724077 0.629882 0.282230
0.748189 0.631387 0.283777
0.772410 0.632899 0.285330
0.796735 0.634419 0.286891
0.821163 0.635947 0.288458
0.845689 0.637483 0.290031
0.870312 0.639025 0.291611
0.895029 0.640575 0.293197
0.919837 0.642132 0.294789
0.921859 0.642253 0.294948
0.921896 0.642250 0.294981
0.239282 0.626731 0.255906
0.258795 0.627922 0.257159
0.278776 0.629144 0.258441
0.299156 0.630392 0.259749
0.319885 0.631664 0.261079
0.340925 0.632956 0.262429
0.362246 0.634267 0.263797
0.383823 0.635596 0.265181
0.405635 0.636940 0.266580
0.427666 0.638300 0.267993
0.449901 0.639674 0.269419
0.472327 0.641061 0.270857
0.494934 0.642461 0.272307
0.517710 0.643872 0.273768
0.540648 0.645295 0.275240
0.563740 0.646729 0.276721
0.586979 0.648174 0.278212
0.610358 0.649628 0.279712
0.633872 0.651093 0.281220
0.657515 0.652566 0.282737
0.681282 0.654049 0.284262
0.705170 0.655541 0.285795
0.729173 0.657041 0.287335
0.753289 0.658550 0.288883
0.777513 0.660066 0.290438
0.801842 0.661591 0.291999
0.826273 0.663123 0.293567
0.850803 0.664663 0.295142
0.875429 0.666210 0.296723
0.900149 0.667765 0.298310
0.924961 0.669326 0.299903
0.926984 0.669452 0.300063
0.927023 0.669454 0.300097
0.244351 0.653958 0.261016
0.263866 0.655153 0.262270
0.283849 0.656378 0.263554
0.304231 0.657630 0.264863
0.324962 0.658905 0.266194
0.346005 0.660201 0.267545
0.367328 0.661516 0.268914
0.388907 0.662848 0.270299
0.410722 0.664197 0.271699
0.432755 0.665560 0.273113
0.454993 0.666938 0.274540
0.477422 0.668329 0.275980
0.500031 0.669732 0.277431
0.522810 0.671148 0.278893
0.545751 0.672575 0.280366
0.568846 0.674013 0.281848
0.592088 0.675462 0.283340
0.615470 0.676921 0.284841
0.638986 0.678389 0.286351
0.662633 0.679867 0.287869
0.686403 0.681355 0.289395
0.710294 0.682851 0.290929
0.734301 0.684355 0.292470
0.758419 0.685869 0.294019
0.782647 0.687390 0.295575
0.806979 0.688919 0.297138
0.831413 0.690456 0.298707
0.855947 0.692001 0.300283
0.880577 0.693553 0.301865
0.905301 0.695112 0.303453
0.930116 0.696678 0.305048
0.932142 0.696809 0.305208
0.932181 0.696816 0.305243
0.249448 0.681331 0.266156
0.268965 0.682530 0.267411
0.288950 0.683759 0.268695
0.309334 0.685014 0.270005
0.330068 0.686293 0.271338
0.351113 0.687593 0.272690
0.372438 0.688912 0.274059
0.394020 0.690248 0.275446
0.415837 0.691601 0.276847
0.437874 0.692968 0.278262
0.460114 0.694350 0.279691
0.482545 0.695745 0.281131
0.505157 0.697153 0.282584
0.527939 0.698573 0.284047
0.550883 0.700005 0.285520
0.573981 0.701447 0.287004
0.597226 0.702900 0.288497
0.620611 0.704364 0.289999
0.644131 0.705837 0.291510
0.667780 0.707320 0.293029
0.691554 0.708811 0.294557
0.715448 0.710312 0.296092
0.739458 0.711822 0.297634
0.763580 0.713340 0.299184
0.787811 0.714866 0.300741
0.812147 0.716400 0.302305
0.836585 0.717942 0.303876
0.861122 0.719492 0.305453
0.885756 0.721049 0.307036
0.910483 0.722613 0.308625
0.935302 0.724185 0.310221
0.937329 0.724321 0.310382
0.937371 0.724333 0.310418
0.254572 0.708847 0.271323
0.274091 0.710049 0.272579
0.294078 0.711282 0.273865
0.314465 0.712542 0.275176
0.335201 0.713825 0.276509
0.356248 0.715129 0.277862
0.377576 0.716452 0.279233
0.399161 0.717792 0.280621
0.420981 0.719149 0.282023
0.443020 0.720521 0.283440
0.465263 0.721908 0.284869
0.487697 0.723307 0.286311
0.510312 0.724720 0.287764
0.533097 0.726144 0.289229
0.556044 0.727580 0.290703
0.579144 0.729028 0.292188
0.602392 0.730485 0.293682
0.625780 0.731954 0.295185
0.649304 0.733432 0.296697
0.672956 0.734919 0.298218
0.696733 0.736416 0.299746
0.720631 0.737922 0.301283
0.744644 0.739436 0.302826
0.768770 0.740959 0.304377
0.793004 0.742491 0.305936
0.817344 0.744030 0.307501
0.841785 0.745577 0.309072
0.866326 0.747132 0.310651
0.890964 0.748695 0.312235
0.915695 0.750265 0.313826
0.940518 0.751842 0.315422
0.942547 0.751983 0.315584
0.942590 0.752000 0.315621
0.259722 0.736501 0.276517
0.279244 0.737708 0.277775
0.299234 0.738945 0.279061
0.319623 0.740209 0.280374
0.340361 0.741496 0.281708
0.361411 0.742805 0.283062
0.382742 0.744133 0.284434
0.404328 0.745478 0.285823
0.426151 0.746839 0.287227
0.448193 0.748216 0.288644
0.470439 0.749607 0.290075
0.492876 0.751011 0.291518
0.515494 0.752429 0.292972
0.538282 0.753858 0.294438
0.561232 0.755299 0.295914
0.584335 0.756751 0.297399
0.607586 0.758214 0.298895
0.630978 0.759687 0.300399
0.654504 0.761170 0.301912
0.678160 0.762663 0.303434
0.701941 0.764165 0.304963
0.725842 0.765676 0.306501
0.749859 0.767196 0.308046
0.773988 0.768725 0.309598
0.798226 0.770261 0.311157
0.822569 0.771806 0.312723
0.847015 0.773359 0.314296
0.871559 0.774919 0.315876
0.896201 0.776488 0.317461
0.920936 0.778063 0.319053
0.945716 0.779646 0.320651
0.947660 0.779793 0.320813
0.947702 0.779816 0.320851
0.264899 0.764292 0.281738
0.284423 0.765503 0.282997
0.304415 0.766745 0.284285
0.324806 0.768013 0.285598
0.345547 0.769306 0.286934
0.366600 0.770619 0.288289
0.387933 0.771951 0.289662
0.409523 0.773301 0.291052
0.431348 0.774668 0.292456
0.453393 0.776049 0.293875
0.475641 0.777445 0.295307
0.498082 0.778855 0.296751
0.520702 0.780277 0.298207
0.543493 0.781711 0.299673
0.566446 0.783158 0.301150
0.589554 0.784615 0.302637
0.612808 0.786083 0.304134
0.636203 0.787562 0.305639
0.659732 0.789050 0.307153
0.683392 0.790549 0.308676
0.707176 0.792056 0.310207
0.731081 0.793573 0.311745
0.755101 0.795098 0.313292
0.779234 0.796632 0.314845
0.803476 0.798175 0.316405
0.827823 0.799725 0.317973
0.852272 0.801284 0.319547
0.876820 0.802850 0.321127
0.901466 0.804424 0.322714
0.926205 0.806006 0.324307
0.950756 0.807595 0.325906
0.952692 0.807748 0.326069
0.952731 0.807777 0.326107
0.270100 0.792216 0.286985
0.289627 0.793432 0.288245
0.309621 0.794679 0.289534
0.330015 0.795952 0.290848
0.350759 0.797249 0.292185
0.371814 0.798568 0.293541
0.393150 0.799905 0.294916
0.414742 0.801260 0.296306
0.436571 0.802632 0.297712
0.458618 0.804018 0.299132
0.480870 0.805420 0.300565
0.503313 0.806834 0.302010
0.525937 0.808262 0.303467
0.548731 0.809702 0.304935
0.571688 0.811154 0.306413
0.594798 0.812617 0.307901
0.618056 0.814091 0.309398
0.641454 0.815575 0.310905
0.664987 0.817069 0.312421
0.688650 0.818573 0.313944
0.712438 0.820086 0.315476
0.736346 0.821609 0.317016
0.760370 0.823140 0.318563
0.784507 0.824680 0.320118
0.808752 0.826229 0.321679
0.833103 0.827785 0.323248
0.857556 0.829350 0.324823
0.882109 0.830923 0.326405
0.906758 0.832503 0.327993
0.931502 0.834091 0.329587
0.955794 0.835686 0.331187
0.957722 0.835845 0.331351
0.957758 0.835880 0.331390
0.275326 0.820271 0.292257
0.294855 0.821492 0.293518
0.314852 0.822744 0.294808
0.335249 0.824023 0.296124
0.355995 0.825326 0.297461
0.377053 0.826649 0.298819
0.398392 0.827992 0.300194
0.419987 0.829352 0.301586
0.441819 0.830729 0.302993
0.463869 0.832122 0.304414
0.486124 0.833528 0.305848
0.508570 0.834949 0.307294
0.531197 0.836382 0.308752
0.553995 0.837828 0.310221
0.576954 0.839285 0.311700
0.600068 0.840754 0.313190
0.623329 0.842234 0.314688
0.646731 0.843724 0.316196
0.670268 0.845224 0.317713
0.693934 0.846734 0.319238
