library/cube/400H_Soft_001.cube
# CINEGRADE LAB — Premium Cinematic LUT
# Title: 400H Soft
# Category: Fuji 400H Emulation
# Description: Pastel tones, green shadows, airy feel emulating Fuji Pro 400H
# Mood: Soft, pastel, delicate
# Variant: 2
# Generated: 2026-05-21T16:12:49.569290
TITLE "400H Soft"
LUT_3D_SIZE 5
0.150487 0.147858 0.166514
0.316612 0.157893 0.177023
0.497666 0.168899 0.188485
0.687847 0.180508 0.200538
0.836995 0.189546 0.210040
0.185715 0.338429 0.201947
0.351910 0.348456 0.212524
0.533057 0.359474 0.224057
0.723356 0.371118 0.236182
0.872632 0.380219 0.245749
0.224254 0.545967 0.240759
0.390556 0.556102 0.251406
0.571839 0.567252 0.263011
0.762300 0.579052 0.275209
0.911740 0.588336 0.284844
0.264899 0.764292 0.281738
0.431348 0.774668 0.292456
0.612808 0.786083 0.304134
0.803476 0.798175 0.316405
0.952731 0.807777 0.326107
0.297043 0.935428 0.314252
0.463676 0.945522 0.325034
0.645353 0.956449 0.336777
0.836268 0.967811 0.349116
0.983292 0.976670 0.358879
0.154037 0.151264 0.324788
0.320168 0.161307 0.335409
0.501229 0.172322 0.346983
0.691420 0.183941 0.359149
0.840579 0.192990 0.368761
0.189279 0.341829 0.360597
0.355483 0.351872 0.371286
0.536642 0.362907 0.382930
0.726956 0.374569 0.395166
0.876247 0.383689 0.404843
0.227835 0.549401 0.399783
0.394151 0.559560 0.410540
0.575449 0.570736 0.422255
0.765929 0.582562 0.434563
0.915387 0.591874 0.444306
0.268500 0.767804 0.441132
0.434966 0.778214 0.451959
0.616446 0.789663 0.463745
0.807137 0.801790 0.476125
0.956222 0.811428 0.485935
0.300665 0.938858 0.474010
0.467319 0.948943 0.484900
0.649020 0.959846 0.496750
0.839962 0.971168 0.509196
0.986636 0.979980 0.519065
0.157906 0.154993 0.497338
0.324043 0.165045 0.508081
0.505113 0.176069 0.519777
0.695314 0.187698 0.532064
0.844485 0.196759 0.541797
0.193164 0.345554 0.533556
0.359377 0.355614 0.544365
0.540549 0.366666 0.556130
0.730877 0.378346 0.568486
0.880183 0.387486 0.578282
0.231737 0.553163 0.573147
0.398066 0.563347 0.584023
0.579381 0.574548 0.595857
0.769880 0.586401 0.608284
0.919357 0.595740 0.618145
0.272421 0.771648 0.614897
0.438905 0.782091 0.625842
0.620405 0.793575 0.637746
0.811120 0.805737 0.650243
0.960002 0.815412 0.660169
0.304609 0.942585 0.648169
0.471283 0.952655 0.659175
0.653009 0.963526 0.671142
0.843980 0.974801 0.683704
0.990256 0.983560 0.693688
0.161972 0.158921 0.678636
0.328115 0.168981 0.689507
0.509192 0.180015 0.701330
0.699405 0.191654 0.713744
0.848588 0.200727 0.723604
0.197245 0.349481 0.715282
0.363468 0.359557 0.726217
0.544652 0.370627 0.738107
0.734996 0.382325 0.750589
0.884318 0.391484 0.760510
0.235835 0.557128 0.755296
0.402178 0.567338 0.766297
0.583510 0.578564 0.778256
0.774029 0.590444 0.790807
0.923525 0.599812 0.800791
0.276540 0.775698 0.797466
0.443041 0.786174 0.808534
0.624563 0.797693 0.820561
0.815301 0.809892 0.833181
0.963951 0.819603 0.843229
0.308749 0.946489 0.831150
0.475445 0.956538 0.842278
0.657196 0.967372 0.854367
0.848195 0.978593 0.867050
0.994034 0.987292 0.877155
0.164805 0.161608 0.804988
0.330954 0.171678 0.815949
0.512041 0.182722 0.827862
0.702264 0.194373 0.840366
0.851460 0.203459 0.850314
0.200093 0.352172 0.841935
0.366327 0.362266 0.852959
0.547524 0.373354 0.864938
0.737883 0.385071 0.877509
0.887221 0.394251 0.887518
0.238701 0.559863 0.882248
0.405058 0.570098 0.893323
0.586407 0.581352 0.905145
0.776946 0.593259 0.917454
0.926461 0.602655 0.927157
0.279425 0.778521 0.923948
0.445945 0.789032 0.934655
0.627487 0.800586 0.946176
0.818250 0.812820 0.958132
0.966716 0.822568 0.967476
0.311656 0.949236 0.956091
0.478374 0.959267 0.966449
0.660150 0.970068 0.977569
0.851178 0.981241 0.989074
0.996655 0.989887 0.997978
