library/cube/400H_Soft_001.cube
# CINEGRADE LAB — Premium Cinematic LUT
# Title: 400H Soft
# Category: Fuji 400H Emulation
# Description: Pastel tones, green shadows, airy feel emulating Fuji Pro 400H
# Mood: Soft, pastel, delicate
# Variant: 2
# Generated: 2026-05-21T16:12:49.569290
TITLE "400H Soft"
LUT_3D_SIZE 9
0.150487 0.147858 0.166514
0.230984 0.152710 0.171605
0.316612 0.157893 0.177023
0.405774 0.163307 0.182666
0.497666 0.168899 0.188485
0.591801 0.174640 0.194449
0.687847 0.180508 0.200538
0.785563 0.186488 0.206737
0.836995 0.189546 0.210040
0.167540 0.240241 0.183662
0.248051 0.245082 0.188770
0.333696 0.250258 0.194204
0.422876 0.255667 0.199865
0.514791 0.261257 0.205701
0.608951 0.266998 0.211683
0.705026 0.272870 0.217790
0.802773 0.278856 0.224007
0.854233 0.281926 0.227325
0.185715 0.338429 0.201947
0.266244 0.343274 0.207072
0.351910 0.348456 0.212524
0.441115 0.353872 0.218202
0.533057 0.359474 0.224057
0.627248 0.365229 0.230057
0.723356 0.371118 0.236182
0.821141 0.377124 0.242417
0.872632 0.380219 0.245749
0.204675 0.440626 0.221035
0.285227 0.445489 0.226177
0.370919 0.450691 0.231647
0.460153 0.456131 0.237343
0.552128 0.461759 0.243216
0.646356 0.467543 0.249234
0.742503 0.473464 0.255377
0.840331 0.479506 0.261630
0.891857 0.482641 0.264978
0.224254 0.545967 0.240759
0.304833 0.550864 0.245919
0.390556 0.556102 0.251406
0.479825 0.561582 0.257120
0.571839 0.567252 0.263011
0.666107 0.573082 0.269047
0.762300 0.579052 0.275209
0.860176 0.585145 0.281481
0.911740 0.588336 0.284844
0.244351 0.653958 0.261016
0.324962 0.658905 0.266194
0.410722 0.664197 0.271699
0.500031 0.669732 0.277431
0.592088 0.675462 0.283340
0.686403 0.681355 0.289395
0.782647 0.687390 0.295575
0.880577 0.693553 0.301865
0.932181 0.696816 0.305243
0.264899 0.764292 0.281738
0.345547 0.769306 0.286934
0.431348 0.774668 0.292456
0.520702 0.780277 0.298207
0.612808 0.786083 0.304134
0.707176 0.792056 0.310207
0.803476 0.798175 0.316405
0.901466 0.804424 0.322714
0.952731 0.807777 0.326107
0.285850 0.876768 0.302875
0.366541 0.881867 0.308087
0.452388 0.887317 0.313628
0.541792 0.893018 0.319396
0.633952 0.898919 0.325341
0.728378 0.904976 0.331433
0.824739 0.911163 0.337650
0.922795 0.917500 0.343977
0.972802 0.920966 0.347386
0.297043 0.935428 0.314252
0.377779 0.940326 0.319479
0.463676 0.945522 0.325034
0.553135 0.950914 0.330817
0.645353 0.956449 0.336777
0.739841 0.962090 0.342884
0.836268 0.967811 0.349116
0.934393 0.973592 0.355458
0.983292 0.976670 0.358879
0.152207 0.149505 0.243200
0.232705 0.154359 0.248319
0.318335 0.159544 0.253763
0.407498 0.164960 0.259433
0.499393 0.170555 0.265280
0.593530 0.176298 0.271271
0.689578 0.182169 0.277388
0.787297 0.188152 0.283613
0.838732 0.191213 0.286943
0.169264 0.241884 0.260439
0.249776 0.246729 0.265575
0.335423 0.251908 0.271036
0.424605 0.257319 0.276724
0.516523 0.262913 0.282588
0.610686 0.268658 0.288597
0.706763 0.274533 0.294731
0.804515 0.280523 0.300974
0.855978 0.283596 0.304319
0.187442 0.340073 0.278816
0.267973 0.344922 0.283968
0.353641 0.350108 0.289447
0.442849 0.355529 0.295152
0.534795 0.361135 0.301033
0.628989 0.366894 0.307061
0.725101 0.372787 0.313212
0.822890 0.378798 0.319474
0.874385 0.381898 0.322833
0.206406 0.442275 0.297995
0.286960 0.447143 0.303164
0.372656 0.452351 0.308660
0.461893 0.457796 0.314383
0.553872 0.463429 0.320283
0.648103 0.469219 0.326328
0.744255 0.475146 0.332498
0.842087 0.481193 0.338778
0.893617 0.484334 0.342152
0.225989 0.547628 0.317809
0.306572 0.552530 0.322996
0.392299 0.557775 0.328510
0.481571 0.563261 0.334250
0.573589 0.568938 0.340168
0.667862 0.574774 0.346231
0.764060 0.580750 0.352419
0.861941 0.586851 0.358718
0.913508 0.590049 0.362107
0.246091 0.655636 0.338157
0.326706 0.660590 0.343361
0.412470 0.665889 0.348892
0.501783 0.671432 0.354651
0.593844 0.677169 0.360586
0.688165 0.683069 0.366668
0.784414 0.689112 0.372874
0.882350 0.695283 0.379191
0.933959 0.698554 0.382595
0.266644 0.765992 0.358968
0.347297 0.771014 0.364190
0.433102 0.776384 0.369739
0.522461 0.782002 0.375516
0.614572 0.787817 0.381469
0.708945 0.793798 0.387569
0.805251 0.799926 0.393794
0.903247 0.806184 0.400128
0.954426 0.809546 0.403548
0.287601 0.878497 0.380194
0.368296 0.883605 0.385432
0.454148 0.889064 0.390999
0.543557 0.894775 0.396794
0.635723 0.900685 0.402765
0.730155 0.906741 0.408883
0.826523 0.912943 0.415126
0.924585 0.919295 0.421480
0.974458 0.922773 0.424914
0.298799 0.937092 0.391658
0.379540 0.941989 0.396911
0.465443 0.947182 0.402493
0.554907 0.952570 0.408302
0.647131 0.958098 0.414288
0.741626 0.963730 0.420421
0.838060 0.969441 0.426679
0.936193 0.975209 0.433047
0.984915 0.978277 0.436493
0.154037 0.151264 0.324788
0.234536 0.156119 0.329935
0.320168 0.161307 0.335409
0.409332 0.166725 0.341108
0.501229 0.172322 0.346983
0.595369 0.178067 0.353004
0.691420 0.183941 0.359149
0.789142 0.189926 0.365403
0.840579 0.192990 0.368761
0.171097 0.243639 0.342124
0.251611 0.248487 0.347288
0.337260 0.253669 0.352779
0.426445 0.259084 0.358495
0.518365 0.264680 0.364387
0.612531 0.270428 0.370425
0.708612 0.276307 0.376588
0.806366 0.282301 0.382860
0.857832 0.285378 0.386233
0.189279 0.341829 0.360597
0.269812 0.346682 0.365778
0.355483 0.351872 0.371286
0.444694 0.357297 0.377019
0.536642 0.362907 0.382930
0.630840 0.368671 0.388985
0.726956 0.374569 0.395166
0.824749 0.380584 0.401456
0.876247 0.383689 0.404843
0.208248 0.444037 0.379873
0.288804 0.448910 0.385071
0.374503 0.454122 0.390595
0.463743 0.459573 0.396347
0.555726 0.465212 0.402275
0.649961 0.471007 0.408348
0.746117 0.476939 0.414546
0.843954 0.482992 0.420855
0.895488 0.486139 0.424257
0.227835 0.549401 0.399783
0.308421 0.554310 0.404998
0.394151 0.559560 0.410540
0.483427 0.565053 0.416309
0.575449 0.570736 0.422255
0.669727 0.576579 0.428346
0.765929 0.582562 0.434563
0.863816 0.588669 0.440889
0.915387 0.591874 0.444306
0.247942 0.657426 0.420226
0.328560 0.662387 0.425458
0.414328 0.667693 0.431018
0.503645 0.673243 0.436805
0.595711 0.678988 0.442768
0.690037 0.684896 0.448878
0.786291 0.690947 0.455112
0.884233 0.697125 0.461457
0.935846 0.700404 0.464889
0.268500 0.767804 0.441132
0.349156 0.772835 0.446382
0.434966 0.778214 0.451959
0.524330 0.783840 0.457764
0.616446 0.789663 0.463745
0.710825 0.795654 0.469873
0.807137 0.801790 0.476125
0.905139 0.808058 0.482488
0.956222 0.811428 0.485935
0.289461 0.880338 0.462452
0.370161 0.885456 0.467719
0.456018 0.890925 0.473314
0.545433 0.896645 0.479136
0.637604 0.902565 0.485135
0.732043 0.908621 0.491281
0.828417 0.914838 0.497552
0.926486 0.921205 0.503933
0.976214 0.924695 0.507394
0.300665 0.938858 0.474010
0.381411 0.943754 0.479291
0.467319 0.948943 0.484900
0.556789 0.954325 0.490736
0.649020 0.959846 0.496750
0.743521 0.965469 0.502910
0.839962 0.971168 0.509196
0.938103 0.976923 0.515592
0.986636 0.979980 0.519065
0.155942 0.153098 0.409755
0.236443 0.157956 0.414933
0.322076 0.163146 0.420436
0.411243 0.168566 0.426165
0.503141 0.174165 0.432070
0.597284 0.179913 0.438121
0.693337 0.185789 0.444296
0.791062 0.191778 0.450580
0.842503 0.194845 0.453968
0.173006 0.245470 0.427192
0.253522 0.250321 0.432386
0.339173 0.255507 0.437907
0.428360 0.260925 0.443653
0.520283 0.266525 0.449575
0.614452 0.272276 0.455643
0.710536 0.278158 0.461835
0.808294 0.284156 0.468137
0.859763 0.287237 0.471539
0.191192 0.343662 0.445766
0.271728 0.348519 0.450977
0.357401 0.353713 0.456514
0.446614 0.359142 0.462277
0.538566 0.364757 0.468217
0.632767 0.370525 0.474302
0.728887 0.376427 0.480512
0.826684 0.382448 0.486832
0.878186 0.385557 0.490248
0.210165 0.445876 0.465141
0.290724 0.450754 0.470369
0.376425 0.455972 0.475923
0.465670 0.461428 0.481704
0.557656 0.467072 0.487661
0.651895 0.472873 0.493764
0.748056 0.478810 0.499992
0.845898 0.484869 0.506330
0.897434 0.488022 0.509761
0.229757 0.551252 0.485151
0.310345 0.556166 0.490396
0.396079 0.561424 0.495967
0.485360 0.566922 0.501766
0.577386 0.572612 0.507741
0.671668 0.578461 0.513861
0.767875 0.584451 0.520107
0.865767 0.590565 0.526463
0.917343 0.593777 0.529909
0.249868 0.659294 0.505693
0.330490 0.664262 0.510955
0.416262 0.669575 0.516544
0.505584 0.675133 0.522360
0.597655 0.680885 0.528352
0.691986 0.686801 0.534491
0.788245 0.692860 0.540755
0.886193 0.699046 0.547128
0.937811 0.702333 0.550589
0.270431 0.769696 0.526698
0.351092 0.774734 0.531977
0.436906 0.780121 0.537583
0.526275 0.785756 0.543417
0.618396 0.791588 0.549427
0.712781 0.797587 0.555584
0.809099 0.803733 0.561865
0.907108 0.810009 0.568257
0.958086 0.813389 0.571732
0.291398 0.882259 0.548116
0.372102 0.887386 0.553412
0.457964 0.892864 0.559036
0.547385 0.898594 0.564887
0.639562 0.904513 0.570915
0.734007 0.910581 0.577089
0.830387 0.916814 0.583389
0.928464 0.923194 0.589798
0.978036 0.926696 0.593288
0.302607 0.940694 0.559770
0.383358 0.945588 0.565080
0.469272 0.950773 0.570717
0.558748 0.956149 0.576583
0.650985 0.961661 0.582625
0.745493 0.967273 0.588814
0.841941 0.972960 0.595129
0.940089 0.978701 0.601553
0.988421 0.981746 0.605054
0.157906 0.154993 0.497338
0.238409 0.159853 0.502547
0.324043 0.165045 0.508081
0.413212 0.170467 0.513841
0.505113 0.176069 0.519777
0.599257 0.181819 0.525858
0.695314 0.187698 0.532064
0.793042 0.193689 0.538379
0.844485 0.196759 0.541797
0.174974 0.247362 0.514879
0.255492 0.252216 0.520104
0.341144 0.257404 0.525655
0.430334 0.262825 0.531432
0.522259 0.268429 0.537385
0.616432 0.274184 0.543483
0.712519 0.280069 0.549706
0.810281 0.286070 0.556039
0.861753 0.289156 0.559471
0.193164 0.345554 0.533556
0.273701 0.350416 0.538798
0.359377 0.355614 0.544365
0.448594 0.361047 0.550159
0.540549 0.366666 0.556130
0.634754 0.372439 0.562245
0.730877 0.378346 0.568486
0.828679 0.384371 0.574836
0.880183 0.387486 0.578282
0.212141 0.447776 0.553034
0.292703 0.452659 0.558292
0.378407 0.457881 0.563877
0.467655 0.463343 0.569689
0.559645 0.468992 0.575676
0.653888 0.474798 0.581809
0.750053 0.480742 0.588068
0.847900 0.486806 0.594435
0.899440 0.489965 0.597896
0.231737 0.553163 0.573147
0.312329 0.558084 0.578421
0.398066 0.563347 0.584023
0.487351 0.568852 0.589852
0.579381 0.574548 0.595857
0.673668 0.580404 0.602008
0.769880 0.586401 0.608284
0.867778 0.592522 0.614669
0.919357 0.595740 0.618145
0.251853 0.661223 0.593791
0.332479 0.666198 0.599082
0.418255 0.671519 0.604701
0.507581 0.677084 0.610547
0.599657 0.682844 0.616570
0.693993 0.688767 0.622739
0.790258 0.694834 0.629032
0.888212 0.701028 0.635436
0.939834 0.704323 0.638926
0.272421 0.771648 0.614897
0.353086 0.776695 0.620206
0.438905 0.782091 0.625842
0.528279 0.787734 0.631705
0.620405 0.793575 0.637746
0.714796 0.799583 0.643932
0.811120 0.805737 0.650243
0.909136 0.812023 0.656665
0.960002 0.815412 0.660169
0.293394 0.884241 0.636416
0.374103 0.889377 0.641741
0.459970 0.894865 0.647395
0.549396 0.900604 0.653275
0.641579 0.906521 0.659333
0.736030 0.912604 0.665537
0.832417 0.918852 0.671866
0.930501 0.925246 0.678306
0.979908 0.928760 0.681825
0.304609 0.942585 0.648169
0.385364 0.947475 0.653508
0.471283 0.952655 0.659175
0.560766 0.958024 0.665070
0.653009 0.963526 0.671142
0.747524 0.969128 0.677361
0.843980 0.974801 0.683704
0.942135 0.980526 0.690158
0.990256 0.983560 0.693688
0.159919 0.156936 0.587071
0.240422 0.161798 0.592311
0.326058 0.166992 0.597877
0.415229 0.172417 0.603669
0.507132 0.178021 0.609636
0.601279 0.183774 0.615749
0.697338 0.189655 0.621986
0.795070 0.195649 0.628333
0.846516 0.198722 0.631782
0.176990 0.249302 0.604718
0.257509 0.254159 0.609974
0.343164 0.259351 0.615557
0.432356 0.264775 0.621365
0.524284 0.270382 0.627349
0.618460 0.276140 0.633479
0.714550 0.282030 0.639733
0.812316 0.288034 0.646097
0.863792 0.291124 0.649560
0.195184 0.347497 0.623501
0.275724 0.352362 0.628773
0.361402 0.357564 0.634372
0.450621 0.363002 0.640197
0.542580 0.368625 0.646199
0.636788 0.374403 0.652346
0.732916 0.380314 0.658617
0.830721 0.386344 0.664999
0.882230 0.389464 0.668476
0.214165 0.449725 0.643084
0.294730 0.454613 0.648373
0.380437 0.459841 0.653989
0.469688 0.465307 0.659831
0.561682 0.470962 0.665850
0.655929 0.476774 0.672014
0.752099 0.482723 0.678303
0.849951 0.488794 0.684702
0.901495 0.491958 0.688193
0.233766 0.555124 0.663301
0.314361 0.560051 0.668607
0.400102 0.565321 0.674239
0.489390 0.570832 0.680099
0.581425 0.576535 0.686135
0.675716 0.582398 0.692317
0.771934 0.588401 0.698623
0.869837 0.594529 0.705040
0.921420 0.597754 0.708545
0.253886 0.663202 0.684049
0.334516 0.668185 0.689371
0.420296 0.673513 0.695021
0.509627 0.679086 0.700898
0.601707 0.684853 0.706951
0.696049 0.690784 0.713150
0.792320 0.696858 0.719475
0.890280 0.703061 0.725909
0.941906 0.706364 0.729429
0.274460 0.773651 0.705259
0.355129 0.778707 0.710598
0.440952 0.784111 0.716265
0.530331 0.789763 0.722159
0.622463 0.795612 0.728230
0.716860 0.801629 0.734446
0.813190 0.807792 0.740788
0.911212 0.814087 0.747240
0.961959 0.817485 0.750775
0.295438 0.886274 0.726881
0.376152 0.891420 0.732237
0.462024 0.896917 0.737920
0.551455 0.902666 0.743832
0.643644 0.908582 0.749920
0.738102 0.914681 0.756154
0.834496 0.920943 0.762513
0.932587 0.927351 0.768983
0.981820 0.930839 0.772532
0.306658 0.944518 0.738735
0.387419 0.949405 0.744105
0.473344 0.954579 0.749802
0.562832 0.959940 0.755727
0.655082 0.965432 0.761829
0.749604 0.971022 0.768078
0.846067 0.976681 0.774452
0.944230 0.982390 0.780935
0.992129 0.985411 0.784495
0.161972 0.158921 0.678636
0.242477 0.163785 0.683909
0.328115 0.168981 0.689507
0.417287 0.174408 0.695331
0.509192 0.180015 0.701330
0.603342 0.185770 0.707475
0.699405 0.191654 0.713744
0.797139 0.197650 0.720123
0.848588 0.200727 0.723604
0.179047 0.251284 0.696392
0.259568 0.256145 0.701680
0.345225 0.261339 0.707294
0.434420 0.266767 0.713135
0.526351 0.272377 0.719151
0.620529 0.278139 0.725312
0.716623 0.284032 0.731599
0.814393 0.290041 0.737994
0.865871 0.293135 0.741489
0.197245 0.349481 0.715282
0.277787 0.354350 0.720586
0.363468 0.359557 0.726217
0.452690 0.364999 0.732074
0.544652 0.370627 0.738107
0.638864 0.376409 0.744286
0.734996 0.382325 0.750589
0.832806 0.388359 0.757002
0.884318 0.391484 0.760510
0.216230 0.451716 0.734972
0.296798 0.456610 0.740293
0.382508 0.461843 0.745941
0.471763 0.467315 0.751815
0.563760 0.472975 0.757865
0.658012 0.478792 0.764061
0.754186 0.484747 0.770381
0.852043 0.490824 0.776811
0.903591 0.493994 0.780334
0.235835 0.557128 0.755296
0.316434 0.562062 0.760633
0.402178 0.567338 0.766297
0.491471 0.572855 0.772188
0.583510 0.578564 0.778256
0.677806 0.584434 0.784469
0.774029 0.590444 0.790807
0.871937 0.596579 0.797254
0.923525 0.599812 0.800791
0.255961 0.665225 0.776150
0.336595 0.670215 0.781504
0.422378 0.675550 0.787185
0.511714 0.681130 0.793093
0.603800 0.686905 0.799177
0.698146 0.692844 0.805408
0.794423 0.698927 0.811763
0.892389 0.705137 0.818228
0.944020 0.708448 0.821779
0.276540 0.775698 0.797466
0.357213 0.780762 0.802836
0.443041 0.786174 0.808534
0.532425 0.791835 0.814459
0.624563 0.797693 0.820561
0.718965 0.803719 0.826808
0.815301 0.809892 0.833181
0.913330 0.816196 0.839664
0.963951 0.819603 0.843229
0.297523 0.888351 0.819192
0.378242 0.893506 0.824579
0.464119 0.899014 0.830294
0.553556 0.904760 0.836236
0.645751 0.910688 0.842355
0.740215 0.916802 0.848620
0.836616 0.923079 0.855010
0.934714 0.929500 0.861510
0.983766 0.932828 0.865090
0.308749 0.946489 0.831150
0.389515 0.951371 0.836550
0.475445 0.956538 0.842278
0.564940 0.961890 0.848234
0.657196 0.967372 0.854367
0.751725 0.972948 0.860646
0.848195 0.978593 0.867050
0.946366 0.984285 0.873565
0.994034 0.987292 0.877155
0.164061 0.160942 0.771805
0.244567 0.165808 0.777110
0.330207 0.171007 0.782740
0.419381 0.176436 0.788597
0.511289 0.182045 0.794629
0.605441 0.187803 0.800807
0.701507 0.193689 0.807109
0.799245 0.199689 0.813520
0.850696 0.202769 0.817033
0.181140 0.253303 0.789670
0.261663 0.258167 0.794991
0.347322 0.263365 0.800637
0.436519 0.268796 0.806510
0.528453 0.274409 0.812559
0.622635 0.280175 0.818753
0.718732 0.286071 0.825071
0.816506 0.292084 0.831499
0.867988 0.295182 0.835026
0.199341 0.351502 0.808669
0.279886 0.356376 0.814006
0.365570 0.361587 0.819669
0.454795 0.367033 0.825559
0.546760 0.372665 0.831624
0.640976 0.378452 0.837835
0.737112 0.384372 0.844170
0.834926 0.390412 0.850615
0.886442 0.393542 0.854155
0.218331 0.453745 0.828469
0.298901 0.458644 0.833822
0.384615 0.463882 0.839501
0.473873 0.469359 0.845407
0.565875 0.475025 0.851489
0.660131 0.480848 0.857717
0.756310 0.486809 0.864070
0.854171 0.492891 0.870532
0.905724 0.496068 0.874086
0.237941 0.559170 0.848900
0.318543 0.564110 0.854269
0.404291 0.569392 0.859966
0.493588 0.574916 0.865889
0.585631 0.580632 0.871988
0.679932 0.586508 0.878233
0.776160 0.592525 0.884603
0.874074 0.598667 0.891082
0.925666 0.601907 0.894621
0.258072 0.667285 0.869862
0.338709 0.672282 0.875248
0.424497 0.677625 0.880960
0.513837 0.683213 0.886900
0.605928 0.688996 0.893017
0.700280 0.694943 0.899124
0.796562 0.701033 0.905317
0.894534 0.707252 0.911586
0.946107 0.710571 0.915009
0.278656 0.777783 0.891285
0.359333 0.782855 0.896604
0.445166 0.788277 0.902172
0.534555 0.793946 0.907934
0.626698 0.799813 0.913839
0.721107 0.805848 0.919855
0.817449 0.812029 0.925958
0.915485 0.818343 0.932131
0.965972 0.821759 0.935476
0.299645 0.890467 0.912521
0.380368 0.895632 0.917718
0.466250 0.901149 0.923204
0.555693 0.906892 0.928877
0.647894 0.912836 0.934686
0.742365 0.918965 0.940599
0.838773 0.925255 0.946593
0.936878 0.931578 0.952651
0.985739 0.934846 0.955900
0.310876 0.948491 0.923973
0.391647 0.953368 0.929101
0.477583 0.958528 0.934511
0.567084 0.963870 0.940102
0.659347 0.969340 0.945824
0.753883 0.974903 0.951643
0.850360 0.980532 0.957538
0.948389 0.986206 0.963491
0.995966 0.989198 0.966660
0.164805 0.161608 0.804988
0.245313 0.166477 0.810306
0.330954 0.171678 0.815949
0.420131 0.177110 0.821818
0.512041 0.182722 0.827862
0.606196 0.188483 0.834052
0.702264 0.194373 0.840366
0.800005 0.200375 0.846789
0.851460 0.203459 0.850314
0.181888 0.253969 0.822895
0.262413 0.258836 0.828228
0.348074 0.264038 0.833887
0.437274 0.269473 0.839772
0.529211 0.275090 0.845833
0.623395 0.280860 0.852039
0.719497 0.286760 0.858370
0.817274 0.292777 0.864810
0.868759 0.295879 0.868348
0.200093 0.352172 0.841935
0.280640 0.357051 0.847284
0.366327 0.362266 0.852959
0.455555 0.367717 0.858861
0.547524 0.373354 0.864938
0.641743 0.379145 0.871161
0.737883 0.385071 0.877509
0.835702 0.391116 0.883966
0.887221 0.394251 0.887518
0.219087 0.454424 0.861776
0.299660 0.459328 0.867140
0.385377 0.464572 0.872832
0.474639 0.470055 0.878750
0.566645 0.475727 0.884845
0.660905 0.481556 0.891085
0.757088 0.487522 0.897368
0.854955 0.493611 0.903719
0.906510 0.496794 0.907196
0.238701 0.559863 0.882248
0.319306 0.564810 0.887629
0.405058 0.570098 0.893323
0.494359 0.575629 0.899158
0.586407 0.581352 0.905145
0.680713 0.587235 0.911251
0.776946 0.593259 0.917454
0.874865 0.599408 0.923737
0.926461 0.602655 0.927157
0.258837 0.667998 0.903062
0.339478 0.673003 0.908338
0.425270 0.678353 0.913913
0.514615 0.683949 0.919685
0.606710 0.689739 0.925603
0.701068 0.695694 0.931634
0.797356 0.701792 0.937755
0.895334 0.708019 0.943950
0.946876 0.711347 0.947297
0.279425 0.778521 0.923948
0.360107 0.783602 0.929156
0.445945 0.789032 0.934655
0.535339 0.794710 0.940346
0.627487 0.800586 0.946176
0.721902 0.806629 0.952112
0.818250 0.812820 0.958132
0.916293 0.819143 0.964219
0.966716 0.822568 0.967476
0.300420 0.891236 0.944904
0.381147 0.896410 0.950025
0.467035 0.901937 0.955430
0.556483 0.907687 0.961020
0.648691 0.913644 0.966742
0.743167 0.919786 0.972564
0.839582 0.926089 0.978463
0.937694 0.932361 0.984423
0.986452 0.935628 0.987574
0.311656 0.949236 0.956091
0.392432 0.954111 0.961131
0.478374 0.959267 0.966449
0.567880 0.964604 0.971946
0.660150 0.970068 0.977569
0.754693 0.975622 0.983286
0.851178 0.981241 0.989074
0.949153 0.986903 0.994918
0.996655 0.989887 0.997978
