library/cube/800T_Tungsten_000.cube
# CINEGRADE LAB — Premium Cinematic LUT
# Title: 800T Tungsten
# Category: CineStill 800T Emulation
# Description: Tungsten balance, halation glow, night film characteristics
# Mood: Nocturnal, glowing, cinematic
# Variant: 1
# Generated: 2026-05-21T16:12:53.385234
TITLE "800T Tungsten"
LUT_3D_SIZE 5
0.072087 0.061253 0.048477
0.284231 0.067287 0.054000
0.507072 0.073621 0.059849
0.735857 0.080123 0.065890
0.901056 0.084835 0.070166
0.091745 0.277072 0.066222
0.305290 0.283335 0.071885
0.529663 0.289899 0.077878
0.759790 0.296623 0.084058
0.924357 0.301499 0.088415
0.112919 0.504226 0.085272
0.328173 0.510700 0.091081
0.554574 0.517485 0.097230
0.786029 0.524412 0.103545
0.947618 0.529374 0.107918
0.135764 0.737782 0.105202
0.353336 0.744478 0.111175
0.582574 0.751506 0.117501
0.815288 0.758639 0.123952
0.970405 0.763598 0.128242
0.158896 0.955497 0.124052
0.379658 0.962063 0.130180
0.612817 0.968938 0.136679
0.846616 0.975791 0.143217
0.990579 0.980074 0.147246
0.073715 0.062857 0.210748
0.285991 0.068893 0.216087
0.508969 0.075229 0.221764
0.737886 0.081733 0.227644
0.903091 0.086445 0.231765
0.093397 0.278736 0.227913
0.307092 0.285001 0.233430
0.531639 0.291567 0.239288
0.761899 0.298292 0.245342
0.926288 0.303163 0.249577
0.114656 0.505943 0.246507
0.330109 0.512420 0.252208
0.556751 0.519211 0.258260
0.788335 0.526141 0.264487
0.949446 0.531090 0.268766
0.137646 0.739552 0.266106
0.355495 0.746256 0.272009
0.585075 0.753295 0.278279
0.817908 0.760434 0.284678
0.972132 0.765372 0.288899
0.160974 0.957200 0.284738
0.382121 0.963763 0.290835
0.615749 0.970637 0.297316
0.849650 0.977480 0.303838
0.992187 0.981710 0.307818
0.075415 0.064534 0.380463
0.287823 0.070571 0.385617
0.510942 0.076910 0.391120
0.739990 0.083416 0.396838
0.905188 0.088127 0.400805
0.095127 0.280472 0.397045
0.308977 0.286738 0.402415
0.533702 0.293307 0.408139
0.764095 0.300035 0.414070
0.928281 0.304899 0.418183
0.116477 0.507732 0.415185
0.332135 0.514213 0.420780
0.559028 0.521010 0.426739
0.790740 0.527944 0.432881
0.951336 0.532880 0.437067
0.139619 0.741395 0.434462
0.357755 0.748107 0.440300
0.587689 0.755158 0.446518
0.820639 0.762305 0.452869
0.973921 0.767221 0.457024
0.163149 0.958972 0.452891
0.384692 0.965532 0.458963
0.618806 0.972406 0.465432
0.852806 0.979238 0.471942
0.993858 0.983413 0.475878
0.077152 0.066248 0.553987
0.289694 0.072286 0.558959
0.512955 0.078627 0.564293
0.742135 0.085137 0.569853
0.907312 0.089847 0.573668
0.096901 0.282245 0.569998
0.310908 0.288513 0.575227
0.535819 0.295085 0.580821
0.766345 0.301815 0.586633
0.930302 0.306673 0.590628
0.118348 0.509559 0.587700
0.334218 0.516044 0.593194
0.561370 0.522847 0.599064
0.793210 0.529785 0.605126
0.953253 0.534707 0.609225
0.141649 0.743277 0.606672
0.360081 0.749998 0.612450
0.590380 0.757062 0.618623
0.823447 0.764216 0.624933
0.975737 0.769109 0.629028
0.165385 0.960778 0.624918
0.387338 0.967335 0.630971
0.621953 0.974210 0.637437
0.856050 0.981031 0.643943
0.995556 0.985150 0.647841
0.078778 0.067848 0.715909
0.291455 0.073889 0.720721
0.514860 0.080233 0.725905
0.744173 0.086746 0.731325
0.909313 0.091455 0.735008
0.098570 0.283906 0.731417
0.312739 0.290175 0.736522
0.537841 0.296751 0.742004
0.768498 0.303485 0.747714
0.932199 0.308336 0.751607
0.120120 0.511274 0.748739
0.336210 0.517763 0.754148
0.563631 0.524574 0.759946
0.795597 0.531517 0.765942
0.955049 0.536425 0.769965
0.143585 0.745048 0.767456
0.362325 0.751780 0.773189
0.593002 0.758857 0.779329
0.826184 0.766018 0.785610
0.977432 0.770889 0.789654
0.167536 0.962469 0.785561
0.389911 0.969024 0.791607
0.625041 0.975900 0.798078
0.859234 0.982711 0.804590
0.997132 0.986772 0.808455
