library/cube/800T_Tungsten_000.cube
# CINEGRADE LAB — Premium Cinematic LUT
# Title: 800T Tungsten
# Category: CineStill 800T Emulation
# Description: Tungsten balance, halation glow, night film characteristics
# Mood: Nocturnal, glowing, cinematic
# Variant: 1
# Generated: 2026-05-21T16:12:53.385234
TITLE "800T Tungsten"
LUT_3D_SIZE 9
0.072087 0.061253 0.048477
0.176150 0.064214 0.051178
0.284231 0.067287 0.054000
0.394747 0.070429 0.056896
0.507072 0.073621 0.059849
0.620861 0.076855 0.062849
0.735857 0.080123 0.065890
0.851795 0.083418 0.068964
0.901056 0.084835 0.070166
0.081701 0.167051 0.057126
0.186099 0.170071 0.059862
0.294526 0.173204 0.062718
0.405398 0.176404 0.065650
0.518091 0.179655 0.068638
0.632265 0.182947 0.071675
0.747546 0.186271 0.074749
0.863482 0.189612 0.077848
0.912650 0.191073 0.079072
0.091745 0.277072 0.066222
0.196492 0.280147 0.068994
0.305290 0.283335 0.071885
0.416554 0.286592 0.074852
0.529663 0.289899 0.077878
0.644283 0.293249 0.080952
0.759790 0.296623 0.084058
0.875425 0.300000 0.087173
0.924357 0.301499 0.088415
0.102146 0.389683 0.075623
0.207276 0.392811 0.078430
0.316488 0.396053 0.081358
0.428199 0.399363 0.084362
0.541793 0.402726 0.087426
0.656938 0.406133 0.090540
0.772589 0.409553 0.093674
0.887523 0.412953 0.096795
0.936032 0.414482 0.098050
0.112919 0.504226 0.085272
0.218483 0.507406 0.088115
0.328173 0.510700 0.091081
0.440408 0.514066 0.094125
0.554574 0.517485 0.097230
0.670344 0.520950 0.100386
0.786029 0.524412 0.103545
0.899761 0.527821 0.106657
0.947618 0.529374 0.107918
0.124107 0.620336 0.095137
0.230174 0.623568 0.098020
0.340425 0.626918 0.101026
0.453279 0.630340 0.104112
0.568124 0.633819 0.107260
0.684640 0.637346 0.110462
0.800221 0.640848 0.113643
0.912149 0.644248 0.116728
0.959082 0.645820 0.117989
0.135764 0.737782 0.105202
0.242422 0.741070 0.108125
0.353336 0.744478 0.111175
0.466922 0.747962 0.114306
0.582574 0.751506 0.117501
0.699976 0.755101 0.120753
0.815288 0.758639 0.123952
0.924709 0.762015 0.126992
0.970405 0.763598 0.128242
0.147949 0.856409 0.115453
0.255305 0.859758 0.118421
0.367002 0.863230 0.121517
0.481455 0.866783 0.124697
0.598061 0.870399 0.127945
0.716508 0.874070 0.131251
0.831360 0.877644 0.134462
0.937472 0.880976 0.137434
0.981575 0.882566 0.138666
0.158896 0.955497 0.124052
0.267058 0.958722 0.127051
0.379658 0.962063 0.130180
0.495112 0.965474 0.133395
0.612817 0.968938 0.136679
0.732465 0.972447 0.140023
0.846616 0.975791 0.143217
0.948492 0.978780 0.146071
0.990579 0.980074 0.147246
0.072887 0.062041 0.128164
0.176982 0.065002 0.130820
0.285097 0.068076 0.133596
0.395647 0.071218 0.136449
0.508006 0.074411 0.139360
0.621831 0.077646 0.142320
0.736857 0.080914 0.145321
0.852805 0.084209 0.148356
0.902061 0.085626 0.149520
0.082503 0.167855 0.136662
0.186935 0.170875 0.139357
0.295396 0.174008 0.142173
0.406305 0.177208 0.145065
0.519036 0.180460 0.148016
0.633252 0.183753 0.151017
0.748558 0.187077 0.154056
0.864478 0.190418 0.157120
0.913629 0.191878 0.158310
0.092556 0.277890 0.145622
0.197340 0.280965 0.148356
0.306176 0.284154 0.151212
0.417481 0.287411 0.154145
0.530635 0.290719 0.157138
0.645303 0.294069 0.160181
0.760829 0.297443 0.163256
0.876412 0.300819 0.166340
0.925310 0.302317 0.167552
0.102974 0.390514 0.154902
0.208144 0.393643 0.157676
0.317401 0.396885 0.160573
0.429161 0.400196 0.163548
0.542807 0.403560 0.166584
0.658010 0.406968 0.169671
0.773669 0.410388 0.172779
0.888506 0.413785 0.175871
0.936959 0.415313 0.177101
0.113772 0.505070 0.164445
0.219382 0.508251 0.167261
0.329125 0.511546 0.170200
0.441417 0.514913 0.173220
0.555645 0.518334 0.176301
0.671484 0.521800 0.179435
0.787165 0.525263 0.182572
0.900743 0.528667 0.185658
0.948519 0.530218 0.186898
0.124992 0.621193 0.174220
0.231114 0.624427 0.177079
0.341427 0.627777 0.180064
0.454348 0.631202 0.183130
0.569268 0.634683 0.186260
0.685866 0.638212 0.189445
0.801427 0.641714 0.192608
0.913135 0.645108 0.195671
0.959958 0.646677 0.196913
0.136689 0.738653 0.184210
0.243412 0.741942 0.187115
0.354398 0.745353 0.190148
0.468065 0.748839 0.193264
0.583806 0.752386 0.196446
0.701305 0.755984 0.199685
0.816579 0.759522 0.202870
0.925704 0.762890 0.205889
0.971256 0.764471 0.207126
0.148922 0.857295 0.194401
0.256354 0.860646 0.197356
0.368137 0.864121 0.200440
0.482685 0.867677 0.203611
0.599396 0.871297 0.206850
0.717958 0.874972 0.210149
0.832751 0.878546 0.213350
0.938480 0.881869 0.216303
0.982401 0.883456 0.217523
0.159918 0.956335 0.202950
0.268170 0.959560 0.205940
0.380871 0.962899 0.209062
0.496435 0.966310 0.212272
0.614263 0.969774 0.215552
0.734045 0.973283 0.218893
0.848113 0.976622 0.222081
0.949509 0.979594 0.224918
0.991370 0.980879 0.226085
0.073715 0.062857 0.210748
0.177843 0.065819 0.213356
0.285991 0.068893 0.216087
0.396575 0.072036 0.218895
0.508969 0.075229 0.221764
0.622831 0.078464 0.224682
0.737886 0.081733 0.227644
0.853841 0.085028 0.230639
0.903091 0.086445 0.231765
0.083334 0.168686 0.219091
0.187799 0.171707 0.221744
0.296296 0.174840 0.224519
0.407242 0.178041 0.227372
0.520012 0.181293 0.230285
0.634270 0.184587 0.233249
0.749600 0.187911 0.236253
0.865501 0.191251 0.239281
0.914633 0.192711 0.240437
0.093397 0.278736 0.227913
0.198217 0.281812 0.230610
0.307092 0.285001 0.233430
0.418440 0.288258 0.236328
0.531639 0.291567 0.239288
0.646356 0.294918 0.242299
0.761899 0.298292 0.245342
0.877427 0.301666 0.248394
0.926288 0.303163 0.249577
0.103832 0.391374 0.237070
0.209044 0.394503 0.239812
0.318346 0.397745 0.242678
0.430155 0.401058 0.245623
0.543854 0.404423 0.248630
0.659116 0.407831 0.251691
0.774782 0.411252 0.254772
0.889516 0.414646 0.257835
0.937912 0.416172 0.259039
0.114656 0.505943 0.246507
0.220314 0.509124 0.249294
0.330109 0.512420 0.252208
0.442459 0.515788 0.255202
0.556751 0.519211 0.258260
0.672661 0.522679 0.261372
0.788335 0.526141 0.264487
0.901753 0.529541 0.267548
0.949446 0.531090 0.268766
0.125909 0.622079 0.256191
0.232087 0.625313 0.259027
0.342462 0.628666 0.261991
0.455452 0.632092 0.265037
0.570448 0.635575 0.268148
0.687130 0.639107 0.271316
0.802669 0.642608 0.274461
0.914150 0.645997 0.277501
0.960859 0.647563 0.278725
0.137646 0.739552 0.266106
0.244435 0.742843 0.268993
0.355495 0.746256 0.272009
0.469244 0.749745 0.275110
0.585075 0.753295 0.278279
0.702674 0.756896 0.281507
0.817908 0.760434 0.284678
0.926728 0.763795 0.287677
0.972132 0.765372 0.288899
0.149928 0.858208 0.276238
0.257438 0.861562 0.279180
0.369308 0.865041 0.282253
0.483953 0.868600 0.285413
0.600770 0.872224 0.288644
0.719448 0.875904 0.291937
0.834181 0.879477 0.295128
0.939518 0.882791 0.298064
0.983252 0.884374 0.299273
0.160974 0.957200 0.284738
0.269317 0.960424 0.287720
0.382121 0.963763 0.290835
0.497798 0.967173 0.294040
0.615749 0.970637 0.297316
0.735667 0.974147 0.300657
0.849650 0.977480 0.303838
0.950556 0.980434 0.306659
0.992187 0.981710 0.307818
0.074559 0.063690 0.295008
0.178720 0.066652 0.297570
0.286901 0.069726 0.300255
0.397520 0.072869 0.303019
0.509949 0.076063 0.305845
0.623848 0.079299 0.308722
0.738932 0.082569 0.311643
0.854892 0.085864 0.314600
0.904135 0.087280 0.315687
0.084182 0.169535 0.303197
0.188680 0.172555 0.305808
0.297213 0.175688 0.308542
0.408197 0.178890 0.311356
0.521007 0.182143 0.314231
0.635307 0.185437 0.317159
0.750661 0.188762 0.320127
0.866540 0.192101 0.323120
0.915651 0.193560 0.324242
0.094256 0.279598 0.311881
0.199112 0.282674 0.314540
0.308027 0.285863 0.317324
0.419418 0.289121 0.320188
0.532663 0.292431 0.323115
0.647430 0.295783 0.326095
0.762990 0.299158 0.329107
0.878457 0.302530 0.332128
0.927280 0.304025 0.333281
0.104710 0.392250 0.320916
0.209962 0.395379 0.323625
0.319310 0.398622 0.326460
0.431169 0.401935 0.329376
0.544923 0.405301 0.332355
0.660244 0.408712 0.335390
0.775917 0.412132 0.338444
0.890542 0.415523 0.341479
0.938878 0.417048 0.342657
0.115559 0.506832 0.330247
0.221265 0.510013 0.333007
0.331114 0.513311 0.335894
0.443523 0.516680 0.338864
0.557880 0.520104 0.341899
0.673861 0.523574 0.344990
0.789528 0.527036 0.348083
0.902780 0.530432 0.351118
0.950386 0.531979 0.352315
0.126846 0.622981 0.339842
0.233080 0.626216 0.342655
0.343519 0.629570 0.345597
0.456579 0.632998 0.348624
0.571653 0.636484 0.351718
0.688420 0.640018 0.354870
0.803936 0.643520 0.357997
0.915182 0.646902 0.361015
0.961774 0.648466 0.362221
0.138625 0.740468 0.349683
0.245481 0.743761 0.352552
0.356616 0.747175 0.355552
0.470448 0.750667 0.358639
0.586371 0.754220 0.361796
0.704070 0.757826 0.365013
0.819263 0.761363 0.368170
0.927770 0.764716 0.371150
0.973022 0.766291 0.372358
0.150955 0.859139 0.359758
0.258545 0.862495 0.362687
0.370504 0.865977 0.365749
0.485247 0.869540 0.368901
0.602172 0.873168 0.372124
0.720969 0.876853 0.375412
0.835639 0.880426 0.378593
0.940574 0.883730 0.381512
0.984117 0.885310 0.382711
0.162053 0.958081 0.368211
0.270488 0.961304 0.371185
0.383396 0.964642 0.374295
0.499188 0.968052 0.377495
0.617265 0.971516 0.380769
0.737321 0.975026 0.384109
0.851216 0.978353 0.387284
0.951621 0.981291 0.390089
0.993018 0.982556 0.391241
0.075415 0.064534 0.380463
0.179608 0.067496 0.382977
0.287823 0.070571 0.385617
0.398477 0.073715 0.388337
0.510942 0.076910 0.391120
0.624877 0.080146 0.393957
0.739990 0.083416 0.396838
0.855954 0.086711 0.399756
0.905188 0.088127 0.400805
0.085042 0.170394 0.388498
0.189574 0.173415 0.391067
0.298143 0.176548 0.393760
0.409165 0.179751 0.396535
0.522015 0.183004 0.399373
0.636358 0.186299 0.402265
0.751736 0.189624 0.405197
0.867589 0.192962 0.408156
0.916678 0.194421 0.409244
0.095127 0.280472 0.397045
0.200021 0.283548 0.399667
0.308977 0.286738 0.402415
0.420410 0.289997 0.405245
0.533702 0.293307 0.408139
0.648521 0.296660 0.411088
0.764095 0.300035 0.414070
0.879498 0.303405 0.417059
0.928281 0.304899 0.418183
0.105601 0.393137 0.405959
0.210896 0.396267 0.408636
0.320289 0.399511 0.411440
0.432199 0.402825 0.414327
0.546009 0.406192 0.417279
0.661391 0.409604 0.420288
0.777068 0.413024 0.423316
0.891580 0.416412 0.426323
0.939853 0.417935 0.427477
0.116477 0.507732 0.415185
0.222232 0.510915 0.417918
0.332135 0.514213 0.420780
0.444605 0.517584 0.423726
0.559028 0.521010 0.426739
0.675082 0.524482 0.429809
0.790740 0.527944 0.432881
0.903819 0.531335 0.435891
0.951336 0.532880 0.437067
0.127799 0.623895 0.424692
0.234090 0.627131 0.427484
0.344593 0.630487 0.430406
0.457725 0.633917 0.433413
0.572878 0.637405 0.436490
0.689731 0.640942 0.439627
0.805223 0.644443 0.442737
0.916227 0.647820 0.445733
0.962698 0.649381 0.446922
0.139619 0.741395 0.434462
0.246543 0.744690 0.437314
0.357755 0.748107 0.440300
0.471672 0.751602 0.443373
0.587689 0.755158 0.446518
0.705490 0.758767 0.449725
0.820639 0.762305 0.452869
0.928825 0.765650 0.455829
0.973921 0.767221 0.457024
0.152000 0.860082 0.444482
0.259670 0.863441 0.447399
0.371719 0.866926 0.450452
0.486562 0.870493 0.453595
0.603598 0.874125 0.456812
0.722515 0.877815 0.460095
0.837119 0.881387 0.463268
0.941643 0.884682 0.466170
0.984991 0.886258 0.467360
0.163149 0.958972 0.452891
0.271679 0.962194 0.455858
0.384692 0.965532 0.458963
0.500601 0.968942 0.462160
0.618806 0.972406 0.465432
0.739001 0.975917 0.468772
0.852806 0.979238 0.471942
0.952700 0.982158 0.474732
0.993858 0.983413 0.475878
0.076280 0.065387 0.466845
0.180506 0.068350 0.469313
0.288755 0.071425 0.471908
0.399443 0.074569 0.474585
0.511944 0.077765 0.477326
0.625918 0.081002 0.480122
0.741058 0.084273 0.482964
0.857023 0.087568 0.485843
0.906248 0.088983 0.486855
0.085912 0.171263 0.474729
0.190479 0.174284 0.477256
0.299084 0.177418 0.479909
0.410144 0.180620 0.482645
0.523035 0.183874 0.485446
0.637422 0.187171 0.488303
0.752822 0.190496 0.491201
0.868646 0.193833 0.494124
0.917712 0.195291 0.495180
0.096010 0.281355 0.483140
0.200941 0.284432 0.485726
0.309937 0.287622 0.488439
0.421415 0.290881 0.491235
0.534755 0.294192 0.494097
0.649625 0.297547 0.497016
0.765214 0.300921 0.499968
0.880548 0.304290 0.502926
0.929289 0.305782 0.504022
0.106503 0.394034 0.491936
0.211841 0.397164 0.494581
0.321282 0.400408 0.497355
0.433243 0.403723 0.500213
0.547110 0.407092 0.503139
0.662553 0.410505 0.506122
0.778234 0.413925 0.509125
0.892627 0.417310 0.512105
0.940835 0.418831 0.513234
0.117407 0.508642 0.501059
0.223212 0.511825 0.503766
0.333170 0.515125 0.506603
0.445701 0.518497 0.509525
0.560192 0.521924 0.512516
0.676320 0.525399 0.515567
0.791968 0.528861 0.518617
0.904868 0.532247 0.521604
0.952292 0.533790 0.522759
0.128764 0.624818 0.510480
0.235114 0.628056 0.513250
0.345683 0.631413 0.516152
0.458888 0.634845 0.519142
0.574120 0.638336 0.522203
0.691062 0.641876 0.525325
0.806527 0.645376 0.528418
0.917281 0.648747 0.531393
0.963629 0.650306 0.532566
0.140628 0.742332 0.520181
0.247621 0.745629 0.523017
0.358911 0.749049 0.525988
0.472914 0.752547 0.529049
0.589026 0.756106 0.532182
0.706931 0.759719 0.535380
0.822035 0.763256 0.538512
0.929890 0.766593 0.541454
0.974826 0.768161 0.542637
0.153059 0.861034 0.530149
0.260811 0.864396 0.533055
0.372952 0.867884 0.536098
0.487897 0.871455 0.539234
0.605044 0.875092 0.542446
0.724083 0.878786 0.545724
0.838620 0.882359 0.548890
0.942723 0.885643 0.551775
0.985872 0.887216 0.552957
0.164260 0.959872 0.538516
0.272886 0.963093 0.541477
0.386006 0.966430 0.544577
0.502034 0.969840 0.547772
0.620369 0.973305 0.551044
0.740705 0.976816 0.554384
0.854418 0.980131 0.557551
0.953791 0.983033 0.560326
0.994705 0.984278 0.561467
0.077152 0.066248 0.553987
0.181411 0.069211 0.556409
0.289694 0.072286 0.558959
0.400417 0.075431 0.561593
0.512955 0.078627 0.564293
0.626967 0.081865 0.567049
0.742135 0.085137 0.569853
0.858098 0.088432 0.572693
0.907312 0.089847 0.573668
0.086790 0.172138 0.561721
0.191391 0.175160 0.564206
0.300033 0.178294 0.566820
0.411132 0.181497 0.569519
0.524065 0.184752 0.572283
0.638496 0.188049 0.575105
0.753918 0.191375 0.577969
0.869710 0.194711 0.580858
0.918750 0.196168 0.581882
0.096901 0.282245 0.569998
0.201871 0.285322 0.572548
0.310908 0.288513 0.575227
0.422431 0.291773 0.577990
0.535819 0.295085 0.580821
0.650742 0.298440 0.583710
0.766345 0.301815 0.586633
0.881605 0.305182 0.589561
0.930302 0.306673 0.590628
0.107416 0.394937 0.578677
0.212797 0.398068 0.581291
0.322285 0.401313 0.584036
0.434299 0.404629 0.586867
0.548223 0.407999 0.589766
0.663730 0.411414 0.592725
0.779413 0.414834 0.595703
0.893682 0.418216 0.598656
0.941822 0.419735 0.599761
0.118348 0.509559 0.587700
0.224203 0.512743 0.590381
0.334218 0.516044 0.593194
0.446811 0.519417 0.596094
0.561370 0.522847 0.599064
0.677574 0.526323 0.602096
0.793210 0.529785 0.605126
0.905924 0.533166 0.608089
0.953253 0.534707 0.609225
0.129741 0.625748 0.597038
0.236151 0.628988 0.599788
0.346786 0.632347 0.602671
0.460065 0.635781 0.605644
0.575379 0.639274 0.608688
0.692411 0.642817 0.611797
0.807847 0.646318 0.614875
0.918344 0.649682 0.617829
0.964565 0.651238 0.618987
0.141649 0.743277 0.606672
0.248712 0.746576 0.609493
0.360081 0.749998 0.612450
0.474172 0.753499 0.615499
0.590380 0.757062 0.618623
0.708392 0.760679 0.621812
0.823447 0.764216 0.624933
0.930964 0.767544 0.627857
0.975737 0.769109 0.629028
0.154131 0.861994 0.616590
0.261966 0.865359 0.619486
0.374201 0.868851 0.622522
0.489249 0.872426 0.625651
0.606510 0.876067 0.628858
0.725673 0.879767 0.632134
0.840140 0.883339 0.635293
0.943812 0.886613 0.638162
0.986758 0.888182 0.639336
0.165385 0.960778 0.624918
0.274108 0.963998 0.627874
0.387338 0.967335 0.630971
0.503486 0.970745 0.634164
0.621953 0.974210 0.637437
0.742433 0.977722 0.640780
0.856050 0.981031 0.643943
0.954890 0.983915 0.646704
0.995556 0.985150 0.647841
0.078031 0.067115 0.641771
0.182323 0.070078 0.644148
0.290641 0.073154 0.646654
0.401399 0.076299 0.649246
0.513973 0.079496 0.651905
0.628024 0.082735 0.654622
0.743220 0.086008 0.657387
0.859178 0.089302 0.660190
0.908380 0.090717 0.661129
0.087676 0.173021 0.649356
0.192312 0.176042 0.651802
0.300991 0.179177 0.654377
0.412129 0.182381 0.657038
0.525104 0.185636 0.659767
0.639580 0.188935 0.662554
0.755024 0.192260 0.665385
0.870779 0.195596 0.668241
0.919792 0.197052 0.669233
0.097801 0.283142 0.657503
0.202809 0.286219 0.660017
0.311888 0.289410 0.662662
0.423456 0.292671 0.665394
0.536894 0.295984 0.668194
0.651871 0.299341 0.671054
0.767485 0.302716 0.673948
0.882668 0.306080 0.676846
0.931318 0.307570 0.677887
0.108337 0.395848 0.666067
0.213762 0.398979 0.668651
0.323299 0.402225 0.671368
0.435367 0.405542 0.674171
0.549349 0.408913 0.677045
0.664920 0.412330 0.679980
0.780604 0.415750 0.682935
0.894742 0.419128 0.685862
0.942812 0.420646 0.686944
0.119298 0.510482 0.674993
0.225205 0.513667 0.677649
0.335277 0.516970 0.680438
0.447934 0.520345 0.683316
0.562563 0.523776 0.686267
0.678843 0.527255 0.689280
0.794466 0.530717 0.692291
0.906987 0.534093 0.695231
0.954218 0.535632 0.696348
0.130728 0.626685 0.684250
0.237199 0.629926 0.686979
0.347902 0.633287 0.689845
0.461256 0.636724 0.692801
0.576654 0.640219 0.695831
0.693776 0.643766 0.698927
0.809182 0.647266 0.701990
0.919414 0.650623 0.704924
0.965504 0.652177 0.706067
0.142680 0.744228 0.693820
0.249816 0.747530 0.696626
0.361265 0.750955 0.699571
0.475445 0.754458 0.702609
0.591752 0.758025 0.705723
0.709871 0.761646 0.708905
0.824876 0.765182 0.712016
0.932045 0.768502 0.714922
0.976652 0.770065 0.716083
0.155215 0.862961 0.703691
0.263135 0.866329 0.706578
0.375464 0.869825 0.709606
0.490618 0.873404 0.712730
0.607994 0.877050 0.715934
0.727283 0.880754 0.719208
0.841677 0.884326 0.722360
0.944910 0.887590 0.725215
0.987648 0.889155 0.726382
0.166523 0.961690 0.711983
0.275345 0.964909 0.714935
0.388685 0.968246 0.718030
0.504955 0.971656 0.721222
0.623556 0.975121 0.724496
0.744182 0.978634 0.727842
0.857702 0.981937 0.731004
0.955998 0.984802 0.733752
0.996411 0.986027 0.734884
0.078778 0.067848 0.715909
0.183103 0.070812 0.718249
0.291455 0.073889 0.720721
0.402249 0.077035 0.723278
0.514860 0.080233 0.725905
0.628950 0.083473 0.728590
0.744173 0.086746 0.731325
0.860124 0.090040 0.734098
0.909313 0.091455 0.735008
0.088429 0.173770 0.723375
0.193101 0.176792 0.725788
0.301817 0.179927 0.728333
0.412996 0.183132 0.730964
0.526013 0.186388 0.733665
0.640536 0.189688 0.736426
0.756000 0.193014 0.739230
0.871715 0.196348 0.742059
0.920699 0.197803 0.743026
0.098570 0.283906 0.731417
0.203617 0.286983 0.733903
0.312739 0.290175 0.736522
0.424353 0.293437 0.739228
0.537841 0.296751 0.742004
0.652872 0.300109 0.744842
0.768498 0.303485 0.747714
0.883598 0.306846 0.750588
0.932199 0.308336 0.751607
0.109128 0.396625 0.739890
0.214598 0.399757 0.742451
0.324185 0.403004 0.745145
0.436307 0.406323 0.747928
0.550349 0.409695 0.750783
0.665986 0.413114 0.753700
0.781669 0.416534 0.756635
0.895671 0.419908 0.759541
0.943668 0.421425 0.760605
0.120120 0.511274 0.748739
0.226079 0.514460 0.751376
0.336210 0.517763 0.754148
0.448931 0.521140 0.757010
0.563631 0.524574 0.759946
0.679989 0.528055 0.762945
0.795597 0.531517 0.765942
0.907919 0.534888 0.768863
0.955049 0.536425 0.769965
0.131588 0.627490 0.757934
0.238120 0.630733 0.760649
0.348893 0.634096 0.763501
0.462323 0.637535 0.766446
0.577805 0.641034 0.769466
0.695021 0.644583 0.772553
0.810394 0.648083 0.775605
0.920353 0.651434 0.778522
0.966310 0.652984 0.779654
0.143585 0.745048 0.767456
0.250794 0.748352 0.770253
0.362325 0.751780 0.773189
0.476596 0.755287 0.776220
0.593002 0.758857 0.779329
0.711231 0.762482 0.782506
0.826184 0.766018 0.785610
0.932997 0.769330 0.788502
0.977432 0.770889 0.789654
0.156173 0.863797 0.777295
0.264179 0.867168 0.780176
0.376605 0.870668 0.783200
0.491865 0.874251 0.786322
0.609358 0.877902 0.789524
0.728776 0.881612 0.792799
0.843095 0.885183 0.795948
0.945878 0.888436 0.798789
0.988404 0.889998 0.799952
0.167536 0.962469 0.785561
0.276458 0.965688 0.788511
0.389911 0.969024 0.791607
0.506305 0.972434 0.794801
0.625041 0.975900 0.798078
0.745815 0.979414 0.801429
0.859234 0.982711 0.804590
0.956977 0.985557 0.807326
0.997132 0.986772 0.808455
