library/cube/800T_Tungsten_000.cube
# CINEGRADE LAB — Premium Cinematic LUT
# Title: 800T Tungsten
# Category: CineStill 800T Emulation
# Description: Tungsten balance, halation glow, night film characteristics
# Mood: Nocturnal, glowing, cinematic
# Variant: 1
# Generated: 2026-05-21T16:12:53.385234
TITLE "800T Tungsten"
LUT_3D_SIZE 33
0.072087 0.061253 0.048477
0.097532 0.061977 0.049136
0.123420 0.062714 0.049807
0.149647 0.063460 0.050489
0.176150 0.064214 0.051178
0.202886 0.064974 0.051875
0.229826 0.065740 0.052578
0.256947 0.066511 0.053286
0.284231 0.067287 0.054000
0.311664 0.068067 0.054717
0.339234 0.068851 0.055440
0.366931 0.069638 0.056166
0.394747 0.070429 0.056896
0.422675 0.071223 0.057629
0.450709 0.072020 0.058366
0.478843 0.072819 0.059106
0.507072 0.073621 0.059849
0.535392 0.074426 0.060595
0.563799 0.075234 0.061344
0.592290 0.076043 0.062095
0.620861 0.076855 0.062849
0.649510 0.077669 0.063606
0.678235 0.078486 0.064366
0.707019 0.079304 0.065127
0.735857 0.080123 0.065890
0.764757 0.080944 0.066656
0.793715 0.081767 0.067423
0.822728 0.082592 0.068193
0.851795 0.083418 0.068964
0.880913 0.084246 0.069737
0.900711 0.084811 0.070248
0.900884 0.084823 0.070207
0.901056 0.084835 0.070166
0.074437 0.087108 0.050580
0.099903 0.087836 0.051241
0.125812 0.088577 0.051914
0.152059 0.089327 0.052598
0.178583 0.090084 0.053290
0.205340 0.090849 0.053989
0.232301 0.091619 0.054694
0.259444 0.092393 0.055404
0.286749 0.093173 0.056120
0.314203 0.093957 0.056840
0.341795 0.094744 0.057564
0.369514 0.095535 0.058293
0.397352 0.096330 0.059025
0.425302 0.097127 0.059760
0.453358 0.097928 0.060499
0.481514 0.098731 0.061241
0.509765 0.099537 0.061987
0.538108 0.100346 0.062735
0.566538 0.101157 0.063486
0.595052 0.101970 0.064240
0.623646 0.102786 0.064996
0.652319 0.103603 0.065755
0.681068 0.104423 0.066517
0.709869 0.105245 0.067280
0.738717 0.106068 0.068046
0.767625 0.106892 0.068813
0.796590 0.107718 0.069582
0.825608 0.108546 0.070353
0.854678 0.109375 0.071126
0.883795 0.110206 0.071901
0.903591 0.110774 0.072414
0.903759 0.110789 0.072374
0.903926 0.110804 0.072334
0.076828 0.113424 0.052728
0.102314 0.114156 0.053391
0.128244 0.114900 0.054067
0.154512 0.115653 0.054753
0.181057 0.116415 0.055447
0.207836 0.117183 0.056148
0.234818 0.117956 0.056855
0.261982 0.118735 0.057568
0.289309 0.119518 0.058285
0.316785 0.120306 0.059008
0.344399 0.121097 0.059734
0.372140 0.121892 0.060465
0.400000 0.122690 0.061199
0.427972 0.123491 0.061937
0.456050 0.124295 0.062678
0.484229 0.125102 0.063422
0.512503 0.125912 0.064170
0.540869 0.126724 0.064920
0.569323 0.127539 0.065674
0.597861 0.128356 0.066430
0.626479 0.129175 0.067188
0.655177 0.129997 0.067950
0.683950 0.130820 0.068714
0.712767 0.131645 0.069479
0.741623 0.132471 0.070246
0.770537 0.133299 0.071015
0.799504 0.134128 0.071786
0.828524 0.134959 0.072559
0.857591 0.135791 0.073333
0.886705 0.136624 0.074110
0.906495 0.137195 0.074624
0.906659 0.137213 0.074585
0.906821 0.137230 0.074547
0.079251 0.140093 0.054912
0.104757 0.140828 0.055577
0.130708 0.141576 0.056255
0.156998 0.142333 0.056943
0.183564 0.143098 0.057639
0.210364 0.143870 0.058343
0.237368 0.144647 0.059052
0.264554 0.145430 0.059767
0.291903 0.146217 0.060487
0.319401 0.147008 0.061211
0.347037 0.147802 0.061940
0.374800 0.148601 0.062673
0.402683 0.149403 0.063409
0.430678 0.150207 0.064149
0.458780 0.151015 0.064893
0.486982 0.151826 0.065639
0.515280 0.152639 0.066389
0.543670 0.153455 0.067142
0.572147 0.154273 0.067897
0.600710 0.155094 0.068656
0.629353 0.155917 0.069417
0.658076 0.156742 0.070180
0.686875 0.157570 0.070946
0.715707 0.158398 0.071714
0.744567 0.159227 0.072483
0.773482 0.160057 0.073253
0.802450 0.160890 0.074026
0.831466 0.161723 0.074800
0.860528 0.162558 0.075576
0.889633 0.163394 0.076354
0.909414 0.163967 0.076869
0.909573 0.163988 0.076832
0.909731 0.164008 0.076795
0.081701 0.167051 0.057126
0.107229 0.167790 0.057793
0.133201 0.168541 0.058473
0.159512 0.169302 0.059164
0.186099 0.170071 0.059862
0.212921 0.170846 0.060568
0.239947 0.171627 0.061279
0.267155 0.172413 0.061996
0.294526 0.173204 0.062718
0.322047 0.173998 0.063445
0.349705 0.174797 0.064176
0.377492 0.175599 0.064911
0.405398 0.176404 0.065650
0.433417 0.177212 0.066392
0.461542 0.178024 0.067138
0.489768 0.178838 0.067886
0.518091 0.179655 0.068638
0.546505 0.180475 0.069393
0.575008 0.181296 0.070151
0.603596 0.182121 0.070912
0.632265 0.182947 0.071675
0.661014 0.183776 0.072441
0.689840 0.184607 0.073210
0.718685 0.185439 0.073979
0.747546 0.186271 0.074749
0.776459 0.187104 0.075522
0.805422 0.187939 0.076295
0.834430 0.188775 0.077071
0.863482 0.189612 0.077848
0.892574 0.190451 0.078627
0.912342 0.191027 0.079144
0.912497 0.191050 0.079108
0.912650 0.191073 0.079072
0.084178 0.194255 0.059366
0.109726 0.194998 0.060036
0.135719 0.195753 0.060718
0.162052 0.196518 0.061411
0.188661 0.197290 0.062111
0.215505 0.198069 0.062819
0.242553 0.198853 0.063533
0.269783 0.199642 0.064252
0.297177 0.200436 0.064976
0.324721 0.201235 0.065705
0.352403 0.202037 0.066439
0.380213 0.202842 0.067176
0.408143 0.203651 0.067917
0.436186 0.204463 0.068661
0.464336 0.205278 0.069409
0.492587 0.206096 0.070160
0.520934 0.206916 0.070914
0.549374 0.207739 0.071672
0.577903 0.208565 0.072432
0.606518 0.209393 0.073195
0.635214 0.210223 0.073960
0.663990 0.211056 0.074729
0.692843 0.211890 0.075500
0.721700 0.212725 0.076271
0.750558 0.213560 0.077043
0.779465 0.214396 0.077816
0.808418 0.215233 0.078591
0.837414 0.216072 0.079368
0.866451 0.216911 0.080147
0.895524 0.217752 0.080926
0.915276 0.218330 0.081444
0.915426 0.218356 0.081410
0.915575 0.218382 0.081376
0.086677 0.221675 0.061630
0.112247 0.222421 0.062302
0.138262 0.223180 0.062987
0.164616 0.223948 0.063682
0.191247 0.224723 0.064384
0.218114 0.225506 0.065094
0.245185 0.226294 0.065810
0.272438 0.227087 0.066532
0.299855 0.227884 0.067258
0.327422 0.228686 0.067989
0.355128 0.229491 0.068725
0.382963 0.230300 0.069464
0.410917 0.231113 0.070207
0.438985 0.231928 0.070954
0.467160 0.232747 0.071704
0.495437 0.233568 0.072458
0.523811 0.234392 0.073214
0.552277 0.235219 0.073974
0.580833 0.236048 0.074736
0.609475 0.236880 0.075502
0.638199 0.237713 0.076270
0.667004 0.238549 0.077040
0.695886 0.239388 0.077813
0.724753 0.240225 0.078587
0.753602 0.241063 0.079360
0.782498 0.241901 0.080135
0.811437 0.242741 0.080911
0.840416 0.243582 0.081689
0.869432 0.244424 0.082468
0.898480 0.245267 0.083249
0.918212 0.245847 0.083767
0.918358 0.245876 0.083734
0.918502 0.245904 0.083702
0.089200 0.249287 0.063916
0.114791 0.250036 0.064590
0.140827 0.250798 0.065277
0.167204 0.251570 0.065974
0.193858 0.252349 0.066679
0.220747 0.253134 0.067391
0.247841 0.253926 0.068109
0.275118 0.254722 0.068833
0.302559 0.255523 0.069562
0.330151 0.256328 0.070295
0.357881 0.257137 0.071033
0.385741 0.257950 0.071774
0.413721 0.258766 0.072520
0.441814 0.259585 0.073269
0.470015 0.260407 0.074021
0.498319 0.261232 0.074777
0.526720 0.262059 0.075536
0.555214 0.262890 0.076298
0.583798 0.263722 0.077063
0.612468 0.264557 0.077830
0.641222 0.265395 0.078601
0.670056 0.266234 0.079374
0.698968 0.267076 0.080149
0.727843 0.267917 0.080924
0.756680 0.268756 0.081699
0.785560 0.269597 0.082474
0.814479 0.270439 0.083252
0.843435 0.271282 0.084031
0.872423 0.272126 0.084811
0.901442 0.272971 0.085592
0.921150 0.273553 0.086112
0.921291 0.273585 0.086080
0.921430 0.273616 0.086049
0.091745 0.277072 0.066222
0.117358 0.277825 0.066898
0.143416 0.278590 0.067587
0.169815 0.279365 0.068286
0.196492 0.280147 0.068994
0.223405 0.280936 0.069708
0.250523 0.281731 0.070428
0.277824 0.282531 0.071154
0.305290 0.283335 0.071885
0.332907 0.284144 0.072621
0.360662 0.284956 0.073361
0.388547 0.285772 0.074105
0.416554 0.286592 0.074852
0.444674 0.287414 0.075604
0.472902 0.288240 0.076359
0.501233 0.289068 0.077117
0.529663 0.289899 0.077878
0.558185 0.290733 0.078642
0.586799 0.291569 0.079409
0.615499 0.292408 0.080179
0.644283 0.293249 0.080952
0.673148 0.294092 0.081728
0.702092 0.294937 0.082506
0.730972 0.295781 0.083282
0.759790 0.296623 0.084058
0.788649 0.297466 0.084834
0.817543 0.298310 0.085613
0.846470 0.299155 0.086392
0.875425 0.300000 0.087173
0.904407 0.300847 0.087955
0.924086 0.301431 0.088475
0.924222 0.301465 0.088445
0.924357 0.301499 0.088415
0.094312 0.305015 0.068547
0.119947 0.305771 0.069225
0.146028 0.306540 0.069916
0.172450 0.307318 0.070617
0.199151 0.308104 0.071327
0.226088 0.308896 0.072043
0.253230 0.309695 0.072766
0.280556 0.310498 0.073494
0.308047 0.311306 0.074228
0.335690 0.312118 0.074965
0.363472 0.312934 0.075708
0.391384 0.313753 0.076454
0.419417 0.314576 0.077204
0.447565 0.315402 0.077958
0.475822 0.316231 0.078715
0.504181 0.317063 0.079475
0.532640 0.317897 0.080239
0.561193 0.318734 0.081006
0.589836 0.319574 0.081775
0.618567 0.320416 0.082548
0.647383 0.321261 0.083323
0.676280 0.322107 0.084101
0.705257 0.322956 0.084881
0.734140 0.323803 0.085660
0.762935 0.324647 0.086436
0.791766 0.325492 0.087213
0.820629 0.326337 0.087992
0.849521 0.327184 0.088772
0.878437 0.328031 0.089553
0.907374 0.328879 0.090336
0.927020 0.329465 0.090856
0.927151 0.329502 0.090828
0.927282 0.329538 0.090800
0.096900 0.333105 0.070889
0.122558 0.333864 0.071569
0.148663 0.334636 0.072263
0.175109 0.335418 0.072966
0.201834 0.336207 0.073678
0.228796 0.337003 0.074397
0.255963 0.337804 0.075122
0.283315 0.338611 0.075852
0.310832 0.339422 0.076588
0.338501 0.340237 0.077328
0.366310 0.341057 0.078072
0.394250 0.341879 0.078821
0.422312 0.342706 0.079573
0.450488 0.343535 0.080329
0.478774 0.344367 0.081089
0.507164 0.345203 0.081852
0.535653 0.346041 0.082618
0.564237 0.346882 0.083387
0.592912 0.347725 0.084159
0.621676 0.348570 0.084934
0.650524 0.349419 0.085711
0.679456 0.350269 0.086492
0.708467 0.351122 0.087275
0.737351 0.351971 0.088055
0.766116 0.352816 0.088832
0.794913 0.353663 0.089610
0.823738 0.354510 0.090389
0.852587 0.355358 0.091170
0.881457 0.356207 0.091951
0.910343 0.357056 0.092733
0.929950 0.357644 0.093255
0.930077 0.357683 0.093228
0.930203 0.357722 0.093201
0.099512 0.361330 0.073248
0.125193 0.362093 0.073931
0.151321 0.362868 0.074626
0.177792 0.363653 0.075332
0.204542 0.364445 0.076046
0.231529 0.365244 0.076767
0.258723 0.366049 0.077494
0.286101 0.366859 0.078227
0.313645 0.367674 0.078965
0.341342 0.368493 0.079707
0.369179 0.369315 0.080454
0.397148 0.370141 0.081205
0.425239 0.370971 0.081960
0.453445 0.371804 0.082718
0.481762 0.372640 0.083480
0.510183 0.373479 0.084245
0.538703 0.374320 0.085014
0.567320 0.375164 0.085785
0.596028 0.376011 0.086560
0.624825 0.376860 0.087337
0.653709 0.377712 0.088117
0.682675 0.378566 0.088900
0.711723 0.379422 0.089686
0.740604 0.380274 0.090467
0.769334 0.381121 0.091245
0.798090 0.381969 0.092023
0.826871 0.382818 0.092803
0.855670 0.383667 0.093584
0.884486 0.384517 0.094365
0.913314 0.385367 0.095147
0.932876 0.385956 0.095669
0.932999 0.385998 0.095643
0.933120 0.386039 0.095618
0.102146 0.389683 0.075623
0.127851 0.390449 0.076308
0.154004 0.391227 0.077006
0.180500 0.392015 0.077714
0.207276 0.392811 0.078430
0.234289 0.393613 0.079153
0.261510 0.394421 0.079883
0.288915 0.395235 0.080618
0.316488 0.396053 0.081358
0.344213 0.396875 0.082103
0.372080 0.397701 0.082852
0.400078 0.398530 0.083605
0.428199 0.399363 0.084362
0.456437 0.400200 0.085123
0.484786 0.401039 0.085888
0.513239 0.401881 0.086655
0.541793 0.402726 0.087426
0.570443 0.403574 0.088200
0.599186 0.404424 0.088977
0.628019 0.405277 0.089757
0.656938 0.406133 0.090540
0.685941 0.406990 0.091326
0.715027 0.407850 0.092114
0.743903 0.408704 0.092897
0.772589 0.409553 0.093674
0.801299 0.410402 0.094453
0.830027 0.411252 0.095233
0.858770 0.412102 0.096013
0.887523 0.412953 0.096795
0.916284 0.413804 0.097577
0.935798 0.414394 0.098098
0.935916 0.414438 0.098074
0.936032 0.414482 0.098050
0.104803 0.418155 0.078013
0.130532 0.418924 0.078700
0.156711 0.419706 0.079401
0.183233 0.420497 0.080111
0.210036 0.421296 0.080829
0.237076 0.422102 0.081555
0.264325 0.422913 0.082287
0.291759 0.423730 0.083024
0.319361 0.424551 0.083767
0.347116 0.425376 0.084514
0.375013 0.426206 0.085265
0.403042 0.427039 0.086021
0.431195 0.427875 0.086781
0.459466 0.428715 0.087544
0.487847 0.429558 0.088311
0.516334 0.430404 0.089081
0.544923 0.431252 0.089855
0.573608 0.432103 0.090631
0.602387 0.432957 0.091411
0.631257 0.433814 0.092193
0.660214 0.434673 0.092979
0.689256 0.435534 0.093767
0.718381 0.436398 0.094558
0.747249 0.437254 0.095342
0.775885 0.438104 0.096120
0.804540 0.438954 0.096898
0.833208 0.439805 0.097678
0.861886 0.440656 0.098458
0.890570 0.441508 0.099239
0.919255 0.442359 0.100020
0.938713 0.442951 0.100542
0.938826 0.442997 0.100519
0.938938 0.443044 0.100497
0.107483 0.446740 0.080419
0.133239 0.447512 0.081108
0.159444 0.448297 0.081810
0.185993 0.449092 0.082523
0.212823 0.449894 0.083244
0.239892 0.450703 0.083971
0.267170 0.451517 0.084706
0.294633 0.452337 0.085445
0.322265 0.453162 0.086190
0.350051 0.453991 0.086940
0.377980 0.454823 0.087694
0.406041 0.455660 0.088452
0.434228 0.456500 0.089214
0.462532 0.457343 0.089980
0.490948 0.458189 0.090749
0.519470 0.459039 0.091522
0.548095 0.459891 0.092298
0.576817 0.460746 0.093077
0.605634 0.461603 0.093859
0.634542 0.462463 0.094645
0.663539 0.463326 0.095433
0.692621 0.464191 0.096224
0.721787 0.465058 0.097017
0.750644 0.465917 0.097802
0.779223 0.466768 0.098580
0.807814 0.467619 0.099359
0.836414 0.468471 0.100138
0.865019 0.469322 0.100918
0.893624 0.470174 0.101698
0.922226 0.471026 0.102478
0.941622 0.471618 0.103000
0.941731 0.471667 0.102978
0.941838 0.471716 0.102957
0.110189 0.475432 0.082838
0.135970 0.476207 0.083530
0.162202 0.476995 0.084234
0.188779 0.477793 0.084949
0.215638 0.478599 0.085672
0.242737 0.479411 0.086403
0.270044 0.480229 0.087139
0.297539 0.481052 0.087881
0.325202 0.481880 0.088629
0.353021 0.482712 0.089381
0.380982 0.483548 0.090137
0.409077 0.484388 0.090898
0.437298 0.485232 0.091663
0.465637 0.486078 0.092431
0.494089 0.486928 0.093203
0.522649 0.487781 0.093978
0.551311 0.488637 0.094757
0.580072 0.489495 0.095538
0.608929 0.490357 0.096323
0.637877 0.491220 0.097111
0.666915 0.492087 0.097902
0.696039 0.492955 0.098695
0.725249 0.493827 0.099492
0.754091 0.494687 0.100278
0.782603 0.495539 0.101056
0.811124 0.496391 0.101834
0.839648 0.497243 0.102612
0.868171 0.498095 0.103391
0.896688 0.498947 0.104171
0.925196 0.499798 0.104950
0.944525 0.500392 0.105471
0.944629 0.500443 0.105451
0.944732 0.500495 0.105431
0.112919 0.504226 0.085272
0.138728 0.505005 0.085965
0.164988 0.505796 0.086672
0.191594 0.506597 0.087390
0.218483 0.507406 0.088115
0.245612 0.508221 0.088848
0.272951 0.509042 0.089587
0.300477 0.509869 0.090331
0.328173 0.510700 0.091081
0.356025 0.511536 0.091836
0.384021 0.512376 0.092595
0.412151 0.513219 0.093358
0.440408 0.514066 0.094125
0.468784 0.514916 0.094896
0.497274 0.515769 0.095670
0.525872 0.516626 0.096448
0.554574 0.517485 0.097230
0.583375 0.518347 0.098014
0.612273 0.519212 0.098802
0.641263 0.520080 0.099592
0.670344 0.520950 0.100386
0.699513 0.521822 0.101182
0.728767 0.522697 0.101981
0.757590 0.523560 0.102768
0.786029 0.524412 0.103545
0.814470 0.525265 0.104323
0.842908 0.526117 0.105101
0.871340 0.526969 0.105879
0.899761 0.527821 0.106657
0.928166 0.528672 0.107435
0.947420 0.529266 0.107955
0.947519 0.529320 0.107937
0.947618 0.529374 0.107918
0.115675 0.533117 0.087719
0.141513 0.533899 0.088415
0.167802 0.534694 0.089124
0.194438 0.535498 0.089844
0.221358 0.536310 0.090572
0.248518 0.537129 0.091307
0.275890 0.537953 0.092048
0.303449 0.538783 0.092795
0.331180 0.539618 0.093547
0.359067 0.540457 0.094304
0.387098 0.541300 0.095066
0.415265 0.542147 0.095832
0.443560 0.542997 0.096601
0.471974 0.543851 0.097375
0.500503 0.544708 0.098152
0.529141 0.545568 0.098933
0.557884 0.546431 0.099717
0.586728 0.547297 0.100504
0.615668 0.548166 0.101294
0.644703 0.549037 0.102087
0.673829 0.549911 0.102884
0.703044 0.550788 0.103683
0.732345 0.551667 0.104485
0.761146 0.552531 0.105273
0.789502 0.553384 0.106049
0.817854 0.554236 0.106826
0.846198 0.555088 0.107603
0.874529 0.555940 0.108379
0.902843 0.556792 0.109156
0.931135 0.557643 0.109932
0.950307 0.558237 0.110452
0.950402 0.558293 0.110435
0.950496 0.558350 0.110418
0.118458 0.562102 0.090179
0.144325 0.562887 0.090877
0.170645 0.563684 0.091589
0.197312 0.564492 0.092311
0.224264 0.565307 0.093041
0.251457 0.566130 0.093779
0.278863 0.566958 0.094523
0.306457 0.567791 0.095272
0.334223 0.568629 0.096027
0.362146 0.569472 0.096787
0.390215 0.570318 0.097551
0.418421 0.571169 0.098319
0.446754 0.572023 0.099092
0.475209 0.572880 0.099868
0.503779 0.573741 0.100648
0.532459 0.574605 0.101431
0.561245 0.575471 0.102218
0.590132 0.576341 0.103007
0.619118 0.577214 0.103801
0.648199 0.578089 0.104597
0.677372 0.578967 0.105396
0.706635 0.579847 0.106198
0.735985 0.580730 0.107003
0.764760 0.581597 0.107792
0.793023 0.582449 0.108567
0.821277 0.583301 0.109342
0.849517 0.584153 0.110118
0.877738 0.585005 0.110893
0.905935 0.585856 0.111668
0.934104 0.586706 0.112442
0.953187 0.587300 0.112961
0.953277 0.587359 0.112945
0.953366 0.587419 0.112930
0.121269 0.591176 0.092652
0.147166 0.591964 0.093353
0.173517 0.592765 0.094067
0.200217 0.593576 0.094791
0.227202 0.594395 0.095524
0.254430 0.595220 0.096264
0.281871 0.596052 0.097010
0.309501 0.596888 0.097763
0.337304 0.597730 0.098520
0.365266 0.598576 0.099282
0.393374 0.599426 0.100049
0.421619 0.600280 0.100820
0.449993 0.601138 0.101595
0.478490 0.601999 0.102374
0.507102 0.602864 0.103156
0.535826 0.603731 0.103943
0.564657 0.604602 0.104732
0.593591 0.605475 0.105525
0.622623 0.606352 0.106321
0.651752 0.607231 0.107120
0.680975 0.608113 0.107922
0.710288 0.608997 0.108727
0.739690 0.609884 0.109535
0.768434 0.610753 0.110325
0.796596 0.611605 0.111099
0.824742 0.612457 0.111872
0.852867 0.613308 0.112646
0.880967 0.614159 0.113419
0.909037 0.615009 0.114192
0.937071 0.615858 0.114964
0.956058 0.616452 0.115482
0.956144 0.616514 0.115467
0.956228 0.616576 0.115453
0.124107 0.620336 0.095137
0.150036 0.621128 0.095841
0.176421 0.621932 0.096557
0.203154 0.622746 0.097284
0.230174 0.623568 0.098020
0.257438 0.624397 0.098762
0.284915 0.625232 0.099511
0.312584 0.626072 0.100266
0.340425 0.626918 0.101026
0.368426 0.627767 0.101791
0.396575 0.628621 0.102560
0.424862 0.629479 0.103334
0.453279 0.630340 0.104112
0.481819 0.631205 0.104893
0.510476 0.632073 0.105679
0.539246 0.632945 0.106468
0.568124 0.633819 0.107260
0.597105 0.634697 0.108056
0.626187 0.635577 0.108854
0.655366 0.636460 0.109656
0.684640 0.637346 0.110462
0.714006 0.638235 0.111270
0.743462 0.639126 0.112081
0.772170 0.639996 0.112871
0.800221 0.640848 0.113643
0.828249 0.641699 0.114415
0.856249 0.642549 0.115187
0.884218 0.643399 0.115958
0.912149 0.644248 0.116728
0.940038 0.645096 0.117498
0.958921 0.645690 0.118014
0.959002 0.645755 0.118001
0.959082 0.645820 0.117989
0.126975 0.649579 0.097635
0.152937 0.650374 0.098341
0.179356 0.651182 0.099060
0.206125 0.651999 0.099790
0.233181 0.652825 0.100528
0.260482 0.653657 0.101273
0.287998 0.654496 0.102024
0.315706 0.655340 0.102782
0.343588 0.656189 0.103544
0.371630 0.657042 0.104312
0.399821 0.657899 0.105084
0.428151 0.658761 0.105861
0.456613 0.659626 0.106641
0.485198 0.660495 0.107426
0.513903 0.661367 0.108214
0.542720 0.662242 0.109006
0.571647 0.663121 0.109801
0.600678 0.664002 0.110600
0.629811 0.664887 0.111401
0.659043 0.665774 0.112206
0.688371 0.666664 0.113015
0.717791 0.667557 0.113826
0.747304 0.668452 0.114640
0.775972 0.669324 0.115431
0.803900 0.670175 0.116201
0.831800 0.671025 0.116971
0.859665 0.671875 0.117740
0.887490 0.672723 0.118509
0.915272 0.673571 0.119277
0.943004 0.674417 0.120044
0.961774 0.675011 0.120558
0.961851 0.675078 0.120547
0.961926 0.675146 0.120536
0.129873 0.678903 0.100146
0.155870 0.679701 0.100854
0.182324 0.680513 0.101576
0.209130 0.681333 0.102308
0.236224 0.682163 0.103048
0.263564 0.682999 0.103796
0.291120 0.683841 0.104550
0.318868 0.684688 0.105310
0.346792 0.685541 0.106076
0.374878 0.686398 0.106846
0.403113 0.687259 0.107621
0.431489 0.688124 0.108400
0.459997 0.688993 0.109184
0.488630 0.689866 0.109971
0.517383 0.690742 0.110762
0.546250 0.691621 0.111557
0.575228 0.692504 0.112355
0.604312 0.693390 0.113157
0.633499 0.694278 0.113962
0.662785 0.695170 0.114770
0.692168 0.696064 0.115581
0.721647 0.696961 0.116395
0.751217 0.697861 0.117213
0.779841 0.698734 0.118004
0.807637 0.699584 0.118772
0.835397 0.700433 0.119539
0.863115 0.701282 0.120306
0.890786 0.702129 0.121072
0.918406 0.702974 0.121837
0.945969 0.703819 0.122601
0.964619 0.704412 0.123113
0.964691 0.704482 0.123103
0.964762 0.704553 0.123094
0.132803 0.708305 0.102668
0.158835 0.709107 0.103379
0.185326 0.709921 0.104103
0.212170 0.710746 0.104838
0.239304 0.711578 0.105581
0.266684 0.712418 0.106331
0.294282 0.713264 0.107088
0.322073 0.714115 0.107851
0.350041 0.714971 0.108619
0.378172 0.715832 0.109392
0.406453 0.716697 0.110170
0.434876 0.717566 0.110952
0.463432 0.718439 0.111738
0.492115 0.719316 0.112529
0.520919 0.720196 0.113323
0.549839 0.721080 0.114121
0.578870 0.721966 0.114922
0.608008 0.722856 0.115727
0.637251 0.723749 0.116535
0.666594 0.724645 0.117346
0.696036 0.725544 0.118160
0.725574 0.726445 0.118978
0.755206 0.727349 0.119799
0.783780 0.728224 0.120590
0.811432 0.729073 0.121356
0.839041 0.729921 0.122120
0.866600 0.730767 0.122884
0.894105 0.731613 0.123647
0.921551 0.732456 0.124409
0.948933 0.733299 0.125169
0.967455 0.733891 0.125679
0.967522 0.733964 0.125671
0.967588 0.734037 0.125663
0.135764 0.737782 0.105202
0.161834 0.738587 0.105915
0.188364 0.739406 0.106642
0.215248 0.740234 0.107379
0.242422 0.741070 0.108125
0.269845 0.741913 0.108878
0.297486 0.742763 0.109638
0.325322 0.743618 0.110404
0.353336 0.744478 0.111175
0.381513 0.745343 0.111951
0.409843 0.746212 0.112731
0.438315 0.747085 0.113516
0.466922 0.747962 0.114306
0.495657 0.748843 0.115099
0.524514 0.749727 0.115896
0.553488 0.750615 0.116697
0.582574 0.751506 0.117501
0.611769 0.752400 0.118309
0.641070 0.753297 0.119121
0.670473 0.754198 0.119935
0.699976 0.755101 0.120753
0.729576 0.756007 0.121574
0.759272 0.756916 0.122398
0.787791 0.757792 0.123189
0.815288 0.758639 0.123952
0.842734 0.759485 0.124714
0.870123 0.760330 0.125474
0.897450 0.761173 0.126234
0.924709 0.762015 0.126992
0.951896 0.762854 0.127748
0.970281 0.763446 0.128256
0.970344 0.763522 0.128249
0.970405 0.763598 0.128242
0.138758 0.767333 0.107748
0.164867 0.768142 0.108464
0.191437 0.768964 0.109193
0.218363 0.769795 0.109933
0.245580 0.770636 0.110682
0.273047 0.771483 0.111438
0.300733 0.772336 0.112200
0.328616 0.773195 0.112969
0.356678 0.774059 0.113742
0.384904 0.774928 0.114521
0.413284 0.775801 0.115305
0.441807 0.776678 0.116093
0.470467 0.777559 0.116885
0.499256 0.778444 0.117682
0.528168 0.779333 0.118482
0.557199 0.780225 0.119286
0.586343 0.781120 0.120094
0.615598 0.782019 0.120905
0.644959 0.782921 0.121719
0.674424 0.783826 0.122537
0.703991 0.784734 0.123358
0.733656 0.785645 0.124183
0.763418 0.786558 0.125010
0.791877 0.787435 0.125801
0.819207 0.788281 0.126561
0.846477 0.789125 0.127319
0.873683 0.789968 0.128076
0.900819 0.790809 0.128832
0.927880 0.791647 0.129586
0.954859 0.792484 0.130338
0.973097 0.793075 0.130844
0.973155 0.793154 0.130838
0.973212 0.793233 0.130833
0.141787 0.796956 0.110305
0.167936 0.797768 0.111024
0.194548 0.798594 0.111756
0.221517 0.799429 0.112498
0.248779 0.800273 0.113250
0.276292 0.801124 0.114009
0.304026 0.801981 0.114774
0.331957 0.802844 0.115545
0.360068 0.803712 0.116322
0.388346 0.804585 0.117104
0.416778 0.805463 0.117891
0.445355 0.806344 0.118682
0.474070 0.807230 0.119477
0.502915 0.808119 0.120277
0.531885 0.809012 0.121080
0.560974 0.809909 0.121888
0.590179 0.810809 0.122698
0.619496 0.811712 0.123513
0.648920 0.812618 0.124331
