library/cube/Abyss_Glow_002.cube
# CINEGRADE LAB — Premium Cinematic LUT
# Title: Abyss Glow
# Category: Cinematic Shadows
# Description: Crushed blacks with teal shadows and warm highlights for cinema-inspired images
# Mood: Dramatic, cinematic, bold
# Variant: 3
# Generated: 2026-05-21T16:12:12.745030
TITLE "Abyss Glow"
LUT_3D_SIZE 33
0.000000 0.000000 0.000000
0.000000 0.000000 0.000000
0.000000 0.000000 0.000000
0.026647 0.000927 0.000927
0.056794 0.001976 0.001976
0.087058 0.003030 0.003030
0.117437 0.004087 0.004087
0.147928 0.005148 0.005148
0.178530 0.006213 0.006213
0.209239 0.007282 0.007282
0.240055 0.008354 0.008354
0.270975 0.009430 0.009430
0.301997 0.010510 0.010510
0.333119 0.011593 0.011593
0.364338 0.012679 0.012679
0.395654 0.013769 0.013769
0.427064 0.014862 0.014862
0.458565 0.015958 0.015958
0.490157 0.017058 0.017058
0.521838 0.018160 0.018160
0.553604 0.019266 0.019266
0.585456 0.020374 0.020374
0.617390 0.021485 0.021485
0.649406 0.022599 0.022599
0.681501 0.023716 0.023716
0.713673 0.024836 0.024836
0.745922 0.025958 0.025958
0.778244 0.027083 0.027083
0.810578 0.028208 0.028208
0.842932 0.029334 0.029334
0.875337 0.030462 0.030462
0.885827 0.030827 0.030827
0.885827 0.030827 0.030827
0.000000 0.000000 0.000000
0.000000 0.000000 0.000000
0.000000 0.000000 0.000000
0.025609 0.000891 0.000891
0.055958 0.001947 0.001947
0.086419 0.003007 0.003007
0.116989 0.004071 0.004071
0.147667 0.005139 0.005139
0.178451 0.006210 0.006210
0.209338 0.007285 0.007285
0.240327 0.008363 0.008363
0.271415 0.009445 0.009445
0.302601 0.010531 0.010531
0.333883 0.011619 0.011619
0.365258 0.012711 0.012711
0.396724 0.013806 0.013806
0.428281 0.014904 0.014904
0.459926 0.016006 0.016006
0.491656 0.017110 0.017110
0.523471 0.018217 0.018217
0.555369 0.019327 0.019327
0.587347 0.020440 0.020440
0.619405 0.021555 0.021555
0.651540 0.022674 0.022674
0.683750 0.023795 0.023795
0.716035 0.024918 0.024918
0.748392 0.026044 0.026044
0.780820 0.027173 0.027173
0.813225 0.028300 0.028300
0.845642 0.029429 0.029429
0.878103 0.030558 0.030558
0.885827 0.030827 0.030827
0.885827 0.030827 0.030827
0.000000 0.000000 0.000000
0.000000 0.000000 0.000000
0.000000 0.000000 0.000000
0.024624 0.000857 0.000857
0.055166 0.001920 0.001920
0.085815 0.002986 0.002986
0.116569 0.004057 0.004057
0.147427 0.005130 0.005130
0.178385 0.006208 0.006208
0.209442 0.007289 0.007289
0.240597 0.008373 0.008373
0.271847 0.009460 0.009460
0.303190 0.010551 0.010551
0.334624 0.011645 0.011645
0.366147 0.012742 0.012742
0.397759 0.013842 0.013842
0.429456 0.014945 0.014945
0.461237 0.016051 0.016051
0.493100 0.017160 0.017160
0.525044 0.018272 0.018272
0.557066 0.019386 0.019386
0.589166 0.020503 0.020503
0.621341 0.021623 0.021623
0.653590 0.022745 0.022745
0.685911 0.023870 0.023870
0.718302 0.024997 0.024997
0.750763 0.026127 0.026127
0.783291 0.027259 0.027259
0.815754 0.028388 0.028388
0.848223 0.029518 0.029518
0.880729 0.030650 0.030650
0.885827 0.030827 0.030827
0.885827 0.030827 0.030827
0.002797 0.025855 0.002797
0.002765 0.025562 0.002765
0.002734 0.025273 0.002734
0.026394 0.025813 0.003527
0.057091 0.026602 0.004566
0.087891 0.027399 0.005610
0.118792 0.028204 0.006657
0.149792 0.029016 0.007707
0.180889 0.029836 0.008762
0.212081 0.030663 0.009821
0.243367 0.031498 0.010883
0.274744 0.032340 0.011948
0.306210 0.033189 0.013018
0.337764 0.034046 0.014090
0.369404 0.034909 0.015167
0.401128 0.035779 0.016246
0.432935 0.036657 0.017329
0.464822 0.037540 0.018415
0.496787 0.038431 0.019504
0.528830 0.039328 0.020596
0.560949 0.040232 0.021692
0.593141 0.041142 0.022790
0.625406 0.042058 0.023891
0.657742 0.042981 0.024995
0.690147 0.043910 0.026102
0.722619 0.044845 0.027212
0.755157 0.045786 0.028324
0.787761 0.046732 0.029439
0.820247 0.047679 0.030550
0.852738 0.048629 0.031662
0.885258 0.049584 0.032775
0.887847 0.049501 0.032847
0.887829 0.049331 0.032829
0.006654 0.061516 0.006654
0.006623 0.061223 0.006623
0.006591 0.060934 0.006591
0.029370 0.061444 0.007354
0.060245 0.062240 0.008400
0.091218 0.063043 0.009449
0.122288 0.063854 0.010502
0.153452 0.064673 0.011558
0.184710 0.065499 0.012619
0.216058 0.066333 0.013683
0.247495 0.067174 0.014750
0.279020 0.068023 0.015821
0.310630 0.068878 0.016896
0.342324 0.069741 0.017973
0.374100 0.070611 0.019054
0.405956 0.071487 0.020139
0.437891 0.072371 0.021226
0.469903 0.073261 0.022317
0.501990 0.074158 0.023410
0.534150 0.075061 0.024507
0.566383 0.075971 0.025606
0.598686 0.076887 0.026709
0.631058 0.077810 0.027814
0.663498 0.078739 0.028922
0.696003 0.079674 0.030033
0.728573 0.080615 0.031146
0.761206 0.081562 0.032262
0.793901 0.082515 0.033380
0.826416 0.083466 0.034493
0.858937 0.084420 0.035606
0.891481 0.085380 0.036720
0.891711 0.085218 0.036711
0.891692 0.085051 0.036692
0.010507 0.097130 0.010507
0.010475 0.096838 0.010475
0.010444 0.096550 0.010444
0.032393 0.097032 0.011178
0.063438 0.097835 0.012230
0.094577 0.098646 0.013285
0.125809 0.099464 0.014343
0.157131 0.100291 0.015406
0.188542 0.101124 0.016472
0.220039 0.101965 0.017541
0.251622 0.102814 0.018614
0.283288 0.103669 0.019690
0.315036 0.104532 0.020769
0.346864 0.105402 0.021852
0.378770 0.106279 0.022938
0.410752 0.107163 0.024027
0.442810 0.108054 0.025119
0.474941 0.108951 0.026214
0.507143 0.109855 0.027312
0.539416 0.110765 0.028413
0.571758 0.111682 0.029517
0.604167 0.112606 0.030623
0.636641 0.113536 0.031732
0.669180 0.114472 0.032844
0.701782 0.115414 0.033958
0.734445 0.116362 0.035075
0.767168 0.117316 0.036195
0.799950 0.118277 0.037316
0.832479 0.119232 0.038430
0.865019 0.120191 0.039544
0.895590 0.121086 0.040590
0.895572 0.120920 0.040572
0.895555 0.120758 0.040555
0.014354 0.132702 0.014354
0.014323 0.132412 0.014323
0.014292 0.132127 0.014292
0.035464 0.132584 0.015000
0.066672 0.133395 0.016057
0.097970 0.134214 0.017118
0.129356 0.135041 0.018182
0.160829 0.135876 0.019250
0.192387 0.136717 0.020322
0.224027 0.137567 0.021396
0.255749 0.138423 0.022474
0.287550 0.139287 0.023556
0.319430 0.140158 0.024640
0.351385 0.141036 0.025728
0.383416 0.141921 0.026818
0.415519 0.142813 0.027912
0.447694 0.143712 0.029008
0.479939 0.144617 0.030108
0.512252 0.145529 0.031210
0.544632 0.146447 0.032315
0.577078 0.147372 0.033423
0.609588 0.148304 0.034533
0.642160 0.149241 0.035646
0.674794 0.150185 0.036762
0.707487 0.151135 0.037880
0.740239 0.152092 0.039000
0.773048 0.153054 0.040123
0.805903 0.154021 0.041248
0.838440 0.154982 0.042362
0.870989 0.155947 0.043477
0.899451 0.156773 0.044451
0.899433 0.156613 0.044433
0.899416 0.156456 0.044416
0.018198 0.168238 0.018198
0.018168 0.167952 0.018168
0.018137 0.167670 0.018137
0.038581 0.168106 0.018820
0.069945 0.168926 0.019883
0.101396 0.169754 0.020949
0.132930 0.170590 0.022019
0.164548 0.171434 0.023093
0.196246 0.172285 0.024169
0.228023 0.173143 0.025249
0.259878 0.174009 0.026332
0.291809 0.174881 0.027419
0.323814 0.175761 0.028508
0.355892 0.176648 0.029600
0.388041 0.177542 0.030695
0.420260 0.178443 0.031793
0.452547 0.179350 0.032894
0.484900 0.180264 0.033998
0.517319 0.181185 0.035105
0.549802 0.182112 0.036214
0.582347 0.183046 0.037325
0.614953 0.183986 0.038440
0.647619 0.184933 0.039557
0.680343 0.185885 0.040676
0.713124 0.186844 0.041798
0.745961 0.187809 0.042922
0.778853 0.188780 0.044048
0.811763 0.189755 0.045176
0.844304 0.190722 0.046291
0.876851 0.191692 0.047406
0.903310 0.192455 0.048310
0.903294 0.192301 0.048294
0.903277 0.192150 0.048277
0.022039 0.203746 0.022039
0.022009 0.203464 0.022009
0.021979 0.203187 0.021979
0.041746 0.203603 0.022638
0.073260 0.204434 0.023707
0.104856 0.205272 0.024779
0.136532 0.206118 0.025855
0.168288 0.206971 0.026934
0.200120 0.207832 0.028015
0.232028 0.208700 0.029100
0.264010 0.209576 0.030189
0.296065 0.210458 0.031280
0.328190 0.211348 0.032374
0.360385 0.212244 0.033471
0.392648 0.213148 0.034570
0.424977 0.214058 0.035673
0.457371 0.214975 0.036778
0.489829 0.215899 0.037886
0.522348 0.216829 0.038997
0.554929 0.217766 0.040110
0.587569 0.218709 0.041226
0.620267 0.219659 0.042344
0.653022 0.220615 0.043464
0.685833 0.221577 0.044587
0.718698 0.222545 0.045713
0.751616 0.223519 0.046840
0.784586 0.224499 0.047970
0.817542 0.225483 0.049100
0.850077 0.226456 0.050215
0.882611 0.227433 0.051331
0.907170 0.228136 0.052170
0.907154 0.227989 0.052154
0.907139 0.227845 0.052139
0.025878 0.239230 0.025878
0.025848 0.238954 0.025848
0.025819 0.238682 0.025819
0.044959 0.239083 0.026457
0.076616 0.239924 0.027531
0.108351 0.240773 0.028609
0.140163 0.241630 0.029690
0.172051 0.242494 0.030774
0.204012 0.243365 0.031861
0.236045 0.244244 0.032951
0.268148 0.245130 0.034044
0.300321 0.246023 0.035139
0.332561 0.246923 0.036238
0.364868 0.247830 0.037340
0.397239 0.248744 0.038444
0.429674 0.249664 0.039551
0.462170 0.250592 0.040660
0.494727 0.251526 0.041772
0.527343 0.252466 0.042887
0.560017 0.253413 0.044004
0.592748 0.254367 0.045124
0.625534 0.255327 0.046246
0.658375 0.256292 0.047370
0.691268 0.257265 0.048497
0.724213 0.258243 0.049626
0.757209 0.259227 0.050757
0.790254 0.260217 0.051890
0.823246 0.261209 0.053022
0.855764 0.262189 0.054137
0.888273 0.263173 0.055253
0.911030 0.263822 0.056030
0.911015 0.263682 0.056015
0.911000 0.263546 0.056000
0.029714 0.274697 0.029714
0.029685 0.274427 0.029685
0.029656 0.274163 0.029656
0.048219 0.274550 0.030275
0.080013 0.275403 0.031355
0.111881 0.276263 0.032438
0.143823 0.277131 0.033524
0.175837 0.278006 0.034613
0.207921 0.278889 0.035705
0.240073 0.279779 0.036800
0.272293 0.280676 0.037898
0.304579 0.281580 0.038999
0.336929 0.282492 0.040102
0.369342 0.283410 0.041208
0.401817 0.284335 0.042316
0.434353 0.285267 0.043428
0.466947 0.286205 0.044541
0.499599 0.287150 0.045658
0.532307 0.288101 0.046776
0.565071 0.289059 0.047897
0.597888 0.290024 0.049021
0.630758 0.290994 0.050147
0.663680 0.291971 0.051275
0.696653 0.292954 0.052405
0.729674 0.293943 0.053537
0.762744 0.294937 0.054672
0.795861 0.295938 0.055808
0.828879 0.296940 0.056942
0.861369 0.297927 0.058057
0.893843 0.298918 0.059173
0.914891 0.299515 0.059891
0.914877 0.299383 0.059877
0.914863 0.299256 0.059863
0.033550 0.310153 0.033550
0.033521 0.309890 0.033521
0.033493 0.309633 0.033493
0.051527 0.310010 0.034095
0.083451 0.310875 0.035180
0.115448 0.311747 0.036268
0.147513 0.312627 0.037359
0.179648 0.313515 0.038453
0.211849 0.314409 0.039550
0.244116 0.315311 0.040650
0.276447 0.316220 0.041752
0.308841 0.317137 0.042858
0.341296 0.318060 0.043965
0.373811 0.318990 0.045076
0.406385 0.319926 0.046189
0.439016 0.320870 0.047304
0.471704 0.321820 0.048422
0.504447 0.322776 0.049542
0.537243 0.323739 0.050665
0.570092 0.324709 0.051790
0.602992 0.325684 0.052917
0.635943 0.326666 0.054047
0.668943 0.327655 0.055178
0.701991 0.328649 0.056312
0.735086 0.329649 0.057448
0.768227 0.330655 0.058586
0.801413 0.331667 0.059726
0.834447 0.332678 0.060861
0.866897 0.333673 0.061976
0.899325 0.334671 0.063091
0.918754 0.335221 0.063754
0.918740 0.335098 0.063740
0.918727 0.334980 0.063727
0.037384 0.345602 0.037384
0.037357 0.345348 0.037357
0.037330 0.345099 0.037330
0.054882 0.345467 0.037915
0.086932 0.346345 0.039006
0.119050 0.347231 0.040099
0.151234 0.348124 0.041195
0.183484 0.349024 0.042294
0.215797 0.349931 0.043396
0.248173 0.350846 0.044500
0.280611 0.351767 0.045608
0.313107 0.352696 0.046717
0.345663 0.353631 0.047829
0.378275 0.354574 0.048944
0.410944 0.355523 0.050061
0.443667 0.356478 0.051181
0.476444 0.357441 0.052303
0.509274 0.358409 0.053427
0.542154 0.359385 0.054554
0.575085 0.360366 0.055683
0.608065 0.361354 0.056813
0.641093 0.362348 0.057947
0.674167 0.363348 0.059082
0.707288 0.364354 0.060219
0.740453 0.365366 0.061358
0.773663 0.366384 0.062499
0.806915 0.367408 0.063643
0.839954 0.368428 0.064779
0.872354 0.369431 0.065893
0.904726 0.370436 0.067007
0.922618 0.370942 0.067618
0.922605 0.370830 0.067605
0.922594 0.370721 0.067594
0.041219 0.381050 0.041219
0.041192 0.380805 0.041192
0.041166 0.380566 0.041166
0.058285 0.380928 0.041737
0.090454 0.381820 0.042833
0.122688 0.382718 0.043931
0.154986 0.383625 0.045033
0.187346 0.384538 0.046136
0.219767 0.385459 0.047243
0.252247 0.386386 0.048352
0.284786 0.387321 0.049464
0.317381 0.388263 0.050578
0.350032 0.389211 0.051694
0.382738 0.390167 0.052813
0.415497 0.391129 0.053935
0.448309 0.392097 0.055058
0.481171 0.393072 0.056184
0.514084 0.394054 0.057313
0.547045 0.395042 0.058443
0.580054 0.396036 0.059576
0.613110 0.397036 0.060710
0.646211 0.398043 0.061847
0.679357 0.399055 0.062986
0.712547 0.400074 0.064126
0.745780 0.401098 0.065269
0.779055 0.402128 0.066414
0.812371 0.403164 0.067560
0.845406 0.404195 0.068697
0.877745 0.405205 0.069811
0.910048 0.406219 0.070923
0.926484 0.406684 0.071484
0.926473 0.406581 0.071473
0.926462 0.406483 0.071462
0.045053 0.416502 0.045053
0.045028 0.416267 0.045028
0.045003 0.416038 0.045003
0.061734 0.416397 0.045562
0.094018 0.417302 0.046663
0.126364 0.418215 0.047766
0.158770 0.419135 0.048872
0.191235 0.420062 0.049981
0.223758 0.420997 0.051092
0.256338 0.421938 0.052205
0.288974 0.422887 0.053321
0.321664 0.423842 0.054440
0.354406 0.424804 0.055561
0.387201 0.425773 0.056684
0.420047 0.426748 0.057810
0.452943 0.427730 0.058937
0.485887 0.428719 0.060067
0.518879 0.429713 0.061199
0.551917 0.430714 0.062333
0.585001 0.431722 0.063470
0.618130 0.432735 0.064608
0.651302 0.433755 0.065748
0.684517 0.434780 0.066890
0.717774 0.435812 0.068034
0.751072 0.436849 0.069181
0.784409 0.437892 0.070328
0.817787 0.438941 0.071478
0.850807 0.439981 0.072616
0.883074 0.441000 0.073728
0.915299 0.442021 0.074839
0.930353 0.442449 0.075353
0.930343 0.442357 0.075343
0.930333 0.442269 0.075333
0.048889 0.451962 0.048889
0.048865 0.451738 0.048865
0.048841 0.451519 0.048841
0.065231 0.451877 0.049389
0.097624 0.452797 0.050495
0.130076 0.453725 0.051603
0.162586 0.454659 0.052714
0.195152 0.455601 0.053827
0.227773 0.456550 0.054943
0.260448 0.457506 0.056061
0.293176 0.458468 0.057181
0.325956 0.459438 0.058304
0.358787 0.460414 0.059429
0.391667 0.461397 0.060557
0.424595 0.462386 0.061686
0.457571 0.463382 0.062818
0.490594 0.464384 0.063952
0.523662 0.465392 0.065087
0.556774 0.466407 0.066225
0.589930 0.467428 0.067365
0.623129 0.468455 0.068507
0.656369 0.469488 0.069651
0.689650 0.470527 0.070797
0.722971 0.471572 0.071944
0.756331 0.472622 0.073093
0.789730 0.473678 0.074245
0.823166 0.474740 0.075398
0.856163 0.475791 0.076536
0.888348 0.476818 0.077646
0.920483 0.477848 0.078755
0.934224 0.478241 0.079224
0.934215 0.478160 0.079215
0.934207 0.478083 0.079207
0.052726 0.487435 0.052726
0.052703 0.487223 0.052703
0.052681 0.487015 0.052681
0.068775 0.487374 0.053220
0.101272 0.488310 0.054330
0.133826 0.489252 0.055443
0.166434 0.490202 0.056559
0.199096 0.491158 0.057676
0.231811 0.492122 0.058797
0.264578 0.493092 0.059919
0.297394 0.494070 0.061044
0.330260 0.495054 0.062171
0.363175 0.496044 0.063300
0.396137 0.497042 0.064431
0.429145 0.498045 0.065565
0.462198 0.499055 0.066700
0.495295 0.500072 0.067838
0.528436 0.501094 0.068978
0.561620 0.502123 0.070119
0.594845 0.503158 0.071263
0.628110 0.504199 0.072408
0.661416 0.505246 0.073556
0.694761 0.506299 0.074705
0.728144 0.507357 0.075856
0.761564 0.508421 0.077008
0.795022 0.509491 0.078163
0.828515 0.510567 0.079319
0.861478 0.511628 0.080457
0.893570 0.512663 0.081565
0.925604 0.513701 0.082672
0.938099 0.514062 0.083099
0.938092 0.513993 0.083092
0.938084 0.513927 0.083084
0.056565 0.522926 0.056565
0.056544 0.522725 0.056544
0.056523 0.522530 0.056523
0.072365 0.522892 0.057054
0.104962 0.523843 0.058169
0.137613 0.524801 0.059287
0.170316 0.525766 0.060407
0.203070 0.526738 0.061529
0.235874 0.527717 0.062654
0.268728 0.528702 0.063780
0.301629 0.529695 0.064909
0.334578 0.530694 0.066040
0.367573 0.531699 0.067174
0.400613 0.532712 0.068309
0.433697 0.533730 0.069447
0.466824 0.534755 0.070586
0.499993 0.535786 0.071727
0.533204 0.536823 0.072871
0.566456 0.537866 0.074016
0.599748 0.538916 0.075163
0.633078 0.539971 0.076312
0.666447 0.541032 0.077463
0.699853 0.542099 0.078615
0.733296 0.543172 0.079769
0.766774 0.544250 0.080925
0.800289 0.545334 0.082083
0.833837 0.546423 0.083242
0.866759 0.547495 0.084380
0.898746 0.548538 0.085486
0.930669 0.549584 0.086590
0.941977 0.549916 0.086977
0.941971 0.549858 0.086971
0.941965 0.549805 0.086965
0.060407 0.558437 0.060407
0.060386 0.558249 0.060386
0.060367 0.558067 0.060367
0.076001 0.558435 0.060892
0.108694 0.559402 0.062012
0.141437 0.560375 0.063134
0.174231 0.561356 0.064259
0.207073 0.562344 0.065385
0.239963 0.563338 0.066514
0.272900 0.564340 0.067645
0.305883 0.565347 0.068778
0.338910 0.566362 0.069913
0.371982 0.567383 0.071051
0.405097 0.568410 0.072190
0.438254 0.569444 0.073331
0.471452 0.570483 0.074475
0.504691 0.571529 0.075620
0.537969 0.572582 0.076767
0.571287 0.573640 0.077915
0.604642 0.574704 0.079066
0.638035 0.575774 0.080219
0.671465 0.576849 0.081373
0.704930 0.577931 0.082529
0.738431 0.579018 0.083686
0.771966 0.580110 0.084845
0.805536 0.581209 0.086006
0.839138 0.582312 0.087169
0.872009 0.583394 0.088306
0.903881 0.584446 0.089409
0.935682 0.585500 0.090510
0.945859 0.585805 0.090859
0.945855 0.585759 0.090855
0.945850 0.585718 0.090850
0.064251 0.593974 0.064251
0.064232 0.593799 0.064232
0.064214 0.593630 0.064214
0.079684 0.594006 0.064735
0.112467 0.594989 0.065859
0.145299 0.595979 0.066986
0.178179 0.596976 0.068115
0.211106 0.597979 0.069246
0.244078 0.598990 0.070379
0.277095 0.600007 0.071514
0.310155 0.601031 0.072651
0.343259 0.602061 0.073790
0.376404 0.603097 0.074931
0.409591 0.604140 0.076075
0.442818 0.605189 0.077220
0.476085 0.606244 0.078367
0.509390 0.607306 0.079515
0.542734 0.608373 0.080666
0.576114 0.609446 0.081818
0.609532 0.610525 0.082973
0.642985 0.611610 0.084128
0.676473 0.612701 0.085286
0.709996 0.613797 0.086445
0.743553 0.614899 0.087606
0.777144 0.616006 0.088769
0.810767 0.617119 0.089933
0.844422 0.618237 0.091098
0.877234 0.619330 0.092235
0.908980 0.620389 0.093335
0.940649 0.621451 0.094433
0.949746 0.621731 0.094746
0.949742 0.621698 0.094742
0.949739 0.621669 0.094739
0.068098 0.629539 0.068098
0.068081 0.629379 0.068081
0.068064 0.629223 0.068064
0.083411 0.629608 0.068582
0.116282 0.630608 0.069711
0.149199 0.631614 0.070842
0.182162 0.632628 0.071975
0.215169 0.633648 0.073110
0.248220 0.634675 0.074247
0.281313 0.635708 0.075387
0.314449 0.636748 0.076528
0.347625 0.637794 0.077671
0.380841 0.638846 0.078816
0.414097 0.639905 0.079963
0.447392 0.640970 0.081112
0.480724 0.642041 0.082263
0.514094 0.643118 0.083415
0.547500 0.644200 0.084569
0.580942 0.645289 0.085725
0.614419 0.646383 0.086883
0.647931 0.647483 0.088042
0.681476 0.648589 0.089203
0.715055 0.649700 0.090366
0.748667 0.650817 0.091530
0.782311 0.651939 0.092695
0.815987 0.653067 0.093863
0.849694 0.654199 0.095031
0.882438 0.655303 0.096167
0.914048 0.656371 0.097264
0.945574 0.657440 0.098358
0.953636 0.657696 0.098636
0.953634 0.657676 0.098634
0.953632 0.657659 0.098632
0.071949 0.665137 0.071949
0.071933 0.664990 0.071933
0.071917 0.664849 0.071917
0.087185 0.665245 0.072435
0.120139 0.666262 0.073568
0.153137 0.667285 0.074703
0.186179 0.668316 0.075840
0.219264 0.669352 0.076980
0.252390 0.670396 0.078121
0.285557 0.671446 0.079264
0.318764 0.672502 0.080409
0.352010 0.673564 0.081557
0.385295 0.674633 0.082705
0.418617 0.675708 0.083856
0.451977 0.676788 0.085009
0.485373 0.677875 0.086163
0.518804 0.678968 0.087319
0.552271 0.680066 0.088477
0.585773 0.681170 0.089636
0.619308 0.682280 0.090797
0.652876 0.683396 0.091960
0.686477 0.684517 0.093124
0.720111 0.685643 0.094290
0.753776 0.686775 0.095457
0.787473 0.687912 0.096626
0.821200 0.689054 0.097797
0.854958 0.690202 0.098969
0.887628 0.691316 0.100103
0.919091 0.692392 0.101196
0.950463 0.693468 0.102286
0.957531 0.693703 0.102531
0.957530 0.693695 0.102530
0.957530 0.693692 0.102530
0.075803 0.700770 0.075803
0.075789 0.700638 0.075789
0.075775 0.700511 0.075775
0.091002 0.700920 0.076292
0.124037 0.701954 0.077430
0.157113 0.702995 0.078569
0.190231 0.704042 0.079711
0.223390 0.705096 0.080854
0.256588 0.706156 0.081999
0.289826 0.707222 0.083147
0.323102 0.708295 0.084296
0.356415 0.709374 0.085447
0.389766 0.710459 0.086599
0.423152 0.711550 0.087754
0.456575 0.712647 0.088910
0.490032 0.713750 0.090068
0.523524 0.714859 0.091227
0.557050 0.715973 0.092389
0.590609 0.717093 0.093551
0.624200 0.718218 0.094716
0.657824 0.719349 0.095882
0.691480 0.720486 0.097050
0.725166 0.721628 0.098219
0.758884 0.722775 0.099389
0.792632 0.723927 0.100561
0.826410 0.725085 0.101735
0.860218 0.726247 0.102910
0.892807 0.727371 0.104043
0.924113 0.728455 0.105132
0.955321 0.729538 0.106218
0.961431 0.729753 0.106431
0.961431 0.729758 0.106431
0.961432 0.729767 0.106432
0.079662 0.736441 0.079662
0.079649 0.736324 0.079649
0.079637 0.736212 0.079637
0.094865 0.736636 0.080156
0.127975 0.737687 0.081297
0.161127 0.738745 0.082441
0.194317 0.739810 0.083587
0.227547 0.740881 0.084734
0.260815 0.741958 0.085883
0.294121 0.743041 0.087034
0.327463 0.744131 0.088187
0.360842 0.745226 0.089342
0.394256 0.746328 0.090498
0.427705 0.747435 0.091656
0.461188 0.748549 0.092816
0.494705 0.749668 0.093978
0.528255 0.750792 0.095141
0.561838 0.751923 0.096305
0.595453 0.753059 0.097472
0.629100 0.754200 0.098639
0.662778 0.755347 0.099809
0.696487 0.756499 0.100980
0.730226 0.757656 0.102152
0.763995 0.758818 0.103326
0.797794 0.759986 0.104501
0.831622 0.761159 0.105678
0.865480 0.762336 0.106856
0.897981 0.763471 0.107988
0.929119 0.764561 0.109072
0.960153 0.765652 0.110153
0.965335 0.765847 0.110335
0.965337 0.765866 0.110337
0.965339 0.765888 0.110339
0.083525 0.772153 0.083525
0.083514 0.772051 0.083514
0.083503 0.771955 0.083503
0.098771 0.772395 0.084025
0.131955 0.773464 0.085171
0.165178 0.774539 0.086318
0.198439 0.775621 0.087468
0.231737 0.776709 0.088619
0.265072 0.777804 0.089773
0.298444 0.778904 0.090927
0.331850 0.780010 0.092084
0.365291 0.781123 0.093243
0.398767 0.782241 0.094403
0.432276 0.783365 0.095564
0.465818 0.784495 0.096728
0.499393 0.785630 0.097893
0.533000 0.786771 0.099059
0.566639 0.787918 0.100227
0.600309 0.789069 0.101397
0.634009 0.790227 0.102568
0.667740 0.791389 0.103741
0.701502 0.792557 0.104915
0.735292 0.793730 0.106090
0.769113 0.794908 0.107268
0.802962 0.796091 0.108446
0.836840 0.797278 0.109626
0.870747 0.798471 0.110807
0.903154 0.799615 0.111937
0.934114 0.800713 0.113016
0.964963 0.801811 0.114092
0.969244 0.801987 0.114244
0.969248 0.802019 0.114248
0.969251 0.802054 0.114251
0.087392 0.807908 0.087392
0.087383 0.807822 0.087383
0.087374 0.807741 0.087374
0.102720 0.808199 0.087900
0.135975 0.809286 0.089050
0.169267 0.810379 0.090202
0.202596 0.811479 0.091355
0.235960 0.812584 0.092511
0.269360 0.813696 0.093668
0.302794 0.814813 0.094826
0.336263 0.815936 0.095987
0.369765 0.817066 0.097149
0.403300 0.818201 0.098312
0.436867 0.819341 0.099478
0.470467 0.820488 0.100645
0.504098 0.821639 0.101813
0.537761 0.822797 0.102983
0.571454 0.823959 0.104154
0.605178 0.825127 0.105327
0.638932 0.826300 0.106502
0.672715 0.827479 0.107678
0.706528 0.828662 0.108855
0.740370 0.829850 0.110034
0.774241 0.831044 0.111214
0.808140 0.832242 0.112396
0.842068 0.833445 0.113579
0.876024 0.834653 0.114763
0.908332 0.835807 0.115891
0.939103 0.836912 0.116965
0.969758 0.838016 0.118036
0.973159 0.838175 0.118159
0.973163 0.838219 0.118163
0.973169 0.838267 0.118169
0.091265 0.843710 0.091265
0.091257 0.843639 0.091257
0.091250 0.843574 0.091250
0.106712 0.844052 0.091782
0.140035 0.845156 0.092936
0.173394 0.846267 0.094092
0.206787 0.847384 0.095249
0.240216 0.848507 0.096408
0.273678 0.849636 0.097569
0.307174 0.850770 0.098731
0.340702 0.851911 0.099895
0.374263 0.853057 0.101061
0.407856 0.854209 0.102228
0.441481 0.855366 0.103397
0.475137 0.856529 0.104567
0.508823 0.857697 0.105739
0.542540 0.858870 0.106912
0.576287 0.860049 0.108087
0.610064 0.861233 0.109264
