library/cube/Abyss_Glow_002.cube
# CINEGRADE LAB — Premium Cinematic LUT
# Title: Abyss Glow
# Category: Cinematic Shadows
# Description: Crushed blacks with teal shadows and warm highlights for cinema-inspired images
# Mood: Dramatic, cinematic, bold
# Variant: 3
# Generated: 2026-05-21T16:12:12.745030
TITLE "Abyss Glow"
LUT_3D_SIZE 9
0.000000 0.000000 0.000000
0.056794 0.001976 0.001976
0.178530 0.006213 0.006213
0.301997 0.010510 0.010510
0.427064 0.014862 0.014862
0.553604 0.019266 0.019266
0.681501 0.023716 0.023716
0.810578 0.028208 0.028208
0.885827 0.030827 0.030827
0.006654 0.061516 0.006654
0.060245 0.062240 0.008400
0.184710 0.065499 0.012619
0.310630 0.068878 0.016896
0.437891 0.072371 0.021226
0.566383 0.075971 0.025606
0.696003 0.079674 0.030033
0.826416 0.083466 0.034493
0.891692 0.085051 0.036692
0.022039 0.203746 0.022039
0.073260 0.204434 0.023707
0.200120 0.207832 0.028015
0.328190 0.211348 0.032374
0.457371 0.214975 0.036778
0.587569 0.218709 0.041226
0.718698 0.222545 0.045713
0.850077 0.226456 0.050215
0.907139 0.227845 0.052139
0.037384 0.345602 0.037384
0.086932 0.346345 0.039006
0.215797 0.349931 0.043396
0.345663 0.353631 0.047829
0.476444 0.357441 0.052303
0.608065 0.361354 0.056813
0.740453 0.365366 0.061358
0.872354 0.369431 0.065893
0.922594 0.370721 0.067594
0.052726 0.487435 0.052726
0.101272 0.488310 0.054330
0.231811 0.492122 0.058797
0.363175 0.496044 0.063300
0.495295 0.500072 0.067838
0.628110 0.504199 0.072408
0.761564 0.508421 0.077008
0.893570 0.512663 0.081565
0.938084 0.513927 0.083084
0.068098 0.629539 0.068098
0.116282 0.630608 0.069711
0.248220 0.634675 0.074247
0.380841 0.638846 0.078816
0.514094 0.643118 0.083415
0.647931 0.647483 0.088042
0.782311 0.651939 0.092695
0.914048 0.656371 0.097264
0.953632 0.657659 0.098632
0.083525 0.772153 0.083525
0.131955 0.773464 0.085171
0.265072 0.777804 0.089773
0.398767 0.782241 0.094403
0.533000 0.786771 0.099059
0.667740 0.791389 0.103741
0.802962 0.796091 0.108446
0.934114 0.800713 0.113016
0.969251 0.802054 0.114251
0.099006 0.915269 0.099006
0.148258 0.916896 0.100710
0.282396 0.921547 0.105377
0.417035 0.926283 0.110068
0.552155 0.931099 0.114782
0.687737 0.935991 0.119518
0.823770 0.940955 0.124276
0.954083 0.945772 0.128841
0.984949 0.947176 0.129949
0.103704 0.958704 0.103704
0.154292 0.960464 0.105464
0.289313 0.965163 0.110163
0.424788 0.969878 0.114878
0.560712 0.974608 0.119608
0.697081 0.979354 0.124354
0.833900 0.984115 0.129115
0.963120 0.988612 0.133612
0.989531 0.989531 0.134531
0.000871 0.000871 0.072015
0.057295 0.002808 0.071728
0.179314 0.007030 0.073843
0.303037 0.011312 0.076132
0.428331 0.015650 0.078587
0.555074 0.020040 0.081201
0.683149 0.024477 0.083965
0.812370 0.028955 0.086870
0.886518 0.031518 0.087956
0.007396 0.061904 0.071518
0.060695 0.062619 0.071391
0.185402 0.065891 0.073862
0.311540 0.069281 0.076494
0.438994 0.072784 0.079277
0.567657 0.076395 0.082206
0.697427 0.080108 0.085272
0.827945 0.083909 0.088460
0.892307 0.085469 0.089437
0.022712 0.204078 0.081046
0.073716 0.204768 0.081188
0.200780 0.208182 0.084080
0.329032 0.211714 0.087113
0.458375 0.215357 0.090279
0.588716 0.219106 0.093572
0.719970 0.222956 0.096984
0.851411 0.226879 0.100488
0.907715 0.228253 0.101457
0.038004 0.345915 0.091648
0.087407 0.346667 0.092052
0.216443 0.350273 0.095319
0.346461 0.353993 0.098707
0.477378 0.357821 0.102212
0.609119 0.361753 0.105825
0.741613 0.365783 0.109542
0.873535 0.369862 0.113311
0.923143 0.371144 0.114285
0.053307 0.487759 0.103230
0.101777 0.488649 0.103885
0.232459 0.492484 0.107481
0.363951 0.496428 0.111181
0.496186 0.500477 0.114980
0.629103 0.504625 0.118872
0.762649 0.508867 0.122850
0.894637 0.513125 0.126836
0.938617 0.514386 0.127816
0.068650 0.629898 0.115691
0.116825 0.630987 0.116583
0.248883 0.635078 0.120464
0.381613 0.639273 0.124432
0.514965 0.643567 0.128483
0.648891 0.647954 0.132610
0.783354 0.652431 0.136810
0.915041 0.656878 0.140962
0.954154 0.658167 0.141938
0.084059 0.772565 0.128924
0.132541 0.773900 0.130039
0.265762 0.778264 0.134159
0.399551 0.782725 0.138352
0.533872 0.787278 0.142611
0.668695 0.791918 0.146934
0.803995 0.796640 0.151313
0.935069 0.801277 0.155583
0.969768 0.802618 0.156532
0.099531 0.915761 0.142796
0.148892 0.917411 0.144119
0.283121 0.922085 0.148439
0.417846 0.926842 0.152816
0.553048 0.931678 0.157246
0.688710 0.936589 0.161723
0.824822 0.941571 0.166244
0.955035 0.946399 0.170585
0.985465 0.947802 0.171473
0.104220 0.959220 0.146331
0.154967 0.960982 0.147817
0.290069 0.965681 0.152263
0.425625 0.970396 0.156746
0.561628 0.975126 0.161263
0.698078 0.979872 0.165809
0.834980 0.984634 0.170382
0.964082 0.989125 0.174690
0.990026 0.990026 0.175413
0.002562 0.002562 0.211812
0.058640 0.004478 0.210703
0.180955 0.008701 0.212062
0.304943 0.012983 0.213635
0.430476 0.017322 0.215412
0.557431 0.021711 0.217386
0.685693 0.026148 0.219546
0.815067 0.030625 0.221881
0.888144 0.033144 0.222388
0.009014 0.063175 0.208716
0.062043 0.063897 0.207910
0.187002 0.067193 0.209759
0.313365 0.070606 0.211803
0.441020 0.074132 0.214033
0.569861 0.077765 0.216440
0.699789 0.081499 0.219016
0.830416 0.085318 0.221742
0.893891 0.086861 0.222251
0.024307 0.205340 0.216132
0.075113 0.206042 0.215720
0.202387 0.209484 0.218104
0.330828 0.213041 0.220659
0.460338 0.216709 0.223376
0.590828 0.220481 0.226247
0.722214 0.224354 0.229265
0.853719 0.228297 0.232396
0.909287 0.229663 0.232989
0.039581 0.347195 0.225012
0.088856 0.347965 0.224968
0.218068 0.351599 0.227825
0.348243 0.355346 0.230829
0.479301 0.359200 0.233973
0.611166 0.363157 0.237249
0.743771 0.367210 0.240649
0.875714 0.371310 0.244120
0.924708 0.372589 0.244792
0.054873 0.489078 0.235205
0.103282 0.489990 0.235501
0.234111 0.493854 0.238769
0.365734 0.497826 0.242162
0.498086 0.501901 0.245673
0.631110 0.506074 0.249295
0.764750 0.510341 0.253020
0.896721 0.514618 0.256765
0.940177 0.515880 0.257501
0.070211 0.631274 0.246553
0.118386 0.632388 0.247161
0.250568 0.636508 0.250779
0.383410 0.640730 0.254501
0.516862 0.645050 0.258320
0.650881 0.649462 0.262230
0.785428 0.653962 0.266223
0.917063 0.658427 0.270175
0.955714 0.659718 0.270947
0.085618 0.774010 0.258896
0.134160 0.775372 0.259784
0.267486 0.779764 0.263691
0.401371 0.784251 0.267683
0.535782 0.788828 0.271751
0.670689 0.793491 0.275891
0.806068 0.798235 0.280096
0.937063 0.802888 0.284191
0.971328 0.804231 0.284959
0.101092 0.917295 0.272048
0.150568 0.918971 0.273184
0.284889 0.923668 0.277325
0.419702 0.928448 0.281530
0.554986 0.933306 0.285792
0.690729 0.938236 0.290107
0.826922 0.943237 0.294469
0.957033 0.948076 0.298644
0.987026 0.949477 0.299356
0.105776 0.960776 0.274966
0.156688 0.962542 0.276288
0.291873 0.967242 0.280571
0.427509 0.971957 0.284893
0.563593 0.976689 0.289250
0.700124 0.981436 0.293636
0.837111 0.986199 0.298047
0.966093 0.990683 0.302184
0.991565 0.991565 0.302718
0.004246 0.004246 0.351035
0.059987 0.006141 0.349135
0.182592 0.010365 0.349765
0.306841 0.014649 0.350650
0.432608 0.018988 0.351777
0.559771 0.023377 0.353136
0.688217 0.027814 0.354717
0.817739 0.032289 0.356505
0.889766 0.034766 0.356456
0.010628 0.064449 0.345438
0.063394 0.065178 0.343980
0.188599 0.068498 0.345231
0.315184 0.071935 0.346711
0.443036 0.075483 0.348411
0.572053 0.079137 0.350319
0.702137 0.082892 0.352425
0.832868 0.086730 0.354709
0.895471 0.088257 0.354770
0.025897 0.206606 0.350827
0.076513 0.207322 0.349883
0.203994 0.210790 0.351780
0.332620 0.214373 0.353878
0.462295 0.218065 0.356167
0.592931 0.221861 0.358635
0.724446 0.225756 0.361275
0.856011 0.229719 0.364051
0.910856 0.231076 0.364285
0.041156 0.348480 0.358058
0.090310 0.349269 0.357585
0.219695 0.352931 0.360050
0.350024 0.356705 0.362687
0.481219 0.360585 0.365488
0.613206 0.364566 0.368442
0.745920 0.368643 0.371541
0.877880 0.372762 0.374726
0.926270 0.374039 0.375110
0.056438 0.490404 0.366922
0.104791 0.491339 0.366877
0.235764 0.495231 0.369832
0.367517 0.499231 0.372932
0.499985 0.503332 0.376169
0.633112 0.507530 0.379533
0.766847 0.511820 0.383017
0.898796 0.516116 0.386530
0.941737 0.517379 0.387031
0.071771 0.632658 0.377210
0.119953 0.633797 0.377546
0.252256 0.637945 0.380913
0.385207 0.642194 0.384400
0.518759 0.646540 0.387998
0.652869 0.650976 0.391699
0.787500 0.655499 0.395494
0.919081 0.659981 0.399254
0.957272 0.661275 0.399827
0.087175 0.775463 0.388702
0.135784 0.776852 0.389373
0.269213 0.781270 0.393076
0.403194 0.785783 0.396874
0.537694 0.790385 0.400759
0.672684 0.795071 0.404722
0.808143 0.799837 0.408757
0.939056 0.804504 0.412682
0.972887 0.805848 0.413270
0.102651 0.918835 0.401162
0.152249 0.920537 0.402118
0.286661 0.925258 0.406086
0.421560 0.930060 0.410123
0.556928 0.934938 0.414222
0.692751 0.939889 0.418377
0.829024 0.944907 0.422581
0.959032 0.949757 0.426592
0.988585 0.951155 0.427128
0.107330 0.962330 0.403482
0.158413 0.964101 0.404644
0.293680 0.968801 0.408766
0.429397 0.973518 0.412928
0.565561 0.978250 0.417126
0.702175 0.982998 0.421351
0.839247 0.987762 0.425599
0.968107 0.992240 0.429561
0.993104 0.993104 0.429903
0.005924 0.005924 0.489700
0.061333 0.007798 0.487038
0.184224 0.012024 0.486969
0.308731 0.016309 0.487192
0.434727 0.020648 0.487694
0.562095 0.025038 0.488464
0.690722 0.029474 0.489488
0.820388 0.033948 0.490753
0.891383 0.036383 0.490171
0.012236 0.065725 0.481696
0.064748 0.066461 0.479612
0.190195 0.069806 0.480290
0.316997 0.073266 0.481231
0.445044 0.076837 0.482422
0.574234 0.080512 0.483853
0.704469 0.084287 0.485511
0.835301 0.088144 0.487372
0.897049 0.089656 0.487005
0.027484 0.207876 0.485142
0.077916 0.208606 0.483688
0.205601 0.212101 0.485121
0.334408 0.215709 0.486782
0.464245 0.219426 0.488660
0.595025 0.223245 0.490745
0.726667 0.227163 0.493025
0.858288 0.231145 0.495462
0.912424 0.232494 0.495352
0.042728 0.349771 0.490795
0.091767 0.350578 0.489912
0.221322 0.354269 0.492004
0.351803 0.358069 0.494291
0.483133 0.361975 0.496764
0.615241 0.365980 0.499411
0.748061 0.370081 0.502223
0.880035 0.374219 0.505136
0.927832 0.375493 0.505244
0.058001 0.491737 0.498392
0.106305 0.492694 0.498021
0.237420 0.496615 0.500677
0.369300 0.500641 0.503498
0.501882 0.504768 0.506473
0.635112 0.508991 0.509592
0.768938 0.513305 0.512845
0.900863 0.517619 0.516137
0.943296 0.518883 0.516413
0.073329 0.634049 0.507667
0.121525 0.635213 0.507745
0.253947 0.639389 0.510873
0.387006 0.643665 0.514135
0.520656 0.648035 0.517521
0.654856 0.652496 0.521022
0.789570 0.657042 0.524627
0.921094 0.661541 0.528201
0.958830 0.662837 0.528581
0.088732 0.776923 0.518348
0.137412 0.778338 0.518810
0.270944 0.782784 0.522318
0.405019 0.787322 0.525930
0.539606 0.791948 0.529637
0.674679 0.796656 0.533429
0.810218 0.801443 0.537298
0.941047 0.806125 0.541056
0.974446 0.807470 0.541468
0.104210 0.920383 0.530143
0.153935 0.922110 0.530925
0.288437 0.926854 0.534724
0.423421 0.931677 0.538598
0.558871 0.936576 0.542538
0.694776 0.941545 0.546535
0.831130 0.946582 0.550581
0.961033 0.951441 0.554429
0.990144 0.952837 0.554787
0.108883 0.963883 0.531881
0.160141 0.965658 0.532884
0.295490 0.970359 0.536847
0.431288 0.975077 0.540851
0.567533 0.979810 0.544889
0.704230 0.984559 0.548953
0.841388 0.989324 0.553036
0.970125 0.993796 0.556820
0.994641 0.994641 0.556966
0.007594 0.007594 0.627821
0.062681 0.009449 0.624426
0.185853 0.013677 0.623685
0.310612 0.017963 0.623273
0.436835 0.022303 0.623176
0.564404 0.026693 0.623381
0.693209 0.031129 0.623874
0.823013 0.035602 0.624637
0.892997 0.037997 0.623545
0.013840 0.067004 0.617505
0.066104 0.067747 0.614821
0.191790 0.071117 0.614950
0.318806 0.074600 0.615374
0.447044 0.078193 0.616079
0.576403 0.081890 0.617053
0.706788 0.085685 0.618282
0.837715 0.089560 0.619741
0.898625 0.091058 0.618964
0.029067 0.209151 0.619088
0.079323 0.209895 0.617147
0.207208 0.213416 0.618135
0.336194 0.217050 0.619380
0.466190 0.220790 0.620867
0.597111 0.224633 0.622585
0.728877 0.228573 0.624522
0.860550 0.232574 0.626636
0.913989 0.233916 0.626198
0.044297 0.351068 0.623233
0.093229 0.351894 0.621960
0.222950 0.355612 0.623696
0.353580 0.359439 0.625650
0.485043 0.363370 0.627810
0.617270 0.367400 0.630165
0.750195 0.371523 0.632703
0.882179 0.375681 0.635357
0.929392 0.376953 0.635201
0.059562 0.493077 0.629622
0.107824 0.494056 0.628940
0.239078 0.498005 0.631313
0.371082 0.502058 0.633867
0.503777 0.506211 0.636593
0.637108 0.510458 0.639477
0.771026 0.514795 0.642510
0.902923 0.519128 0.645591
0.944853 0.520393 0.645649
0.074885 0.635447 0.637932
0.123101 0.636636 0.637764
0.255640 0.640840 0.640664
0.388806 0.645142 0.643711
0.522553 0.649538 0.646894
0.656842 0.654022 0.650203
0.791639 0.658590 0.653625
0.923103 0.663106 0.657018
0.960387 0.664403 0.657212
0.090288 0.778390 0.647838
0.139046 0.779833 0.648101
0.272678 0.784304 0.651421
0.406847 0.788867 0.654854
0.541521 0.793517 0.658389
0.676676 0.798247 0.662015
0.812294 0.803055 0.665722
0.943037 0.807751 0.669316
0.976003 0.809097 0.669554
0.105768 0.921936 0.658994
0.155625 0.923689 0.659608
0.290216 0.928456 0.663243
0.425286 0.933300 0.666957
0.560818 0.938219 0.670739
0.696804 0.943207 0.674580
0.833239 0.948261 0.678471
0.963035 0.953130 0.682154
0.991702 0.954522 0.682334
0.110435 0.965435 0.660163
0.161873 0.967214 0.661011
0.297304 0.971917 0.664817
0.433182 0.976635 0.668663
0.569509 0.981369 0.672541
0.706289 0.986119 0.676441
0.843534 0.990885 0.680357
0.972147 0.995351 0.683961
0.996176 0.996176 0.683906
0.009259 0.009259 0.765414
0.064030 0.011095 0.761315
0.187478 0.015324 0.759929
0.312486 0.019612 0.758908
0.438931 0.023953 0.758237
0.566698 0.028343 0.757901
0.695677 0.032779 0.757885
0.825616 0.037252 0.758168
0.894606 0.039606 0.756587
0.015439 0.068285 0.752877
0.067463 0.069037 0.749618
0.193384 0.072430 0.749222
0.320610 0.075938 0.749152
0.449035 0.079553 0.749393
0.578560 0.083271 0.749931
0.709092 0.087086 0.750751
0.840111 0.090980 0.751825
0.900198 0.092463 0.750657
0.030647 0.210431 0.752677
0.080734 0.211188 0.750271
0.208815 0.214736 0.750835
0.337977 0.218395 0.751681
0.468129 0.222160 0.752796
0.599188 0.226026 0.754166
0.731077 0.229987 0.755776
0.862797 0.234008 0.757582
0.915553 0.235343 0.756830
0.045864 0.352370 0.755382
0.094695 0.353216 0.753738
0.224580 0.356961 0.755134
0.355357 0.360814 0.756770
0.486950 0.364770 0.758633
0.619293 0.368824 0.760710
0.752322 0.372971 0.762988
0.884312 0.377147 0.765395
0.930950 0.378417 0.764986
0.061121 0.494423 0.760619
0.109347 0.495425 0.759643
0.240738 0.499402 0.761745
0.372865 0.503482 0.764046
0.505671 0.507660 0.766534
0.639101 0.511931 0.769195
0.773109 0.516291 0.772017
0.904975 0.520641 0.774895
0.946410 0.521907 0.774745
0.076441 0.636852 0.768012
0.124682 0.638066 0.767608
0.257337 0.642297 0.770291
0.390607 0.646626 0.773133
0.524450 0.651046 0.776122
0.658827 0.655554 0.779245
0.793707 0.660144 0.782491
0.925107 0.664676 0.785711
0.961944 0.665975 0.785722
0.091843 0.779865 0.777177
0.140684 0.781334 0.777250
0.274416 0.785832 0.780389
0.408677 0.790419 0.783649
0.543437 0.795091 0.787017
0.678675 0.799844 0.790481
0.814372 0.804672 0.794031
0.945026 0.809381 0.797463
0.977560 0.810728 0.797527
0.107325 0.923496 0.787718
0.157319 0.925274 0.788169
0.291999 0.930063 0.791644
0.427154 0.934928 0.795201
0.562768 0.939867 0.798828
0.698835 0.944873 0.802514
0.835352 0.949944 0.806249
0.965039 0.954822 0.809768
0.993260 0.956211 0.809767
0.111985 0.966985 0.788331
0.163608 0.968769 0.789026
0.299120 0.973472 0.792675
0.435080 0.978192 0.796363
0.571488 0.982927 0.800080
0.708352 0.987678 0.803815
0.845686 0.992445 0.807560
0.974173 0.996904 0.810980
0.997710 0.997710 0.810719
0.010397 0.010397 0.859533
0.064904 0.012258 0.858313
0.188665 0.016530 0.859661
0.313955 0.020857 0.861215
0.440654 0.025235 0.862963
0.568648 0.029660 0.864894
0.697831 0.034128 0.866998
0.827929 0.038629 0.869258
0.895972 0.040972 0.869478
0.016650 0.069184 0.856034
0.068476 0.069980 0.855124
0.194660 0.073431 0.856946
0.322124 0.076992 0.858947
0.450762 0.080658 0.861118
0.580477 0.084424 0.863450
0.711177 0.088285 0.865932
0.842306 0.092219 0.868538
0.901607 0.093710 0.868747
0.031949 0.211440 0.863175
0.081901 0.212239 0.862638
0.210201 0.215839 0.864949
0.339560 0.219547 0.867411
0.469888 0.223359 0.870015
0.601104 0.227268 0.872752
0.733132 0.231270 0.875613
0.864912 0.235327 0.878553
0.917013 0.236671 0.878804
0.047240 0.353490 0.871655
0.095998 0.354376 0.871447
0.226064 0.358169 0.874168
0.357003 0.362067 0.877015
0.488742 0.366064 0.879976
0.621214 0.370157 0.883045
0.754360 0.374340 0.886211
0.886363 0.378548 0.889406
0.932448 0.379827 0.889673
0.062556 0.495653 0.881264
0.110769 0.496694 0.881342
0.242309 0.500713 0.884399
0.374570 0.504833 0.887554
0.507496 0.509048 0.890800
0.641035 0.513354 0.894127
0.775142 0.517746 0.897528
0.906981 0.522122 0.900898
0.947934 0.523396 0.901147
0.077921 0.638190 0.891795
0.126206 0.639441 0.892113
0.258984 0.643710 0.895431
0.392367 0.648072 0.898822
0.526312 0.652525 0.902279
0.660783 0.657063 0.905795
0.795751 0.661681 0.909361
0.927090 0.666233 0.912828
0.963486 0.667538 0.913011
0.093356 0.781307 0.903036
0.142295 0.782809 0.903548
0.276131 0.787339 0.907053
0.410489 0.791956 0.910608
0.545340 0.796656 0.914206
0.680663 0.801434 0.917840
0.816443 0.806286 0.921501
0.947009 0.811010 0.924988
0.979112 0.812359 0.925048
0.108863 0.925044 0.914759
0.159004 0.926851 0.915420
0.293776 0.931665 0.919043
0.429017 0.936554 0.922693
0.564716 0.941514 0.926363
0.700866 0.946540 0.930046
0.837467 0.951629 0.933737
0.967045 0.956517 0.937169
0.994815 0.957901 0.937037
0.113528 0.968528 0.915823
0.165343 0.970318 0.916546
0.300937 0.975024 0.920175
0.436979 0.979746 0.923803
0.573470 0.984482 0.927426
0.710420 0.989235 0.931038
0.847843 0.994003 0.934633
0.976203 0.998456 0.937873
0.999243 0.999243 0.937404
0.010469 0.010469 0.865469
0.064721 0.012357 0.867357
0.188792 0.016675 0.871675
0.314363 0.021045 0.876045
0.441315 0.025463 0.880463
0.569537 0.029925 0.884925
0.698922 0.034427 0.889427
0.829180 0.038960 0.893960
0.896296 0.041296 0.896296
0.016804 0.069035 0.871804
0.068443 0.069877 0.873501
0.194890 0.073388 0.877808
0.322590 0.077006 0.882166
0.451441 0.080727 0.886570
0.581347 0.084544 0.891017
0.712218 0.088454 0.895504
0.843456 0.092433 0.900009
0.901990 0.093936 0.901990
0.032205 0.211411 0.887205
0.082035 0.212257 0.888846
0.210554 0.215912 0.893233
0.340109 0.219674 0.897663
0.470615 0.223536 0.902134
0.601990 0.227493 0.906641
0.734161 0.231541 0.911183
0.866002 0.235639 0.915720
0.917465 0.236998 0.917465
0.047584 0.353587 0.902584
0.096282 0.354518 0.904199
0.226530 0.358363 0.908660
0.357634 0.362310 0.913158
0.489521 0.366355 0.917690
0.622127 0.370492 0.922255
0.755394 0.374718 0.926849
0.887414 0.378963 0.931407
0.932962 0.380259 0.932962
0.062976 0.495878 0.917976
0.111188 0.496963 0.919592
0.242881 0.501030 0.924121
0.375281 0.505196 0.928682
0.508333 0.509454 0.933273
0.641988 0.513802 0.937893
0.776200 0.518234 0.942538
0.908017 0.522644 0.947107
0.948504 0.523935 0.948504
0.078409 0.638544 0.933409
0.126750 0.639839 0.935050
0.259657 0.644151 0.939643
0.393159 0.648557 0.944263
0.527214 0.653050 0.948910
0.661788 0.657627 0.953583
0.796852 0.662282 0.958278
0.928138 0.666865 0.962848
0.964107 0.668186 0.964107
0.093904 0.781790 0.948904
0.142953 0.783335 0.950594
0.276902 0.787906 0.955246
0.411365 0.792562 0.959922
0.546317 0.797300 0.964623
0.681737 0.802114 0.969346
0.817611 0.807000 0.974091
0.948099 0.811752 0.978654
0.979784 0.813114 0.979784
0.109467 0.925663 0.964467
0.159770 0.927510 0.966227
0.294644 0.932361 0.970937
0.429984 0.937285 0.975670
0.565780 0.942278 0.980423
0.702027 0.947337 0.985198
0.838725 0.952457 0.989993
0.968207 0.957369 0.994542
0.995539 0.958764 0.995539
0.114173 0.969173 0.969173
0.166198 0.970983 0.970983
0.301888 0.975706 0.975706
0.438027 0.980443 0.980443
0.574616 0.985197 0.985197
0.711668 0.989966 0.989966
0.849198 0.994752 0.994752
0.977446 0.999215 0.999215
1.000000 1.000000 1.000000
