library/cube/Abyss_Glow_002.cube
# CINEGRADE LAB — Premium Cinematic LUT
# Title: Abyss Glow
# Category: Cinematic Shadows
# Description: Crushed blacks with teal shadows and warm highlights for cinema-inspired images
# Mood: Dramatic, cinematic, bold
# Variant: 3
# Generated: 2026-05-21T16:12:12.745030
TITLE "Abyss Glow"
LUT_3D_SIZE 5
0.000000 0.000000 0.000000
0.178530 0.006213 0.006213
0.427064 0.014862 0.014862
0.681501 0.023716 0.023716
0.885827 0.030827 0.030827
0.022039 0.203746 0.022039
0.200120 0.207832 0.028015
0.457371 0.214975 0.036778
0.718698 0.222545 0.045713
0.907139 0.227845 0.052139
0.052726 0.487435 0.052726
0.231811 0.492122 0.058797
0.495295 0.500072 0.067838
0.761564 0.508421 0.077008
0.938084 0.513927 0.083084
0.083525 0.772153 0.083525
0.265072 0.777804 0.089773
0.533000 0.786771 0.099059
0.802962 0.796091 0.108446
0.969251 0.802054 0.114251
0.103704 0.958704 0.103704
0.289313 0.965163 0.110163
0.560712 0.974608 0.119608
0.833900 0.984115 0.129115
0.989531 0.989531 0.134531
0.002562 0.002562 0.211812
0.180955 0.008701 0.212062
0.430476 0.017322 0.215412
0.685693 0.026148 0.219546
0.888144 0.033144 0.222388
0.024307 0.205340 0.216132
0.202387 0.209484 0.218104
0.460338 0.216709 0.223376
0.722214 0.224354 0.229265
0.909287 0.229663 0.232989
0.054873 0.489078 0.235205
0.234111 0.493854 0.238769
0.498086 0.501901 0.245673
0.764750 0.510341 0.253020
0.940177 0.515880 0.257501
0.085618 0.774010 0.258896
0.267486 0.779764 0.263691
0.535782 0.788828 0.271751
0.806068 0.798235 0.280096
0.971328 0.804231 0.284959
0.105776 0.960776 0.274966
0.291873 0.967242 0.280571
0.563593 0.976689 0.289250
0.837111 0.986199 0.298047
0.991565 0.991565 0.302718
0.005924 0.005924 0.489700
0.184224 0.012024 0.486969
0.434727 0.020648 0.487694
0.690722 0.029474 0.489488
0.891383 0.036383 0.490171
0.027484 0.207876 0.485142
0.205601 0.212101 0.485121
0.464245 0.219426 0.488660
0.726667 0.227163 0.493025
0.912424 0.232494 0.495352
0.058001 0.491737 0.498392
0.237420 0.496615 0.500677
0.501882 0.504768 0.506473
0.768938 0.513305 0.512845
0.943296 0.518883 0.516413
0.088732 0.776923 0.518348
0.270944 0.782784 0.522318
0.539606 0.791948 0.529637
0.810218 0.801443 0.537298
0.974446 0.807470 0.541468
0.108883 0.963883 0.531881
0.295490 0.970359 0.536847
0.567533 0.979810 0.544889
0.841388 0.989324 0.553036
0.994641 0.994641 0.556966
0.009259 0.009259 0.765414
0.187478 0.015324 0.759929
0.438931 0.023953 0.758237
0.695677 0.032779 0.757885
0.894606 0.039606 0.756587
0.030647 0.210431 0.752677
0.208815 0.214736 0.750835
0.468129 0.222160 0.752796
0.731077 0.229987 0.755776
0.915553 0.235343 0.756830
0.061121 0.494423 0.760619
0.240738 0.499402 0.761745
0.505671 0.507660 0.766534
0.773109 0.516291 0.772017
0.946410 0.521907 0.774745
0.091843 0.779865 0.777177
0.274416 0.785832 0.780389
0.543437 0.795091 0.787017
0.814372 0.804672 0.794031
0.977560 0.810728 0.797527
0.111985 0.966985 0.788331
0.299120 0.973472 0.792675
0.571488 0.982927 0.800080
0.845686 0.992445 0.807560
0.997710 0.997710 0.810719
0.010469 0.010469 0.865469
0.188792 0.016675 0.871675
0.441315 0.025463 0.880463
0.698922 0.034427 0.889427
0.896296 0.041296 0.896296
0.032205 0.211411 0.887205
0.210554 0.215912 0.893233
0.470615 0.223536 0.902134
0.734161 0.231541 0.911183
0.917465 0.236998 0.917465
0.062976 0.495878 0.917976
0.242881 0.501030 0.924121
0.508333 0.509454 0.933273
0.776200 0.518234 0.942538
0.948504 0.523935 0.948504
0.093904 0.781790 0.948904
0.276902 0.787906 0.955246
0.546317 0.797300 0.964623
0.817611 0.807000 0.974091
0.979784 0.813114 0.979784
0.114173 0.969173 0.969173
0.301888 0.975706 0.975706
0.574616 0.985197 0.985197
0.849198 0.994752 0.994752
1.000000 1.000000 1.000000
