library/cube/Alexa_Log_000.cube
# CINEGRADE LAB — Premium Cinematic LUT
# Title: Alexa Log
# Category: ARRI Alexa Look
# Description: Digital cinema natural skin tones with wide dynamic range emulation
# Mood: Cinematic, natural, professional
# Variant: 1
# Generated: 2026-05-21T16:12:51.417339
TITLE "Alexa Log"
LUT_3D_SIZE 9
0.000000 0.000000 0.000000
0.085606 0.001554 0.001554
0.206486 0.003748 0.003748
0.328862 0.005969 0.005969
0.452159 0.008207 0.008207
0.576127 0.010458 0.010458
0.700625 0.012717 0.012717
0.825560 0.014985 0.014985
0.937008 0.017008 0.017008
0.005656 0.096609 0.005656
0.091263 0.098162 0.007210
0.220957 0.100517 0.009564
0.345780 0.102782 0.011830
0.471544 0.105065 0.014113
0.597991 0.107360 0.016408
0.706281 0.109326 0.018374
0.831216 0.111594 0.020641
0.942664 0.113617 0.022664
0.012903 0.220379 0.012903
0.098509 0.221933 0.014457
0.219389 0.224127 0.016651
0.353027 0.226553 0.019077
0.478790 0.228835 0.021360
0.605238 0.231131 0.023655
0.732226 0.233436 0.025960
0.859659 0.235749 0.028273
0.949911 0.237387 0.029911
0.020235 0.345610 0.020235
0.105842 0.347164 0.021789
0.226721 0.349358 0.023983
0.349097 0.351580 0.026205
0.472394 0.353818 0.028443
0.612570 0.356362 0.030987
0.739558 0.358667 0.033292
0.866992 0.360980 0.035605
0.957243 0.362618 0.037243
0.027621 0.471758 0.027621
0.113228 0.473312 0.029175
0.234107 0.475506 0.031369
0.356483 0.477727 0.033591
0.479780 0.479965 0.035829
0.603749 0.482216 0.038079
0.746944 0.484815 0.040678
0.874378 0.487128 0.042991
0.964629 0.488766 0.044629
0.035047 0.598579 0.035047
0.120653 0.600133 0.036601
0.241532 0.602327 0.038795
0.363908 0.604548 0.041016
0.487206 0.606786 0.043254
0.611174 0.609036 0.045504
0.735672 0.611296 0.047764
0.881803 0.613948 0.050417
0.972055 0.615587 0.052055
0.042503 0.725932 0.042503
0.128109 0.727486 0.044057
0.248989 0.729680 0.046251
0.371365 0.731902 0.048473
0.494662 0.734140 0.050711
0.618631 0.736390 0.052961
0.743128 0.738650 0.055221
0.868063 0.740917 0.057488
0.979511 0.742940 0.059511
0.049986 0.853728 0.049986
0.135592 0.855282 0.051540
0.256471 0.857476 0.053734
0.378847 0.859697 0.055955
0.502145 0.861935 0.058193
0.626113 0.864185 0.060443
0.750611 0.866445 0.062703
0.875546 0.868713 0.064971
0.986994 0.870736 0.066994
0.057216 0.977216 0.057216
0.142822 0.978770 0.058770
0.263702 0.980964 0.060964
0.386078 0.983185 0.063185
0.509375 0.985423 0.065423
0.633343 0.987674 0.067674
0.757841 0.989933 0.069933
0.882776 0.992201 0.072201
0.994224 0.994224 0.074224
0.000623 0.000623 0.099776
0.086229 0.002176 0.101330
0.207108 0.004371 0.103524
0.329484 0.006592 0.105745
0.452781 0.008830 0.107983
0.576750 0.011080 0.110233
0.701247 0.013340 0.112493
0.826182 0.015608 0.114761
0.937631 0.017631 0.116784
0.006279 0.097231 0.105432
0.091885 0.098785 0.106986
0.212764 0.100979 0.109180
0.335141 0.103200 0.111401
0.458438 0.105438 0.113639
0.582406 0.107689 0.115890
0.706904 0.109948 0.118149
0.831839 0.112216 0.120417
0.943287 0.114239 0.122440
0.013526 0.221001 0.112679
0.099132 0.222555 0.114233
0.220011 0.224749 0.116427
0.353650 0.227175 0.118853
0.479413 0.229458 0.121135
0.605860 0.231753 0.123431
0.732848 0.234058 0.125736
0.839086 0.235986 0.127664
0.950534 0.238009 0.129687
0.020858 0.346233 0.120011
0.106464 0.347787 0.121565
0.227344 0.349981 0.123759
0.349720 0.352202 0.125980
0.486745 0.354689 0.128468
0.613193 0.356984 0.130763
0.740180 0.359289 0.133068
0.867614 0.361603 0.135381
0.957866 0.363241 0.137019
0.028244 0.472381 0.127397
0.113850 0.473934 0.128951
0.234729 0.476129 0.131145
0.357106 0.478350 0.133366
0.480403 0.480588 0.135604
0.604371 0.482838 0.137855
0.747566 0.485437 0.140454
0.875000 0.487750 0.142767
0.965252 0.489389 0.144405
0.035669 0.599201 0.134822
0.121275 0.600755 0.136376
0.242155 0.602949 0.138570
0.364531 0.605171 0.140792
0.487828 0.607409 0.143030
0.611796 0.609659 0.145280
0.736294 0.611919 0.147540
0.882425 0.614571 0.150192
0.972677 0.616209 0.151830
0.043126 0.726555 0.142279
0.128732 0.728109 0.143833
0.249611 0.730303 0.146027
0.371987 0.732524 0.148248
0.495285 0.734762 0.150486
0.619253 0.737012 0.152737
0.743751 0.739272 0.154996
0.868686 0.741540 0.157264
0.980134 0.743563 0.159287
0.050608 0.854350 0.149761
0.136214 0.855904 0.151315
0.257094 0.858098 0.153509
0.379470 0.860320 0.155731
0.502767 0.862558 0.157969
0.626735 0.864808 0.160219
0.751233 0.867068 0.162479
0.876168 0.869335 0.164747
0.987616 0.871358 0.166769
0.057839 0.977839 0.156992
0.143445 0.979392 0.158546
0.264324 0.981587 0.160740
0.386700 0.983808 0.162961
0.509997 0.986046 0.165199
0.633966 0.988296 0.167449
0.758463 0.990556 0.169709
0.883398 0.992824 0.171977
0.994847 0.994847 0.174000
0.001328 0.001328 0.212874
0.086934 0.002882 0.214428
0.207814 0.005076 0.216622
0.330190 0.007297 0.218844
0.453487 0.009535 0.221082
0.577455 0.011786 0.223332
0.701953 0.014045 0.225592
0.826888 0.016313 0.227859
0.938336 0.018336 0.229882
0.006985 0.097937 0.218531
0.092591 0.099491 0.220085
0.213470 0.101685 0.222279
0.335846 0.103906 0.224500
0.459143 0.106144 0.226738
0.583112 0.108394 0.228988
0.707609 0.110654 0.231248
0.832545 0.112922 0.233516
0.943993 0.114945 0.235539
0.014231 0.221707 0.225778
0.099837 0.223261 0.227331
0.220717 0.225455 0.229526
0.343093 0.227676 0.231747
0.466390 0.229914 0.233985
0.590359 0.232165 0.236235
0.714856 0.234424 0.238495
0.839791 0.236692 0.240763
0.951239 0.238715 0.242786
0.021564 0.346938 0.233110
0.107170 0.348492 0.234664
0.228049 0.350686 0.236858
0.350425 0.352908 0.239079
0.487451 0.355395 0.241566
0.613898 0.357690 0.243862
0.740886 0.359995 0.246167
0.868320 0.362308 0.248480
0.958572 0.363946 0.250118
0.028950 0.473086 0.240496
0.114556 0.474640 0.242050
0.235435 0.476834 0.244244
0.357811 0.479055 0.246465
0.481108 0.481293 0.248703
0.621284 0.483838 0.251248
0.748272 0.486143 0.253553
0.875706 0.488456 0.255866
0.965958 0.490094 0.257504
0.036375 0.599907 0.247921
0.121981 0.601461 0.249475
0.242860 0.603655 0.251669
0.365237 0.605876 0.253891
0.488534 0.608114 0.256129
0.612502 0.610364 0.258379
0.737000 0.612624 0.260639
0.883131 0.615277 0.263291
0.973383 0.616915 0.264929
0.043831 0.727261 0.255378
0.129438 0.728814 0.256932
0.250317 0.731009 0.259126
0.372693 0.733230 0.261347
0.495990 0.735468 0.263585
0.619959 0.737718 0.265835
0.744456 0.739978 0.268095
0.869391 0.742246 0.270363
0.980839 0.744269 0.272386
0.051314 0.855056 0.262860
0.136920 0.856610 0.264414
0.257799 0.858804 0.266608
0.380176 0.861025 0.268829
0.503473 0.863263 0.271068
0.627441 0.865514 0.273318
0.751939 0.867773 0.275578
0.876874 0.870041 0.277845
0.988322 0.872064 0.279868
0.058544 0.978544 0.270090
0.144150 0.980098 0.271644
0.265030 0.982292 0.273838
0.387406 0.984513 0.276060
0.510703 0.986751 0.278298
0.634671 0.989002 0.280548
0.759169 0.991261 0.282808
0.884104 0.993529 0.285075
0.995552 0.995552 0.287098
0.002045 0.002045 0.327844
0.087652 0.003599 0.329398
0.208531 0.005793 0.331592
0.330907 0.008015 0.333814
0.454204 0.010253 0.336052
0.578173 0.012503 0.338302
0.702670 0.014763 0.340562
0.827605 0.017031 0.342829
0.939053 0.019053 0.344852
0.007702 0.098654 0.333501
0.093308 0.100208 0.335055
0.214187 0.102402 0.337249
0.336564 0.104623 0.339470
0.459861 0.106861 0.341708
0.583829 0.109112 0.343958
0.708327 0.111371 0.346218
0.833262 0.113639 0.348486
0.944710 0.115662 0.350509
0.014949 0.222424 0.340747
0.100555 0.223978 0.342301
0.221434 0.226172 0.344495
0.343810 0.228394 0.346717
0.467107 0.230632 0.348955
0.591076 0.232882 0.351205
0.715573 0.235142 0.353465
0.840509 0.237409 0.355732
0.951957 0.239432 0.357755
0.022281 0.347656 0.348080
0.107887 0.349210 0.349634
0.228766 0.351404 0.351828
0.351143 0.353625 0.354049
0.474440 0.355863 0.356287
0.598408 0.358113 0.358537
0.722906 0.360373 0.360797
0.847841 0.362641 0.363065
0.959289 0.364664 0.365088
0.029667 0.473803 0.355466
0.115273 0.475357 0.357020
0.236152 0.477551 0.359214
0.358529 0.479773 0.361435
0.481826 0.482011 0.363673
0.622002 0.484555 0.366217
0.748989 0.486860 0.368522
0.876423 0.489173 0.370835
0.966675 0.490811 0.372474
0.037092 0.600624 0.362891
0.122698 0.602178 0.364445
0.243578 0.604372 0.366639
0.365954 0.606593 0.368860
0.489251 0.608831 0.371098
0.613219 0.611082 0.373349
0.756415 0.613681 0.375948
0.883848 0.615994 0.378261
0.974100 0.617632 0.379899
0.044549 0.727978 0.370348
0.130155 0.729532 0.371901
0.251034 0.731726 0.374096
0.373410 0.733947 0.376317
0.496708 0.736185 0.378555
0.620676 0.738435 0.380805
0.745174 0.740695 0.383065
0.870109 0.742963 0.385333
0.981557 0.744986 0.387356
0.052031 0.855773 0.377830
0.137637 0.857327 0.379384
0.258517 0.859521 0.381578
0.380893 0.861743 0.383799
0.504190 0.863981 0.386037
0.628158 0.866231 0.388288
0.752656 0.868491 0.390547
0.877591 0.870758 0.392815
0.989039 0.872781 0.394838
0.059261 0.979261 0.385060
0.144868 0.980815 0.386614
0.265747 0.983009 0.388808
0.388123 0.985231 0.391030
0.511420 0.987469 0.393268
0.635389 0.989719 0.395518
0.759886 0.991979 0.397778
0.884821 0.994247 0.400045
0.996269 0.996269 0.402068
0.002770 0.002770 0.444025
0.088376 0.004324 0.445579
0.209256 0.006518 0.447773
0.331632 0.008740 0.449995
0.454929 0.010978 0.452233
0.578897 0.013228 0.454483
0.703395 0.015488 0.456743
0.828330 0.017755 0.459011
0.939778 0.019778 0.461033
0.008427 0.099379 0.449682
0.094033 0.100933 0.451236
0.214912 0.103127 0.453430
0.337288 0.105348 0.455651
0.460586 0.107586 0.457889
0.584554 0.109836 0.460139
0.709052 0.112096 0.462399
0.833987 0.114364 0.464667
0.945435 0.116387 0.466690
0.015674 0.223149 0.456929
0.101280 0.224703 0.458483
0.222159 0.226897 0.460677
0.344535 0.229119 0.462898
0.467832 0.231357 0.465136
0.591801 0.233607 0.467386
0.716298 0.235867 0.469646
0.841233 0.238134 0.471914
0.952682 0.240157 0.473937
0.023006 0.348381 0.464261
0.108612 0.349934 0.465815
0.229491 0.352129 0.468009
0.351867 0.354350 0.470230
0.475165 0.356588 0.472468
0.599133 0.358838 0.474718
0.723631 0.361098 0.476978
0.848566 0.363366 0.479246
0.960014 0.365389 0.481269
0.030392 0.474528 0.471647
0.115998 0.476082 0.473201
0.236877 0.478276 0.475395
0.359253 0.480498 0.477616
0.482551 0.482736 0.479854
0.606519 0.484986 0.482104
0.731017 0.487246 0.484364
0.855952 0.489513 0.486632
0.967400 0.491536 0.488655
0.037817 0.601349 0.479072
0.123423 0.602903 0.480626
0.244303 0.605097 0.482820
0.366679 0.607318 0.485042
0.489976 0.609556 0.487280
0.613944 0.611807 0.489530
0.757139 0.614406 0.492129
0.884573 0.616719 0.494442
0.974825 0.618357 0.496080
0.045274 0.728703 0.486529
0.130880 0.730257 0.488083
0.251759 0.732451 0.490277
0.374135 0.734672 0.492498
0.497433 0.736910 0.494736
0.621401 0.739160 0.496986
0.745898 0.741420 0.499246
0.892030 0.744073 0.501899
0.982282 0.745711 0.503537
0.052756 0.856498 0.494011
0.138362 0.858052 0.495565
0.259242 0.860246 0.497759
0.381618 0.862468 0.499981
0.504915 0.864706 0.502219
0.628883 0.866956 0.504469
0.753381 0.869216 0.506729
0.878316 0.871483 0.508996
0.989764 0.873506 0.511019
0.059986 0.979986 0.501241
0.145592 0.981540 0.502795
0.266472 0.983734 0.504989
0.388848 0.985956 0.507211
0.512145 0.988194 0.509449
0.636113 0.990444 0.511699
0.760611 0.992704 0.513959
0.885546 0.994971 0.516227
0.996994 0.996994 0.518249
0.003501 0.003501 0.561109
0.089107 0.005055 0.562663
0.209986 0.007249 0.564857
0.332362 0.009470 0.567078
0.455660 0.011708 0.569316
0.579628 0.013958 0.571567
0.704126 0.016218 0.573826
0.829061 0.018486 0.576094
0.940509 0.020509 0.578117
0.009157 0.100109 0.566766
0.094763 0.101663 0.568319
0.215643 0.103857 0.570514
0.338019 0.106079 0.572735
0.461316 0.108317 0.574973
0.585284 0.110567 0.577223
0.709782 0.112827 0.579483
0.834717 0.115094 0.581751
0.946165 0.117117 0.583774
0.016404 0.223880 0.574012
0.102010 0.225434 0.575566
0.222890 0.227628 0.577760
0.345266 0.229849 0.579982
0.468563 0.232087 0.582220
0.592531 0.234337 0.584470
0.717029 0.236597 0.586730
0.841964 0.238865 0.588997
0.953412 0.240888 0.591020
0.023736 0.349111 0.581345
0.109342 0.350665 0.582898
0.230222 0.352859 0.585093
0.352598 0.355080 0.587314
0.475895 0.357318 0.589552
0.599863 0.359569 0.591802
0.724361 0.361828 0.594062
0.849296 0.364096 0.596330
0.960744 0.366119 0.598353
0.031122 0.475259 0.588731
0.116728 0.476813 0.590284
0.237608 0.479007 0.592479
0.359984 0.481228 0.594700
0.483281 0.483466 0.596938
0.607249 0.485716 0.599188
0.731747 0.487976 0.601448
0.856682 0.490244 0.603716
0.968130 0.492267 0.605739
0.038548 0.602080 0.596156
0.124154 0.603633 0.597710
0.245033 0.605828 0.599904
0.367409 0.608049 0.602125
0.490706 0.610287 0.604363
0.614675 0.612537 0.606613
0.739172 0.614797 0.608873
0.864108 0.617065 0.611141
0.975556 0.619088 0.613164
0.046004 0.729433 0.603612
0.131610 0.730987 0.605166
0.252490 0.733181 0.607360
0.374866 0.735402 0.609582
0.498163 0.737641 0.611820
0.622131 0.739891 0.614070
0.746629 0.742151 0.616330
0.892760 0.744803 0.618982
0.983012 0.746441 0.620620
0.053487 0.857229 0.611095
0.139093 0.858783 0.612649
0.259972 0.860977 0.614843
0.382348 0.863198 0.617064
0.505645 0.865436 0.619302
0.629614 0.867686 0.621552
0.754111 0.869946 0.623812
0.879047 0.872214 0.626080
0.990495 0.874237 0.628103
0.060717 0.980717 0.618325
0.146323 0.982271 0.619879
0.267202 0.984465 0.622073
0.389578 0.986686 0.624294
0.512876 0.988924 0.626532
0.636844 0.991174 0.628783
0.761342 0.993434 0.631042
0.886277 0.995702 0.633310
0.997725 0.997725 0.635333
0.004236 0.004236 0.678914
0.089842 0.005790 0.680468
0.210721 0.007984 0.682662
0.333097 0.010205 0.684883
0.456395 0.012443 0.687121
0.580363 0.014693 0.689371
0.704861 0.016953 0.691631
0.829796 0.019221 0.693899
0.941244 0.021244 0.695922
0.009892 0.100844 0.684570
0.095498 0.102398 0.686124
0.216378 0.104592 0.688318
0.338754 0.106814 0.690539
0.462051 0.109052 0.692777
0.586019 0.111302 0.695028
0.710517 0.113562 0.697287
0.835452 0.115829 0.699555
0.946900 0.117852 0.701578
0.017139 0.224615 0.691817
0.102745 0.226169 0.693371
0.223625 0.228363 0.695565
0.346001 0.230584 0.697786
0.469298 0.232822 0.700024
0.593266 0.235072 0.702274
0.717764 0.237332 0.704534
0.842699 0.239600 0.706802
0.954147 0.241623 0.708825
0.024471 0.349846 0.699149
0.110077 0.351400 0.700703
0.230957 0.353594 0.702897
0.353333 0.355815 0.705119
0.476630 0.358053 0.707357
0.600598 0.360304 0.709607
0.725096 0.362563 0.711867
0.850031 0.364831 0.714134
0.961479 0.366854 0.716157
0.031857 0.475994 0.706535
0.117463 0.477548 0.708089
0.238343 0.479742 0.710283
0.360719 0.481963 0.712504
0.484016 0.484201 0.714742
0.607984 0.486451 0.716993
0.732482 0.488711 0.719252
0.857417 0.490979 0.721520
0.968865 0.493002 0.723543
0.039283 0.602814 0.713961
0.124889 0.604368 0.715514
0.245768 0.606562 0.717709
0.368144 0.608784 0.719930
0.491441 0.611022 0.722168
0.615410 0.613272 0.724418
0.739907 0.615532 0.726678
0.864843 0.617800 0.728946
0.976291 0.619822 0.730969
0.046739 0.730168 0.721417
0.132345 0.731722 0.722971
0.253225 0.733916 0.725165
0.375601 0.736137 0.727386
0.498898 0.738375 0.729624
0.622866 0.740626 0.731875
0.747364 0.742886 0.734134
0.872299 0.745153 0.736402
0.983747 0.747176 0.738425
0.054222 0.857964 0.728899
0.139828 0.859518 0.730453
0.260707 0.861712 0.732647
0.383083 0.863933 0.734869
0.506380 0.866171 0.737107
0.630349 0.868421 0.739357
0.754846 0.870681 0.741617
0.879782 0.872949 0.743885
0.991230 0.874972 0.745907
0.061452 0.981452 0.736130
0.147058 0.983006 0.737684
0.267937 0.985200 0.739878
0.390313 0.987421 0.742099
0.513611 0.989659 0.744337
0.637579 0.991909 0.746587
0.762077 0.994169 0.748847
0.887012 0.996437 0.751115
0.998460 0.998460 0.753138
0.004975 0.004975 0.797320
0.090581 0.006528 0.798874
0.211460 0.008723 0.801068
0.333836 0.010944 0.803289
0.457133 0.013182 0.805527
0.581102 0.015432 0.807777
0.705599 0.017692 0.810037
0.830535 0.019960 0.812305
0.941983 0.021983 0.814328
0.010631 0.101583 0.802976
0.096237 0.103137 0.804530
0.217117 0.105331 0.806724
0.339493 0.107552 0.808945
0.462790 0.109790 0.811183
0.586758 0.112041 0.813434
0.711256 0.114300 0.815693
0.836191 0.116568 0.817961
0.947639 0.118591 0.819984
0.017878 0.225353 0.810223
0.103484 0.226907 0.811777
0.224363 0.229101 0.813971
0.346739 0.231323 0.816192
0.470037 0.233561 0.818430
0.594005 0.235811 0.820680
0.718503 0.238071 0.822940
0.843438 0.240339 0.825208
0.954886 0.242361 0.827231
0.025210 0.350585 0.817555
0.110816 0.352139 0.819109
0.231696 0.354333 0.821303
0.354072 0.356554 0.823525
0.477369 0.358792 0.825763
0.601337 0.361042 0.828013
0.725835 0.363302 0.830273
0.850770 0.365570 0.832540
0.962218 0.367593 0.834563
0.032596 0.476733 0.824941
0.118202 0.478286 0.826495
0.239082 0.480481 0.828689
0.361458 0.482702 0.830910
0.484755 0.484940 0.833148
0.608723 0.487190 0.835399
0.733221 0.489450 0.837658
0.858156 0.491718 0.839926
0.969604 0.493741 0.841949
0.040021 0.603553 0.832367
0.125627 0.605107 0.833920
0.246507 0.607301 0.836115
0.368883 0.609523 0.838336
0.492180 0.611761 0.840574
0.616149 0.614011 0.842824
0.740646 0.616271 0.845084
0.865581 0.618538 0.847352
0.977029 0.620561 0.849375
0.047478 0.730907 0.839823
0.133084 0.732461 0.841377
0.253963 0.734655 0.843571
0.376340 0.736876 0.845792
0.499637 0.739114 0.848030
0.623605 0.741364 0.850281
0.748103 0.743624 0.852540
0.873038 0.745892 0.854808
0.984486 0.747915 0.856831
0.054960 0.858702 0.847305
0.140566 0.860256 0.848859
0.261446 0.862450 0.851053
0.383822 0.864672 0.853275
0.507119 0.866910 0.855513
0.631087 0.869160 0.857763
0.755585 0.871420 0.860023
0.880520 0.873688 0.862291
0.991968 0.875710 0.864313
0.062191 0.982191 0.854536
0.147797 0.983744 0.856090
0.268676 0.985939 0.858284
0.391052 0.988160 0.860505
0.514349 0.990398 0.862743
0.638318 0.992648 0.864993
0.762815 0.994908 0.867253
0.887751 0.997176 0.869521
0.999199 0.999199 0.871544
0.005717 0.005717 0.916242
0.091323 0.007270 0.917796
0.212202 0.009465 0.919990
0.334578 0.011686 0.922211
0.457875 0.013924 0.924449
0.581844 0.016174 0.926699
0.706341 0.018434 0.928959
0.831276 0.020702 0.931227
0.942725 0.022725 0.933250
0.011373 0.102325 0.921898
0.096979 0.103879 0.923452
0.217859 0.106073 0.925646
0.340235 0.108294 0.927868
0.463532 0.110532 0.930106
0.587500 0.112783 0.932356
0.711998 0.115042 0.934616
0.836933 0.117310 0.936883
0.948381 0.119333 0.938906
0.018620 0.226095 0.929145
0.104226 0.227649 0.930699
0.225105 0.229843 0.932893
0.347481 0.232065 0.935114
0.470779 0.234303 0.937352
0.594747 0.236553 0.939603
0.719244 0.238813 0.941862
0.844180 0.241080 0.944130
0.955628 0.243103 0.946153
0.025952 0.351327 0.936477
0.111558 0.352881 0.938031
0.232438 0.355075 0.940225
0.354814 0.357296 0.942447
0.478111 0.359534 0.944685
0.602079 0.361784 0.946935
0.726577 0.364044 0.949195
0.851512 0.366312 0.951462
0.962960 0.368335 0.953485
0.033338 0.477475 0.943863
0.118944 0.479028 0.945417
0.239824 0.481223 0.947611
0.362200 0.483444 0.949833
0.485497 0.485682 0.952071
0.609465 0.487932 0.954321
0.733963 0.490192 0.956581
0.858898 0.492460 0.958848
0.970346 0.494483 0.960871
0.040763 0.604295 0.951289
0.126369 0.605849 0.952843
0.247249 0.608043 0.955037
0.369625 0.610265 0.957258
0.492922 0.612503 0.959496
0.616890 0.614753 0.961746
0.741388 0.617013 0.964006
0.866323 0.619280 0.966274
0.977771 0.621303 0.968297
0.048220 0.731649 0.958745
0.133826 0.733203 0.960299
0.254705 0.735397 0.962493
0.377082 0.737618 0.964715
0.500379 0.739856 0.966953
0.624347 0.742106 0.969203
0.748845 0.744366 0.971463
0.873780 0.746634 0.973730
0.985228 0.748657 0.975753
0.055702 0.859444 0.966228
0.141308 0.860998 0.967782
0.262188 0.863192 0.969976
0.384564 0.865414 0.972197
0.507861 0.867652 0.974435
0.631829 0.869902 0.976685
0.756327 0.872162 0.978945
0.881262 0.874429 0.981213
0.992710 0.876452 0.983236
0.062933 0.982933 0.973458
0.148539 0.984486 0.975012
0.269418 0.986681 0.977206
0.391794 0.988902 0.979427
0.515091 0.991140 0.981665
0.639060 0.993390 0.983915
0.763557 0.995650 0.986175
0.888492 0.997918 0.988443
0.999941 0.999941 0.990466
