library/cube/Alexa_Log_000.cube
# CINEGRADE LAB — Premium Cinematic LUT
# Title: Alexa Log
# Category: ARRI Alexa Look
# Description: Digital cinema natural skin tones with wide dynamic range emulation
# Mood: Cinematic, natural, professional
# Variant: 1
# Generated: 2026-05-21T16:12:51.417339
TITLE "Alexa Log"
LUT_3D_SIZE 5
0.000000 0.000000 0.000000
0.206486 0.003748 0.003748
0.452159 0.008207 0.008207
0.700625 0.012717 0.012717
0.937008 0.017008 0.017008
0.012903 0.220379 0.012903
0.219389 0.224127 0.016651
0.478790 0.228835 0.021360
0.732226 0.233436 0.025960
0.949911 0.237387 0.029911
0.027621 0.471758 0.027621
0.234107 0.475506 0.031369
0.479780 0.479965 0.035829
0.746944 0.484815 0.040678
0.964629 0.488766 0.044629
0.042503 0.725932 0.042503
0.248989 0.729680 0.046251
0.494662 0.734140 0.050711
0.743128 0.738650 0.055221
0.979511 0.742940 0.059511
0.057216 0.977216 0.057216
0.263702 0.980964 0.060964
0.509375 0.985423 0.065423
0.757841 0.989933 0.069933
0.994224 0.994224 0.074224
0.001328 0.001328 0.212874
0.207814 0.005076 0.216622
0.453487 0.009535 0.221082
0.701953 0.014045 0.225592
0.938336 0.018336 0.229882
0.014231 0.221707 0.225778
0.220717 0.225455 0.229526
0.466390 0.229914 0.233985
0.714856 0.234424 0.238495
0.951239 0.238715 0.242786
0.028950 0.473086 0.240496
0.235435 0.476834 0.244244
0.481108 0.481293 0.248703
0.748272 0.486143 0.253553
0.965958 0.490094 0.257504
0.043831 0.727261 0.255378
0.250317 0.731009 0.259126
0.495990 0.735468 0.263585
0.744456 0.739978 0.268095
0.980839 0.744269 0.272386
0.058544 0.978544 0.270090
0.265030 0.982292 0.273838
0.510703 0.986751 0.278298
0.759169 0.991261 0.282808
0.995552 0.995552 0.287098
0.002770 0.002770 0.444025
0.209256 0.006518 0.447773
0.454929 0.010978 0.452233
0.703395 0.015488 0.456743
0.939778 0.019778 0.461033
0.015674 0.223149 0.456929
0.222159 0.226897 0.460677
0.467832 0.231357 0.465136
0.716298 0.235867 0.469646
0.952682 0.240157 0.473937
0.030392 0.474528 0.471647
0.236877 0.478276 0.475395
0.482551 0.482736 0.479854
0.731017 0.487246 0.484364
0.967400 0.491536 0.488655
0.045274 0.728703 0.486529
0.251759 0.732451 0.490277
0.497433 0.736910 0.494736
0.745898 0.741420 0.499246
0.982282 0.745711 0.503537
0.059986 0.979986 0.501241
0.266472 0.983734 0.504989
0.512145 0.988194 0.509449
0.760611 0.992704 0.513959
0.996994 0.996994 0.518249
0.004236 0.004236 0.678914
0.210721 0.007984 0.682662
0.456395 0.012443 0.687121
0.704861 0.016953 0.691631
0.941244 0.021244 0.695922
0.017139 0.224615 0.691817
0.223625 0.228363 0.695565
0.469298 0.232822 0.700024
0.717764 0.237332 0.704534
0.954147 0.241623 0.708825
0.031857 0.475994 0.706535
0.238343 0.479742 0.710283
0.484016 0.484201 0.714742
0.732482 0.488711 0.719252
0.968865 0.493002 0.723543
0.046739 0.730168 0.721417
0.253225 0.733916 0.725165
0.498898 0.738375 0.729624
0.747364 0.742886 0.734134
0.983747 0.747176 0.738425
0.061452 0.981452 0.736130
0.267937 0.985200 0.739878
0.513611 0.989659 0.744337
0.762077 0.994169 0.748847
0.998460 0.998460 0.753138
0.005717 0.005717 0.916242
0.212202 0.009465 0.919990
0.457875 0.013924 0.924449
0.706341 0.018434 0.928959
0.942725 0.022725 0.933250
0.018620 0.226095 0.929145
0.225105 0.229843 0.932893
0.470779 0.234303 0.937352
0.719244 0.238813 0.941862
0.955628 0.243103 0.946153
0.033338 0.477475 0.943863
0.239824 0.481223 0.947611
0.485497 0.485682 0.952071
0.733963 0.490192 0.956581
0.970346 0.494483 0.960871
0.048220 0.731649 0.958745
0.254705 0.735397 0.962493
0.500379 0.739856 0.966953
0.748845 0.744366 0.971463
0.985228 0.748657 0.975753
0.062933 0.982933 0.973458
0.269418 0.986681 0.977206
0.515091 0.991140 0.981665
0.763557 0.995650 0.986175
0.999941 0.999941 0.990466
