library/cube/Alexa_Log_000.cube
# CINEGRADE LAB — Premium Cinematic LUT
# Title: Alexa Log
# Category: ARRI Alexa Look
# Description: Digital cinema natural skin tones with wide dynamic range emulation
# Mood: Cinematic, natural, professional
# Variant: 1
# Generated: 2026-05-21T16:12:51.417339
TITLE "Alexa Log"
LUT_3D_SIZE 33
0.000000 0.000000 0.000000
0.000000 0.000000 0.000000
0.026318 0.000478 0.000478
0.055800 0.001013 0.001013
0.085606 0.001554 0.001554
0.115622 0.002099 0.002099
0.145793 0.002646 0.002646
0.176088 0.003196 0.003196
0.206486 0.003748 0.003748
0.236972 0.004301 0.004301
0.267535 0.004856 0.004856
0.298167 0.005412 0.005412
0.328862 0.005969 0.005969
0.359612 0.006527 0.006527
0.390414 0.007087 0.007087
0.421264 0.007647 0.007647
0.452159 0.008207 0.008207
0.483095 0.008769 0.008769
0.514070 0.009331 0.009331
0.545081 0.009894 0.009894
0.576127 0.010458 0.010458
0.607206 0.011022 0.011022
0.638316 0.011586 0.011586
0.669456 0.012152 0.012152
0.700625 0.012717 0.012717
0.731820 0.013284 0.013284
0.763042 0.013850 0.013850
0.794289 0.014417 0.014417
0.825560 0.014985 0.014985
0.856854 0.015553 0.015553
0.888171 0.016122 0.016122
0.919509 0.016690 0.016690
0.937008 0.017008 0.017008
0.000357 0.006093 0.000357
0.000357 0.006093 0.000357
0.031886 0.006665 0.000929
0.061957 0.007211 0.001475
0.092360 0.007763 0.002027
0.122976 0.008318 0.002582
0.146150 0.008739 0.003003
0.176444 0.009289 0.003553
0.206842 0.009841 0.004105
0.237328 0.010394 0.004658
0.267892 0.010949 0.005213
0.298524 0.011505 0.005769
0.329218 0.012062 0.006326
0.359969 0.012620 0.006884
0.390771 0.013179 0.007443
0.421621 0.013739 0.008003
0.452516 0.014300 0.008564
0.483451 0.014862 0.009126
0.514426 0.015424 0.009688
0.545438 0.015987 0.010251
0.576484 0.016550 0.010814
0.607563 0.017114 0.011378
0.638673 0.017679 0.011943
0.669813 0.018244 0.012508
0.700982 0.018810 0.013074
0.732177 0.019376 0.013640
0.763399 0.019943 0.014207
0.794646 0.020510 0.014774
0.825917 0.021078 0.015342
0.857211 0.021646 0.015910
0.888528 0.022214 0.016478
0.919866 0.022783 0.017047
0.937365 0.023101 0.017365
0.002095 0.035787 0.002095
0.002095 0.035787 0.002095
0.028413 0.036265 0.002573
0.063696 0.036905 0.003213
0.094099 0.037457 0.003765
0.124715 0.038013 0.004321
0.155489 0.038571 0.004880
0.186390 0.039132 0.005441
0.217396 0.039695 0.006003
0.248492 0.040260 0.006568
0.279666 0.040825 0.007134
0.310911 0.041393 0.007701
0.330957 0.041756 0.008065
0.361708 0.042315 0.008623
0.392510 0.042874 0.009182
0.423360 0.043434 0.009742
0.454254 0.043994 0.010303
0.485190 0.044556 0.010864
0.516165 0.045118 0.011426
0.547176 0.045681 0.011989
0.578223 0.046245 0.012553
0.609301 0.046809 0.013117
0.640412 0.047374 0.013682
0.671552 0.047939 0.014247
0.702720 0.048505 0.014813
0.733916 0.049071 0.015379
0.765138 0.049637 0.015946
0.796384 0.050205 0.016513
0.827655 0.050772 0.017080
0.858949 0.051340 0.017648
0.890266 0.051909 0.018217
0.921604 0.052478 0.018786
0.939103 0.052795 0.019103
0.003868 0.066055 0.003868
0.003868 0.066055 0.003868
0.030185 0.066533 0.004345
0.059667 0.067068 0.004880
0.089474 0.067609 0.005421
0.126487 0.068281 0.006093
0.157261 0.068840 0.006652
0.188162 0.069401 0.007213
0.219168 0.069963 0.007776
0.250264 0.070528 0.008340
0.281439 0.071094 0.008906
0.312683 0.071661 0.009473
0.343991 0.072229 0.010041
0.375357 0.072799 0.010611
0.406775 0.073369 0.011181
0.438242 0.073940 0.011752
0.469755 0.074512 0.012324
0.486962 0.074824 0.012636
0.517937 0.075387 0.013199
0.548949 0.075949 0.013762
0.579995 0.076513 0.014325
0.611074 0.077077 0.014889
0.642184 0.077642 0.015454
0.673324 0.078207 0.016019
0.704492 0.078773 0.016585
0.735688 0.079339 0.017151
0.766910 0.079906 0.017718
0.798157 0.080473 0.018285
0.829428 0.081041 0.018853
0.860722 0.081609 0.019421
0.892038 0.082177 0.019989
0.923377 0.082746 0.020558
0.940876 0.083063 0.020876
0.005656 0.096609 0.005656
0.005656 0.096609 0.005656
0.031974 0.097086 0.006134
0.061456 0.097621 0.006669
0.091263 0.098162 0.007210
0.121278 0.098707 0.007755
0.159050 0.099393 0.008441
0.189951 0.099954 0.009002
0.220957 0.100517 0.009564
0.252053 0.101081 0.010129
0.283227 0.101647 0.010695
0.314472 0.102214 0.011262
0.345780 0.102782 0.011830
0.377146 0.103352 0.012399
0.408564 0.103922 0.012970
0.440031 0.104493 0.013541
0.471544 0.105065 0.014113
0.503098 0.105638 0.014686
0.534692 0.106211 0.015259
0.566324 0.106785 0.015833
0.597991 0.107360 0.016408
0.629692 0.107936 0.016984
0.661424 0.108512 0.017560
0.675113 0.108760 0.017808
0.706281 0.109326 0.018374
0.737477 0.109892 0.018940
0.768699 0.110459 0.019507
0.799945 0.111026 0.020074
0.831216 0.111594 0.020641
0.862511 0.112162 0.021210
0.893827 0.112730 0.021778
0.925166 0.113299 0.022347
0.942664 0.113617 0.022664
0.007457 0.127356 0.007457
0.007457 0.127356 0.007457
0.033774 0.127833 0.007934
0.063256 0.128368 0.008470
0.093063 0.128909 0.009011
0.123079 0.129454 0.009555
0.153250 0.130002 0.010103
0.191751 0.130701 0.010802
0.222757 0.131264 0.011365
0.253853 0.131828 0.011929
0.285028 0.132394 0.012495
0.316273 0.132961 0.013062
0.347581 0.133529 0.013630
0.378946 0.134099 0.014200
0.410364 0.134669 0.014770
0.441831 0.135240 0.015341
0.473344 0.135812 0.015913
0.504898 0.136385 0.016486
0.536493 0.136958 0.017059
0.568124 0.137532 0.017634
0.599791 0.138107 0.018208
0.631492 0.138683 0.018784
0.663224 0.139259 0.019360
0.694987 0.139835 0.019936
0.726779 0.140412 0.020513
0.758599 0.140990 0.021091
0.790445 0.141568 0.021669
0.822316 0.142146 0.022248
0.833017 0.142341 0.022442
0.864311 0.142909 0.023010
0.895627 0.143477 0.023578
0.926966 0.144046 0.024147
0.944465 0.144364 0.024465
0.009266 0.158250 0.009266
0.009266 0.158250 0.009266
0.035583 0.158728 0.009743
0.065065 0.159263 0.010278
0.094872 0.159804 0.010819
0.124887 0.160349 0.011364
0.155058 0.160897 0.011912
0.185353 0.161446 0.012462
0.215751 0.161998 0.013014
0.255662 0.162723 0.013738
0.286837 0.163289 0.014304
0.318081 0.163856 0.014871
0.349389 0.164424 0.015439
0.380755 0.164993 0.016009
0.412173 0.165564 0.016579
0.443640 0.166135 0.017150
0.475153 0.166707 0.017722
0.506707 0.167279 0.018295
0.538302 0.167853 0.018868
0.569933 0.168427 0.019442
0.601600 0.169002 0.020017
0.633301 0.169577 0.020593
0.665033 0.170153 0.021169
0.696796 0.170730 0.021745
0.728588 0.171307 0.022322
0.760407 0.171885 0.022900
0.792254 0.172463 0.023478
0.824125 0.173041 0.024056
0.856022 0.173620 0.024635
0.887942 0.174199 0.025215
0.919885 0.174779 0.025795
0.946274 0.175258 0.026274
0.946274 0.175258 0.026274
0.011081 0.189264 0.011081
0.011081 0.189264 0.011081
0.037399 0.189742 0.011559
0.066881 0.190277 0.012094
0.096688 0.190818 0.012635
0.126703 0.191363 0.013180
0.156874 0.191911 0.013728
0.187169 0.192461 0.014278
0.217567 0.193012 0.014829
0.248053 0.193566 0.015383
0.288652 0.194303 0.016120
0.319897 0.194870 0.016687
0.351205 0.195438 0.017255
0.382571 0.196007 0.017824
0.413989 0.196578 0.018395
0.445456 0.197149 0.018966
0.476969 0.197721 0.019538
0.508523 0.198294 0.020111
0.540117 0.198867 0.020684
0.571749 0.199441 0.021258
0.603416 0.200016 0.021833
0.635117 0.200591 0.022409
0.666849 0.201167 0.022985
0.698612 0.201744 0.023561
0.730404 0.202321 0.024138
0.762223 0.202899 0.024716
0.794069 0.203477 0.025294
0.825941 0.204055 0.025872
0.857838 0.204634 0.026451
0.889758 0.205214 0.027031
0.921701 0.205793 0.027610
0.948089 0.206272 0.028089
0.948089 0.206272 0.028089
0.012903 0.220379 0.012903
0.012903 0.220379 0.012903
0.039221 0.220857 0.013381
0.068703 0.221392 0.013916
0.098509 0.221933 0.014457
0.128525 0.222478 0.015002
0.158696 0.223025 0.015550
0.188991 0.223575 0.016099
0.219389 0.224127 0.016651
0.249875 0.224680 0.017205
0.280438 0.225235 0.017759
0.311071 0.225791 0.018315
0.353027 0.226553 0.019077
0.384393 0.227122 0.019646
0.415811 0.227692 0.020217
0.447278 0.228263 0.020788
0.478790 0.228835 0.021360
0.510345 0.229408 0.021932
0.541939 0.229982 0.022506
0.573571 0.230556 0.023080
0.605238 0.231131 0.023655
0.636939 0.231706 0.024230
0.668671 0.232282 0.024806
0.700434 0.232859 0.025383
0.732226 0.233436 0.025960
0.764045 0.234013 0.026537
0.795891 0.234591 0.027116
0.827763 0.235170 0.027694
0.859659 0.235749 0.028273
0.891579 0.236328 0.028852
0.923522 0.236908 0.029432
0.949911 0.237387 0.029911
0.949911 0.237387 0.029911
0.014730 0.251580 0.014730
0.014730 0.251580 0.014730
0.041048 0.252058 0.015208
0.070530 0.252593 0.015743
0.100336 0.253134 0.016284
0.130352 0.253679 0.016829
0.160523 0.254226 0.017376
0.190818 0.254776 0.017926
0.221216 0.255328 0.018478
0.251702 0.255881 0.019031
0.282265 0.256436 0.019586
0.312897 0.256992 0.020142
0.343592 0.257549 0.020699
0.386219 0.258323 0.021473
0.417638 0.258893 0.022043
0.449105 0.259465 0.022615
0.480617 0.260037 0.023187
0.512172 0.260609 0.023759
0.543766 0.261183 0.024333
0.575398 0.261757 0.024907
0.607065 0.262332 0.025482
0.638765 0.262907 0.026057
0.670498 0.263483 0.026633
0.702261 0.264060 0.027210
0.734052 0.264637 0.027787
0.765872 0.265214 0.028364
0.797718 0.265792 0.028942
0.829590 0.266371 0.029521
0.861486 0.266950 0.030100
0.893406 0.267529 0.030679
0.925349 0.268109 0.031259
0.951738 0.268588 0.031738
0.951738 0.268588 0.031738
0.016561 0.282858 0.016561
0.016561 0.282858 0.016561
0.042879 0.283335 0.017039
0.072361 0.283870 0.017574
0.102167 0.284411 0.018115
0.132183 0.284956 0.018660
0.162354 0.285504 0.019208
0.192649 0.286054 0.019758
0.223047 0.286606 0.020309
0.253533 0.287159 0.020863
0.284097 0.287714 0.021417
0.314729 0.288270 0.021973
0.345423 0.288827 0.022531
0.376173 0.289385 0.023089
0.419469 0.290171 0.023875
0.450936 0.290742 0.024446
0.482448 0.291314 0.025018
0.514003 0.291887 0.025591
0.545597 0.292460 0.026164
0.577229 0.293034 0.026738
0.608896 0.293609 0.027313
0.640597 0.294185 0.027888
0.672329 0.294761 0.028464
0.704092 0.295337 0.029041
0.735884 0.295914 0.029618
0.767703 0.296492 0.030196
0.799549 0.297070 0.030774
0.831421 0.297648 0.031352
0.863318 0.298227 0.031931
0.895238 0.298807 0.032511
0.927181 0.299387 0.033090
0.953569 0.299866 0.033569
0.953569 0.299866 0.033569
0.018397 0.314203 0.018397
0.018397 0.314203 0.018397
0.044714 0.314681 0.018874
0.074196 0.315216 0.019409
0.104003 0.315757 0.019950
0.134018 0.316302 0.020495
0.164189 0.316849 0.021043
0.194484 0.317399 0.021593
0.224882 0.317951 0.022145
0.255368 0.318504 0.022698
0.285932 0.319059 0.023253
0.316564 0.319615 0.023809
0.347258 0.320172 0.024366
0.378009 0.320731 0.024924
0.408811 0.321290 0.025483
0.439661 0.321850 0.026043
0.484284 0.322660 0.026853
0.515838 0.323232 0.027426
0.547433 0.323806 0.027999
0.579064 0.324380 0.028573
0.610731 0.324955 0.029148
0.642432 0.325530 0.029724
0.674164 0.326106 0.030300
0.705927 0.326683 0.030876
0.737719 0.327260 0.031453
0.769538 0.327837 0.032031
0.801385 0.328415 0.032609
0.833256 0.328994 0.033187
0.865153 0.329573 0.033766
0.897073 0.330152 0.034346
0.929016 0.330732 0.034926
0.955405 0.331211 0.035405
0.955405 0.331211 0.035405
0.020235 0.345610 0.020235
0.020235 0.345610 0.020235
0.046553 0.346088 0.020713
0.076035 0.346623 0.021248
0.105842 0.347164 0.021789
0.135857 0.347709 0.022334
0.166028 0.348257 0.022882
0.196323 0.348806 0.023432
0.226721 0.349358 0.023983
0.257207 0.349912 0.024537
0.287771 0.350466 0.025092
0.318403 0.351022 0.025648
0.349097 0.351580 0.026205
0.379848 0.352138 0.026763
0.410650 0.352697 0.027322
0.441500 0.353257 0.027882
0.472394 0.353818 0.028443
0.517677 0.354639 0.029265
0.549271 0.355213 0.029838
0.580903 0.355787 0.030412
0.612570 0.356362 0.030987
0.644271 0.356937 0.031563
0.676003 0.357513 0.032139
0.707766 0.358090 0.032715
0.739558 0.358667 0.033292
0.771377 0.359244 0.033870
0.803224 0.359823 0.034448
0.835095 0.360401 0.035026
0.866992 0.360980 0.035605
0.898912 0.361559 0.036185
0.930855 0.362139 0.036764
0.957243 0.362618 0.037243
0.957243 0.362618 0.037243
0.022078 0.377073 0.022078
0.022078 0.377073 0.022078
0.048395 0.377551 0.022555
0.077877 0.378086 0.023090
0.107684 0.378627 0.023632
0.137699 0.379172 0.024176
0.167871 0.379720 0.024724
0.198165 0.380270 0.025274
0.228563 0.380821 0.025826
0.259049 0.381375 0.026379
0.289613 0.381930 0.026934
0.320245 0.382486 0.027490
0.350939 0.383043 0.028047
0.381690 0.383601 0.028605
0.412492 0.384160 0.029164
0.443342 0.384720 0.029724
0.474237 0.385281 0.030285
0.505172 0.385842 0.030846
0.536147 0.386405 0.031409
0.582745 0.387250 0.032255
0.614412 0.387825 0.032829
0.646113 0.388401 0.033405
0.677845 0.388977 0.033981
0.709608 0.389553 0.034557
0.741400 0.390130 0.035134
0.773220 0.390708 0.035712
0.805066 0.391286 0.036290
0.836937 0.391864 0.036868
0.868834 0.392443 0.037447
0.900754 0.393023 0.038027
0.932697 0.393602 0.038607
0.959086 0.394081 0.039086
0.959086 0.394081 0.039086
0.023923 0.408588 0.023923
0.023923 0.408588 0.023923
0.050241 0.409066 0.024401
0.079722 0.409601 0.024936
0.109529 0.410142 0.025477
0.139545 0.410687 0.026022
0.169716 0.411235 0.026569
0.200011 0.411785 0.027119
0.230408 0.412336 0.027671
0.260895 0.412890 0.028224
0.291458 0.413444 0.028779
0.322090 0.414000 0.029335
0.352784 0.414558 0.029892
0.383535 0.415116 0.030450
0.414337 0.415675 0.031009
0.445187 0.416235 0.031569
0.476082 0.416796 0.032130
0.507018 0.417357 0.032692
0.537992 0.417919 0.033254
0.569004 0.418482 0.033817
0.616258 0.419340 0.034675
0.647958 0.419915 0.035250
0.679691 0.420491 0.035826
0.711453 0.421068 0.036402
0.743245 0.421645 0.036980
0.775065 0.422223 0.037557
0.806911 0.422801 0.038135
0.838783 0.423379 0.038714
0.870679 0.423958 0.039293
0.902599 0.424537 0.039872
0.934542 0.425117 0.040452
0.960931 0.425596 0.040931
0.960931 0.425596 0.040931
0.025771 0.440151 0.025771
0.025771 0.440151 0.025771
0.052089 0.440629 0.026249
0.081570 0.441164 0.026784
0.111377 0.441705 0.027325
0.141393 0.442250 0.027870
0.171564 0.442797 0.028417
0.201859 0.443347 0.028967
0.232256 0.443899 0.029519
0.262743 0.444452 0.030072
0.293306 0.445007 0.030627
0.323938 0.445563 0.031183
0.354632 0.446120 0.031740
0.385383 0.446678 0.032298
0.416185 0.447237 0.032857
0.447035 0.447797 0.033417
0.477930 0.448358 0.033978
0.508866 0.448920 0.034540
0.539840 0.449482 0.035102
0.570852 0.450045 0.035665
0.601898 0.450608 0.036228
0.649806 0.451478 0.037098
0.681539 0.452054 0.037674
0.713301 0.452631 0.038250
0.745093 0.453208 0.038828
0.776913 0.453785 0.039405
0.808759 0.454363 0.039983
0.840631 0.454942 0.040562
0.872527 0.455521 0.041141
0.904447 0.456100 0.041720
0.936390 0.456680 0.042300
0.962779 0.457159 0.042779
0.962779 0.457159 0.042779
0.027621 0.471758 0.027621
0.027621 0.471758 0.027621
0.053939 0.472236 0.028099
0.083421 0.472771 0.028634
0.113228 0.473312 0.029175
0.143243 0.473857 0.029720
0.173414 0.474404 0.030268
0.203709 0.474954 0.030818
0.234107 0.475506 0.031369
0.264593 0.476059 0.031923
0.295157 0.476614 0.032478
0.325789 0.477170 0.033034
0.356483 0.477727 0.033591
0.387234 0.478285 0.034149
0.418036 0.478845 0.034708
0.448886 0.479405 0.035268
0.479780 0.479965 0.035829
0.510716 0.480527 0.036390
0.541691 0.481089 0.036953
0.572702 0.481652 0.037515
0.603749 0.482216 0.038079
0.634828 0.482780 0.038643
0.665938 0.483344 0.039208
0.715152 0.484238 0.040101
0.746944 0.484815 0.040678
0.778763 0.485392 0.041256
0.810609 0.485970 0.041834
0.842481 0.486549 0.042412
0.874378 0.487128 0.042991
0.906298 0.487707 0.043571
0.938241 0.488287 0.044150
0.964629 0.488766 0.044629
0.964629 0.488766 0.044629
0.029474 0.503407 0.029474
0.029474 0.503407 0.029474
0.055792 0.503884 0.029952
0.085274 0.504420 0.030487
0.115081 0.504961 0.031028
0.145096 0.505505 0.031573
0.175267 0.506053 0.032121
0.205562 0.506603 0.032671
0.235960 0.507155 0.033222
0.266446 0.507708 0.033776
0.297010 0.508263 0.034331
0.327642 0.508819 0.034887
0.358336 0.509376 0.035444
0.389087 0.509934 0.036002
0.419889 0.510493 0.036561
0.450739 0.511053 0.037121
0.481633 0.511614 0.037682
0.512569 0.512176 0.038243
0.543544 0.512738 0.038806
0.574556 0.513301 0.039368
0.605602 0.513864 0.039932
0.636681 0.514428 0.040496
0.667791 0.514993 0.041061
0.698931 0.515558 0.041626
0.748797 0.516463 0.042531
0.780616 0.517041 0.043109
0.812463 0.517619 0.043687
0.844334 0.518198 0.044265
0.876231 0.518777 0.044844
0.908151 0.519356 0.045424
0.940094 0.519936 0.046003
0.966482 0.520415 0.046482
0.966482 0.520415 0.046482
0.031330 0.535095 0.031330
0.031330 0.535095 0.031330
0.057648 0.535572 0.031807
0.087129 0.536107 0.032343
0.116936 0.536648 0.032884
0.146952 0.537193 0.033428
0.177123 0.537741 0.033976
0.207417 0.538291 0.034526
0.237815 0.538843 0.035078
0.268302 0.539396 0.035631
0.298865 0.539951 0.036186
0.329497 0.540507 0.036742
0.360191 0.541064 0.037299
0.390942 0.541622 0.037857
0.421744 0.542181 0.038416
0.452594 0.542741 0.038976
0.483489 0.543302 0.039537
0.514425 0.543863 0.040099
0.545399 0.544426 0.040661
0.576411 0.544988 0.041224
0.607457 0.545552 0.041787
0.638536 0.546116 0.042351
0.669646 0.546681 0.042916
0.700786 0.547246 0.043481
0.731955 0.547812 0.044047
0.782472 0.548729 0.044964
0.814318 0.549307 0.045542
0.846190 0.549885 0.046121
0.878086 0.550464 0.046700
0.910006 0.551044 0.047279
0.941949 0.551624 0.047859
0.968338 0.552103 0.048338
0.968338 0.552103 0.048338
0.033187 0.566819 0.033187
0.033187 0.566819 0.033187
0.059505 0.567297 0.033665
0.088987 0.567832 0.034200
0.118793 0.568373 0.034741
0.148809 0.568918 0.035286
0.178980 0.569466 0.035834
0.209275 0.570015 0.036384
0.239673 0.570567 0.036935
0.270159 0.571121 0.037489
0.300722 0.571675 0.038043
0.331355 0.572231 0.038599
0.362049 0.572788 0.039157
0.392799 0.573347 0.039715
0.423602 0.573906 0.040274
0.454452 0.574466 0.040834
0.485346 0.575026 0.041395
0.516282 0.575588 0.041956
0.547257 0.576150 0.042518
0.578268 0.576713 0.043081
0.609314 0.577277 0.043645
0.640393 0.577841 0.044209
0.671504 0.578405 0.044774
0.702644 0.578971 0.045339
0.733812 0.579536 0.045905
0.765008 0.580103 0.046471
0.796229 0.580669 0.047038
0.848047 0.581610 0.047978
0.879943 0.582189 0.048557
0.911864 0.582768 0.049136
0.943807 0.583348 0.049716
0.970195 0.583827 0.050195
0.970195 0.583827 0.050195
0.035047 0.598579 0.035047
0.035047 0.598579 0.035047
0.061365 0.599056 0.035524
0.090846 0.599592 0.036060
0.120653 0.600133 0.036601
0.150669 0.600677 0.037145
0.180840 0.601225 0.037693
0.211134 0.601775 0.038243
0.241532 0.602327 0.038795
0.272019 0.602880 0.039348
0.302582 0.603435 0.039903
0.333214 0.603991 0.040459
0.363908 0.604548 0.041016
0.394659 0.605106 0.041574
0.425461 0.605665 0.042133
0.456311 0.606225 0.042693
0.487206 0.606786 0.043254
0.518142 0.607348 0.043816
0.549116 0.607910 0.044378
0.580128 0.608473 0.044941
0.611174 0.609036 0.045504
0.642253 0.609600 0.046068
0.673363 0.610165 0.046633
0.704503 0.610730 0.047198
0.735672 0.611296 0.047764
0.766867 0.611862 0.048330
0.798089 0.612429 0.048897
0.829336 0.612996 0.049464
0.881803 0.613948 0.050417
0.913723 0.614528 0.050996
0.945666 0.615108 0.051576
0.972055 0.615587 0.052055
0.972055 0.615587 0.052055
0.036908 0.630371 0.036908
0.036908 0.630371 0.036908
0.063226 0.630849 0.037386
0.092708 0.631384 0.037921
0.122514 0.631925 0.038462
0.152530 0.632470 0.039007
0.182701 0.633018 0.039555
0.212996 0.633568 0.040104
0.243394 0.634119 0.040656
0.273880 0.634673 0.041210
0.304443 0.635227 0.041764
0.335076 0.635783 0.042320
0.365770 0.636341 0.042878
0.396520 0.636899 0.043436
0.427323 0.637458 0.043995
0.458173 0.638018 0.044555
0.489067 0.638579 0.045116
0.520003 0.639140 0.045677
0.550978 0.639702 0.046239
0.581989 0.640265 0.046802
0.613035 0.640829 0.047366
0.644114 0.641393 0.047930
0.675225 0.641958 0.048495
0.706365 0.642523 0.049060
0.737533 0.643089 0.049626
0.768729 0.643655 0.050192
0.799950 0.644222 0.050759
0.831197 0.644789 0.051326
0.862468 0.645356 0.051893
0.893762 0.645924 0.052461
0.947527 0.646900 0.053437
0.973916 0.647379 0.053916
0.973916 0.647379 0.053916
0.038772 0.662195 0.038772
0.038772 0.662195 0.038772
0.065089 0.662673 0.039249
0.094571 0.663208 0.039784
0.124378 0.663749 0.040325
0.154393 0.664294 0.040870
0.184564 0.664842 0.041418
0.214859 0.665392 0.041968
0.245257 0.665943 0.042520
0.275743 0.666497 0.043073
0.306307 0.667052 0.043628
0.336939 0.667608 0.044184
0.367633 0.668165 0.044741
0.398384 0.668723 0.045299
0.429186 0.669282 0.045858
0.460036 0.669842 0.046418
0.490930 0.670403 0.046979
0.521866 0.670964 0.047540
0.552841 0.671526 0.048103
0.583853 0.672089 0.048666
0.614899 0.672653 0.049229
0.645978 0.673217 0.049793
0.677088 0.673782 0.050358
0.708228 0.674347 0.050923
0.739396 0.674913 0.051489
0.770592 0.675479 0.052055
0.801814 0.676046 0.052622
0.833061 0.676613 0.053189
0.864331 0.677180 0.053757
0.895626 0.677749 0.054325
0.926942 0.678317 0.054893
0.975780 0.679203 0.055780
0.975780 0.679203 0.055780
0.040637 0.694050 0.040637
0.040637 0.694050 0.040637
0.066954 0.694527 0.041114
0.096436 0.695062 0.041649
0.126243 0.695603 0.042190
0.156258 0.696148 0.042735
0.186429 0.696696 0.043283
0.216724 0.697246 0.043833
0.247122 0.697798 0.044385
0.277608 0.698351 0.044938
0.308172 0.698906 0.045493
0.338804 0.699462 0.046049
0.369498 0.700019 0.046606
0.400249 0.700577 0.047164
0.431051 0.701136 0.047723
0.461901 0.701696 0.048283
0.492795 0.702257 0.048844
0.523731 0.702818 0.049405
0.554706 0.703381 0.049968
0.585718 0.703944 0.050531
0.616764 0.704507 0.051094
0.647843 0.705071 0.051658
0.678953 0.705636 0.052223
0.710093 0.706201 0.052788
0.741261 0.706767 0.053354
0.772457 0.707333 0.053920
0.803679 0.707900 0.054487
0.834926 0.708467 0.055054
0.866197 0.709035 0.055622
0.897491 0.709603 0.056190
0.928807 0.710171 0.056758
0.960146 0.710740 0.057327
0.977645 0.711058 0.057645
0.042503 0.725932 0.042503
0.042503 0.725932 0.042503
0.068821 0.726410 0.042981
0.098303 0.726945 0.043516
0.128109 0.727486 0.044057
0.158125 0.728031 0.044602
0.188296 0.728579 0.045150
0.218591 0.729129 0.045700
0.248989 0.729680 0.046251
0.279475 0.730234 0.046805
0.310039 0.730789 0.047359
0.340671 0.731345 0.047915
0.371365 0.731902 0.048473
0.402116 0.732460 0.049031
0.432918 0.733019 0.049590
0.463768 0.733579 0.050150
0.494662 0.734140 0.050711
0.525598 0.734701 0.051272
0.556573 0.735263 0.051834
0.587584 0.735826 0.052397
0.618631 0.736390 0.052961
0.649710 0.736954 0.053525
0.680820 0.737519 0.054090
0.711960 0.738084 0.054655
0.743128 0.738650 0.055221
0.774324 0.739216 0.055787
0.805546 0.739783 0.056354
0.836792 0.740350 0.056921
0.868063 0.740917 0.057488
0.899357 0.741485 0.058056
0.930674 0.742054 0.058625
0.962012 0.742623 0.059194
0.979511 0.742940 0.059511
0.044372 0.757843 0.044372
0.044372 0.757843 0.044372
0.070689 0.758320 0.044849
0.100171 0.758856 0.045385
0.129978 0.759397 0.045926
0.159994 0.759941 0.046470
0.190165 0.760489 0.047018
0.220459 0.761039 0.047568
0.250857 0.761591 0.048120
0.281343 0.762144 0.048673
0.311907 0.762699 0.049228
0.342539 0.763255 0.049784
0.373233 0.763812 0.050341
0.403984 0.764370 0.050899
0.434786 0.764929 0.051458
0.465636 0.765489 0.052018
0.496531 0.766050 0.052579
0.527466 0.766612 0.053141
0.558441 0.767174 0.053703
0.589453 0.767737 0.054266
0.620499 0.768300 0.054829
0.651578 0.768864 0.055393
0.682688 0.769429 0.055958
0.713828 0.769994 0.056523
0.744996 0.770560 0.057089
0.776192 0.771126 0.057655
0.807414 0.771693 0.058222
0.838661 0.772260 0.058789
0.869932 0.772828 0.059357
0.901226 0.773396 0.059925
0.932542 0.773964 0.060493
0.963881 0.774533 0.061062
0.981380 0.774851 0.061380
0.046242 0.789779 0.046242
0.046242 0.789779 0.046242
0.072559 0.790257 0.046719
0.102041 0.790792 0.047254
0.131848 0.791333 0.047795
0.161863 0.791878 0.048340
0.192034 0.792426 0.048888
0.222329 0.792976 0.049438
0.252727 0.793527 0.049990
0.283213 0.794081 0.050543
0.313777 0.794636 0.051098
0.344409 0.795192 0.051654
0.375103 0.795749 0.052211
0.405854 0.796307 0.052769
0.436656 0.796866 0.053328
0.467506 0.797426 0.053888
0.498400 0.797987 0.054449
0.529336 0.798548 0.055010
0.560311 0.799110 0.055573
