library/cube/Alexa_Wide_004.cube
# CINEGRADE LAB — Premium Cinematic LUT
# Title: Alexa Wide
# Category: ARRI Alexa Look
# Description: Digital cinema natural skin tones with wide dynamic range emulation
# Mood: Cinematic, natural, professional
# Variant: 5
# Generated: 2026-05-21T16:12:52.898999
TITLE "Alexa Wide"
LUT_3D_SIZE 33
0.000000 0.000000 0.000000
0.000000 0.000000 0.000000
0.014055 0.000360 0.000360
0.043408 0.001111 0.001111
0.073194 0.001874 0.001874
0.103225 0.002643 0.002643
0.133432 0.003416 0.003416
0.163774 0.004193 0.004193
0.194228 0.004973 0.004973
0.224776 0.005755 0.005755
0.255406 0.006539 0.006539
0.286108 0.007325 0.007325
0.316875 0.008113 0.008113
0.347701 0.008902 0.008902
0.378580 0.009693 0.009693
0.409509 0.010485 0.010485
0.440484 0.011278 0.011278
0.471502 0.012072 0.012072
0.502560 0.012867 0.012867
0.533656 0.013664 0.013664
0.564787 0.014461 0.014461
0.595952 0.015259 0.015259
0.627149 0.016057 0.016057
0.658376 0.016857 0.016857
0.689632 0.017657 0.017657
0.720917 0.018458 0.018458
0.752228 0.019260 0.019260
0.783564 0.020062 0.020062
0.814925 0.020865 0.020865
0.846310 0.021669 0.021669
0.877718 0.022473 0.022473
0.909147 0.023277 0.023277
0.913386 0.023386 0.023386
0.000000 0.000000 0.000000
0.000000 0.000000 0.000000
0.018903 0.000484 0.000484
0.048843 0.001251 0.001251
0.079224 0.002028 0.002028
0.109857 0.002813 0.002813
0.133432 0.003416 0.003416
0.163774 0.004193 0.004193
0.194228 0.004973 0.004973
0.224776 0.005755 0.005755
0.255406 0.006539 0.006539
0.286108 0.007325 0.007325
0.316875 0.008113 0.008113
0.347701 0.008902 0.008902
0.378580 0.009693 0.009693
0.409509 0.010485 0.010485
0.440484 0.011278 0.011278
0.471502 0.012072 0.012072
0.502560 0.012867 0.012867
0.533656 0.013664 0.013664
0.564787 0.014461 0.014461
0.595952 0.015259 0.015259
0.627149 0.016057 0.016057
0.658376 0.016857 0.016857
0.689632 0.017657 0.017657
0.720917 0.018458 0.018458
0.752228 0.019260 0.019260
0.783564 0.020062 0.020062
0.814925 0.020865 0.020865
0.846310 0.021669 0.021669
0.877718 0.022473 0.022473
0.909147 0.023277 0.023277
0.913386 0.023386 0.023386
0.001875 0.023091 0.001875
0.001875 0.023091 0.001875
0.015930 0.023451 0.002235
0.050719 0.024342 0.003126
0.081100 0.025120 0.003904
0.111732 0.025904 0.004688
0.142543 0.026693 0.005477
0.173492 0.027485 0.006269
0.204555 0.028280 0.007065
0.235714 0.029078 0.007862
0.266956 0.029878 0.008662
0.298272 0.030680 0.009464
0.318750 0.031204 0.009989
0.349576 0.031994 0.010778
0.380456 0.032784 0.011568
0.411385 0.033576 0.012360
0.442360 0.034369 0.013153
0.473378 0.035163 0.013948
0.504435 0.035959 0.014743
0.535531 0.036755 0.015539
0.566662 0.037552 0.016336
0.597827 0.038350 0.017134
0.629024 0.039148 0.017933
0.660251 0.039948 0.018732
0.691508 0.040748 0.019532
0.722792 0.041549 0.020333
0.754103 0.042351 0.021135
0.785439 0.043153 0.021937
0.816801 0.043956 0.022740
0.848185 0.044760 0.023544
0.879593 0.045564 0.024348
0.911023 0.046369 0.025153
0.915261 0.046477 0.025261
0.004369 0.053796 0.004369
0.004369 0.053796 0.004369
0.018424 0.054156 0.004729
0.047777 0.054908 0.005481
0.077563 0.055670 0.006243
0.114226 0.056609 0.007182
0.145037 0.057398 0.007971
0.175986 0.058190 0.008763
0.207049 0.058986 0.009558
0.238207 0.059784 0.010356
0.269450 0.060583 0.011156
0.300766 0.061385 0.011958
0.332149 0.062189 0.012761
0.363591 0.062994 0.013567
0.395088 0.063800 0.014373
0.426636 0.064608 0.015181
0.458230 0.065417 0.015990
0.475871 0.065869 0.016441
0.506929 0.066664 0.017237
0.538025 0.067460 0.018033
0.569156 0.068257 0.018830
0.600321 0.069055 0.019628
0.631518 0.069854 0.020426
0.662745 0.070653 0.021226
0.694002 0.071453 0.022026
0.725286 0.072254 0.022827
0.756597 0.073056 0.023629
0.787933 0.073858 0.024431
0.819294 0.074661 0.025234
0.850679 0.075465 0.026038
0.882087 0.076269 0.026842
0.913516 0.077074 0.027647
0.917755 0.077182 0.027755
0.006893 0.084871 0.006893
0.006893 0.084871 0.006893
0.020948 0.085231 0.007253
0.050301 0.085982 0.008004
0.080086 0.086745 0.008767
0.110118 0.087514 0.009536
0.147560 0.088472 0.010494
0.178510 0.089265 0.011287
0.209572 0.090060 0.012082
0.240731 0.090858 0.012880
0.271974 0.091658 0.013680
0.303290 0.092460 0.014482
0.334672 0.093263 0.015285
0.366115 0.094068 0.016090
0.397612 0.094875 0.016897
0.429159 0.095682 0.017704
0.460754 0.096491 0.018513
0.492392 0.097301 0.019323
0.524071 0.098112 0.020135
0.555789 0.098925 0.020947
0.587542 0.099738 0.021760
0.619331 0.100551 0.022574
0.651151 0.101366 0.023388
0.665269 0.101728 0.023750
0.696525 0.102528 0.024550
0.727810 0.103329 0.025351
0.759120 0.104131 0.026153
0.790457 0.104933 0.026955
0.821818 0.105736 0.027758
0.853203 0.106539 0.028562
0.884610 0.107344 0.029366
0.916040 0.108148 0.030170
0.920279 0.108257 0.030279
0.009435 0.116175 0.009435
0.009435 0.116175 0.009435
0.023490 0.116535 0.009795
0.052844 0.117287 0.010547
0.082629 0.118049 0.011309
0.112661 0.118818 0.012078
0.142867 0.119592 0.012852
0.181052 0.120569 0.013829
0.212115 0.121365 0.014625
0.243274 0.122162 0.015422
0.274516 0.122962 0.016222
0.305832 0.123764 0.017024
0.337215 0.124568 0.017828
0.368657 0.125373 0.018633
0.400154 0.126179 0.019439
0.431702 0.126987 0.020247
0.463296 0.127796 0.021056
0.494934 0.128606 0.021866
0.526614 0.129417 0.022677
0.558331 0.130229 0.023489
0.590085 0.131042 0.024302
0.621873 0.131856 0.025116
0.653694 0.132671 0.025931
0.685546 0.133486 0.026746
0.717427 0.134302 0.027562
0.749337 0.135119 0.028380
0.781274 0.135937 0.029197
0.813238 0.136755 0.030016
0.824360 0.137040 0.030300
0.855745 0.137844 0.031104
0.887153 0.138648 0.031908
0.918582 0.139453 0.032713
0.922821 0.139561 0.032821
0.011991 0.147648 0.011991
0.011991 0.147648 0.011991
0.026046 0.148008 0.012351
0.055400 0.148759 0.013103
0.085185 0.149522 0.013865
0.115217 0.150291 0.014634
0.145423 0.151064 0.015408
0.175766 0.151841 0.016185
0.206219 0.152621 0.016964
0.245830 0.153635 0.017979
0.277072 0.154435 0.018778
0.308388 0.155237 0.019580
0.339771 0.156040 0.020384
0.371213 0.156845 0.021189
0.402710 0.157652 0.021995
0.434258 0.158459 0.022803
0.465852 0.159268 0.023612
0.497491 0.160078 0.024422
0.529170 0.160890 0.025233
0.560887 0.161702 0.026045
0.592641 0.162515 0.026858
0.624429 0.163329 0.027672
0.656250 0.164143 0.028487
0.688102 0.164959 0.029302
0.719983 0.165775 0.030119
0.751893 0.166592 0.030936
0.783830 0.167410 0.031753
0.815794 0.168228 0.032572
0.847782 0.169047 0.033391
0.879794 0.169867 0.034210
0.911830 0.170687 0.035031
0.925377 0.171034 0.035377
0.925377 0.171034 0.035377
0.014558 0.179254 0.014558
0.014558 0.179254 0.014558
0.028613 0.179614 0.014918
0.057967 0.180365 0.015670
0.087752 0.181128 0.016432
0.117784 0.181897 0.017201
0.147990 0.182670 0.017975
0.178333 0.183447 0.018752
0.208786 0.184227 0.019531
0.239334 0.185009 0.020313
0.279639 0.186041 0.021345
0.310955 0.186843 0.022147
0.342338 0.187646 0.022951
0.373780 0.188451 0.023756
0.405277 0.189258 0.024562
0.436825 0.190065 0.025370
0.468419 0.190874 0.026179
0.500058 0.191684 0.026989
0.531737 0.192495 0.027800
0.563454 0.193307 0.028612
0.595208 0.194120 0.029425
0.626996 0.194934 0.030239
0.658817 0.195749 0.031054
0.690669 0.196565 0.031869
0.722550 0.197381 0.032685
0.754460 0.198198 0.033503
0.786397 0.199016 0.034320
0.818361 0.199834 0.035139
0.850349 0.200653 0.035958
0.882361 0.201473 0.036777
0.914397 0.202293 0.037597
0.927944 0.202640 0.037944
0.927944 0.202640 0.037944
0.017134 0.210970 0.017134
0.017134 0.210970 0.017134
0.031189 0.211330 0.017494
0.060542 0.212081 0.018246
0.090328 0.212844 0.019008
0.120360 0.213613 0.019777
0.150566 0.214386 0.020551
0.180908 0.215163 0.021327
0.211362 0.215943 0.022107
0.241910 0.216725 0.022889
0.272540 0.217509 0.023674
0.303242 0.218295 0.024460
0.344914 0.219362 0.025527
0.376356 0.220167 0.026332
0.407853 0.220974 0.027138
0.439401 0.221781 0.027946
0.470995 0.222590 0.028755
0.502633 0.223400 0.029565
0.534312 0.224211 0.030376
0.566030 0.225023 0.031188
0.597784 0.225836 0.032001
0.629572 0.226650 0.032815
0.661393 0.227465 0.033630
0.693245 0.228281 0.034445
0.725126 0.229097 0.035261
0.757036 0.229914 0.036078
0.788973 0.230732 0.036896
0.820936 0.231550 0.037714
0.852925 0.232369 0.038533
0.884937 0.233189 0.039353
0.916973 0.234009 0.040173
0.930520 0.234356 0.040520
0.930520 0.234356 0.040520
0.019718 0.242780 0.019718
0.019718 0.242780 0.019718
0.033773 0.243140 0.020078
0.063126 0.243891 0.020829
0.092911 0.244654 0.021592
0.122943 0.245423 0.022361
0.153150 0.246196 0.023134
0.183492 0.246973 0.023911
0.213946 0.247753 0.024691
0.244494 0.248535 0.025473
0.275123 0.249319 0.026257
0.305826 0.250105 0.027043
0.336593 0.250893 0.027831
0.378939 0.251977 0.028915
0.410437 0.252784 0.029722
0.441984 0.253591 0.030529
0.473579 0.254400 0.031338
0.505217 0.255210 0.032148
0.536896 0.256021 0.032959
0.568613 0.256834 0.033771
0.600367 0.257647 0.034584
0.632155 0.258460 0.035398
0.663976 0.259275 0.036213
0.695828 0.260091 0.037029
0.727710 0.260907 0.037845
0.759620 0.261724 0.038662
0.791557 0.262542 0.039480
0.823520 0.263360 0.040298
0.855508 0.264179 0.041117
0.887521 0.264999 0.041937
0.919556 0.265819 0.042757
0.933104 0.266166 0.043104
0.933104 0.266166 0.043104
0.022308 0.274672 0.022308
0.022308 0.274672 0.022308
0.036363 0.275032 0.022668
0.065716 0.275783 0.023419
0.095501 0.276546 0.024182
0.125533 0.277315 0.024951
0.155740 0.278088 0.025724
0.186082 0.278865 0.026501
0.216536 0.279645 0.027281
0.247084 0.280427 0.028063
0.277714 0.281211 0.028847
0.308416 0.281997 0.029633
0.339183 0.282785 0.030421
0.370009 0.283574 0.031210
0.413027 0.284676 0.032312
0.444574 0.285484 0.033119
0.476169 0.286293 0.033928
0.507807 0.287103 0.034738
0.539486 0.287914 0.035550
0.571204 0.288726 0.036362
0.602957 0.289539 0.037175
0.634746 0.290353 0.037988
0.666566 0.291167 0.038803
0.698418 0.291983 0.039619
0.730300 0.292799 0.040435
0.762210 0.293616 0.041252
0.794147 0.294434 0.042070
0.826110 0.295252 0.042888
0.858098 0.296071 0.043707
0.890111 0.296891 0.044527
0.922147 0.297711 0.045347
0.935694 0.298058 0.045694
0.935694 0.298058 0.045694
0.024904 0.306637 0.024904
0.024904 0.306637 0.024904
0.038959 0.306997 0.025264
0.068312 0.307749 0.026015
0.098097 0.308511 0.026778
0.128129 0.309280 0.027547
0.158336 0.310054 0.028320
0.188678 0.310830 0.029097
0.219132 0.311610 0.029877
0.249680 0.312392 0.030659
0.280310 0.313177 0.031443
0.311012 0.313963 0.032229
0.341779 0.314750 0.033017
0.372605 0.315540 0.033806
0.403484 0.316330 0.034597
0.434413 0.317122 0.035389
0.478765 0.318258 0.036524
0.510403 0.319068 0.037335
0.542082 0.319879 0.038146
0.573800 0.320691 0.038958
0.605553 0.321504 0.039771
0.637342 0.322318 0.040585
0.669162 0.323133 0.041399
0.701014 0.323948 0.042215
0.732896 0.324764 0.043031
0.764806 0.325581 0.043848
0.796743 0.326399 0.044666
0.828706 0.327218 0.045484
0.860695 0.328037 0.046303
0.892707 0.328856 0.047123
0.924743 0.329676 0.047943
0.938290 0.330023 0.048290
0.938290 0.330023 0.048290
0.027505 0.338668 0.027505
0.027505 0.338668 0.027505
0.041560 0.339028 0.027865
0.070914 0.339779 0.028617
0.100699 0.340542 0.029379
0.130731 0.341311 0.030148
0.160937 0.342084 0.030922
0.191280 0.342861 0.031699
0.221733 0.343641 0.032478
0.252281 0.344423 0.033260
0.282911 0.345207 0.034045
0.313613 0.345993 0.034831
0.344380 0.346781 0.035619
0.375206 0.347570 0.036408
0.406086 0.348361 0.037198
0.437015 0.349153 0.037990
0.467990 0.349946 0.038783
0.513005 0.351099 0.039936
0.544684 0.351910 0.040747
0.576401 0.352722 0.041559
0.608155 0.353535 0.042372
0.639943 0.354349 0.043186
0.671764 0.355163 0.044001
0.703616 0.355979 0.044816
0.735497 0.356795 0.045633
0.767407 0.357612 0.046450
0.799344 0.358430 0.047267
0.831308 0.359248 0.048086
0.863296 0.360067 0.048905
0.895308 0.360887 0.049724
0.927344 0.361707 0.050545
0.940891 0.362054 0.050891
0.940891 0.362054 0.050891
0.030112 0.370758 0.030112
0.030112 0.370758 0.030112
0.044166 0.371118 0.030471
0.073520 0.371870 0.031223
0.103305 0.372632 0.031986
0.133337 0.373401 0.032755
0.163544 0.374175 0.033528
0.193886 0.374952 0.034305
0.224340 0.375731 0.035085
0.254888 0.376514 0.035867
0.285517 0.377298 0.036651
0.316220 0.378084 0.037437
0.346987 0.378872 0.038225
0.377812 0.379661 0.039014
0.408692 0.380451 0.039805
0.439621 0.381243 0.040597
0.470596 0.382036 0.041390
0.501614 0.382831 0.042184
0.532672 0.383626 0.042979
0.579007 0.384812 0.044165
0.610761 0.385625 0.044978
0.642549 0.386439 0.045792
0.674370 0.387254 0.046607
0.706222 0.388069 0.047423
0.738104 0.388886 0.048239
0.770014 0.389703 0.049056
0.801951 0.390520 0.049874
0.833914 0.391339 0.050692
0.865902 0.392158 0.051511
0.897915 0.392977 0.052331
0.929950 0.393798 0.053151
0.943498 0.394144 0.053498
0.943498 0.394144 0.053498
0.032722 0.402903 0.032722
0.032722 0.402903 0.032722
0.046777 0.403263 0.033082
0.076131 0.404015 0.033834
0.105916 0.404777 0.034596
0.135948 0.405546 0.035365
0.166154 0.406320 0.036139
0.196497 0.407097 0.036916
0.226950 0.407876 0.037695
0.257498 0.408659 0.038477
0.288128 0.409443 0.039262
0.318830 0.410229 0.040048
0.349597 0.411017 0.040835
0.380423 0.411806 0.041625
0.411303 0.412596 0.042415
0.442232 0.413388 0.043207
0.473207 0.414181 0.044000
0.504225 0.414976 0.044795
0.535282 0.415771 0.045590
0.566378 0.416567 0.046386
0.613372 0.417770 0.047589
0.645160 0.418584 0.048403
0.676981 0.419399 0.049218
0.708833 0.420214 0.050033
0.740714 0.421031 0.050850
0.772624 0.421848 0.051667
0.804561 0.422665 0.052484
0.836525 0.423484 0.053303
0.868513 0.424303 0.054122
0.900525 0.425122 0.054941
0.932561 0.425943 0.055761
0.946108 0.426289 0.056108
0.946108 0.426289 0.056108
0.035337 0.435099 0.035337
0.035337 0.435099 0.035337
0.049392 0.435459 0.035697
0.078745 0.436210 0.036449
0.108531 0.436973 0.037211
0.138562 0.437742 0.037980
0.168769 0.438515 0.038753
0.199111 0.439292 0.039530
0.229565 0.440072 0.040310
0.260113 0.440854 0.041092
0.290743 0.441638 0.041876
0.321445 0.442424 0.042663
0.352212 0.443212 0.043450
0.383038 0.444001 0.044240
0.413917 0.444792 0.045030
0.444847 0.445584 0.045822
0.475822 0.446377 0.046615
0.506839 0.447171 0.047409
0.537897 0.447966 0.048205
0.568993 0.448762 0.049001
0.600124 0.449559 0.049798
0.647775 0.450779 0.051018
0.679596 0.451594 0.051832
0.711448 0.452410 0.052648
0.743329 0.453226 0.053464
0.775239 0.454043 0.054281
0.807176 0.454861 0.055099
0.839139 0.455679 0.055917
0.871128 0.456498 0.056736
0.903140 0.457318 0.057556
0.935176 0.458138 0.058376
0.948723 0.458485 0.058723
0.948723 0.458485 0.058723
0.037956 0.467341 0.037956
0.037956 0.467341 0.037956
0.052011 0.467701 0.038316
0.081364 0.468453 0.039067
0.111149 0.469215 0.039830
0.141181 0.469984 0.040599
0.171388 0.470757 0.041372
0.201730 0.471534 0.042149
0.232184 0.472314 0.042929
0.262732 0.473096 0.043711
0.293361 0.473880 0.044495
0.324064 0.474667 0.045281
0.354831 0.475454 0.046069
0.385656 0.476244 0.046858
0.416536 0.477034 0.047649
0.447465 0.477826 0.048441
0.478440 0.478619 0.049234
0.509458 0.479413 0.050028
0.540516 0.480208 0.050823
0.571611 0.481005 0.051619
0.602743 0.481802 0.052416
0.633907 0.482600 0.053214
0.665104 0.483398 0.054013
0.714066 0.484652 0.055267
0.745948 0.485468 0.056083
0.777858 0.486285 0.056900
0.809795 0.487103 0.057718
0.841758 0.487921 0.058536
0.873746 0.488740 0.059355
0.905759 0.489560 0.060175
0.937795 0.490380 0.060995
0.951342 0.490727 0.061342
0.951342 0.490727 0.061342
0.040578 0.499627 0.040578
0.040578 0.499627 0.040578
0.054633 0.499987 0.040938
0.083986 0.500738 0.041689
0.113771 0.501501 0.042452
0.143803 0.502270 0.043221
0.174010 0.503043 0.043994
0.204352 0.503820 0.044771
0.234806 0.504600 0.045551
0.265354 0.505382 0.046333
0.295984 0.506166 0.047117
0.326686 0.506952 0.047903
0.357453 0.507740 0.048691
0.388279 0.508529 0.049480
0.419158 0.509320 0.050271
0.450087 0.510112 0.051063
0.481062 0.510905 0.051856
0.512080 0.511699 0.052650
0.543138 0.512494 0.053445
0.574234 0.513291 0.054241
0.605365 0.514088 0.055038
0.636530 0.514886 0.055836
0.667727 0.515684 0.056635
0.698954 0.516484 0.057435
0.748570 0.517754 0.058705
0.780480 0.518571 0.059522
0.812417 0.519389 0.060340
0.844380 0.520207 0.061158
0.876368 0.521026 0.061977
0.908381 0.521846 0.062797
0.940417 0.522666 0.063617
0.953964 0.523013 0.063964
0.953964 0.523013 0.063964
0.043203 0.531954 0.043203
0.043203 0.531954 0.043203
0.057258 0.532314 0.043563
0.086612 0.533065 0.044315
0.116397 0.533828 0.045077
0.146429 0.534597 0.045846
0.176635 0.535370 0.046620
0.206978 0.536147 0.047397
0.237431 0.536927 0.048176
0.267979 0.537709 0.048958
0.298609 0.538493 0.049743
0.329311 0.539279 0.050529
0.360078 0.540067 0.051317
0.390904 0.540856 0.052106
0.421784 0.541647 0.052896
0.452713 0.542439 0.053688
0.483688 0.543232 0.054481
0.514706 0.544026 0.055276
0.545763 0.544821 0.056071
0.576859 0.545618 0.056867
0.607990 0.546415 0.057664
0.639155 0.547213 0.058462
0.670352 0.548011 0.059261
0.701579 0.548811 0.060060
0.732836 0.549611 0.060860
0.783105 0.550898 0.062148
0.815042 0.551716 0.062965
0.847006 0.552534 0.063784
0.878994 0.553353 0.064603
0.911006 0.554173 0.065422
0.943042 0.554993 0.066243
0.956589 0.555340 0.066589
0.956589 0.555340 0.066589
0.045832 0.564320 0.045832
0.045832 0.564320 0.045832
0.059887 0.564679 0.046192
0.089240 0.565431 0.046943
0.119025 0.566194 0.047706
0.149057 0.566962 0.048475
0.179264 0.567736 0.049248
0.209606 0.568513 0.050025
0.240060 0.569292 0.050805
0.270608 0.570075 0.051587
0.301238 0.570859 0.052371
0.331940 0.571645 0.053157
0.362707 0.572433 0.053945
0.393533 0.573222 0.054734
0.424412 0.574013 0.055525
0.455341 0.574804 0.056317
0.486316 0.575598 0.057110
0.517334 0.576392 0.057904
0.548392 0.577187 0.058699
0.579488 0.577983 0.059495
0.610619 0.578780 0.060293
0.641784 0.579578 0.061091
0.672981 0.580377 0.061889
0.704208 0.581176 0.062689
0.735464 0.581977 0.063489
0.766749 0.582778 0.064290
0.798060 0.583579 0.065092
0.849634 0.584900 0.066412
0.881623 0.585719 0.067231
0.913635 0.586538 0.068051
0.945671 0.587359 0.068871
0.959218 0.587706 0.069218
0.959218 0.587706 0.069218
0.048464 0.596722 0.048464
0.048464 0.596722 0.048464
0.062518 0.597081 0.048823
0.091872 0.597833 0.049575
0.121657 0.598596 0.050338
0.151689 0.599364 0.051106
0.181895 0.600138 0.051880
0.212238 0.600915 0.052657
0.242691 0.601694 0.053436
0.273239 0.602477 0.054219
0.303869 0.603261 0.055003
0.334571 0.604047 0.055789
0.365338 0.604835 0.056577
0.396164 0.605624 0.057366
0.427044 0.606415 0.058157
0.457973 0.607206 0.058948
0.488948 0.608000 0.059742
0.519966 0.608794 0.060536
0.551024 0.609589 0.061331
0.582119 0.610385 0.062127
0.613250 0.611182 0.062924
0.644415 0.611980 0.063722
0.675612 0.612779 0.064521
0.706840 0.613578 0.065320
0.738096 0.614379 0.066121
0.769380 0.615180 0.066922
0.800691 0.615981 0.067723
0.832028 0.616784 0.068526
0.884254 0.618121 0.069863
0.916267 0.618940 0.070682
0.948302 0.619761 0.071503
0.961850 0.620108 0.071850
0.961850 0.620108 0.071850
0.051098 0.629158 0.051098
0.051098 0.629158 0.051098
0.065153 0.629518 0.051458
0.094506 0.630269 0.052209
0.124291 0.631032 0.052972
0.154323 0.631801 0.053741
0.184530 0.632574 0.054514
0.214872 0.633351 0.055291
0.245326 0.634131 0.056071
0.275874 0.634913 0.056853
0.306504 0.635697 0.057637
0.337206 0.636483 0.058423
0.367973 0.637271 0.059211
0.398799 0.638060 0.060000
0.429678 0.638851 0.060791
0.460607 0.639643 0.061583
0.491582 0.640436 0.062376
0.522600 0.641230 0.063170
0.553658 0.642025 0.063965
0.584754 0.642822 0.064761
0.615885 0.643619 0.065559
0.647050 0.644417 0.066356
0.678247 0.645215 0.067155
0.709474 0.646015 0.067955
0.740730 0.646815 0.068755
0.772015 0.647616 0.069556
0.803325 0.648418 0.070358
0.834662 0.649220 0.071160
0.866023 0.650023 0.071963
0.897408 0.650827 0.072767
0.950937 0.652197 0.074137
0.964484 0.652544 0.074484
0.964484 0.652544 0.074484
0.053735 0.661627 0.053735
0.053735 0.661627 0.053735
0.067790 0.661987 0.054095
0.097143 0.662739 0.054846
0.126928 0.663501 0.055609
0.156960 0.664270 0.056378
0.187167 0.665044 0.057151
0.217509 0.665821 0.057928
0.247963 0.666600 0.058708
0.278511 0.667383 0.059490
0.309141 0.668167 0.060274
0.339843 0.668953 0.061060
0.370610 0.669741 0.061848
0.401436 0.670530 0.062637
0.432315 0.671320 0.063428
0.463244 0.672112 0.064220
0.494219 0.672905 0.065013
0.525237 0.673700 0.065807
0.556295 0.674495 0.066602
0.587391 0.675291 0.067398
0.618522 0.676088 0.068196
0.649687 0.676886 0.068993
0.680884 0.677685 0.069792
0.712111 0.678484 0.070592
0.743367 0.679285 0.071392
0.774652 0.680086 0.072193
0.805963 0.680887 0.072995
0.837299 0.681690 0.073797
0.868660 0.682493 0.074600
0.900045 0.683296 0.075404
0.931452 0.684100 0.076208
0.967121 0.685013 0.077121
0.967121 0.685013 0.077121
0.056375 0.694128 0.056375
0.056375 0.694128 0.056375
0.070429 0.694488 0.056734
0.099783 0.695240 0.057486
0.129568 0.696002 0.058249
0.159600 0.696771 0.059017
0.189806 0.697544 0.059791
0.220149 0.698321 0.060568
0.250602 0.699101 0.061347
0.281150 0.699883 0.062130
0.311780 0.700667 0.062914
0.342482 0.701454 0.063700
0.373249 0.702241 0.064488
0.404075 0.703031 0.065277
0.434955 0.703821 0.066068
0.465884 0.704613 0.066859
0.496859 0.705406 0.067653
0.527877 0.706200 0.068447
0.558935 0.706995 0.069242
0.590030 0.707792 0.070038
0.621161 0.708589 0.070835
0.652326 0.709387 0.071633
0.683523 0.710185 0.072432
0.714751 0.710985 0.073231
0.746007 0.711785 0.074032
0.777291 0.712586 0.074833
0.808602 0.713388 0.075634
0.839939 0.714190 0.076437
0.871300 0.714993 0.077240
0.902684 0.715797 0.078043
0.934092 0.716601 0.078847
0.965522 0.717406 0.079652
0.969761 0.717514 0.079761
0.059017 0.726659 0.059017
0.059017 0.726659 0.059017
0.073071 0.727019 0.059376
0.102425 0.727770 0.060128
0.132210 0.728533 0.060891
0.162242 0.729302 0.061660
0.192448 0.730075 0.062433
0.222791 0.730852 0.063210
0.253245 0.731632 0.063990
0.283792 0.732414 0.064772
0.314422 0.733198 0.065556
0.345124 0.733984 0.066342
0.375891 0.734772 0.067130
0.406717 0.735561 0.067919
0.437597 0.736352 0.068710
0.468526 0.737144 0.069501
0.499501 0.737937 0.070295
0.530519 0.738731 0.071089
0.561577 0.739526 0.071884
0.592672 0.740322 0.072680
0.623803 0.741119 0.073477
0.654968 0.741917 0.074275
0.686165 0.742716 0.075074
0.717393 0.743515 0.075873
0.748649 0.744316 0.076674
0.779933 0.745117 0.077475
0.811244 0.745918 0.078276
0.842581 0.746721 0.079079
0.873942 0.747524 0.079882
0.905326 0.748327 0.080685
0.936734 0.749131 0.081489
0.968164 0.749936 0.082294
0.972403 0.750045 0.082403
0.061661 0.759218 0.061661
0.061661 0.759218 0.061661
0.075716 0.759578 0.062021
0.105069 0.760329 0.062772
0.134854 0.761092 0.063535
0.164886 0.761861 0.064304
0.195093 0.762634 0.065077
0.225435 0.763411 0.065854
0.255889 0.764191 0.066634
0.286437 0.764973 0.067416
0.317067 0.765757 0.068200
0.347769 0.766543 0.068986
0.378536 0.767331 0.069774
0.409362 0.768120 0.070563
0.440241 0.768911 0.071354
0.471170 0.769703 0.072146
0.502145 0.770496 0.072939
0.533163 0.771290 0.073733
0.564221 0.772085 0.074528
0.595317 0.772881 0.075324
0.626448 0.773678 0.076121
0.657613 0.774476 0.076919
0.688810 0.775275 0.077718
0.720037 0.776075 0.078518
0.751293 0.776875 0.079318
0.782578 0.777676 0.080119
0.813888 0.778478 0.080921
0.845225 0.779280 0.081723
0.876586 0.780083 0.082526
0.907971 0.780886 0.083330
0.939378 0.781691 0.084134
0.970808 0.782495 0.084938
0.975047 0.782604 0.085047
0.064307 0.791804 0.064307
0.064307 0.791804 0.064307
0.078362 0.792164 0.064667
0.107716 0.792916 0.065419
0.137501 0.793678 0.066181
0.167533 0.794447 0.066950
0.197739 0.795221 0.067724
0.228082 0.795998 0.068501
0.258535 0.796777 0.069280
0.289083 0.797559 0.070063
0.319713 0.798344 0.070847
0.350415 0.799130 0.071633
0.381182 0.799917 0.072421
0.412008 0.800707 0.073210
0.442888 0.801497 0.074000
0.473817 0.802289 0.074792
0.504792 0.803082 0.075585
0.535810 0.803877 0.076380
0.566868 0.804672 0.077175
