library/cube/Alexa_Wide_004.cube
# CINEGRADE LAB — Premium Cinematic LUT
# Title: Alexa Wide
# Category: ARRI Alexa Look
# Description: Digital cinema natural skin tones with wide dynamic range emulation
# Mood: Cinematic, natural, professional
# Variant: 5
# Generated: 2026-05-21T16:12:52.898999
TITLE "Alexa Wide"
LUT_3D_SIZE 9
0.000000 0.000000 0.000000
0.073194 0.001874 0.001874
0.194228 0.004973 0.004973
0.316875 0.008113 0.008113
0.440484 0.011278 0.011278
0.564787 0.014461 0.014461
0.689632 0.017657 0.017657
0.814925 0.020865 0.020865
0.913386 0.023386 0.023386
0.006893 0.084871 0.006893
0.080086 0.086745 0.008767
0.209572 0.090060 0.012082
0.334672 0.093263 0.015285
0.460754 0.096491 0.018513
0.587542 0.099738 0.021760
0.696525 0.102528 0.024550
0.821818 0.105736 0.027758
0.920279 0.108257 0.030279
0.017134 0.210970 0.017134
0.090328 0.212844 0.019008
0.211362 0.215943 0.022107
0.344914 0.219362 0.025527
0.470995 0.222590 0.028755
0.597784 0.225836 0.032001
0.725126 0.229097 0.035261
0.852925 0.232369 0.038533
0.930520 0.234356 0.040520
0.027505 0.338668 0.027505
0.100699 0.340542 0.029379
0.221733 0.343641 0.032478
0.344380 0.346781 0.035619
0.467990 0.349946 0.038783
0.608155 0.353535 0.042372
0.735497 0.356795 0.045633
0.863296 0.360067 0.048905
0.940891 0.362054 0.050891
0.037956 0.467341 0.037956
0.111149 0.469215 0.039830
0.232184 0.472314 0.042929
0.354831 0.475454 0.046069
0.478440 0.478619 0.049234
0.602743 0.481802 0.052416
0.745948 0.485468 0.056083
0.873746 0.488740 0.059355
0.951342 0.490727 0.061342
0.048464 0.596722 0.048464
0.121657 0.598596 0.050338
0.242691 0.601694 0.053436
0.365338 0.604835 0.056577
0.488948 0.608000 0.059742
0.613250 0.611182 0.062924
0.738096 0.614379 0.066121
0.884254 0.618121 0.069863
0.961850 0.620108 0.071850
0.059017 0.726659 0.059017
0.132210 0.728533 0.060891
0.253245 0.731632 0.063990
0.375891 0.734772 0.067130
0.499501 0.737937 0.070295
0.623803 0.741119 0.073477
0.748649 0.744316 0.076674
0.873942 0.747524 0.079882
0.972403 0.750045 0.082403
0.069607 0.857055 0.069607
0.142800 0.858929 0.071481
0.263835 0.862028 0.074580
0.386482 0.865169 0.077720
0.510091 0.868333 0.080885
0.634394 0.871516 0.084068
0.759239 0.874712 0.087264
0.884532 0.877920 0.090472
0.982993 0.880441 0.092993
0.078672 0.968672 0.078672
0.151866 0.970546 0.080546
0.272900 0.973645 0.083645
0.395547 0.976785 0.086785
0.519156 0.979950 0.089950
0.643459 0.983133 0.093133
0.768304 0.986329 0.096329
0.893597 0.989537 0.099537
0.992058 0.992058 0.102058
0.000797 0.000797 0.090109
0.073991 0.002671 0.091983
0.195025 0.005770 0.095081
0.317672 0.008910 0.098222
0.441281 0.012075 0.101387
0.565584 0.015258 0.104569
0.690429 0.018454 0.107766
0.815722 0.021662 0.110974
0.914183 0.024183 0.113495
0.007690 0.085668 0.097001
0.080883 0.087542 0.098875
0.201918 0.090641 0.101974
0.324565 0.093781 0.105115
0.448174 0.096946 0.108279
0.572477 0.100128 0.111462
0.697322 0.103325 0.114659
0.822615 0.106533 0.117866
0.921076 0.109054 0.120387
0.017931 0.211767 0.107243
0.091125 0.213641 0.109117
0.212159 0.216740 0.112216
0.345711 0.220159 0.115635
0.471792 0.223387 0.118863
0.598581 0.226633 0.122109
0.725923 0.229894 0.125370
0.832856 0.232632 0.128108
0.931317 0.235153 0.130629
0.028302 0.339465 0.117614
0.101496 0.341339 0.119488
0.222530 0.344438 0.122587
0.345177 0.347578 0.125727
0.482163 0.351086 0.129234
0.608952 0.354332 0.132481
0.736294 0.357592 0.135741
0.864093 0.360864 0.139013
0.941688 0.362851 0.141000
0.038753 0.468138 0.128064
0.111946 0.470012 0.129938
0.232981 0.473111 0.133037
0.355628 0.476251 0.136177
0.479237 0.479416 0.139342
0.603540 0.482599 0.142525
0.746745 0.486265 0.146191
0.874543 0.489537 0.149464
0.952139 0.491524 0.151450
0.049261 0.597519 0.138572
0.122454 0.599393 0.140446
0.243488 0.602491 0.143545
0.366135 0.605632 0.146685
0.489745 0.608797 0.149850
0.614047 0.611979 0.153033
0.738893 0.615176 0.156229
0.885051 0.618918 0.159971
0.962647 0.620905 0.161958
0.059814 0.727456 0.149125
0.133007 0.729330 0.150999
0.254041 0.732429 0.154098
0.376688 0.735569 0.157238
0.500298 0.738734 0.160403
0.624600 0.741916 0.163586
0.749446 0.745113 0.166782
0.874739 0.748321 0.169990
0.973200 0.750842 0.172511
0.070404 0.857852 0.159715
0.143597 0.859726 0.161589
0.264632 0.862825 0.164688
0.387279 0.865966 0.167829
0.510888 0.869130 0.170993
0.635191 0.872313 0.174176
0.760036 0.875509 0.177373
0.885329 0.878717 0.180581
0.983790 0.881238 0.183101
0.079469 0.969469 0.168781
0.152663 0.971343 0.170655
0.273697 0.974442 0.173753
0.396344 0.977582 0.176894
0.519953 0.980747 0.180059
0.644256 0.983930 0.183241
0.769101 0.987126 0.186438
0.894394 0.990334 0.189646
0.992855 0.992855 0.192167
0.001785 0.001785 0.201868
0.074979 0.003659 0.203742
0.196013 0.006758 0.206841
0.318660 0.009899 0.209981
0.442270 0.013063 0.213146
0.566572 0.016246 0.216329
0.691418 0.019443 0.219525
0.816711 0.022650 0.222733
0.915171 0.025171 0.225254
0.008678 0.086656 0.208761
0.081872 0.088530 0.210635
0.202906 0.091629 0.213734
0.325553 0.094769 0.216874
0.449163 0.097934 0.220039
0.573465 0.101117 0.223221
0.698311 0.104313 0.226418
0.823603 0.107521 0.229626
0.922064 0.110042 0.232147
0.018920 0.212755 0.219002
0.092113 0.214629 0.220876
0.213148 0.217728 0.223975
0.335795 0.220868 0.227115
0.459404 0.224033 0.230280
0.583707 0.227216 0.233463
0.708552 0.230412 0.236659
0.833845 0.233620 0.239867
0.932306 0.236141 0.242388
0.029291 0.340454 0.229373
0.102484 0.342328 0.231247
0.223519 0.345426 0.234346
0.346166 0.348567 0.237486
0.483152 0.352074 0.240994
0.609940 0.355320 0.244240
0.737283 0.358581 0.247500
0.865081 0.361853 0.250773
0.942677 0.363840 0.252759
0.039741 0.469127 0.239824
0.112935 0.471001 0.241698
0.233969 0.474100 0.244797
0.356616 0.477240 0.247937
0.480226 0.480405 0.251102
0.620391 0.483993 0.254690
0.747733 0.487254 0.257951
0.875532 0.490526 0.261223
0.953127 0.492513 0.263210
0.050249 0.598507 0.250331
0.123443 0.600381 0.252205
0.244477 0.603480 0.255304
0.367124 0.606620 0.258445
0.490733 0.609785 0.261609
0.615036 0.612968 0.264792
0.739881 0.616164 0.267989
0.886040 0.619906 0.271731
0.963635 0.621893 0.273717
0.060802 0.728444 0.260884
0.133996 0.730318 0.262759
0.255030 0.733417 0.265857
0.377677 0.736557 0.268998
0.501286 0.739722 0.272162
0.625589 0.742905 0.275345
0.750434 0.746101 0.278542
0.875727 0.749309 0.281750
0.974188 0.751830 0.284270
0.071392 0.858841 0.271475
0.144586 0.860715 0.273349
0.265620 0.863814 0.276448
0.388267 0.866954 0.279588
0.511877 0.870119 0.282753
0.636179 0.873301 0.285935
0.761025 0.876498 0.289132
0.886317 0.879706 0.292340
0.984778 0.882227 0.294861
0.080457 0.970457 0.280540
0.153651 0.972331 0.282414
0.274685 0.975430 0.285513
0.397332 0.978571 0.288653
0.520942 0.981735 0.291818
0.645244 0.984918 0.295001
0.770090 0.988115 0.298197
0.895383 0.991322 0.301405
0.993843 0.993843 0.303926
0.002791 0.002791 0.315565
0.075985 0.004665 0.317439
0.197019 0.007764 0.320538
0.319666 0.010904 0.323678
0.443275 0.014069 0.326843
0.567578 0.017252 0.330025
0.692423 0.020448 0.333222
0.817716 0.023656 0.336430
0.916177 0.026177 0.338951
0.009684 0.087662 0.322458
0.082877 0.089536 0.324332
0.203912 0.092635 0.327431
0.326559 0.095775 0.330571
0.450168 0.098940 0.333736
0.574471 0.102123 0.336918
0.699316 0.105319 0.340115
0.824609 0.108527 0.343323
0.923070 0.111048 0.345844
0.019925 0.213761 0.332699
0.093119 0.215635 0.334573
0.214153 0.218734 0.337672
0.336800 0.221874 0.340812
0.460410 0.225039 0.343977
0.584712 0.228221 0.347160
0.709558 0.231418 0.350356
0.834850 0.234626 0.353564
0.933311 0.237147 0.356085
0.030296 0.341459 0.343070
0.103490 0.343333 0.344944
0.224524 0.346432 0.348043
0.347171 0.349572 0.351183
0.470781 0.352737 0.354348
0.595083 0.355920 0.357531
0.719929 0.359116 0.360727
0.845222 0.362324 0.363935
0.943682 0.364845 0.366456
0.040747 0.470132 0.353521
0.113940 0.472006 0.355395
0.234975 0.475105 0.358494
0.357622 0.478245 0.361634
0.481231 0.481410 0.364799
0.621396 0.484999 0.368387
0.748739 0.488259 0.371648
0.876537 0.491531 0.374920
0.954133 0.493518 0.376907
0.051255 0.599513 0.364028
0.124448 0.601387 0.365902
0.245483 0.604486 0.369001
0.368130 0.607626 0.372142
0.491739 0.610791 0.375306
0.616041 0.613973 0.378489
0.759247 0.617640 0.382156
0.887045 0.620912 0.385428
0.964641 0.622899 0.387414
0.061808 0.729450 0.374581
0.135001 0.731324 0.376455
0.256036 0.734423 0.379554
0.378683 0.737563 0.382695
0.502292 0.740728 0.385859
0.626594 0.743910 0.389042
0.751440 0.747107 0.392239
0.876733 0.750315 0.395446
0.975194 0.752836 0.397967
0.072398 0.859846 0.385172
0.145592 0.861720 0.387046
0.266626 0.864819 0.390145
0.389273 0.867960 0.393285
0.512882 0.871124 0.396450
0.637185 0.874307 0.399632
0.762030 0.877504 0.402829
0.887323 0.880712 0.406037
0.985784 0.883232 0.408558
0.081463 0.971463 0.394237
0.154657 0.973337 0.396111
0.275691 0.976436 0.399210
0.398338 0.979576 0.402350
0.521947 0.982741 0.405515
0.646250 0.985924 0.408697
0.771095 0.989120 0.411894
0.896388 0.992328 0.415102
0.994849 0.994849 0.417623
0.003808 0.003808 0.430495
0.077001 0.005682 0.432369
0.198036 0.008781 0.435467
0.320683 0.011921 0.438608
0.444292 0.015086 0.441773
0.568594 0.018268 0.444955
0.693440 0.021465 0.448152
0.818733 0.024673 0.451360
0.917194 0.027194 0.453881
0.010700 0.088678 0.437387
0.083894 0.090552 0.439261
0.204928 0.093651 0.442360
0.327575 0.096792 0.445501
0.451185 0.099956 0.448665
0.575487 0.103139 0.451848
0.700333 0.106336 0.455045
0.825626 0.109543 0.458252
0.924086 0.112064 0.460773
0.020942 0.214777 0.447629
0.094135 0.216651 0.449503
0.215170 0.219750 0.452602
0.337817 0.222890 0.455742
0.461426 0.226055 0.458907
0.585729 0.229238 0.462089
0.710574 0.232434 0.465286
0.835867 0.235642 0.468494
0.934328 0.238163 0.471015
0.031313 0.342476 0.458000
0.104506 0.344350 0.459874
0.225541 0.347449 0.462973
0.348188 0.350589 0.466113
0.471797 0.353754 0.469278
0.596100 0.356936 0.472460
0.720945 0.360133 0.475657
0.846238 0.363341 0.478865
0.944699 0.365862 0.481386
0.041763 0.471149 0.468450
0.114957 0.473023 0.470324
0.235991 0.476122 0.473423
0.358638 0.479262 0.476563
0.482248 0.482427 0.479728
0.606550 0.485609 0.482911
0.731396 0.488806 0.486107
0.856688 0.492014 0.489315
0.955149 0.494535 0.491836
0.052271 0.600529 0.478958
0.125465 0.602403 0.480832
0.246499 0.605502 0.483931
0.369146 0.608642 0.487071
0.492756 0.611807 0.490236
0.617058 0.614990 0.493419
0.760263 0.618656 0.497085
0.888062 0.621928 0.500357
0.965657 0.623915 0.502344
0.062824 0.730466 0.489511
0.136018 0.732340 0.491385
0.257052 0.735439 0.494484
0.379699 0.738579 0.497624
0.503309 0.741744 0.500789
0.627611 0.744927 0.503972
0.752457 0.748123 0.507168
0.898615 0.751866 0.510910
0.976210 0.753852 0.512897
0.073414 0.860863 0.500101
0.146608 0.862737 0.501975
0.267642 0.865836 0.505074
0.390289 0.868976 0.508215
0.513899 0.872141 0.511379
0.638201 0.875324 0.514562
0.763047 0.878520 0.517759
0.888340 0.881728 0.520966
0.986800 0.884249 0.523487
0.082480 0.972480 0.509167
0.155673 0.974354 0.511041
0.276708 0.977453 0.514139
0.399355 0.980593 0.517280
0.522964 0.983758 0.520445
0.647266 0.986940 0.523627
0.772112 0.990137 0.526824
0.897405 0.993345 0.530032
0.995866 0.995866 0.532553
0.004832 0.004832 0.546336
0.078026 0.006706 0.548210
0.199060 0.009805 0.551308
0.321707 0.012945 0.554449
0.445317 0.016110 0.557614
0.569619 0.019293 0.560796
0.694465 0.022489 0.563993
0.819757 0.025697 0.567201
0.918218 0.028218 0.569722
0.011725 0.089703 0.553228
0.084919 0.091577 0.555102
0.205953 0.094676 0.558201
0.328600 0.097816 0.561342
0.452209 0.100981 0.564506
0.576512 0.104164 0.567689
0.701357 0.107360 0.570886
0.826650 0.110568 0.574093
0.925111 0.113089 0.576614
0.021966 0.215802 0.563470
0.095160 0.217676 0.565344
0.216194 0.220775 0.568443
0.338841 0.223915 0.571583
0.462451 0.227080 0.574748
0.586753 0.230262 0.577930
0.711599 0.233459 0.581127
0.836891 0.236667 0.584335
0.935352 0.239188 0.586856
0.032338 0.343500 0.573841
0.105531 0.345374 0.575715
0.226565 0.348473 0.578814
0.349212 0.351613 0.581954
0.472822 0.354778 0.585119
0.597124 0.357961 0.588302
0.721970 0.361157 0.591498
0.847263 0.364365 0.594706
0.945724 0.366886 0.597227
0.042788 0.472173 0.584291
0.115981 0.474047 0.586165
0.237016 0.477146 0.589264
0.359663 0.480286 0.592404
0.483272 0.483451 0.595569
0.607575 0.486634 0.598752
0.732420 0.489830 0.601948
0.857713 0.493038 0.605156
0.956174 0.495559 0.607677
0.053296 0.601554 0.594799
0.126489 0.603428 0.596673
0.247524 0.606527 0.599772
0.370171 0.609667 0.602912
0.493780 0.612832 0.606077
0.618083 0.616014 0.609260
0.742928 0.619211 0.612456
0.868221 0.622419 0.615664
0.966682 0.624940 0.618185
0.063849 0.731491 0.605352
0.137042 0.733365 0.607226
0.258077 0.736464 0.610325
0.380724 0.739604 0.613465
0.504333 0.742769 0.616630
0.628636 0.745951 0.619813
0.753481 0.749148 0.623009
0.899639 0.752890 0.626751
0.977235 0.754877 0.628738
0.074439 0.861888 0.615942
0.147633 0.863762 0.617816
0.268667 0.866860 0.620915
0.391314 0.870001 0.624056
0.514923 0.873166 0.627220
0.639226 0.876348 0.630403
0.764071 0.879545 0.633600
0.889364 0.882753 0.636807
0.987825 0.885274 0.639328
0.083504 0.973504 0.625008
0.156698 0.975378 0.626882
0.277732 0.978477 0.629980
0.400379 0.981617 0.633121
0.523989 0.984782 0.636286
0.648291 0.987965 0.639468
0.773137 0.991161 0.642665
0.898429 0.994369 0.645873
0.996890 0.996890 0.648394
0.005863 0.005863 0.662902
0.079057 0.007737 0.664776
0.200091 0.010836 0.667875
0.322738 0.013976 0.671015
0.446348 0.017141 0.674180
0.570650 0.020324 0.677362
0.695496 0.023520 0.680559
0.820788 0.026728 0.683767
0.919249 0.029249 0.686288
0.012756 0.090734 0.669795
0.085950 0.092608 0.671669
0.206984 0.095707 0.674768
0.329631 0.098847 0.677908
0.453240 0.102012 0.681073
0.577543 0.105195 0.684255
0.702388 0.108391 0.687452
0.827681 0.111599 0.690660
0.926142 0.114120 0.693181
0.022997 0.216833 0.680036
0.096191 0.218707 0.681910
0.217225 0.221806 0.685009
0.339872 0.224946 0.688149
0.463482 0.228111 0.691314
0.587784 0.231293 0.694496
0.712630 0.234490 0.697693
0.837922 0.237698 0.700901
0.936383 0.240219 0.703422
0.033369 0.344531 0.690407
0.106562 0.346405 0.692281
0.227596 0.349504 0.695380
0.350243 0.352644 0.698520
0.473853 0.355809 0.701685
0.598155 0.358992 0.704868
0.723001 0.362188 0.708064
0.848294 0.365396 0.711272
0.946755 0.367917 0.713793
0.043819 0.473204 0.700857
0.117012 0.475078 0.702731
0.238047 0.478177 0.705830
0.360694 0.481317 0.708971
0.484303 0.484482 0.712135
0.608606 0.487665 0.715318
0.733451 0.490861 0.718515
0.858744 0.494069 0.721722
0.957205 0.496590 0.724243
0.054327 0.602585 0.711365
0.127520 0.604459 0.713239
0.248555 0.607558 0.716338
0.371202 0.610698 0.719478
0.494811 0.613863 0.722643
0.619114 0.617045 0.725826
0.743959 0.620242 0.729022
0.869252 0.623450 0.732230
0.967713 0.625971 0.734751
0.064880 0.732522 0.721918
0.138073 0.734396 0.723792
0.259108 0.737495 0.726891
0.381755 0.740635 0.730031
0.505364 0.743800 0.733196
0.629667 0.746982 0.736379
0.754512 0.750179 0.739575
0.879805 0.753387 0.742783
0.978266 0.755908 0.745304
0.075470 0.862919 0.732509
0.148664 0.864793 0.734383
0.269698 0.867891 0.737482
0.392345 0.871032 0.740622
0.515954 0.874197 0.743787
0.640257 0.877379 0.746969
0.765102 0.880576 0.750166
0.890395 0.883784 0.753374
0.988856 0.886305 0.755895
0.084535 0.974535 0.741574
0.157729 0.976409 0.743448
0.278763 0.979508 0.746547
0.401410 0.982648 0.749687
0.525020 0.985813 0.752852
0.649322 0.988996 0.756034
0.774168 0.992192 0.759231
0.899460 0.995400 0.762439
0.997921 0.997921 0.764960
0.006899 0.006899 0.780071
0.080093 0.008773 0.781945
0.201127 0.011872 0.785044
0.323774 0.015013 0.788184
0.447384 0.018177 0.791349
0.571686 0.021360 0.794532
0.696532 0.024557 0.797728
0.821825 0.027765 0.800936
0.920285 0.030285 0.803457
0.013792 0.091770 0.786964
0.086986 0.093644 0.788838
0.208020 0.096743 0.791937
0.330667 0.099883 0.795077
0.454277 0.103048 0.798242
0.578579 0.106231 0.801424
0.703425 0.109427 0.804621
0.828717 0.112635 0.807829
0.927178 0.115156 0.810350
0.024034 0.217869 0.797205
0.097227 0.219743 0.799079
0.218262 0.222842 0.802178
0.340909 0.225982 0.805318
0.464518 0.229147 0.808483
0.588821 0.232330 0.811666
0.713666 0.235526 0.814862
0.838959 0.238734 0.818070
0.937420 0.241255 0.820591
0.034405 0.345568 0.807576
0.107598 0.347442 0.809450
0.228633 0.350540 0.812549
0.351280 0.353681 0.815690
0.474889 0.356846 0.818854
0.599192 0.360028 0.822037
0.724037 0.363225 0.825233
0.849330 0.366433 0.828441
0.947791 0.368954 0.830962
0.044855 0.474241 0.818027
0.118049 0.476115 0.819901
0.239083 0.479214 0.823000
0.361730 0.482354 0.826140
0.485340 0.485519 0.829305
0.609642 0.488701 0.832487
0.734488 0.491898 0.835684
0.859780 0.495106 0.838892
0.958241 0.497627 0.841413
0.055363 0.603621 0.828535
0.128557 0.605495 0.830409
0.249591 0.608594 0.833507
0.372238 0.611734 0.836648
0.495847 0.614899 0.839813
0.620150 0.618082 0.842995
0.744995 0.621278 0.846192
0.870288 0.624486 0.849400
0.968749 0.627007 0.851921
0.065916 0.733558 0.839088
0.139110 0.735432 0.840962
0.260144 0.738531 0.844061
0.382791 0.741671 0.847201
0.506400 0.744836 0.850366
0.630703 0.748019 0.853548
0.755548 0.751215 0.856745
0.880841 0.754423 0.859953
0.979302 0.756944 0.862474
0.076506 0.863955 0.849678
0.149700 0.865829 0.851552
0.270734 0.868928 0.854651
0.393381 0.872068 0.857791
0.516991 0.875233 0.860956
0.641293 0.878415 0.864139
0.766139 0.881612 0.867335
0.891432 0.884820 0.870543
0.989892 0.887341 0.873064
0.085571 0.975571 0.858743
0.158765 0.977445 0.860617
0.279799 0.980544 0.863716
0.402446 0.983685 0.866856
0.526056 0.986849 0.870021
0.650358 0.990032 0.873204
0.775204 0.993229 0.876400
0.900497 0.996437 0.879608
0.998957 0.998957 0.882129
0.007940 0.007940 0.897757
0.081134 0.009814 0.899631
0.202168 0.012913 0.902730
0.324815 0.016054 0.905870
0.448425 0.019218 0.909035
0.572727 0.022401 0.912218
0.697573 0.025597 0.915414
0.822865 0.028805 0.918622
0.921326 0.031326 0.921143
0.014833 0.092811 0.904650
0.088027 0.094685 0.906524
0.209061 0.097784 0.909623
0.331708 0.100924 0.912763
0.455318 0.104089 0.915928
0.579620 0.107272 0.919111
0.704466 0.110468 0.922307
0.829758 0.113676 0.925515
0.928219 0.116197 0.928036
0.025075 0.218910 0.914891
0.098268 0.220784 0.916765
0.219302 0.223883 0.919864
0.341949 0.227023 0.923004
0.465559 0.230188 0.926169
0.589861 0.233371 0.929352
0.714707 0.236567 0.932548
0.840000 0.239775 0.935756
0.938461 0.242296 0.938277
0.035446 0.346608 0.925262
0.108639 0.348482 0.927136
0.229674 0.351581 0.930235
0.352321 0.354722 0.933376
0.475930 0.357886 0.936540
0.600233 0.361069 0.939723
0.725078 0.364266 0.942920
0.850371 0.367473 0.946127
0.948832 0.369994 0.948648
0.045896 0.475281 0.935713
0.119090 0.477155 0.937587
0.240124 0.480254 0.940686
0.362771 0.483395 0.943826
0.486380 0.486559 0.946991
0.610683 0.489742 0.950173
0.735529 0.492939 0.953370
0.860821 0.496147 0.956578
0.959282 0.498667 0.959099
0.056404 0.604662 0.946221
0.129597 0.606536 0.948095
0.250632 0.609635 0.951194
0.373279 0.612775 0.954334
0.496888 0.615940 0.957499
0.621191 0.619122 0.960681
0.746036 0.622319 0.963878
0.871329 0.625527 0.967086
0.969790 0.628048 0.969607
0.066957 0.734599 0.956774
0.140150 0.736473 0.958648
0.261185 0.739572 0.961747
0.383832 0.742712 0.964887
0.507441 0.745877 0.968052
0.631744 0.749060 0.971234
0.756589 0.752256 0.974431
0.881882 0.755464 0.977639
0.980343 0.757985 0.980160
0.077547 0.864996 0.967364
0.150741 0.866870 0.969238
0.271775 0.869969 0.972337
0.394422 0.873109 0.975477
0.518032 0.876274 0.978642
0.642334 0.879456 0.981825
0.767180 0.882653 0.985021
0.892472 0.885861 0.988229
0.990933 0.888382 0.990750
0.086612 0.976612 0.976429
0.159806 0.978486 0.978303
0.280840 0.981585 0.981402
0.403487 0.984726 0.984542
0.527097 0.987890 0.987707
0.651399 0.991073 0.990890
0.776245 0.994269 0.994086
0.901537 0.997477 0.997294
0.999998 0.999998 0.999815
