library/cube/Alexa_Wide_004.cube
# CINEGRADE LAB — Premium Cinematic LUT
# Title: Alexa Wide
# Category: ARRI Alexa Look
# Description: Digital cinema natural skin tones with wide dynamic range emulation
# Mood: Cinematic, natural, professional
# Variant: 5
# Generated: 2026-05-21T16:12:52.898999
TITLE "Alexa Wide"
LUT_3D_SIZE 5
0.000000 0.000000 0.000000
0.194228 0.004973 0.004973
0.440484 0.011278 0.011278
0.689632 0.017657 0.017657
0.913386 0.023386 0.023386
0.017134 0.210970 0.017134
0.211362 0.215943 0.022107
0.470995 0.222590 0.028755
0.725126 0.229097 0.035261
0.930520 0.234356 0.040520
0.037956 0.467341 0.037956
0.232184 0.472314 0.042929
0.478440 0.478619 0.049234
0.745948 0.485468 0.056083
0.951342 0.490727 0.061342
0.059017 0.726659 0.059017
0.253245 0.731632 0.063990
0.499501 0.737937 0.070295
0.748649 0.744316 0.076674
0.972403 0.750045 0.082403
0.078672 0.968672 0.078672
0.272900 0.973645 0.083645
0.519156 0.979950 0.089950
0.768304 0.986329 0.096329
0.992058 0.992058 0.102058
0.001785 0.001785 0.201868
0.196013 0.006758 0.206841
0.442270 0.013063 0.213146
0.691418 0.019443 0.219525
0.915171 0.025171 0.225254
0.018920 0.212755 0.219002
0.213148 0.217728 0.223975
0.459404 0.224033 0.230280
0.708552 0.230412 0.236659
0.932306 0.236141 0.242388
0.039741 0.469127 0.239824
0.233969 0.474100 0.244797
0.480226 0.480405 0.251102
0.747733 0.487254 0.257951
0.953127 0.492513 0.263210
0.060802 0.728444 0.260884
0.255030 0.733417 0.265857
0.501286 0.739722 0.272162
0.750434 0.746101 0.278542
0.974188 0.751830 0.284270
0.080457 0.970457 0.280540
0.274685 0.975430 0.285513
0.520942 0.981735 0.291818
0.770090 0.988115 0.298197
0.993843 0.993843 0.303926
0.003808 0.003808 0.430495
0.198036 0.008781 0.435467
0.444292 0.015086 0.441773
0.693440 0.021465 0.448152
0.917194 0.027194 0.453881
0.020942 0.214777 0.447629
0.215170 0.219750 0.452602
0.461426 0.226055 0.458907
0.710574 0.232434 0.465286
0.934328 0.238163 0.471015
0.041763 0.471149 0.468450
0.235991 0.476122 0.473423
0.482248 0.482427 0.479728
0.731396 0.488806 0.486107
0.955149 0.494535 0.491836
0.062824 0.730466 0.489511
0.257052 0.735439 0.494484
0.503309 0.741744 0.500789
0.752457 0.748123 0.507168
0.976210 0.753852 0.512897
0.082480 0.972480 0.509167
0.276708 0.977453 0.514139
0.522964 0.983758 0.520445
0.772112 0.990137 0.526824
0.995866 0.995866 0.532553
0.005863 0.005863 0.662902
0.200091 0.010836 0.667875
0.446348 0.017141 0.674180
0.695496 0.023520 0.680559
0.919249 0.029249 0.686288
0.022997 0.216833 0.680036
0.217225 0.221806 0.685009
0.463482 0.228111 0.691314
0.712630 0.234490 0.697693
0.936383 0.240219 0.703422
0.043819 0.473204 0.700857
0.238047 0.478177 0.705830
0.484303 0.484482 0.712135
0.733451 0.490861 0.718515
0.957205 0.496590 0.724243
0.064880 0.732522 0.721918
0.259108 0.737495 0.726891
0.505364 0.743800 0.733196
0.754512 0.750179 0.739575
0.978266 0.755908 0.745304
0.084535 0.974535 0.741574
0.278763 0.979508 0.746547
0.525020 0.985813 0.752852
0.774168 0.992192 0.759231
0.997921 0.997921 0.764960
0.007940 0.007940 0.897757
0.202168 0.012913 0.902730
0.448425 0.019218 0.909035
0.697573 0.025597 0.915414
0.921326 0.031326 0.921143
0.025075 0.218910 0.914891
0.219302 0.223883 0.919864
0.465559 0.230188 0.926169
0.714707 0.236567 0.932548
0.938461 0.242296 0.938277
0.045896 0.475281 0.935713
0.240124 0.480254 0.940686
0.486380 0.486559 0.946991
0.735529 0.492939 0.953370
0.959282 0.498667 0.959099
0.066957 0.734599 0.956774
0.261185 0.739572 0.961747
0.507441 0.745877 0.968052
0.756589 0.752256 0.974431
0.980343 0.757985 0.980160
0.086612 0.976612 0.976429
0.280840 0.981585 0.981402
0.527097 0.987890 0.987707
0.776245 0.994269 0.994086
0.999998 0.999998 0.999815
