library/cube/Analog_Hearts_004.cube
# CINEGRADE LAB — Premium Cinematic LUT
# Title: Analog Hearts
# Category: Analog Film
# Description: Film grain, muted colors, and vintage feel emulating classic film stocks
# Mood: Nostalgic, warm, organic
# Variant: 5
# Generated: 2026-05-21T16:12:15.735375
TITLE "Analog Hearts"
LUT_3D_SIZE 33
0.182593 0.166399 0.142463
0.201710 0.167935 0.143862
0.221184 0.169499 0.145286
0.240965 0.171088 0.146734
0.261015 0.172699 0.148201
0.281305 0.174328 0.149685
0.301811 0.175976 0.151186
0.322516 0.177639 0.152701
0.343403 0.179316 0.154229
0.364459 0.181008 0.155769
0.385672 0.182712 0.157322
0.407034 0.184428 0.158884
0.428534 0.186155 0.160458
0.450166 0.187892 0.162040
0.471922 0.189640 0.163632
0.493796 0.191397 0.165233
0.515784 0.193163 0.166841
0.537880 0.194938 0.168458
0.560079 0.196721 0.170082
0.582377 0.198512 0.171714
0.604771 0.200311 0.173352
0.627256 0.202117 0.174997
0.649831 0.203930 0.176649
0.672490 0.205750 0.178307
0.695233 0.207577 0.179971
0.718056 0.209410 0.181641
0.740956 0.211250 0.183317
0.763932 0.213095 0.184998
0.786981 0.214947 0.186684
0.810102 0.216804 0.188376
0.833292 0.218666 0.190072
0.842586 0.219413 0.190753
0.842586 0.219413 0.190753
0.187964 0.188418 0.147168
0.207080 0.189953 0.148567
0.226554 0.191517 0.149992
0.246335 0.193106 0.151439
0.266385 0.194717 0.152906
0.286675 0.196347 0.154391
0.307181 0.197994 0.155891
0.327886 0.199657 0.157406
0.348773 0.201335 0.158934
0.369829 0.203026 0.160475
0.391043 0.204730 0.162027
0.412404 0.206446 0.163590
0.433904 0.208173 0.165163
0.455536 0.209910 0.166746
0.477292 0.211658 0.168337
0.499167 0.213415 0.169938
0.521154 0.215181 0.171547
0.543250 0.216956 0.173163
0.565449 0.218739 0.174788
0.587747 0.220530 0.176419
0.610141 0.222329 0.178058
0.632626 0.224135 0.179703
0.655201 0.225948 0.181354
0.677861 0.227768 0.183012
0.700603 0.229595 0.184676
0.723426 0.231428 0.186346
0.746327 0.233268 0.188022
0.769302 0.235113 0.189703
0.792352 0.236965 0.191389
0.815472 0.238822 0.193081
0.838662 0.240685 0.194778
0.847957 0.241431 0.195458
0.847957 0.241431 0.195458
0.193434 0.210848 0.151961
0.212551 0.212383 0.153360
0.232025 0.213948 0.154785
0.251806 0.215537 0.156232
0.271856 0.217147 0.157699
0.292145 0.218777 0.159184
0.312652 0.220424 0.160684
0.333357 0.222087 0.162199
0.354244 0.223765 0.163727
0.375300 0.225456 0.165268
0.396513 0.227160 0.166820
0.417874 0.228876 0.168383
0.439375 0.230603 0.169956
0.461006 0.232341 0.171539
0.482763 0.234088 0.173131
0.504637 0.235845 0.174731
0.526625 0.237611 0.176340
0.548720 0.239386 0.177957
0.570920 0.241169 0.179581
0.593218 0.242960 0.181212
0.615611 0.244759 0.182851
0.638097 0.246565 0.184496
0.660671 0.248379 0.186148
0.683331 0.250199 0.187806
0.706074 0.252025 0.189470
0.728897 0.253859 0.191140
0.751797 0.255698 0.192815
0.774773 0.257544 0.194496
0.797822 0.259395 0.196183
0.820943 0.261252 0.197874
0.844132 0.263115 0.199571
0.853427 0.263862 0.200251
0.853427 0.263862 0.200251
0.198991 0.233631 0.156830
0.218108 0.235167 0.158229
0.237582 0.236731 0.159654
0.257362 0.238320 0.161101
0.277412 0.239931 0.162568
0.297702 0.241560 0.164053
0.318209 0.243208 0.165553
0.338914 0.244871 0.167068
0.359801 0.246548 0.168596
0.380857 0.248240 0.170137
0.402070 0.249944 0.171689
0.423431 0.251659 0.173252
0.444932 0.253386 0.174825
0.466563 0.255124 0.176408
0.488319 0.256872 0.178000
0.510194 0.258629 0.179600
0.532182 0.260395 0.181209
0.554277 0.262170 0.182825
0.576476 0.263953 0.184450
0.598775 0.265744 0.186081
0.621168 0.267543 0.187720
0.643654 0.269349 0.189365
0.666228 0.271162 0.191017
0.688888 0.272982 0.192675
0.711631 0.274809 0.194339
0.734453 0.276642 0.196008
0.757354 0.278482 0.197684
0.780330 0.280327 0.199365
0.803379 0.282179 0.201051
0.826499 0.284036 0.202743
0.849689 0.285898 0.204440
0.858984 0.286645 0.205120
0.858984 0.286645 0.205120
0.204623 0.256725 0.161765
0.223740 0.258260 0.163164
0.243214 0.259825 0.164589
0.262995 0.261413 0.166036
0.283045 0.263024 0.167503
0.303335 0.264654 0.168988
0.323841 0.266301 0.170488
0.344546 0.267964 0.172003
0.365433 0.269642 0.173531
0.386489 0.271333 0.175072
0.407702 0.273037 0.176624
0.429064 0.274753 0.178187
0.450564 0.276480 0.179760
0.472196 0.278217 0.181343
0.493952 0.279965 0.182935
0.515826 0.281722 0.184535
0.537814 0.283488 0.186144
0.559910 0.285263 0.187761
0.582109 0.287046 0.189385
0.604407 0.288837 0.191016
0.626801 0.290636 0.192655
0.649286 0.292442 0.194300
0.671861 0.294255 0.195952
0.694520 0.296076 0.197610
0.717263 0.297902 0.199274
0.740086 0.299736 0.200943
0.762986 0.301575 0.202619
0.785962 0.303421 0.204300
0.809011 0.305272 0.205987
0.832132 0.307129 0.207678
0.855322 0.308992 0.209375
0.864616 0.309738 0.210055
0.864616 0.309738 0.210055
0.210323 0.280095 0.166759
0.229440 0.281630 0.168158
0.248914 0.283194 0.169583
0.268695 0.284783 0.171030
0.288745 0.286394 0.172497
0.309034 0.288024 0.173982
0.329541 0.289671 0.175482
0.350246 0.291334 0.176997
0.371133 0.293012 0.178525
0.392189 0.294703 0.180066
0.413402 0.296407 0.181618
0.434763 0.298123 0.183181
0.456264 0.299850 0.184754
0.477895 0.301587 0.186337
0.499652 0.303335 0.187929
0.521526 0.305092 0.189529
0.543514 0.306858 0.191138
0.565609 0.308633 0.192755
0.587809 0.310416 0.194379
0.610107 0.312207 0.196010
0.632500 0.314006 0.197649
0.654986 0.315812 0.199294
0.677560 0.317625 0.200946
0.700220 0.319445 0.202604
0.722963 0.321272 0.204268
0.745786 0.323105 0.205938
0.768686 0.324945 0.207613
0.791662 0.326790 0.209294
0.814711 0.328642 0.210981
0.837832 0.330499 0.212672
0.861021 0.332362 0.214369
0.870316 0.333108 0.215049
0.870316 0.333108 0.215049
0.216084 0.303714 0.171807
0.235200 0.305250 0.173206
0.254675 0.306814 0.174630
0.274455 0.308403 0.176078
0.294505 0.310013 0.177545
0.314795 0.311643 0.179029
0.335302 0.313290 0.180530
0.356007 0.314953 0.182045
0.376893 0.316631 0.183573
0.397949 0.318322 0.185113
0.419163 0.320026 0.186666
0.440524 0.321742 0.188229
0.462024 0.323469 0.189802
0.483656 0.325207 0.191384
0.505412 0.326954 0.192976
0.527287 0.328711 0.194577
0.549275 0.330478 0.196185
0.571370 0.332252 0.197802
0.593569 0.334036 0.199426
0.615867 0.335827 0.201058
0.638261 0.337625 0.202696
0.660747 0.339432 0.204342
0.683321 0.341245 0.205993
0.705981 0.343065 0.207651
0.728724 0.344892 0.209315
0.751546 0.346725 0.210985
0.774447 0.348564 0.212661
0.797423 0.350410 0.214342
0.820472 0.352261 0.216028
0.843592 0.354119 0.217720
0.866782 0.355981 0.219417
0.876077 0.356728 0.220097
0.876077 0.356728 0.220097
0.221900 0.327562 0.176903
0.241017 0.329097 0.178302
0.260491 0.330662 0.179727
0.280272 0.332250 0.181174
0.300322 0.333861 0.182641
0.320611 0.335491 0.184126
0.341118 0.337138 0.185626
0.361823 0.338801 0.187141
0.382710 0.340479 0.188669
0.403766 0.342170 0.190210
0.424979 0.343874 0.191762
0.446340 0.345590 0.193325
0.467841 0.347317 0.194898
0.489472 0.349054 0.196481
0.511229 0.350802 0.198072
0.533103 0.352559 0.199673
0.555091 0.354325 0.201282
0.577187 0.356100 0.202898
0.599386 0.357883 0.204523
0.621684 0.359674 0.206154
0.644078 0.361473 0.207793
0.666563 0.363279 0.209438
0.689137 0.365092 0.211089
0.711797 0.366913 0.212747
0.734540 0.368739 0.214411
0.757363 0.370573 0.216081
0.780263 0.372412 0.217757
0.803239 0.374258 0.219438
0.826288 0.376109 0.221124
0.849409 0.377966 0.222816
0.872598 0.379829 0.224513
0.881893 0.380575 0.225193
0.881893 0.380575 0.225193
0.227768 0.351619 0.182044
0.246884 0.353155 0.183443
0.266358 0.354719 0.184868
0.286139 0.356308 0.186315
0.306189 0.357919 0.187782
0.326479 0.359548 0.189267
0.346986 0.361195 0.190767
0.367690 0.362859 0.192282
0.388577 0.364536 0.193810
0.409633 0.366228 0.195351
0.430847 0.367932 0.196903
0.452208 0.369647 0.198466
0.473708 0.371374 0.200039
0.495340 0.373112 0.201622
0.517096 0.374860 0.203213
0.538971 0.376617 0.204814
0.560958 0.378383 0.206423
0.583054 0.380158 0.208039
0.605253 0.381941 0.209664
0.627551 0.383732 0.211295
0.649945 0.385531 0.212934
0.672431 0.387337 0.214579
0.695005 0.389150 0.216231
0.717665 0.390970 0.217888
0.740407 0.392797 0.219552
0.763230 0.394630 0.221222
0.786131 0.396470 0.222898
0.809107 0.398315 0.224579
0.832156 0.400167 0.226265
0.855276 0.402024 0.227957
0.878466 0.403886 0.229654
0.887761 0.404633 0.230334
0.887761 0.404633 0.230334
0.233683 0.375872 0.187227
0.252799 0.377407 0.188626
0.272273 0.378971 0.190050
0.292054 0.380560 0.191498
0.312104 0.382171 0.192965
0.332394 0.383800 0.194449
0.352901 0.385448 0.195950
0.373605 0.387111 0.197465
0.394492 0.388788 0.198993
0.415548 0.390480 0.200533
0.436762 0.392184 0.202086
0.458123 0.393900 0.203648
0.479623 0.395627 0.205222
0.501255 0.397364 0.206804
0.523011 0.399112 0.208396
0.544886 0.400869 0.209997
0.566873 0.402635 0.211605
0.588969 0.404410 0.213222
0.611168 0.406193 0.214846
0.633466 0.407984 0.216478
0.655860 0.409783 0.218116
0.678346 0.411589 0.219762
0.700920 0.413402 0.221413
0.723580 0.415222 0.223071
0.746322 0.417049 0.224735
0.769145 0.418882 0.226405
0.792046 0.420722 0.228081
0.815022 0.422567 0.229762
0.838071 0.424419 0.231448
0.861191 0.426276 0.233140
0.884381 0.428139 0.234836
0.893676 0.428885 0.235517
0.893676 0.428885 0.235517
0.239642 0.400305 0.192448
0.258759 0.401841 0.193847
0.278233 0.403405 0.195272
0.298014 0.404994 0.196719
0.318063 0.406604 0.198186
0.338353 0.408234 0.199671
0.358860 0.409881 0.201171
0.379565 0.411544 0.202686
0.400452 0.413222 0.204214
0.421508 0.414913 0.205755
0.442721 0.416617 0.207307
0.464082 0.418333 0.208870
0.485583 0.420060 0.210443
0.507214 0.421798 0.212026
0.528970 0.423545 0.213618
0.550845 0.425302 0.215218
0.572833 0.427069 0.216827
0.594928 0.428843 0.218444
0.617127 0.430627 0.220068
0.639426 0.432418 0.221699
0.661819 0.434216 0.223338
0.684305 0.436023 0.224983
0.706879 0.437836 0.226635
0.729539 0.439656 0.228293
0.752282 0.441483 0.229957
0.775104 0.443316 0.231626
0.798005 0.445155 0.233302
0.820981 0.447001 0.234983
0.844030 0.448852 0.236670
0.867151 0.450710 0.238361
0.890340 0.452572 0.240058
0.899635 0.453319 0.240738
0.899635 0.453319 0.240738
0.245643 0.424909 0.197706
0.264759 0.426445 0.199105
0.284233 0.428009 0.200530
0.304014 0.429598 0.201977
0.324064 0.431208 0.203444
0.344354 0.432838 0.204929
0.364861 0.434485 0.206429
0.385565 0.436148 0.207944
0.406452 0.437826 0.209472
0.427508 0.439517 0.211013
0.448722 0.441221 0.212565
0.470083 0.442937 0.214128
0.491583 0.444664 0.215701
0.513215 0.446402 0.217284
0.534971 0.448149 0.218875
0.556846 0.449906 0.220476
0.578833 0.451672 0.222085
0.600929 0.453447 0.223701
0.623128 0.455230 0.225326
0.645426 0.457021 0.226957
0.667820 0.458820 0.228596
0.690306 0.460626 0.230241
0.712880 0.462440 0.231892
0.735540 0.464260 0.233550
0.758282 0.466087 0.235214
0.781105 0.467920 0.236884
0.804006 0.469759 0.238560
0.826982 0.471605 0.240241
0.850031 0.473456 0.241927
0.873151 0.475313 0.243619
0.896341 0.477176 0.245316
0.905636 0.477923 0.245996
0.905636 0.477923 0.245996
0.251683 0.449673 0.202998
0.270799 0.451208 0.204397
0.290273 0.452773 0.205822
0.310054 0.454362 0.207269
0.330104 0.455972 0.208736
0.350394 0.457602 0.210221
0.370901 0.459249 0.211721
0.391605 0.460912 0.213236
0.412492 0.462590 0.214764
0.433548 0.464281 0.216305
0.454762 0.465985 0.217857
0.476123 0.467701 0.219420
0.497623 0.469428 0.220993
0.519255 0.471166 0.222576
0.541011 0.472913 0.224167
0.562886 0.474670 0.225768
0.584873 0.476436 0.227377
0.606969 0.478211 0.228993
0.629168 0.479994 0.230618
0.651466 0.481785 0.232249
0.673860 0.483584 0.233888
0.696346 0.485390 0.235533
0.718920 0.487204 0.237184
0.741580 0.489024 0.238842
0.764322 0.490850 0.240506
0.787145 0.492684 0.242176
0.810046 0.494523 0.243852
0.833022 0.496369 0.245533
0.856071 0.498220 0.247219
0.879191 0.500077 0.248911
0.902381 0.501940 0.250608
0.911676 0.502687 0.251288
0.911676 0.502687 0.251288
0.257759 0.474588 0.208323
0.276876 0.476124 0.209721
0.296350 0.477688 0.211146
0.316131 0.479277 0.212593
0.336181 0.480887 0.214060
0.356471 0.482517 0.215545
0.376977 0.484164 0.217045
0.397682 0.485827 0.218560
0.418569 0.487505 0.220089
0.439625 0.489196 0.221629
0.460838 0.490900 0.223181
0.482200 0.492616 0.224744
0.503700 0.494343 0.226317
0.525332 0.496081 0.227900
0.547088 0.497828 0.229492
0.568962 0.499585 0.231092
0.590950 0.501352 0.232701
0.613046 0.503126 0.234318
0.635245 0.504910 0.235942
0.657543 0.506701 0.237573
0.679937 0.508499 0.239212
0.702422 0.510306 0.240857
0.724996 0.512119 0.242509
0.747656 0.513939 0.244167
0.770399 0.515766 0.245831
0.793222 0.517599 0.247501
0.816122 0.519438 0.249176
0.839098 0.521284 0.250857
0.862147 0.523135 0.252544
0.885268 0.524993 0.254235
0.908458 0.526855 0.255932
0.917752 0.527602 0.256612
0.917752 0.527602 0.256612
0.263871 0.499647 0.213678
0.282988 0.501182 0.215076
0.302462 0.502747 0.216501
0.322243 0.504336 0.217948
0.342292 0.505946 0.219415
0.362582 0.507576 0.220900
0.383089 0.509223 0.222400
0.403794 0.510886 0.223915
0.424681 0.512564 0.225444
0.445737 0.514255 0.226984
0.466950 0.515959 0.228536
0.488311 0.517675 0.230099
0.509812 0.519402 0.231672
0.531443 0.521140 0.233255
0.553199 0.522887 0.234847
0.575074 0.524644 0.236447
0.597062 0.526410 0.238056
0.619157 0.528185 0.239673
0.641356 0.529968 0.241297
0.663655 0.531759 0.242929
0.686048 0.533558 0.244567
0.708534 0.535364 0.246212
0.731108 0.537178 0.247864
0.753768 0.538998 0.249522
0.776511 0.540824 0.251186
0.799334 0.542658 0.252856
0.822234 0.544497 0.254531
0.845210 0.546343 0.256212
0.868259 0.548194 0.257899
0.891380 0.550051 0.259590
0.914569 0.551914 0.261287
0.923864 0.552661 0.261967
0.923864 0.552661 0.261967
0.270016 0.524842 0.219062
0.289133 0.526378 0.220460
0.308607 0.527942 0.221885
0.328388 0.529531 0.223333
0.348437 0.531141 0.224800
0.368727 0.532771 0.226284
0.389234 0.534418 0.227785
0.409939 0.536081 0.229300
0.430826 0.537759 0.230828
0.451882 0.539450 0.232368
0.473095 0.541154 0.233920
0.494456 0.542870 0.235483
0.515957 0.544597 0.237057
0.537588 0.546335 0.238639
0.559344 0.548082 0.240231
0.581219 0.549839 0.241832
0.603207 0.551606 0.243440
0.625302 0.553380 0.245057
0.647501 0.555163 0.246681
0.669800 0.556955 0.248313
0.692193 0.558753 0.249951
0.714679 0.560559 0.251596
0.737253 0.562373 0.253248
0.759913 0.564193 0.254906
0.782656 0.566020 0.256570
0.805479 0.567853 0.258240
0.828379 0.569692 0.259915
0.851355 0.571538 0.261597
0.874404 0.573389 0.263283
0.897525 0.575246 0.264975
0.920714 0.577109 0.266671
0.930009 0.577856 0.267351
0.930009 0.577856 0.267351
0.276193 0.550167 0.224474
0.295309 0.551703 0.225872
0.314783 0.553267 0.227297
0.334564 0.554856 0.228745
0.354614 0.556467 0.230212
0.374904 0.558096 0.231696
0.395411 0.559744 0.233197
0.416115 0.561407 0.234711
0.437002 0.563084 0.236240
0.458058 0.564776 0.237780
0.479272 0.566480 0.239332
0.500633 0.568195 0.240895
0.522133 0.569922 0.242469
0.543765 0.571660 0.244051
0.565521 0.573408 0.245643
0.587396 0.575165 0.247244
0.609384 0.576931 0.248852
0.631479 0.578706 0.250469
0.653678 0.580489 0.252093
0.675976 0.582280 0.253725
0.698370 0.584079 0.255363
0.720856 0.585885 0.257008
0.743430 0.587698 0.258660
0.766090 0.589518 0.260318
0.788832 0.591345 0.261982
0.811655 0.593178 0.263652
0.834556 0.595018 0.265327
0.857532 0.596863 0.267009
0.880581 0.598715 0.268695
0.903701 0.600572 0.270387
0.926891 0.602434 0.272083
0.936186 0.603181 0.272763
0.936186 0.603181 0.272763
0.282400 0.575617 0.229912
0.301516 0.577153 0.231311
0.320991 0.578717 0.232736
0.340771 0.580306 0.234183
0.360821 0.581916 0.235650
0.381111 0.583546 0.237135
0.401618 0.585193 0.238635
0.422323 0.586856 0.240150
0.443209 0.588534 0.241678
0.464265 0.590225 0.243219
0.485479 0.591929 0.244771
0.506840 0.593645 0.246334
0.528340 0.595372 0.247907
0.549972 0.597110 0.249490
0.571728 0.598857 0.251082
0.593603 0.600614 0.252682
0.615591 0.602380 0.254291
0.637686 0.604155 0.255908
0.659885 0.605938 0.257532
0.682183 0.607730 0.259163
0.704577 0.609528 0.260802
0.727063 0.611334 0.262447
0.749637 0.613148 0.264099
0.772297 0.614968 0.265757
0.795040 0.616795 0.267421
0.817862 0.618628 0.269091
0.840763 0.620467 0.270766
0.863739 0.622313 0.272447
0.886788 0.624164 0.274134
0.909908 0.626021 0.275825
0.933098 0.627884 0.277522
0.942393 0.628631 0.278202
0.942393 0.628631 0.278202
0.288636 0.601186 0.235376
0.307753 0.602721 0.236775
0.327227 0.604286 0.238200
0.347007 0.605875 0.239647
0.367057 0.607485 0.241114
0.387347 0.609115 0.242599
0.407854 0.610762 0.244099
0.428559 0.612425 0.245614
0.449446 0.614103 0.247142
0.470502 0.615794 0.248683
0.491715 0.617498 0.250235
0.513076 0.619214 0.251798
0.534577 0.620941 0.253371
0.556208 0.622678 0.254954
0.577964 0.624426 0.256546
0.599839 0.626183 0.258146
0.621827 0.627949 0.259755
0.643922 0.629724 0.261372
0.666121 0.631507 0.262996
0.688420 0.633298 0.264627
0.710813 0.635097 0.266266
0.733299 0.636903 0.267911
0.755873 0.638716 0.269563
0.778533 0.640537 0.271221
0.801276 0.642363 0.272885
0.824098 0.644197 0.274555
0.846999 0.646036 0.276230
0.869975 0.647882 0.277911
0.893024 0.649733 0.279598
0.916145 0.651590 0.281289
0.939334 0.653453 0.282986
0.948629 0.654199 0.283666
0.948629 0.654199 0.283666
0.294900 0.626869 0.240865
0.314017 0.628404 0.242264
0.333491 0.629969 0.243688
0.353271 0.631558 0.245136
0.373321 0.633168 0.246603
0.393611 0.634798 0.248087
0.414118 0.636445 0.249588
0.434823 0.638108 0.251103
0.455710 0.639786 0.252631
0.476766 0.641477 0.254171
0.497979 0.643181 0.255724
0.519340 0.644897 0.257286
0.540841 0.646624 0.258860
0.562472 0.648362 0.260442
0.584228 0.650109 0.262034
0.606103 0.651866 0.263635
0.628091 0.653632 0.265243
0.650186 0.655407 0.266860
0.672385 0.657190 0.268484
0.694684 0.658981 0.270116
0.717077 0.660780 0.271754
0.739563 0.662586 0.273399
0.762137 0.664400 0.275051
0.784797 0.666220 0.276709
0.807540 0.668046 0.278373
0.830362 0.669880 0.280043
0.853263 0.671719 0.281719
0.876239 0.673565 0.283400
0.899288 0.675416 0.285086
0.922408 0.677273 0.286778
0.945598 0.679136 0.288474
0.954893 0.679883 0.289155
0.954893 0.679883 0.289155
0.301191 0.652662 0.246377
0.320307 0.654197 0.247775
0.339781 0.655762 0.249200
0.359562 0.657351 0.250648
0.379612 0.658961 0.252115
0.399902 0.660591 0.253599
0.420409 0.662238 0.255100
0.441113 0.663901 0.256614
0.462000 0.665579 0.258143
0.483056 0.667270 0.259683
0.504270 0.668974 0.261235
0.525631 0.670690 0.262798
0.547131 0.672417 0.264371
0.568763 0.674155 0.265954
0.590519 0.675902 0.267546
0.612394 0.677659 0.269147
0.634382 0.679425 0.270755
0.656477 0.681200 0.272372
0.678676 0.682983 0.273996
0.700974 0.684774 0.275628
0.723368 0.686573 0.277266
0.745854 0.688379 0.278911
0.768428 0.690193 0.280563
0.791088 0.692013 0.282221
0.813830 0.693839 0.283885
0.836653 0.695673 0.285555
0.859554 0.697512 0.287230
0.882530 0.699358 0.288912
0.905579 0.701209 0.290598
0.928699 0.703066 0.292290
0.951889 0.704929 0.293986
0.961184 0.705676 0.294666
0.961184 0.705676 0.294666
0.307508 0.678561 0.251911
0.326624 0.680096 0.253310
0.346098 0.681661 0.254735
0.365879 0.683249 0.256182
0.385929 0.684860 0.257649
0.406219 0.686490 0.259134
0.426725 0.688137 0.260634
0.447430 0.689800 0.262149
0.468317 0.691478 0.263677
0.489373 0.693169 0.265218
0.510586 0.694873 0.266770
0.531948 0.696589 0.268333
0.553448 0.698316 0.269906
0.575080 0.700053 0.271489
0.596836 0.701801 0.273081
0.618710 0.703558 0.274681
0.640698 0.705324 0.276290
0.662794 0.707099 0.277907
0.684993 0.708882 0.279531
0.707291 0.710673 0.281162
0.729685 0.712472 0.282801
0.752170 0.714278 0.284446
0.774745 0.716091 0.286098
0.797404 0.717912 0.287756
0.820147 0.719738 0.289420
0.842970 0.721572 0.291089
0.865870 0.723411 0.292765
0.888846 0.725257 0.294446
0.911896 0.727108 0.296133
0.935016 0.728965 0.297824
0.958206 0.730828 0.299521
0.967500 0.731574 0.300201
0.967500 0.731574 0.300201
0.313849 0.704562 0.257468
0.332965 0.706097 0.258866
0.352440 0.707661 0.260291
0.372220 0.709250 0.261739
0.392270 0.710861 0.263206
0.412560 0.712491 0.264690
0.433067 0.714138 0.266191
0.453772 0.715801 0.267705
0.474659 0.717479 0.269234
0.495714 0.719170 0.270774
0.516928 0.720874 0.272326
0.538289 0.722590 0.273889
0.559789 0.724317 0.275462
0.581421 0.726054 0.277045
0.603177 0.727802 0.278637
0.625052 0.729559 0.280238
0.647040 0.731325 0.281846
0.669135 0.733100 0.283463
0.691334 0.734883 0.285087
0.713633 0.736674 0.286719
0.736026 0.738473 0.288357
0.758512 0.740279 0.290002
0.781086 0.742092 0.291654
0.803746 0.743912 0.293312
0.826489 0.745739 0.294976
0.849311 0.747572 0.296646
0.872212 0.749412 0.298321
0.895188 0.751257 0.300003
0.918237 0.753109 0.301689
0.941357 0.754966 0.303381
0.964547 0.756829 0.305077
0.973842 0.757575 0.305757
0.973842 0.757575 0.305757
0.320215 0.730661 0.263045
0.339331 0.732197 0.264444
0.358805 0.733761 0.265869
0.378586 0.735350 0.267316
0.398636 0.736960 0.268783
0.418926 0.738590 0.270268
0.439432 0.740237 0.271768
0.460137 0.741900 0.273283
0.481024 0.743578 0.274811
0.502080 0.745270 0.276352
0.523294 0.746973 0.277904
0.544655 0.748689 0.279467
0.566155 0.750416 0.281040
0.587787 0.752154 0.282623
0.609543 0.753901 0.284214
0.631418 0.755659 0.285815
0.653405 0.757425 0.287424
0.675501 0.759199 0.289040
0.697700 0.760983 0.290665
0.719998 0.762774 0.292296
0.742392 0.764572 0.293935
0.764877 0.766379 0.295580
0.787452 0.768192 0.297231
0.810112 0.770012 0.298889
0.832854 0.771839 0.300553
0.855677 0.773672 0.302223
0.878578 0.775512 0.303899
0.901553 0.777357 0.305580
0.924603 0.779208 0.307266
0.947723 0.781066 0.308958
0.970913 0.782928 0.310655
0.980208 0.783675 0.311335
0.980208 0.783675 0.311335
0.326603 0.756856 0.268643
0.345720 0.758392 0.270042
0.365194 0.759956 0.271467
0.384975 0.761545 0.272914
0.405025 0.763155 0.274381
0.425315 0.764785 0.275865
0.445821 0.766432 0.277366
0.466526 0.768095 0.278881
0.487413 0.769773 0.280409
0.508469 0.771464 0.281950
0.529682 0.773168 0.283502
0.551044 0.774884 0.285065
0.572544 0.776611 0.286638
0.594176 0.778349 0.288220
0.615932 0.780096 0.289812
0.637806 0.781853 0.291413
0.659794 0.783620 0.293022
0.681890 0.785394 0.294638
0.704089 0.787178 0.296262
0.726387 0.788969 0.297894
0.748781 0.790767 0.299532
0.771266 0.792574 0.301178
0.793840 0.794387 0.302829
0.816500 0.796207 0.304487
0.839243 0.798034 0.306151
0.862066 0.799867 0.307821
0.884966 0.801706 0.309497
0.907942 0.803552 0.311178
0.930991 0.805403 0.312864
0.954112 0.807261 0.314556
0.977302 0.809123 0.316253
0.986596 0.809870 0.316933
0.986596 0.809870 0.316933
0.333015 0.783143 0.274261
0.352131 0.784679 0.275659
0.371605 0.786243 0.277084
0.391386 0.787832 0.278531
0.411436 0.789443 0.279998
0.431726 0.791072 0.281483
0.452233 0.792720 0.282983
0.472937 0.794383 0.284498
0.493824 0.796060 0.286027
0.514880 0.797752 0.287567
0.536094 0.799456 0.289119
0.557455 0.801172 0.290682
0.578955 0.802898 0.292255
0.600587 0.804636 0.293838
0.622343 0.806384 0.295430
0.644218 0.808141 0.297030
0.666205 0.809907 0.298639
0.688301 0.811682 0.300256
0.710500 0.813465 0.301880
0.732798 0.815256 0.303512
0.755192 0.817055 0.305150
0.777678 0.818861 0.306795
0.800252 0.820674 0.308447
0.822912 0.822494 0.310105
0.845654 0.824321 0.311769
0.868477 0.826154 0.313439
0.891378 0.827994 0.315114
0.914354 0.829839 0.316795
0.937403 0.831691 0.318482
0.960523 0.833548 0.320173
0.983713 0.835410 0.321870
0.993008 0.836157 0.322550
0.993008 0.836157 0.322550
0.339448 0.809520 0.279897
0.358564 0.811056 0.281296
0.378039 0.812620 0.282721
0.397819 0.814209 0.284168
0.417869 0.815819 0.285635
0.438159 0.817449 0.287120
0.458666 0.819096 0.288620
0.479371 0.820759 0.290135
0.500257 0.822437 0.291663
0.521313 0.824128 0.293204
0.542527 0.825832 0.294756
0.563888 0.827548 0.296319
0.585388 0.829275 0.297892
0.607020 0.831013 0.299475
0.628776 0.832760 0.301067
0.650651 0.834517 0.302667
0.672639 0.836284 0.304276
0.694734 0.838058 0.305892
0.716933 0.839842 0.307517
