library/cube/Analog_Hearts_004.cube
# CINEGRADE LAB — Premium Cinematic LUT
# Title: Analog Hearts
# Category: Analog Film
# Description: Film grain, muted colors, and vintage feel emulating classic film stocks
# Mood: Nostalgic, warm, organic
# Variant: 5
# Generated: 2026-05-21T16:12:15.735375
TITLE "Analog Hearts"
LUT_3D_SIZE 9
0.182593 0.166399 0.142463
0.261015 0.172699 0.148201
0.343403 0.179316 0.154229
0.428534 0.186155 0.160458
0.515784 0.193163 0.166841
0.604771 0.200311 0.173352
0.695233 0.207577 0.179971
0.786981 0.214947 0.186684
0.842586 0.219413 0.190753
0.204623 0.256725 0.161765
0.283045 0.263024 0.167503
0.365433 0.269642 0.173531
0.450564 0.276480 0.179760
0.537814 0.283488 0.186144
0.626801 0.290636 0.192655
0.717263 0.297902 0.199274
0.809011 0.305272 0.205987
0.864616 0.309738 0.210055
0.227768 0.351619 0.182044
0.306189 0.357919 0.187782
0.388577 0.364536 0.193810
0.473708 0.371374 0.200039
0.560958 0.378383 0.206423
0.649945 0.385531 0.212934
0.740407 0.392797 0.219552
0.832156 0.400167 0.226265
0.887761 0.404633 0.230334
0.251683 0.449673 0.202998
0.330104 0.455972 0.208736
0.412492 0.462590 0.214764
0.497623 0.469428 0.220993
0.584873 0.476436 0.227377
0.673860 0.483584 0.233888
0.764322 0.490850 0.240506
0.856071 0.498220 0.247219
0.911676 0.502687 0.251288
0.276193 0.550167 0.224474
0.354614 0.556467 0.230212
0.437002 0.563084 0.236240
0.522133 0.569922 0.242469
0.609384 0.576931 0.248852
0.698370 0.584079 0.255363
0.788832 0.591345 0.261982
0.880581 0.598715 0.268695
0.936186 0.603181 0.272763
0.301191 0.652662 0.246377
0.379612 0.658961 0.252115
0.462000 0.665579 0.258143
0.547131 0.672417 0.264371
0.634382 0.679425 0.270755
0.723368 0.686573 0.277266
0.813830 0.693839 0.283885
0.905579 0.701209 0.290598
0.961184 0.705676 0.294666
0.326603 0.756856 0.268643
0.405025 0.763155 0.274381
0.487413 0.769773 0.280409
0.572544 0.776611 0.286638
0.659794 0.783620 0.293022
0.748781 0.790767 0.299532
0.839243 0.798034 0.306151
0.930991 0.805403 0.312864
0.986596 0.809870 0.316933
0.352377 0.862532 0.291226
0.430799 0.868831 0.296964
0.513187 0.875449 0.302992
0.598318 0.882287 0.309221
0.685568 0.889295 0.315604
0.774555 0.896443 0.322115
0.865017 0.903709 0.328734
0.956765 0.911079 0.335447
1.000000 0.915545 0.339515
0.367998 0.926577 0.304912
0.446419 0.932877 0.310650
0.528807 0.939494 0.316678
0.613938 0.946332 0.322907
0.701188 0.953341 0.329291
0.790175 0.960489 0.335802
0.880637 0.967755 0.342421
0.972386 0.975125 0.349134
1.000000 0.979591 0.353202
0.184817 0.168539 0.207386
0.263239 0.174838 0.213123
0.345627 0.181456 0.219152
0.430758 0.188294 0.225380
0.518008 0.195302 0.231764
0.606995 0.202450 0.238275
0.697457 0.209716 0.244894
0.789205 0.217086 0.251607
0.844810 0.221552 0.255675
0.206847 0.258864 0.226688
0.285269 0.265163 0.232426
0.367657 0.271781 0.238454
0.452788 0.278619 0.244683
0.540038 0.285627 0.251067
0.629025 0.292775 0.257577
0.719487 0.300042 0.264196
0.811235 0.307411 0.270909
0.866840 0.311878 0.274978
0.229992 0.353759 0.246967
0.308413 0.360058 0.252705
0.390801 0.366676 0.258733
0.475932 0.373514 0.264962
0.563182 0.380522 0.271345
0.652169 0.387670 0.277856
0.742631 0.394936 0.284475
0.834380 0.402306 0.291188
0.889985 0.406772 0.295257
0.253907 0.451812 0.267921
0.332328 0.458111 0.273659
0.414716 0.464729 0.279687
0.499847 0.471567 0.285916
0.587097 0.478576 0.292299
0.676084 0.485723 0.298810
0.766546 0.492990 0.305429
0.858295 0.500359 0.312142
0.913900 0.504826 0.316211
0.278417 0.552307 0.289397
0.356838 0.558606 0.295134
0.439226 0.565224 0.301162
0.524357 0.572062 0.307391
0.611607 0.579070 0.313775
0.700594 0.586218 0.320286
0.791056 0.593484 0.326905
0.882805 0.600854 0.333618
0.938410 0.605320 0.337686
0.303415 0.654801 0.311300
0.381836 0.661100 0.317037
0.464224 0.667718 0.323065
0.549355 0.674556 0.329294
0.636605 0.681565 0.335678
0.725592 0.688712 0.342189
0.816054 0.695979 0.348808
0.907803 0.703348 0.355521
0.963408 0.707815 0.359589
0.328827 0.758995 0.333566
0.407249 0.765295 0.339304
0.489637 0.771912 0.345332
0.574768 0.778750 0.351560
0.662018 0.785759 0.357944
0.751005 0.792907 0.364455
0.841467 0.800173 0.371074
0.933215 0.807543 0.377787
0.988820 0.812009 0.381855
0.354601 0.864671 0.356149
0.433023 0.870970 0.361886
0.515411 0.877588 0.367914
0.600542 0.884426 0.374143
0.687792 0.891434 0.380527
0.776778 0.898582 0.387038
0.867241 0.905849 0.393657
0.958989 0.913218 0.400370
1.000000 0.917685 0.404438
0.370222 0.928717 0.369835
0.448643 0.935016 0.375573
0.531031 0.941634 0.381601
0.616162 0.948472 0.387830
0.703412 0.955480 0.394214
0.792399 0.962628 0.400724
0.882861 0.969894 0.407343
0.974610 0.977264 0.414056
1.000000 0.981730 0.418125
0.187154 0.170786 0.275592
0.265575 0.177085 0.281330
0.347963 0.183703 0.287358
0.433094 0.190541 0.293587
0.520344 0.197549 0.299971
0.609331 0.204697 0.306482
0.699793 0.211964 0.313101
0.791542 0.219333 0.319814
0.847147 0.223800 0.323882
0.209184 0.261111 0.294895
0.287605 0.267411 0.300633
0.369993 0.274028 0.306661
0.455124 0.280867 0.312890
0.542374 0.287875 0.319273
0.631361 0.295023 0.325784
0.721823 0.302289 0.332403
0.813572 0.309659 0.339116
0.869177 0.314125 0.343185
0.232328 0.356006 0.315174
0.310750 0.362305 0.320912
0.393138 0.368923 0.326940
0.478269 0.375761 0.333169
0.565519 0.382769 0.339552
0.654505 0.389917 0.346063
0.744968 0.397184 0.352682
0.836716 0.404553 0.359395
0.892321 0.409020 0.363463
0.256243 0.454060 0.336128
0.334664 0.460359 0.341866
0.417053 0.466977 0.347894
0.502184 0.473815 0.354122
0.589434 0.480823 0.360506
0.678420 0.487971 0.367017
0.768883 0.495237 0.373636
0.860631 0.502607 0.380349
0.916236 0.507073 0.384417
0.280753 0.554554 0.357603
0.359175 0.560853 0.363341
0.441563 0.567471 0.369369
0.526694 0.574309 0.375598
0.613944 0.581317 0.381982
0.702930 0.588465 0.388493
0.793393 0.595732 0.395112
0.885141 0.603101 0.401825
0.940746 0.607568 0.405893
0.305751 0.657049 0.379506
0.384173 0.663348 0.385244
0.466561 0.669966 0.391272
0.551692 0.676804 0.397501
0.638942 0.683812 0.403885
0.727928 0.690960 0.410396
0.818391 0.698226 0.417015
0.910139 0.705596 0.423728
0.965744 0.710062 0.427796
0.331164 0.761243 0.401773
0.409585 0.767542 0.407510
0.491973 0.774160 0.413539
0.577104 0.780998 0.419767
0.664354 0.788006 0.426151
0.753341 0.795154 0.432662
0.843803 0.802420 0.439281
0.935552 0.809790 0.445994
0.991157 0.814256 0.450062
0.356938 0.866918 0.424355
0.435359 0.873218 0.430093
0.517747 0.879835 0.436121
0.602878 0.886674 0.442350
0.690128 0.893682 0.448734
0.779115 0.900830 0.455245
0.869577 0.908096 0.461864
0.961326 0.915466 0.468577
1.000000 0.919932 0.472645
0.372558 0.930964 0.438042
0.450979 0.937263 0.443780
0.533368 0.943881 0.449808
0.618499 0.950719 0.456037
0.705749 0.957727 0.462420
0.794735 0.964875 0.468931
0.885198 0.972142 0.475550
0.976946 0.979511 0.482263
1.000000 0.983978 0.486332
0.189568 0.173108 0.346070
0.267989 0.179408 0.351808
0.350378 0.186025 0.357836
0.435509 0.192863 0.364065
0.522759 0.199872 0.370448
0.611745 0.207020 0.376959
0.702208 0.214286 0.383578
0.793956 0.221656 0.390291
0.849561 0.226122 0.394360
0.211598 0.263434 0.365372
0.290019 0.269733 0.371110
0.372408 0.276351 0.377138
0.457539 0.283189 0.383367
0.544789 0.290197 0.389751
0.633775 0.297345 0.396262
0.724238 0.304611 0.402881
0.815986 0.311981 0.409594
0.871591 0.316447 0.413662
0.234742 0.358328 0.385651
0.313164 0.364627 0.391389
0.395552 0.371245 0.397417
0.480683 0.378083 0.403646
0.567933 0.385092 0.410030
0.656920 0.392239 0.416541
0.747382 0.399506 0.423160
0.839130 0.406875 0.429872
0.894735 0.411342 0.433941
0.258657 0.456382 0.406605
0.337079 0.462681 0.412343
0.419467 0.469299 0.418371
0.504598 0.476137 0.424600
0.591848 0.483145 0.430984
0.680835 0.490293 0.437495
0.771297 0.497559 0.444113
0.863045 0.504929 0.450826
0.918650 0.509395 0.454895
0.283168 0.556876 0.428081
0.361589 0.563175 0.433819
0.443977 0.569793 0.439847
0.529108 0.576631 0.446076
0.616358 0.583640 0.452459
0.705345 0.590788 0.458970
0.795807 0.598054 0.465589
0.887556 0.605424 0.472302
0.943160 0.609890 0.476370
0.308166 0.659371 0.449984
0.386587 0.665670 0.455722
0.468975 0.672288 0.461750
0.554106 0.679126 0.467979
0.641356 0.686134 0.474362
0.730343 0.693282 0.480873
0.820805 0.700548 0.487492
0.912554 0.707918 0.494205
0.968158 0.712384 0.498273
0.333578 0.763565 0.472250
0.411999 0.769864 0.477988
0.494388 0.776482 0.484016
0.579518 0.783320 0.490245
0.666769 0.790328 0.496629
0.755755 0.797476 0.503139
0.846218 0.804743 0.509758
0.937966 0.812112 0.516471
0.993571 0.816579 0.520540
0.359352 0.869241 0.494833
0.437773 0.875540 0.500571
0.520161 0.882158 0.506599
0.605292 0.888996 0.512828
0.692543 0.896004 0.519211
0.781529 0.903152 0.525722
0.871991 0.910418 0.532341
0.963740 0.917788 0.539054
1.000000 0.922254 0.543123
0.374972 0.933286 0.508519
0.453394 0.939585 0.514257
0.535782 0.946203 0.520285
0.620913 0.953041 0.526514
0.708163 0.960050 0.532898
0.797150 0.967198 0.539409
0.887612 0.974464 0.546028
0.979360 0.981834 0.552741
1.000000 0.986300 0.556809
0.192042 0.175488 0.418302
0.270464 0.181788 0.424040
0.352852 0.188405 0.430068
0.437983 0.195243 0.436297
0.525233 0.202252 0.442680
0.614220 0.209400 0.449191
0.704682 0.216666 0.455810
0.796430 0.224036 0.462523
0.852035 0.228502 0.466591
0.214072 0.265814 0.437604
0.292494 0.272113 0.443342
0.374882 0.278731 0.449370
0.460013 0.285569 0.455599
0.547263 0.292577 0.461983
0.636250 0.299725 0.468494
0.726712 0.306991 0.475113
0.818460 0.314361 0.481826
0.874065 0.318827 0.485894
0.237217 0.360708 0.457883
0.315638 0.367007 0.463621
0.398026 0.373625 0.469649
0.483157 0.380463 0.475878
0.570407 0.387472 0.482262
0.659394 0.394620 0.488773
0.749856 0.401886 0.495391
0.841605 0.409256 0.502104
0.897210 0.413722 0.506173
0.261132 0.458762 0.478837
0.339553 0.465061 0.484575
0.421941 0.471679 0.490603
0.507072 0.478517 0.496832
0.594322 0.485525 0.503216
0.683309 0.492673 0.509727
0.773771 0.499939 0.516345
0.865520 0.507309 0.523058
0.921125 0.511776 0.527127
0.285642 0.559256 0.500313
0.364063 0.565556 0.506051
0.446451 0.572173 0.512079
0.531582 0.579011 0.518307
0.618832 0.586020 0.524691
0.707819 0.593168 0.531202
0.798281 0.600434 0.537821
0.890030 0.607804 0.544534
0.945635 0.612270 0.548602
0.310640 0.661751 0.522216
0.389061 0.668050 0.527954
0.471449 0.674668 0.533982
0.556580 0.681506 0.540210
0.643830 0.688514 0.546594
0.732817 0.695662 0.553105
0.823279 0.702928 0.559724
0.915028 0.710298 0.566437
0.970633 0.714765 0.570505
0.336052 0.765945 0.544482
0.414474 0.772244 0.550220
0.496862 0.778862 0.556248
0.581993 0.785700 0.562477
0.669243 0.792709 0.568861
0.758230 0.799856 0.575371
0.848692 0.807123 0.581990
0.940440 0.814492 0.588703
0.996045 0.818959 0.592772
0.361826 0.871621 0.567065
0.440248 0.877920 0.572803
0.522636 0.884538 0.578831
0.607767 0.891376 0.585060
0.695017 0.898384 0.591443
0.784003 0.905532 0.597954
0.874466 0.912798 0.604573
0.966214 0.920168 0.611286
1.000000 0.924634 0.615354
0.377447 0.935666 0.580751
0.455868 0.941966 0.586489
0.538256 0.948583 0.592517
0.623387 0.955421 0.598746
0.710637 0.962430 0.605130
0.799624 0.969578 0.611641
0.890086 0.976844 0.618260
0.981835 0.984214 0.624973
1.000000 0.988680 0.629041
0.194566 0.177916 0.491971
0.272987 0.184215 0.497709
0.355375 0.190833 0.503737
0.440506 0.197671 0.509966
0.527757 0.204679 0.516350
0.616743 0.211827 0.522861
0.707206 0.219093 0.529480
0.798954 0.226463 0.536192
0.854559 0.230929 0.540261
0.216596 0.268241 0.511274
0.295017 0.274540 0.517012
0.377405 0.281158 0.523040
0.462536 0.287996 0.529268
0.549787 0.295005 0.535652
0.638773 0.302152 0.542163
0.729236 0.309419 0.548782
0.820984 0.316788 0.555495
0.876589 0.321255 0.559563
0.239740 0.363136 0.531553
0.318162 0.369435 0.537290
0.400550 0.376053 0.543319
0.485681 0.382891 0.549547
0.572931 0.389899 0.555931
0.661918 0.397047 0.562442
0.752380 0.404313 0.569061
0.844128 0.411683 0.575774
0.899733 0.416149 0.579842
0.263655 0.461189 0.552507
0.342076 0.467488 0.558244
0.424465 0.474106 0.564273
0.509596 0.480944 0.570501
0.596846 0.487953 0.576885
0.685832 0.495101 0.583396
0.776295 0.502367 0.590015
0.868043 0.509737 0.596728
0.923648 0.514203 0.600796
0.288165 0.561684 0.573982
0.366587 0.567983 0.579720
0.448975 0.574601 0.585748
0.534106 0.581439 0.591977
0.621356 0.588447 0.598361
0.710343 0.595595 0.604872
0.800805 0.602861 0.611490
0.892553 0.610231 0.618203
0.948158 0.614697 0.622272
0.313163 0.664178 0.595885
0.391585 0.670477 0.601623
0.473973 0.677095 0.607651
0.559104 0.683933 0.613880
0.646354 0.690942 0.620264
0.735341 0.698090 0.626775
0.825803 0.705356 0.633393
0.917551 0.712726 0.640106
0.973156 0.717192 0.644175
0.338576 0.768373 0.618151
0.416997 0.774672 0.623889
0.499385 0.781290 0.629917
0.584516 0.788128 0.636146
0.671767 0.795136 0.642530
0.760753 0.802284 0.649041
0.851215 0.809550 0.655660
0.942964 0.816920 0.662373
0.998569 0.821386 0.666441
0.364350 0.874048 0.640734
0.442771 0.880347 0.646472
0.525159 0.886965 0.652500
0.610290 0.893803 0.658729
0.697540 0.900812 0.665113
0.786527 0.907959 0.671624
0.876989 0.915226 0.678243
0.968738 0.922595 0.684955
1.000000 0.927062 0.689024
0.379970 0.938094 0.654421
0.458392 0.944393 0.660159
0.540780 0.951011 0.666187
0.625911 0.957849 0.672415
0.713161 0.964857 0.678799
0.802147 0.972005 0.685310
0.892610 0.979271 0.691929
0.984358 0.986641 0.698642
1.000000 0.991107 0.702710
0.197131 0.180384 0.566862
0.275553 0.186683 0.572600
0.357941 0.193300 0.578628
0.443072 0.200139 0.584857
0.530322 0.207147 0.591241
0.619309 0.214295 0.597752
0.709771 0.221561 0.604371
0.801519 0.228931 0.611084
0.857124 0.233397 0.615152
0.219161 0.270709 0.586165
0.297583 0.277008 0.591903
0.379971 0.283626 0.597931
0.465102 0.290464 0.604160
0.552352 0.297472 0.610543
0.641339 0.304620 0.617054
0.731801 0.311886 0.623673
0.823549 0.319256 0.630386
0.879154 0.323723 0.634455
0.242306 0.365603 0.606444
0.320727 0.371903 0.612182
0.403115 0.378520 0.618210
0.488246 0.385359 0.624439
0.575496 0.392367 0.630822
0.664483 0.399515 0.637333
0.754945 0.406781 0.643952
0.846694 0.414151 0.650665
0.902299 0.418617 0.654733
0.266221 0.463657 0.627398
0.344642 0.469956 0.633136
0.427030 0.476574 0.639164
0.512161 0.483412 0.645392
0.599411 0.490420 0.651776
0.688398 0.497568 0.658287
0.778860 0.504835 0.664906
0.870609 0.512204 0.671619
0.926214 0.516671 0.675687
0.290731 0.564152 0.648873
0.369152 0.570451 0.654611
0.451540 0.577068 0.660639
0.536671 0.583907 0.666868
0.623921 0.590915 0.673252
0.712908 0.598063 0.679763
0.803370 0.605329 0.686382
0.895119 0.612699 0.693095
0.950724 0.617165 0.697163
0.315729 0.666646 0.670776
0.394150 0.672945 0.676514
0.476538 0.679563 0.682542
0.561669 0.686401 0.688771
0.648919 0.693409 0.695155
0.737906 0.700557 0.701666
0.828368 0.707824 0.708285
0.920117 0.715193 0.714998
0.975722 0.719660 0.719066
0.341141 0.770840 0.693043
0.419563 0.777139 0.698780
0.501951 0.783757 0.704809
0.587082 0.790595 0.711037
0.674332 0.797604 0.717421
0.763319 0.804751 0.723932
0.853781 0.812018 0.730551
0.945529 0.819387 0.737264
1.000000 0.823854 0.741332
0.366915 0.876516 0.715625
0.445336 0.882815 0.721363
0.527725 0.889433 0.727391
0.612856 0.896271 0.733620
0.700106 0.903279 0.740004
0.789092 0.910427 0.746515
0.879555 0.917693 0.753134
0.971303 0.925063 0.759847
1.000000 0.929530 0.763915
0.382536 0.940562 0.729312
0.460957 0.946861 0.735050
0.543345 0.953478 0.741078
0.628476 0.960317 0.747307
0.715726 0.967325 0.753690
0.804713 0.974473 0.760201
0.895175 0.981739 0.766820
0.986924 0.989109 0.773533
1.000000 0.993575 0.777602
0.199733 0.182886 0.642818
0.278155 0.189185 0.648556
0.360543 0.195803 0.654584
0.445674 0.202641 0.660813
0.532924 0.209650 0.667197
0.621910 0.216798 0.673708
0.712373 0.224064 0.680327
0.804121 0.231434 0.687040
0.859726 0.235900 0.691108
0.221763 0.273212 0.662121
0.300185 0.279511 0.667859
0.382573 0.286129 0.673887
0.467704 0.292967 0.680116
0.554954 0.299975 0.686499
0.643940 0.307123 0.693010
0.734403 0.314389 0.699629
0.826151 0.321759 0.706342
0.881756 0.326225 0.710411
0.244908 0.368106 0.682400
0.323329 0.374405 0.688138
0.405717 0.381023 0.694166
0.490848 0.387861 0.700394
0.578098 0.394870 0.706778
0.667085 0.402017 0.713289
0.757547 0.409284 0.719908
0.849296 0.416653 0.726621
0.904901 0.421120 0.730689
0.268823 0.466160 0.703354
0.347244 0.472459 0.709092
0.429632 0.479077 0.715120
0.514763 0.485915 0.721348
0.602013 0.492923 0.727732
0.691000 0.500071 0.734243
0.781462 0.507337 0.740862
0.873211 0.514707 0.747575
0.928815 0.519173 0.751643
0.293333 0.566654 0.724829
0.371754 0.572953 0.730567
0.454142 0.579571 0.736595
0.539273 0.586409 0.742824
0.626523 0.593418 0.749208
0.715510 0.600565 0.755719
0.805972 0.607832 0.762338
0.897721 0.615201 0.769051
0.953326 0.619668 0.773119
0.318331 0.669149 0.746732
0.396752 0.675448 0.752470
0.479140 0.682066 0.758498
0.564271 0.688904 0.764727
0.651521 0.695912 0.771111
0.740508 0.703060 0.777622
0.830970 0.710326 0.784241
0.922719 0.717696 0.790954
0.978324 0.722162 0.795022
0.343743 0.773343 0.768999
0.422165 0.779642 0.774736
0.504553 0.786260 0.780765
0.589684 0.793098 0.786993
0.676934 0.800106 0.793377
0.765920 0.807254 0.799888
0.856383 0.814521 0.806507
0.948131 0.821890 0.813220
1.000000 0.826357 0.817288
0.369517 0.879019 0.791581
0.447938 0.885318 0.797319
0.530327 0.891936 0.803347
0.615458 0.898774 0.809576
0.702708 0.905782 0.815960
0.791694 0.912930 0.822471
0.882157 0.920196 0.829090
0.973905 0.927566 0.835803
1.000000 0.932032 0.839871
0.385138 0.943064 0.805268
0.463559 0.949363 0.811006
0.545947 0.955981 0.817034
0.631078 0.962819 0.823263
0.718328 0.969828 0.829646
0.807315 0.976975 0.836157
0.897777 0.984242 0.842776
0.989526 0.991611 0.849489
1.000000 0.996078 0.853558
0.201310 0.184403 0.688852
0.279731 0.190702 0.694590
0.362120 0.197320 0.700618
0.447251 0.204158 0.706847
0.534501 0.211167 0.713231
0.623487 0.218314 0.719742
0.713950 0.225581 0.726360
0.805698 0.232950 0.733073
0.861303 0.237417 0.737142
0.223340 0.274729 0.708155
0.301761 0.281028 0.713892
0.384150 0.287645 0.719921
0.469281 0.294484 0.726149
0.556531 0.301492 0.732533
0.645517 0.308640 0.739044
0.735980 0.315906 0.745663
0.827728 0.323276 0.752376
0.883333 0.327742 0.756444
0.246485 0.369623 0.728434
0.324906 0.375922 0.734171
0.407294 0.382540 0.740199
0.492425 0.389378 0.746428
0.579675 0.396386 0.752812
0.668662 0.403534 0.759323
0.759124 0.410801 0.765942
0.850873 0.418170 0.772655
0.906478 0.422637 0.776723
0.270399 0.467677 0.749387
0.348821 0.473976 0.755125
0.431209 0.480594 0.761153
0.516340 0.487432 0.767382
0.603590 0.494440 0.773766
0.692577 0.501588 0.780277
0.783039 0.508854 0.786896
0.874787 0.516224 0.793609
0.930392 0.520690 0.797677
0.294910 0.568171 0.770863
0.373331 0.574470 0.776601
0.455719 0.581088 0.782629
0.540850 0.587926 0.788858
0.628100 0.594935 0.795242
0.717087 0.602082 0.801752
0.807549 0.609349 0.808371
0.899298 0.616718 0.815084
0.954903 0.621185 0.819153
0.319908 0.670666 0.792766
0.398329 0.676965 0.798504
0.480717 0.683583 0.804532
0.565848 0.690421 0.810761
0.653098 0.697429 0.817145
0.742085 0.704577 0.823655
0.832547 0.711843 0.830274
0.924296 0.719213 0.836987
0.979901 0.723679 0.841056
0.345320 0.774860 0.815032
0.423741 0.781159 0.820770
0.506130 0.787777 0.826798
0.591261 0.794615 0.833027
0.678511 0.801623 0.839411
0.767497 0.808771 0.845922
0.857960 0.816037 0.852541
0.949708 0.823407 0.859254
1.000000 0.827874 0.863322
0.371094 0.880536 0.837615
0.449515 0.886835 0.843353
0.531904 0.893452 0.849381
0.617034 0.900291 0.855610
0.704285 0.907299 0.861994
0.793271 0.914447 0.868505
0.883734 0.921713 0.875123
0.975482 0.929083 0.881836
1.000000 0.933549 0.885905
0.386714 0.944581 0.851302
0.465136 0.950880 0.857039
0.547524 0.957498 0.863068
0.632655 0.964336 0.869296
0.719905 0.971345 0.875680
0.808892 0.978492 0.882191
0.899354 0.985759 0.888810
0.991102 0.993128 0.895523
1.000000 0.997595 0.899591
