library/cube/Analog_Hearts_004.cube
# CINEGRADE LAB — Premium Cinematic LUT
# Title: Analog Hearts
# Category: Analog Film
# Description: Film grain, muted colors, and vintage feel emulating classic film stocks
# Mood: Nostalgic, warm, organic
# Variant: 5
# Generated: 2026-05-21T16:12:15.735375
TITLE "Analog Hearts"
LUT_3D_SIZE 5
0.182593 0.166399 0.142463
0.343403 0.179316 0.154229
0.515784 0.193163 0.166841
0.695233 0.207577 0.179971
0.842586 0.219413 0.190753
0.227768 0.351619 0.182044
0.388577 0.364536 0.193810
0.560958 0.378383 0.206423
0.740407 0.392797 0.219552
0.887761 0.404633 0.230334
0.276193 0.550167 0.224474
0.437002 0.563084 0.236240
0.609384 0.576931 0.248852
0.788832 0.591345 0.261982
0.936186 0.603181 0.272763
0.326603 0.756856 0.268643
0.487413 0.769773 0.280409
0.659794 0.783620 0.293022
0.839243 0.798034 0.306151
0.986596 0.809870 0.316933
0.367998 0.926577 0.304912
0.528807 0.939494 0.316678
0.701188 0.953341 0.329291
0.880637 0.967755 0.342421
1.000000 0.979591 0.353202
0.187154 0.170786 0.275592
0.347963 0.183703 0.287358
0.520344 0.197549 0.299971
0.699793 0.211964 0.313101
0.847147 0.223800 0.323882
0.232328 0.356006 0.315174
0.393138 0.368923 0.326940
0.565519 0.382769 0.339552
0.744968 0.397184 0.352682
0.892321 0.409020 0.363463
0.280753 0.554554 0.357603
0.441563 0.567471 0.369369
0.613944 0.581317 0.381982
0.793393 0.595732 0.395112
0.940746 0.607568 0.405893
0.331164 0.761243 0.401773
0.491973 0.774160 0.413539
0.664354 0.788006 0.426151
0.843803 0.802420 0.439281
0.991157 0.814256 0.450062
0.372558 0.930964 0.438042
0.533368 0.943881 0.449808
0.705749 0.957727 0.462420
0.885198 0.972142 0.475550
1.000000 0.983978 0.486332
0.192042 0.175488 0.418302
0.352852 0.188405 0.430068
0.525233 0.202252 0.442680
0.704682 0.216666 0.455810
0.852035 0.228502 0.466591
0.237217 0.360708 0.457883
0.398026 0.373625 0.469649
0.570407 0.387472 0.482262
0.749856 0.401886 0.495391
0.897210 0.413722 0.506173
0.285642 0.559256 0.500313
0.446451 0.572173 0.512079
0.618832 0.586020 0.524691
0.798281 0.600434 0.537821
0.945635 0.612270 0.548602
0.336052 0.765945 0.544482
0.496862 0.778862 0.556248
0.669243 0.792709 0.568861
0.848692 0.807123 0.581990
0.996045 0.818959 0.592772
0.377447 0.935666 0.580751
0.538256 0.948583 0.592517
0.710637 0.962430 0.605130
0.890086 0.976844 0.618260
1.000000 0.988680 0.629041
0.197131 0.180384 0.566862
0.357941 0.193300 0.578628
0.530322 0.207147 0.591241
0.709771 0.221561 0.604371
0.857124 0.233397 0.615152
0.242306 0.365603 0.606444
0.403115 0.378520 0.618210
0.575496 0.392367 0.630822
0.754945 0.406781 0.643952
0.902299 0.418617 0.654733
0.290731 0.564152 0.648873
0.451540 0.577068 0.660639
0.623921 0.590915 0.673252
0.803370 0.605329 0.686382
0.950724 0.617165 0.697163
0.341141 0.770840 0.693043
0.501951 0.783757 0.704809
0.674332 0.797604 0.717421
0.853781 0.812018 0.730551
1.000000 0.823854 0.741332
0.382536 0.940562 0.729312
0.543345 0.953478 0.741078
0.715726 0.967325 0.753690
0.895175 0.981739 0.766820
1.000000 0.993575 0.777602
0.201310 0.184403 0.688852
0.362120 0.197320 0.700618
0.534501 0.211167 0.713231
0.713950 0.225581 0.726360
0.861303 0.237417 0.737142
0.246485 0.369623 0.728434
0.407294 0.382540 0.740199
0.579675 0.396386 0.752812
0.759124 0.410801 0.765942
0.906478 0.422637 0.776723
0.294910 0.568171 0.770863
0.455719 0.581088 0.782629
0.628100 0.594935 0.795242
0.807549 0.609349 0.808371
0.954903 0.621185 0.819153
0.345320 0.774860 0.815032
0.506130 0.787777 0.826798
0.678511 0.801623 0.839411
0.857960 0.816037 0.852541
1.000000 0.827874 0.863322
0.386714 0.944581 0.851302
0.547524 0.957498 0.863068
0.719905 0.971345 0.875680
0.899354 0.985759 0.888810
1.000000 0.997595 0.899591
