library/cube/ARRI_Natural_001.cube
# CINEGRADE LAB — Premium Cinematic LUT
# Title: ARRI Natural
# Category: ARRI Alexa Look
# Description: Digital cinema natural skin tones with wide dynamic range emulation
# Mood: Cinematic, natural, professional
# Variant: 2
# Generated: 2026-05-21T16:12:51.785637
TITLE "ARRI Natural"
LUT_3D_SIZE 9
0.000000 0.000000 0.000000
0.082451 0.001647 0.001647
0.203386 0.004063 0.004063
0.325847 0.006510 0.006510
0.449239 0.008975 0.008975
0.573308 0.011454 0.011454
0.697909 0.013944 0.013944
0.822950 0.016442 0.016442
0.931103 0.018602 0.018602
0.006011 0.093654 0.006011
0.088461 0.095301 0.007658
0.218120 0.097891 0.010248
0.343030 0.100387 0.012744
0.468890 0.102902 0.015258
0.595440 0.105430 0.017787
0.703920 0.107597 0.019954
0.828961 0.110095 0.022452
0.937113 0.112256 0.024613
0.013992 0.218014 0.013992
0.096443 0.219661 0.015639
0.217378 0.222077 0.018055
0.351011 0.224747 0.020725
0.476871 0.227262 0.023240
0.603421 0.229790 0.025768
0.730515 0.232329 0.028307
0.858057 0.234877 0.030856
0.945094 0.236616 0.032594
0.022069 0.343868 0.022069
0.104520 0.345515 0.023717
0.225456 0.347932 0.026133
0.347916 0.350378 0.028579
0.471308 0.352843 0.031045
0.611498 0.355644 0.033845
0.738592 0.358184 0.036385
0.866134 0.360732 0.038933
0.953172 0.362471 0.040672
0.030206 0.470653 0.030206
0.112657 0.472301 0.031854
0.233593 0.474717 0.034270
0.356053 0.477163 0.036716
0.479445 0.479629 0.039182
0.603514 0.482107 0.041660
0.746729 0.484969 0.044522
0.874271 0.487517 0.047070
0.961309 0.489256 0.048809
0.038387 0.598120 0.038387
0.120838 0.599767 0.040034
0.241773 0.602183 0.042450
0.364234 0.604630 0.044897
0.487626 0.607095 0.047362
0.611694 0.609574 0.049841
0.736296 0.612063 0.052330
0.882452 0.614984 0.055251
0.969489 0.616722 0.056989
0.046602 0.726126 0.046602
0.129053 0.727773 0.048250
0.249989 0.730189 0.050666
0.372449 0.732636 0.053112
0.495841 0.735101 0.055578
0.619910 0.737580 0.058056
0.744511 0.740069 0.060546
0.869553 0.742567 0.063044
0.977705 0.744728 0.065205
0.054846 0.854577 0.054846
0.137297 0.856225 0.056494
0.258233 0.858641 0.058910
0.380693 0.861087 0.061356
0.504085 0.863553 0.063822
0.628154 0.866031 0.066300
0.752755 0.868521 0.068790
0.877797 0.871019 0.071288
0.985949 0.873180 0.073449
0.062580 0.975080 0.062580
0.145031 0.976727 0.064227
0.265966 0.979143 0.066643
0.388427 0.981590 0.069090
0.511819 0.984055 0.071555
0.635888 0.986534 0.074034
0.760489 0.989024 0.076524
0.885530 0.991522 0.079022
0.993683 0.993683 0.081182
0.000669 0.000669 0.097319
0.083120 0.002316 0.098966
0.204056 0.004733 0.101382
0.326516 0.007179 0.103829
0.449908 0.009644 0.106294
0.573977 0.012123 0.108773
0.698578 0.014613 0.111262
0.823619 0.017111 0.113761
0.931772 0.019272 0.115921
0.006680 0.094323 0.103329
0.089131 0.095970 0.104977
0.210066 0.098386 0.107393
0.332527 0.100833 0.109840
0.455919 0.103298 0.112305
0.579987 0.105777 0.114784
0.704589 0.108266 0.117273
0.829630 0.110765 0.119771
0.937782 0.112925 0.121932
0.014661 0.218683 0.111311
0.097112 0.220330 0.112958
0.218048 0.222746 0.115374
0.351681 0.225416 0.118044
0.477540 0.227931 0.120559
0.604090 0.230459 0.123087
0.731184 0.232998 0.125626
0.837611 0.235125 0.127753
0.945764 0.237285 0.129913
0.022738 0.344537 0.119388
0.105189 0.346185 0.121035
0.226125 0.348601 0.123452
0.348585 0.351047 0.125898
0.485618 0.353785 0.128636
0.612168 0.356313 0.131164
0.739261 0.358853 0.133703
0.866803 0.361401 0.136252
0.953841 0.363140 0.137991
0.030875 0.471322 0.127525
0.113326 0.472970 0.129172
0.234262 0.475386 0.131589
0.356722 0.477833 0.134035
0.480114 0.480298 0.136500
0.604183 0.482777 0.138979
0.747398 0.485638 0.141840
0.874940 0.488186 0.144389
0.961978 0.489925 0.146128
0.039056 0.598789 0.135706
0.121507 0.600436 0.137353
0.242443 0.602853 0.139769
0.364903 0.605299 0.142216
0.488295 0.607764 0.144681
0.612364 0.610243 0.147160
0.736965 0.612733 0.149649
0.883121 0.615653 0.152569
0.970159 0.617392 0.154308
0.047271 0.726795 0.143921
0.129722 0.728442 0.145568
0.250658 0.730858 0.147985
0.373118 0.733305 0.150431
0.496510 0.735770 0.152896
0.620579 0.738249 0.155375
0.745180 0.740738 0.157865
0.870222 0.743236 0.160363
0.978374 0.745397 0.162524
0.055515 0.855246 0.152165
0.137966 0.856894 0.153812
0.258902 0.859310 0.156229
0.381362 0.861757 0.158675
0.504754 0.864222 0.161140
0.628823 0.866701 0.163619
0.753424 0.869190 0.166109
0.878466 0.871688 0.168607
0.986618 0.873849 0.170768
0.063249 0.975749 0.159899
0.145700 0.977396 0.161546
0.266636 0.979813 0.163962
0.389096 0.982259 0.166409
0.512488 0.984724 0.168874
0.636557 0.987203 0.171353
0.761158 0.989693 0.173842
0.886199 0.992191 0.176341
0.994352 0.994352 0.178501
0.001445 0.001445 0.210096
0.083895 0.003092 0.211743
0.204831 0.005508 0.214159
0.327292 0.007955 0.216606
0.450683 0.010420 0.219071
0.574752 0.012899 0.221550
0.699353 0.015388 0.224039
0.824395 0.017886 0.226537
0.932547 0.020047 0.228698
0.007455 0.095098 0.216106
0.089906 0.096746 0.217754
0.210842 0.099162 0.220170
0.333302 0.101608 0.222616
0.456694 0.104074 0.225082
0.580763 0.106552 0.227560
0.705364 0.109042 0.230050
0.830406 0.111540 0.232548
0.938558 0.113701 0.234709
0.015437 0.219458 0.224088
0.097887 0.221106 0.225735
0.218823 0.223522 0.228151
0.341283 0.225968 0.230598
0.464675 0.228434 0.233063
0.588744 0.230912 0.235542
0.713345 0.233402 0.238031
0.838387 0.235900 0.240529
0.946539 0.238061 0.242690
0.023514 0.345313 0.232165
0.105965 0.346960 0.233812
0.226900 0.349376 0.236228
0.349361 0.351823 0.238675
0.486393 0.354561 0.241413
0.612943 0.357089 0.243941
0.740036 0.359628 0.246480
0.867579 0.362176 0.249029
0.954616 0.363915 0.250767
0.031651 0.472098 0.240302
0.114102 0.473745 0.241949
0.235037 0.476161 0.244365
0.357498 0.478608 0.246812
0.480890 0.481073 0.249277
0.621080 0.483874 0.252078
0.748173 0.486413 0.254617
0.875716 0.488961 0.257166
0.962753 0.490700 0.258904
0.039832 0.599565 0.248483
0.122282 0.601212 0.250130
0.243218 0.603628 0.252546
0.365678 0.606075 0.254993
0.489070 0.608540 0.257458
0.613139 0.611019 0.259937
0.737740 0.613508 0.262426
0.883896 0.616428 0.265346
0.970934 0.618167 0.267085
0.048047 0.727570 0.256698
0.130498 0.729217 0.258345
0.251433 0.731634 0.260761
0.373894 0.734080 0.263208
0.497286 0.736545 0.265673
0.621354 0.739024 0.268152
0.745956 0.741514 0.270642
0.870997 0.744012 0.273140
0.979149 0.746173 0.275301
0.056291 0.856022 0.264942
0.138742 0.857669 0.266589
0.259677 0.860085 0.269005
0.382138 0.862532 0.271452
0.505530 0.864997 0.273917
0.629598 0.867476 0.276396
0.754200 0.869965 0.278885
0.879241 0.872464 0.281384
0.987393 0.874624 0.283544
0.064025 0.976525 0.272676
0.146475 0.978172 0.274323
0.267411 0.980588 0.276739
0.389872 0.983035 0.279186
0.513263 0.985500 0.281651
0.637332 0.987979 0.284130
0.761933 0.990468 0.286619
0.886975 0.992966 0.289117
0.995127 0.995127 0.291278
0.002233 0.002233 0.324760
0.084684 0.003880 0.326408
0.205619 0.006296 0.328824
0.328080 0.008743 0.331270
0.451472 0.011208 0.333736
0.575540 0.013687 0.336214
0.700142 0.016176 0.338704
0.825183 0.018675 0.341202
0.933335 0.020835 0.343363
0.008244 0.095887 0.330771
0.090694 0.097534 0.332418
0.211630 0.099950 0.334834
0.334091 0.102397 0.337281
0.457482 0.104862 0.339746
0.581551 0.107341 0.342225
0.706153 0.109830 0.344714
0.831194 0.112328 0.347213
0.939346 0.114489 0.349373
0.016225 0.220247 0.338752
0.098676 0.221894 0.340400
0.219611 0.224310 0.342816
0.342072 0.226757 0.345262
0.465464 0.229222 0.347728
0.589532 0.231701 0.350206
0.714134 0.234190 0.352696
0.839175 0.236688 0.355194
0.947327 0.238849 0.357355
0.024302 0.346101 0.346830
0.106753 0.347748 0.348477
0.227689 0.350165 0.350893
0.350149 0.352611 0.353340
0.473541 0.355076 0.355805
0.597610 0.357555 0.358284
0.722211 0.360045 0.360773
0.847253 0.362543 0.363271
0.955405 0.364704 0.365432
0.032439 0.472886 0.354966
0.114890 0.474534 0.356614
0.235826 0.476950 0.359030
0.358286 0.479396 0.361477
0.481678 0.481862 0.363942
0.621868 0.484662 0.366743
0.748962 0.487202 0.369282
0.876504 0.489750 0.371830
0.963542 0.491489 0.373569
0.040620 0.600353 0.363147
0.123071 0.602000 0.364795
0.244006 0.604416 0.367211
0.366467 0.606863 0.369657
0.489859 0.609328 0.372123
0.613927 0.611807 0.374601
0.757143 0.614668 0.377463
0.884685 0.617216 0.380011
0.971722 0.618955 0.381750
0.048835 0.728358 0.371363
0.131286 0.730006 0.373010
0.252222 0.732422 0.375426
0.374682 0.734869 0.377873
0.498074 0.737334 0.380338
0.622143 0.739813 0.382817
0.746744 0.742302 0.385306
0.871786 0.744800 0.387804
0.979938 0.746961 0.389965
0.057079 0.856810 0.379606
0.139530 0.858458 0.381254
0.260466 0.860874 0.383670
0.382926 0.863320 0.386117
0.506318 0.865786 0.388582
0.630387 0.868264 0.391061
0.754988 0.870754 0.393550
0.880030 0.873252 0.396048
0.988182 0.875413 0.398209
0.064813 0.977313 0.387340
0.147264 0.978960 0.388988
0.268199 0.981376 0.391404
0.390660 0.983823 0.393850
0.514052 0.986288 0.396316
0.638120 0.988767 0.398794
0.762722 0.991256 0.401284
0.887763 0.993755 0.403782
0.995915 0.995915 0.405943
0.003030 0.003030 0.440642
0.085480 0.004677 0.442289
0.206416 0.007093 0.444705
0.328877 0.009540 0.447152
0.452269 0.012005 0.449617
0.576337 0.014484 0.452096
0.700939 0.016973 0.454585
0.825980 0.019471 0.457083
0.934132 0.021632 0.459244
0.009040 0.096683 0.446652
0.091491 0.098331 0.448300
0.212427 0.100747 0.450716
0.334887 0.103194 0.453162
0.458279 0.105659 0.455628
0.582348 0.108138 0.458106
0.706949 0.110627 0.460596
0.831991 0.113125 0.463094
0.940143 0.115286 0.465255
0.017022 0.221043 0.454634
0.099472 0.222691 0.456281
0.220408 0.225107 0.458697
0.342869 0.227554 0.461144
0.466261 0.230019 0.463609
0.590329 0.232498 0.466088
0.714931 0.234987 0.468577
0.839972 0.237485 0.471075
0.948124 0.239646 0.473236
0.025099 0.346898 0.462711
0.107550 0.348545 0.464358
0.228485 0.350961 0.466774
0.350946 0.353408 0.469221
0.474338 0.355873 0.471686
0.598406 0.358352 0.474165
0.723008 0.360841 0.476654
0.848049 0.363340 0.479153
0.956201 0.365500 0.481313
0.033236 0.473683 0.470848
0.115687 0.475330 0.472495
0.236622 0.477746 0.474911
0.359083 0.480193 0.477358
0.482475 0.482658 0.479823
0.606543 0.485137 0.482302
0.731145 0.487627 0.484791
0.856186 0.490125 0.487290
0.964338 0.492286 0.489450
0.041417 0.601150 0.479029
0.123867 0.602797 0.480676
0.244803 0.605213 0.483092
0.367264 0.607660 0.485539
0.490656 0.610125 0.488004
0.614724 0.612604 0.490483
0.757939 0.615465 0.493344
0.885482 0.618013 0.495892
0.972519 0.619752 0.497631
0.049632 0.729155 0.487244
0.132083 0.730803 0.488891
0.253018 0.733219 0.491307
0.375479 0.735665 0.493754
0.498871 0.738131 0.496219
0.622939 0.740609 0.498698
0.747541 0.743099 0.501187
0.893697 0.746019 0.504108
0.980734 0.747758 0.505846
0.057876 0.857607 0.495488
0.140327 0.859254 0.497135
0.261262 0.861671 0.499551
0.383723 0.864117 0.501998
0.507115 0.866582 0.504463
0.631183 0.869061 0.506942
0.755785 0.871551 0.509431
0.880826 0.874049 0.511930
0.988978 0.876210 0.514090
0.065610 0.978110 0.503222
0.148060 0.979757 0.504869
0.268996 0.982173 0.507285
0.391457 0.984620 0.509732
0.514849 0.987085 0.512197
0.638917 0.989564 0.514676
0.763519 0.992053 0.517165
0.888560 0.994551 0.519663
0.996712 0.996712 0.521824
0.003833 0.003833 0.557428
0.086283 0.005480 0.559075
0.207219 0.007896 0.561491
0.329680 0.010343 0.563938
0.453072 0.012808 0.566403
0.577140 0.015287 0.568882
0.701742 0.017776 0.571371
0.826783 0.020274 0.573870
0.934935 0.022435 0.576030
0.009843 0.097486 0.563438
0.092294 0.099134 0.565086
0.213230 0.101550 0.567502
0.335690 0.103997 0.569949
0.459082 0.106462 0.572414
0.583151 0.108941 0.574893
0.707752 0.111430 0.577382
0.832794 0.113928 0.579880
0.940946 0.116089 0.582041
0.017825 0.221846 0.571420
0.100275 0.223494 0.573067
0.221211 0.225910 0.575483
0.343672 0.228357 0.577930
0.467064 0.230822 0.580395
0.591132 0.233301 0.582874
0.715734 0.235790 0.585363
0.840775 0.238288 0.587862
0.948927 0.240449 0.590022
0.025902 0.347701 0.579497
0.108353 0.349348 0.581144
0.229288 0.351764 0.583561
0.351749 0.354211 0.586007
0.475141 0.356676 0.588472
0.599209 0.359155 0.590951
0.723811 0.361644 0.593441
0.848852 0.364143 0.595939
0.957004 0.366303 0.598100
0.034039 0.474486 0.587634
0.116490 0.476133 0.589281
0.237425 0.478549 0.591698
0.359886 0.480996 0.594144
0.483278 0.483461 0.596609
0.607346 0.485940 0.599088
0.731948 0.488430 0.601578
0.856989 0.490928 0.604076
0.965141 0.493088 0.606237
0.042220 0.601953 0.595815
0.124670 0.603600 0.597462
0.245606 0.606016 0.599878
0.368067 0.608463 0.602325
0.491459 0.610928 0.604790
0.615527 0.613407 0.607269
0.740129 0.615896 0.609758
0.865170 0.618394 0.612257
0.973322 0.620555 0.614417
0.050435 0.729958 0.604030
0.132886 0.731606 0.605677
0.253821 0.734022 0.608094
0.376282 0.736468 0.610540
0.499674 0.738934 0.613005
0.623742 0.741412 0.615484
0.748344 0.743902 0.617974
0.894500 0.746822 0.620894
0.981537 0.748561 0.622633
0.058679 0.858410 0.612274
0.141130 0.860057 0.613921
0.262065 0.862474 0.616338
0.384526 0.864920 0.618784
0.507918 0.867385 0.621249
0.631986 0.869864 0.623728
0.756588 0.872354 0.626218
0.881629 0.874852 0.628716
0.989781 0.877013 0.630877
0.066413 0.978913 0.620008
0.148863 0.980560 0.621655
0.269799 0.982976 0.624071
0.392260 0.985423 0.626518
0.515652 0.987888 0.628983
0.639720 0.990367 0.631462
0.764322 0.992856 0.633951
0.889363 0.995354 0.636450
0.997515 0.997515 0.638610
0.004641 0.004641 0.674936
0.087091 0.006288 0.676583
0.208027 0.008704 0.679000
0.330488 0.011151 0.681446
0.453880 0.013616 0.683912
0.577948 0.016095 0.686390
0.702550 0.018584 0.688880
0.827591 0.021082 0.691378
0.935743 0.023243 0.693539
0.010651 0.098294 0.680947
0.093102 0.099942 0.682594
0.214038 0.102358 0.685010
0.336498 0.104804 0.687457
0.459890 0.107270 0.689922
0.583959 0.109748 0.692401
0.708560 0.112238 0.694890
0.833602 0.114736 0.697389
0.941754 0.116897 0.699549
0.018633 0.222654 0.688928
0.101083 0.224302 0.690575
0.222019 0.226718 0.692992
0.344480 0.229164 0.695438
0.467872 0.231630 0.697904
0.591940 0.234109 0.700382
0.716542 0.236598 0.702872
0.841583 0.239096 0.705370
0.949735 0.241257 0.707531
0.026710 0.348509 0.697005
0.109161 0.350156 0.698653
0.230096 0.352572 0.701069
0.352557 0.355019 0.703516
0.475949 0.357484 0.705981
0.600017 0.359963 0.708460
0.724619 0.362452 0.710949
0.849660 0.364950 0.713447
0.957812 0.367111 0.715608
0.034847 0.475294 0.705142
0.117298 0.476941 0.706790
0.238233 0.479357 0.709206
0.360694 0.481804 0.711653
0.484086 0.484269 0.714118
0.608154 0.486748 0.716597
0.732756 0.489237 0.719086
0.857797 0.491736 0.721584
0.965949 0.493896 0.723745
0.043028 0.602761 0.713323
0.125478 0.604408 0.714970
0.246414 0.606824 0.717387
0.368875 0.609271 0.719833
0.492267 0.611736 0.722299
0.616335 0.614215 0.724777
0.740937 0.616704 0.727267
0.865978 0.619202 0.729765
0.974130 0.621363 0.731926
0.051243 0.730766 0.721538
0.133694 0.732413 0.723186
0.254629 0.734830 0.725602
0.377090 0.737276 0.728049
0.500482 0.739742 0.730514
0.624550 0.742220 0.732993
0.749152 0.744710 0.735482
0.874193 0.747208 0.737980
0.982345 0.749369 0.740141
0.059487 0.859218 0.729782
0.141938 0.860865 0.731430
0.262873 0.863281 0.733846
0.385334 0.865728 0.736293
0.508726 0.868193 0.738758
0.632794 0.870672 0.741237
0.757396 0.873162 0.743726
0.882437 0.875660 0.746224
0.990589 0.877821 0.748385
0.067221 0.979721 0.737516
0.149671 0.981368 0.739163
0.270607 0.983784 0.741580
0.393068 0.986231 0.744026
0.516460 0.988696 0.746492
0.640528 0.991175 0.748970
0.765130 0.993664 0.751460
0.890171 0.996162 0.753958
0.998323 0.998323 0.756119
0.005453 0.005453 0.793046
0.087903 0.007100 0.794694
0.208839 0.009516 0.797110
0.331300 0.011963 0.799557
0.454692 0.014428 0.802022
0.578760 0.016907 0.804501
0.703362 0.019396 0.806990
0.828403 0.021894 0.809488
0.936555 0.024055 0.811649
0.011463 0.099106 0.799057
0.093914 0.100754 0.800704
0.214850 0.103170 0.803121
0.337310 0.105617 0.805567
0.460702 0.108082 0.808032
0.584771 0.110561 0.810511
0.709372 0.113050 0.813001
0.834414 0.115548 0.815499
0.942566 0.117709 0.817660
0.019445 0.223466 0.807038
0.101895 0.225114 0.808686
0.222831 0.227530 0.811102
0.345292 0.229977 0.813549
0.468684 0.232442 0.816014
0.592752 0.234921 0.818493
0.717354 0.237410 0.820982
0.842395 0.239908 0.823480
0.950547 0.242069 0.825641
0.027522 0.349321 0.815116
0.109973 0.350968 0.816763
0.230908 0.353384 0.819179
0.353369 0.355831 0.821626
0.476761 0.358296 0.824091
0.600829 0.360775 0.826570
0.725431 0.363264 0.829059
0.850472 0.365763 0.831557
0.958624 0.367923 0.833718
0.035659 0.476106 0.823253
0.118110 0.477753 0.824900
0.239045 0.480169 0.827316
0.361506 0.482616 0.829763
0.484898 0.485081 0.832228
0.608966 0.487560 0.834707
0.733568 0.490050 0.837196
0.858609 0.492548 0.839694
0.966761 0.494709 0.841855
0.043840 0.603573 0.831433
0.126290 0.605220 0.833081
0.247226 0.607636 0.835497
0.369687 0.610083 0.837944
0.493079 0.612548 0.840409
0.617147 0.615027 0.842888
0.741749 0.617516 0.845377
0.866790 0.620014 0.847875
0.974942 0.622175 0.850036
0.052055 0.731578 0.839649
0.134506 0.733226 0.841296
0.255441 0.735642 0.843712
0.377902 0.738088 0.846159
0.501294 0.740554 0.848624
0.625363 0.743032 0.851103
0.749964 0.745522 0.853592
0.875005 0.748020 0.856090
0.983158 0.750181 0.858251
0.060299 0.860030 0.847893
0.142750 0.861677 0.849540
0.263685 0.864094 0.851956
0.386146 0.866540 0.854403
0.509538 0.869005 0.856868
0.633606 0.871484 0.859347
0.758208 0.873974 0.861836
0.883249 0.876472 0.864334
0.991401 0.878633 0.866495
0.068033 0.980533 0.855626
0.150483 0.982180 0.857274
0.271419 0.984596 0.859690
0.393880 0.987043 0.862137
0.517272 0.989508 0.864602
0.641340 0.991987 0.867081
0.765942 0.994476 0.869570
0.890983 0.996974 0.872068
0.999135 0.999135 0.874229
0.006268 0.006268 0.911673
0.088719 0.007916 0.913320
0.209655 0.010332 0.915737
0.332115 0.012778 0.918183
0.455507 0.015244 0.920648
0.579576 0.017722 0.923127
0.704177 0.020212 0.925617
0.829219 0.022710 0.928115
0.937371 0.024871 0.930276
0.012279 0.099922 0.917684
0.094730 0.101569 0.919331
0.215665 0.103986 0.921747
0.338126 0.106432 0.924194
0.461518 0.108897 0.926659
0.585587 0.111376 0.929138
0.710188 0.113866 0.931627
0.835229 0.116364 0.934125
0.943382 0.118525 0.936286
0.020260 0.224282 0.925665
0.102711 0.225929 0.927312
0.223647 0.228346 0.929729
0.346107 0.230792 0.932175
0.469499 0.233257 0.934640
0.593568 0.235736 0.937119
0.718169 0.238226 0.939609
0.843211 0.240724 0.942107
0.951363 0.242885 0.944268
0.028338 0.350136 0.933742
0.110788 0.351784 0.935390
0.231724 0.354200 0.937806
0.354185 0.356647 0.940252
0.477577 0.359112 0.942718
0.601645 0.361591 0.945196
0.726247 0.364080 0.947686
0.851288 0.366578 0.950184
0.959440 0.368739 0.952345
0.036475 0.476922 0.941879
0.118925 0.478569 0.943527
0.239861 0.480985 0.945943
0.362322 0.483432 0.948389
0.485714 0.485897 0.950855
0.609782 0.488376 0.953333
0.734384 0.490865 0.955823
0.859425 0.493363 0.958321
0.967577 0.495524 0.960482
0.044655 0.604388 0.950060
0.127106 0.606036 0.951707
0.248042 0.608452 0.954124
0.370502 0.610898 0.956570
0.493894 0.613364 0.959035
0.617963 0.615842 0.961514
0.742564 0.618332 0.964004
0.867606 0.620830 0.966502
0.975758 0.622991 0.968663
0.052871 0.732394 0.958275
0.135321 0.734041 0.959923
0.256257 0.736457 0.962339
0.378718 0.738904 0.964785
0.502110 0.741369 0.967251
0.626178 0.743848 0.969730
0.750780 0.746337 0.972219
0.875821 0.748836 0.974717
0.983973 0.750996 0.976878
0.061115 0.860846 0.966519
0.143565 0.862493 0.968167
0.264501 0.864909 0.970583
0.386962 0.867356 0.973029
0.510354 0.869821 0.975495
0.634422 0.872300 0.977973
0.759024 0.874789 0.980463
0.884065 0.877287 0.982961
0.992217 0.879448 0.985122
0.068848 0.981348 0.974253
0.151299 0.982996 0.975900
0.272235 0.985412 0.978317
0.394695 0.987858 0.980763
0.518087 0.990324 0.983228
0.642156 0.992802 0.985707
0.766757 0.995292 0.988197
0.891799 0.997790 0.990695
0.999951 0.999951 0.992856
