library/cube/ARRI_Natural_001.cube
# CINEGRADE LAB — Premium Cinematic LUT
# Title: ARRI Natural
# Category: ARRI Alexa Look
# Description: Digital cinema natural skin tones with wide dynamic range emulation
# Mood: Cinematic, natural, professional
# Variant: 2
# Generated: 2026-05-21T16:12:51.785637
TITLE "ARRI Natural"
LUT_3D_SIZE 33
0.000000 0.000000 0.000000
0.000000 0.000000 0.000000
0.023183 0.000463 0.000463
0.052644 0.001052 0.001052
0.082451 0.001647 0.001647
0.112475 0.002247 0.002247
0.142659 0.002850 0.002850
0.172970 0.003456 0.003456
0.203386 0.004063 0.004063
0.233892 0.004673 0.004673
0.264477 0.005284 0.005284
0.295130 0.005896 0.005896
0.325847 0.006510 0.006510
0.356620 0.007125 0.007125
0.387446 0.007741 0.007741
0.418320 0.008358 0.008358
0.449239 0.008975 0.008975
0.480199 0.009594 0.009594
0.511199 0.010213 0.010213
0.542236 0.010833 0.010833
0.573308 0.011454 0.011454
0.604412 0.012076 0.012076
0.635548 0.012698 0.012698
0.666714 0.013320 0.013320
0.697909 0.013944 0.013944
0.729131 0.014567 0.014567
0.760379 0.015192 0.015192
0.791653 0.015816 0.015816
0.822950 0.016442 0.016442
0.854271 0.017067 0.017067
0.885615 0.017694 0.017694
0.916980 0.018320 0.018320
0.931103 0.018602 0.018602
0.000184 0.002868 0.000184
0.000184 0.002868 0.000184
0.028487 0.003433 0.000749
0.058536 0.004033 0.001350
0.088939 0.004641 0.001957
0.119564 0.005253 0.002569
0.142844 0.005718 0.003034
0.173155 0.006323 0.003640
0.203571 0.006931 0.004247
0.234076 0.007540 0.004857
0.264661 0.008151 0.005468
0.295314 0.008764 0.006080
0.326031 0.009378 0.006694
0.356805 0.009992 0.007309
0.387630 0.010608 0.007925
0.418504 0.011225 0.008542
0.449423 0.011843 0.009159
0.480383 0.012461 0.009778
0.511383 0.013081 0.010397
0.542420 0.013701 0.011017
0.573492 0.014322 0.011638
0.604596 0.014943 0.012260
0.635732 0.015565 0.012882
0.666898 0.016188 0.013504
0.698093 0.016811 0.014128
0.729315 0.017435 0.014751
0.760563 0.018059 0.015376
0.791837 0.018684 0.016000
0.823134 0.019309 0.016626
0.854455 0.019935 0.017252
0.885799 0.020561 0.017878
0.917164 0.021188 0.018504
0.931287 0.021470 0.018787
0.002091 0.032583 0.002091
0.002091 0.032583 0.002091
0.025275 0.033046 0.002554
0.060444 0.033749 0.003257
0.090846 0.034356 0.003864
0.121471 0.034968 0.004476
0.152259 0.035583 0.005091
0.183177 0.036201 0.005709
0.214201 0.036821 0.006329
0.245317 0.037443 0.006951
0.276513 0.038066 0.007574
0.307780 0.038691 0.008199
0.327938 0.039093 0.008601
0.358712 0.039708 0.009216
0.389537 0.040324 0.009832
0.420411 0.040941 0.010449
0.451330 0.041559 0.011067
0.482291 0.042177 0.011685
0.513290 0.042797 0.012304
0.544327 0.043417 0.012925
0.575399 0.044037 0.013545
0.606503 0.044659 0.014167
0.637639 0.045281 0.014789
0.668805 0.045904 0.015411
0.700000 0.046527 0.016035
0.731222 0.047151 0.016658
0.762470 0.047775 0.017283
0.793744 0.048400 0.017908
0.825042 0.049025 0.018533
0.856363 0.049651 0.019159
0.887706 0.050277 0.019785
0.919072 0.050904 0.020412
0.933194 0.051186 0.020694
0.004041 0.062967 0.004041
0.004041 0.062967 0.004041
0.027225 0.063430 0.004504
0.056685 0.064019 0.005093
0.086492 0.064614 0.005688
0.123421 0.065352 0.006426
0.154209 0.065967 0.007041
0.185127 0.066585 0.007659
0.216151 0.067205 0.008279
0.247267 0.067827 0.008901
0.278463 0.068450 0.009524
0.309730 0.069075 0.010149
0.341061 0.069701 0.010775
0.372450 0.070328 0.011402
0.403892 0.070956 0.012030
0.435383 0.071585 0.012659
0.466920 0.072215 0.013289
0.484241 0.072561 0.013635
0.515240 0.073180 0.014254
0.546277 0.073801 0.014875
0.577349 0.074421 0.015495
0.608453 0.075043 0.016117
0.639589 0.075665 0.016739
0.670755 0.076288 0.017361
0.701950 0.076911 0.017985
0.733172 0.077535 0.018609
0.764420 0.078159 0.019233
0.795694 0.078784 0.019858
0.826992 0.079409 0.020483
0.858313 0.080035 0.021109
0.889656 0.080661 0.021735
0.921022 0.081288 0.022362
0.935144 0.081570 0.022644
0.006011 0.093654 0.006011
0.006011 0.093654 0.006011
0.029194 0.094117 0.006474
0.058655 0.094705 0.007062
0.088461 0.095301 0.007658
0.118486 0.095901 0.008258
0.156179 0.096654 0.009011
0.187096 0.097272 0.009629
0.218120 0.097891 0.010248
0.249236 0.098513 0.010870
0.280432 0.099136 0.011493
0.311699 0.099761 0.012118
0.343030 0.100387 0.012744
0.374419 0.101014 0.013371
0.405861 0.101642 0.013999
0.437353 0.102272 0.014628
0.468890 0.102902 0.015258
0.500470 0.103533 0.015889
0.532089 0.104164 0.016521
0.563747 0.104797 0.017154
0.595440 0.105430 0.017787
0.627167 0.106064 0.018421
0.658925 0.106698 0.019055
0.672725 0.106974 0.019331
0.703920 0.107597 0.019954
0.735142 0.108221 0.020578
0.766390 0.108845 0.021202
0.797663 0.109470 0.021827
0.828961 0.110095 0.022452
0.860282 0.110721 0.023078
0.891626 0.111347 0.023704
0.922991 0.111974 0.024331
0.937113 0.112256 0.024613
0.007993 0.124542 0.007993
0.007993 0.124542 0.007993
0.031176 0.125005 0.008456
0.060637 0.125594 0.009045
0.090444 0.126190 0.009640
0.120468 0.126789 0.010240
0.150653 0.127392 0.010843
0.189078 0.128160 0.011611
0.220103 0.128780 0.012231
0.251219 0.129402 0.012852
0.282415 0.130025 0.013476
0.313682 0.130650 0.014100
0.345012 0.131276 0.014726
0.376401 0.131903 0.015353
0.407844 0.132531 0.015982
0.439335 0.133160 0.016611
0.470872 0.133790 0.017241
0.502452 0.134421 0.017872
0.534072 0.135053 0.018504
0.565729 0.135685 0.019136
0.597422 0.136319 0.019769
0.629149 0.136952 0.020403
0.660908 0.137587 0.021038
0.692697 0.138222 0.021673
0.724516 0.138858 0.022308
0.756362 0.139494 0.022945
0.788235 0.140131 0.023582
0.820134 0.140768 0.024219
0.830943 0.140984 0.024435
0.862264 0.141610 0.025061
0.893608 0.142236 0.025687
0.924973 0.142863 0.026313
0.939096 0.143145 0.026596
0.009985 0.155583 0.009985
0.009985 0.155583 0.009985
0.033169 0.156047 0.010448
0.062629 0.156635 0.011037
0.092436 0.157231 0.011633
0.122460 0.157831 0.012232
0.152645 0.158434 0.012835
0.182956 0.159039 0.013441
0.213372 0.159647 0.014049
0.253211 0.160443 0.014845
0.284407 0.161066 0.015468
0.315674 0.161691 0.016093
0.347005 0.162317 0.016719
0.378394 0.162944 0.017346
0.409836 0.163572 0.017974
0.441327 0.164201 0.018603
0.472864 0.164831 0.019233
0.504444 0.165462 0.019864
0.536064 0.166094 0.020496
0.567721 0.166726 0.021128
0.599414 0.167360 0.021761
0.631141 0.167993 0.022395
0.662900 0.168628 0.023030
0.694689 0.169263 0.023665
0.726508 0.169899 0.024301
0.758354 0.170535 0.024937
0.790228 0.171172 0.025574
0.822126 0.171809 0.026211
0.854050 0.172447 0.026849
0.885998 0.173085 0.027487
0.917968 0.173724 0.028126
0.941088 0.174186 0.028588
0.941088 0.174186 0.028588
0.011985 0.186747 0.011985
0.011985 0.186747 0.011985
0.035169 0.187210 0.012448
0.064629 0.187799 0.013037
0.094436 0.188394 0.013633
0.124460 0.188994 0.014232
0.154645 0.189597 0.014836
0.184956 0.190203 0.015441
0.215372 0.190811 0.016049
0.245878 0.191420 0.016658
0.286407 0.192230 0.017468
0.317674 0.192855 0.018093
0.349005 0.193480 0.018719
0.380394 0.194108 0.019346
0.411836 0.194736 0.019974
0.443327 0.195365 0.020603
0.474865 0.195995 0.021233
0.506444 0.196626 0.021864
0.538064 0.197258 0.022496
0.569721 0.197890 0.023128
0.601414 0.198523 0.023762
0.633141 0.199157 0.024395
0.664900 0.199792 0.025030
0.696689 0.200427 0.025665
0.728508 0.201063 0.026301
0.760354 0.201699 0.026937
0.792228 0.202336 0.027574
0.824127 0.202973 0.028211
0.856050 0.203611 0.028849
0.887998 0.204249 0.029487
0.919968 0.204888 0.030126
0.943088 0.205350 0.030588
0.943088 0.205350 0.030588
0.013992 0.218014 0.013992
0.013992 0.218014 0.013992
0.037175 0.218477 0.014455
0.066636 0.219066 0.015044
0.096443 0.219661 0.015639
0.126467 0.220261 0.016239
0.156651 0.220864 0.016842
0.186962 0.221470 0.017448
0.217378 0.222077 0.018055
0.247884 0.222687 0.018665
0.278468 0.223298 0.019276
0.309122 0.223910 0.019888
0.351011 0.224747 0.020725
0.382400 0.225374 0.021352
0.413843 0.226002 0.021981
0.445334 0.226632 0.022610
0.476871 0.227262 0.023240
0.508451 0.227893 0.023871
0.540071 0.228524 0.024503
0.571728 0.229157 0.025135
0.603421 0.229790 0.025768
0.635148 0.230424 0.026402
0.666907 0.231058 0.027037
0.698696 0.231693 0.027672
0.730515 0.232329 0.028307
0.762361 0.232965 0.028944
0.794234 0.233602 0.029580
0.826133 0.234240 0.030218
0.858057 0.234877 0.030856
0.890004 0.235516 0.031494
0.921975 0.236154 0.032133
0.945094 0.236616 0.032594
0.945094 0.236616 0.032594
0.016004 0.249369 0.016004
0.016004 0.249369 0.016004
0.039188 0.249832 0.016468
0.068648 0.250421 0.017056
0.098455 0.251016 0.017652
0.128480 0.251616 0.018251
0.158664 0.252219 0.018855
0.188975 0.252825 0.019460
0.219391 0.253432 0.020068
0.249897 0.254042 0.020677
0.280481 0.254653 0.021288
0.311135 0.255265 0.021901
0.341851 0.255879 0.022514
0.384413 0.256729 0.023365
0.415855 0.257357 0.023993
0.447346 0.257987 0.024622
0.478884 0.258617 0.025252
0.510463 0.259248 0.025883
0.542083 0.259879 0.026515
0.573740 0.260512 0.027147
0.605433 0.261145 0.027781
0.637160 0.261779 0.028414
0.668919 0.262413 0.029049
0.700708 0.263048 0.029684
0.732527 0.263684 0.030320
0.764373 0.264320 0.030956
0.796247 0.264957 0.031593
0.828146 0.265595 0.032230
0.860069 0.266232 0.032868
0.892017 0.266871 0.033506
0.923987 0.267509 0.034145
0.947107 0.267971 0.034607
0.947107 0.267971 0.034607
0.018022 0.280802 0.018022
0.018022 0.280802 0.018022
0.041205 0.281265 0.018485
0.070666 0.281853 0.019073
0.100472 0.282449 0.019669
0.130497 0.283049 0.020269
0.160681 0.283652 0.020872
0.190992 0.284257 0.021477
0.221408 0.284865 0.022085
0.251914 0.285474 0.022695
0.282498 0.286086 0.023306
0.313152 0.286698 0.023918
0.343869 0.287312 0.024532
0.374642 0.287926 0.025147
0.417872 0.288790 0.026010
0.449364 0.289419 0.026639
0.480901 0.290049 0.027270
0.512481 0.290680 0.027900
0.544100 0.291312 0.028532
0.575758 0.291945 0.029165
0.607451 0.292578 0.029798
0.639178 0.293212 0.030432
0.670936 0.293846 0.031066
0.702726 0.294481 0.031701
0.734544 0.295117 0.032337
0.766391 0.295753 0.032973
0.798264 0.296390 0.033610
0.830163 0.297027 0.034247
0.862087 0.297665 0.034885
0.894034 0.298303 0.035524
0.926005 0.298942 0.036162
0.949124 0.299404 0.036624
0.949124 0.299404 0.036624
0.020043 0.312304 0.020043
0.020043 0.312304 0.020043
0.043227 0.312767 0.020507
0.072687 0.313355 0.021095
0.102494 0.313951 0.021691
0.132519 0.314551 0.022291
0.162703 0.315154 0.022894
0.193014 0.315759 0.023499
0.223430 0.316367 0.024107
0.253936 0.316976 0.024716
0.284520 0.317588 0.025327
0.315174 0.318200 0.025940
0.345890 0.318814 0.026554
0.376664 0.319428 0.027168
0.407490 0.320044 0.027784
0.438364 0.320661 0.028401
0.482923 0.321551 0.029291
0.514502 0.322182 0.029922
0.546122 0.322814 0.030554
0.577780 0.323447 0.031186
0.609473 0.324080 0.031820
0.641199 0.324714 0.032454
0.672958 0.325348 0.033088
0.704748 0.325983 0.033723
0.736566 0.326619 0.034359
0.768412 0.327255 0.034995
0.800286 0.327892 0.035632
0.832185 0.328529 0.036269
0.864108 0.329167 0.036907
0.896056 0.329805 0.037545
0.928026 0.330444 0.038184
0.951146 0.330906 0.038646
0.951146 0.330906 0.038646
0.022069 0.343868 0.022069
0.022069 0.343868 0.022069
0.045253 0.344331 0.022532
0.074713 0.344920 0.023121
0.104520 0.345515 0.023717
0.134544 0.346115 0.024316
0.164729 0.346718 0.024919
0.195040 0.347324 0.025525
0.225456 0.347932 0.026133
0.255962 0.348541 0.026742
0.286546 0.349152 0.027353
0.317200 0.349765 0.027966
0.347916 0.350378 0.028579
0.378690 0.350993 0.029194
0.409515 0.351609 0.029810
0.440389 0.352226 0.030427
0.471308 0.352843 0.031045
0.516528 0.353747 0.031948
0.548148 0.354379 0.032580
0.579805 0.355011 0.033212
0.611498 0.355644 0.033845
0.643225 0.356278 0.034479
0.674984 0.356913 0.035114
0.706773 0.357548 0.035749
0.738592 0.358184 0.036385
0.770438 0.358820 0.037021
0.802312 0.359457 0.037658
0.834210 0.360094 0.038295
0.866134 0.360732 0.038933
0.898082 0.361370 0.039571
0.930052 0.362009 0.040210
0.953172 0.362471 0.040672
0.953172 0.362471 0.040672
0.024099 0.375490 0.024099
0.024099 0.375490 0.024099
0.047282 0.375953 0.024562
0.076743 0.376541 0.025150
0.106549 0.377137 0.025746
0.136574 0.377737 0.026346
0.166758 0.378340 0.026949
0.197069 0.378945 0.027554
0.227485 0.379553 0.028162
0.257991 0.380163 0.028772
0.288575 0.380774 0.029383
0.319229 0.381386 0.029995
0.349946 0.382000 0.030609
0.380719 0.382615 0.031224
0.411545 0.383230 0.031839
0.442419 0.383847 0.032456
0.473338 0.384465 0.033074
0.504298 0.385084 0.033693
0.535298 0.385703 0.034312
0.581835 0.386633 0.035242
0.613528 0.387266 0.035875
0.645255 0.387900 0.036509
0.677013 0.388534 0.037143
0.708803 0.389169 0.037778
0.740621 0.389805 0.038414
0.772468 0.390441 0.039050
0.804341 0.391078 0.039687
0.836240 0.391715 0.040324
0.868164 0.392353 0.040962
0.900111 0.392991 0.041601
0.932082 0.393630 0.042239
0.955201 0.394092 0.042701
0.955201 0.394092 0.042701
0.026131 0.407164 0.026131
0.026131 0.407164 0.026131
0.049315 0.407627 0.026595
0.078775 0.408215 0.027183
0.108582 0.408811 0.027779
0.138607 0.409411 0.028379
0.168791 0.410014 0.028982
0.199102 0.410619 0.029587
0.229518 0.411227 0.030195
0.260024 0.411836 0.030804
0.290608 0.412448 0.031415
0.321262 0.413060 0.032028
0.351978 0.413674 0.032642
0.382752 0.414288 0.033256
0.413578 0.414904 0.033872
0.444452 0.415521 0.034489
0.475370 0.416139 0.035107
0.506331 0.416757 0.035725
0.537331 0.417377 0.036345
0.568367 0.417997 0.036965
0.615561 0.418940 0.037908
0.647287 0.419574 0.038542
0.679046 0.420208 0.039176
0.710836 0.420843 0.039811
0.742654 0.421479 0.040447
0.774501 0.422115 0.041083
0.806374 0.422752 0.041720
0.838273 0.423389 0.042357
0.870196 0.424027 0.042995
0.902144 0.424665 0.043633
0.934114 0.425304 0.044272
0.957234 0.425766 0.044734
0.957234 0.425766 0.044734
0.028167 0.438886 0.028167
0.028167 0.438886 0.028167
0.051351 0.439349 0.028631
0.080811 0.439938 0.029219
0.110618 0.440533 0.029815
0.140643 0.441133 0.030415
0.170827 0.441736 0.031018
0.201138 0.442342 0.031623
0.231554 0.442949 0.032231
0.262060 0.443559 0.032840
0.292644 0.444170 0.033451
0.323298 0.444782 0.034064
0.354014 0.445396 0.034678
0.384788 0.446011 0.035292
0.415614 0.446627 0.035908
0.446488 0.447244 0.036525
0.477406 0.447861 0.037143
0.508367 0.448480 0.037761
0.539367 0.449099 0.038381
0.570403 0.449719 0.039001
0.601475 0.450340 0.039622
0.649323 0.451296 0.040577
0.681082 0.451930 0.041212
0.712871 0.452566 0.041847
0.744690 0.453201 0.042483
0.776536 0.453838 0.043119
0.808410 0.454474 0.043756
0.840309 0.455112 0.044393
0.872232 0.455749 0.045031
0.904180 0.456388 0.045669
0.936150 0.457026 0.046308
0.959270 0.457488 0.046770
0.959270 0.457488 0.046770
0.030206 0.470653 0.030206
0.030206 0.470653 0.030206
0.053390 0.471116 0.030669
0.082850 0.471705 0.031258
0.112657 0.472301 0.031854
0.142681 0.472900 0.032453
0.172866 0.473503 0.033056
0.203177 0.474109 0.033662
0.233593 0.474717 0.034270
0.264099 0.475326 0.034879
0.294683 0.475937 0.035490
0.325337 0.476550 0.036103
0.356053 0.477163 0.036716
0.386827 0.477778 0.037331
0.417652 0.478394 0.037947
0.448526 0.479011 0.038564
0.479445 0.479629 0.039182
0.510406 0.480247 0.039800
0.541405 0.480867 0.040419
0.572442 0.481487 0.041040
0.603514 0.482107 0.041660
0.634618 0.482729 0.042282
0.665754 0.483351 0.042904
0.714910 0.484333 0.043886
0.746729 0.484969 0.044522
0.778575 0.485605 0.045158
0.810449 0.486242 0.045795
0.842347 0.486879 0.046432
0.874271 0.487517 0.047070
0.906219 0.488155 0.047708
0.938189 0.488794 0.048347
0.961309 0.489256 0.048809
0.961309 0.489256 0.048809
0.032248 0.502463 0.032248
0.032248 0.502463 0.032248
0.055431 0.502926 0.032711
0.084892 0.503515 0.033300
0.114698 0.504110 0.033895
0.144723 0.504710 0.034495
0.174907 0.505313 0.035098
0.205218 0.505919 0.035704
0.235634 0.506526 0.036311
0.266140 0.507136 0.036921
0.296724 0.507747 0.037532
0.327378 0.508359 0.038144
0.358095 0.508973 0.038758
0.388868 0.509588 0.039373
0.419694 0.510204 0.039989
0.450568 0.510820 0.040605
0.481487 0.511438 0.041223
0.512447 0.512057 0.041842
0.543447 0.512676 0.042461
0.574484 0.513296 0.043081
0.605555 0.513917 0.043702
0.636660 0.514538 0.044323
0.667796 0.515160 0.044945
0.698962 0.515783 0.045568
0.748770 0.516778 0.046563
0.780617 0.517414 0.047199
0.812490 0.518051 0.047836
0.844389 0.518689 0.048474
0.876313 0.519326 0.049111
0.908260 0.519965 0.049750
0.940231 0.520603 0.050388
0.963350 0.521065 0.050850
0.963350 0.521065 0.050850
0.034292 0.534312 0.034292
0.034292 0.534312 0.034292
0.057475 0.534775 0.034755
0.086936 0.535364 0.035344
0.116743 0.535959 0.035939
0.146767 0.536559 0.036539
0.176951 0.537162 0.037142
0.207262 0.537768 0.037748
0.237678 0.538375 0.038355
0.268184 0.538985 0.038965
0.298768 0.539596 0.039576
0.329422 0.540208 0.040188
0.360139 0.540822 0.040802
0.390912 0.541437 0.041417
0.421738 0.542053 0.042033
0.452612 0.542670 0.042649
0.483531 0.543287 0.043267
0.514491 0.543906 0.043886
0.545491 0.544525 0.044505
0.576528 0.545145 0.045125
0.607599 0.545766 0.045746
0.638704 0.546387 0.046367
0.669840 0.547010 0.046989
0.701006 0.547632 0.047612
0.732201 0.548255 0.048235
0.782661 0.549264 0.049243
0.814534 0.549900 0.049880
0.846433 0.550538 0.050518
0.878357 0.551175 0.051155
0.910304 0.551814 0.051794
0.942275 0.552453 0.052432
0.965394 0.552914 0.052894
0.965394 0.552914 0.052894
0.036338 0.566198 0.036338
0.036338 0.566198 0.036338
0.059522 0.566661 0.036801
0.088982 0.567250 0.037390
0.118789 0.567846 0.037986
0.148813 0.568445 0.038585
0.178998 0.569048 0.039188
0.209309 0.569654 0.039794
0.239725 0.570262 0.040402
0.270231 0.570871 0.041011
0.300815 0.571482 0.041622
0.331469 0.572095 0.042235
0.362185 0.572708 0.042848
0.392959 0.573323 0.043463
0.423784 0.573939 0.044079
0.454658 0.574556 0.044696
0.485577 0.575174 0.045314
0.516538 0.575792 0.045932
0.547537 0.576412 0.046551
0.578574 0.577032 0.047172
0.609646 0.577652 0.047792
0.640750 0.578274 0.048414
0.671886 0.578896 0.049036
0.703053 0.579519 0.049659
0.734247 0.580142 0.050282
0.765469 0.580766 0.050906
0.796717 0.581390 0.051530
0.848479 0.582424 0.052564
0.880403 0.583062 0.053202
0.912351 0.583700 0.053840
0.944321 0.584339 0.054479
0.967441 0.584801 0.054941
0.967441 0.584801 0.054941
0.038387 0.598120 0.038387
0.038387 0.598120 0.038387
0.061570 0.598583 0.038850
0.091031 0.599172 0.039439
0.120838 0.599767 0.040034
0.150862 0.600367 0.040634
0.181046 0.600970 0.041237
0.211357 0.601576 0.041843
0.241773 0.602183 0.042450
0.272279 0.602793 0.043060
0.302863 0.603404 0.043671
0.333517 0.604016 0.044283
0.364234 0.604630 0.044897
0.395007 0.605245 0.045512
0.425833 0.605861 0.046128
0.456707 0.606478 0.046745
0.487626 0.607095 0.047362
0.518586 0.607714 0.047981
0.549586 0.608333 0.048600
0.580623 0.608953 0.049220
0.611694 0.609574 0.049841
0.642799 0.610196 0.050463
0.673935 0.610818 0.051085
0.705101 0.611440 0.051707
0.736296 0.612063 0.052330
0.767518 0.612687 0.052954
0.798766 0.613312 0.053579
0.830040 0.613936 0.054203
0.882452 0.614984 0.055251
0.914399 0.615622 0.055889
0.946370 0.616261 0.056528
0.969489 0.616722 0.056989
0.969489 0.616722 0.056989
0.040438 0.630075 0.040438
0.040438 0.630075 0.040438
0.063621 0.630538 0.040901
0.093082 0.631127 0.041490
0.122889 0.631722 0.042085
0.152913 0.632322 0.042685
0.183097 0.632925 0.043288
0.213408 0.633531 0.043894
0.243824 0.634139 0.044501
0.274330 0.634748 0.045111
0.304914 0.635359 0.045722
0.335568 0.635971 0.046334
0.366285 0.636585 0.046948
0.397058 0.637200 0.047563
0.427884 0.637816 0.048179
0.458758 0.638433 0.048795
0.489677 0.639050 0.049413
0.520637 0.639669 0.050032
0.551637 0.640288 0.050651
0.582674 0.640908 0.051271
0.613745 0.641529 0.051892
0.644850 0.642151 0.052513
0.675986 0.642773 0.053135
0.707152 0.643395 0.053758
0.738347 0.644019 0.054381
0.769569 0.644642 0.055005
0.800817 0.645267 0.055629
0.832090 0.645891 0.056254
0.863388 0.646517 0.056880
0.894709 0.647143 0.057505
0.948421 0.648216 0.058578
0.971540 0.648678 0.059040
0.971540 0.648678 0.059040
0.042491 0.662062 0.042491
0.042491 0.662062 0.042491
0.065674 0.662525 0.042954
0.095135 0.663114 0.043542
0.124941 0.663709 0.044138
0.154966 0.664309 0.044738
0.185150 0.664912 0.045341
0.215461 0.665518 0.045946
0.245877 0.666125 0.046554
0.276383 0.666735 0.047164
0.306967 0.667346 0.047775
0.337621 0.667958 0.048387
0.368338 0.668572 0.049001
0.399111 0.669187 0.049616
0.429937 0.669803 0.050231
0.460811 0.670420 0.050848
0.491730 0.671037 0.051466
0.522690 0.671656 0.052085
0.553690 0.672275 0.052704
0.584727 0.672895 0.053324
0.615798 0.673516 0.053945
0.646903 0.674138 0.054566
0.678039 0.674760 0.055188
0.709205 0.675382 0.055811
0.740400 0.676006 0.056434
0.771622 0.676629 0.057058
0.802870 0.677254 0.057682
0.834143 0.677878 0.058307
0.865441 0.678504 0.058932
0.896762 0.679129 0.059558
0.928106 0.679756 0.060184
0.973593 0.680664 0.061093
0.973593 0.680664 0.061093
0.044546 0.694079 0.044546
0.044546 0.694079 0.044546
0.067729 0.694542 0.045009
0.097190 0.695131 0.045597
0.126996 0.695727 0.046193
0.157021 0.696326 0.046793
0.187205 0.696929 0.047396
0.217516 0.697535 0.048001
0.247932 0.698143 0.048609
0.278438 0.698752 0.049218
0.309022 0.699363 0.049830
0.339676 0.699976 0.050442
0.370393 0.700589 0.051056
0.401166 0.701204 0.051670
0.431992 0.701820 0.052286
0.462866 0.702437 0.052903
0.493784 0.703055 0.053521
0.524745 0.703673 0.054139
0.555745 0.704293 0.054759
0.586781 0.704913 0.055379
0.617853 0.705533 0.056000
0.648958 0.706155 0.056621
0.680094 0.706777 0.057243
0.711260 0.707400 0.057866
0.742454 0.708023 0.058489
0.773676 0.708647 0.059113
0.804925 0.709271 0.059737
0.836198 0.709896 0.060362
0.867496 0.710521 0.060987
0.898817 0.711147 0.061613
0.930161 0.711773 0.062239
0.961526 0.712400 0.062866
0.975648 0.712682 0.063148
0.046602 0.726126 0.046602
0.046602 0.726126 0.046602
0.069786 0.726589 0.047065
0.099246 0.727177 0.047654
0.129053 0.727773 0.048250
0.159077 0.728373 0.048849
0.189262 0.728976 0.049452
0.219573 0.729581 0.050058
0.249989 0.730189 0.050666
0.280495 0.730798 0.051275
0.311079 0.731410 0.051886
0.341733 0.732022 0.052499
0.372449 0.732636 0.053112
0.403223 0.733250 0.053727
0.434048 0.733866 0.054343
0.464922 0.734483 0.054960
0.495841 0.735101 0.055578
0.526802 0.735719 0.056196
0.557801 0.736339 0.056816
0.588838 0.736959 0.057436
0.619910 0.737580 0.058056
0.651014 0.738201 0.058678
0.682151 0.738823 0.059300
0.713317 0.739446 0.059923
0.744511 0.740069 0.060546
0.775733 0.740693 0.061170
0.806981 0.741317 0.061794
0.838255 0.741942 0.062419
0.869553 0.742567 0.063044
0.900874 0.743193 0.063670
0.932217 0.743819 0.064296
0.963583 0.744446 0.064923
0.977705 0.744728 0.065205
0.048661 0.758200 0.048661
0.048661 0.758200 0.048661
0.071844 0.758663 0.049124
0.101305 0.759251 0.049713
0.131112 0.759847 0.050308
0.161136 0.760447 0.050908
0.191320 0.761050 0.051511
0.221631 0.761655 0.052117
0.252047 0.762263 0.052724
0.282553 0.762872 0.053334
0.313137 0.763484 0.053945
0.343791 0.764096 0.054557
0.374508 0.764710 0.055171
0.405281 0.765324 0.055786
0.436107 0.765940 0.056402
0.466981 0.766557 0.057018
0.497900 0.767175 0.057636
0.528860 0.767793 0.058255
0.559860 0.768413 0.058874
0.590897 0.769033 0.059494
0.621968 0.769654 0.060115
0.653073 0.770275 0.060736
0.684209 0.770897 0.061358
0.715375 0.771520 0.061981
0.746570 0.772143 0.062604
0.777792 0.772767 0.063228
0.809040 0.773391 0.063852
0.840313 0.774016 0.064477
0.871611 0.774641 0.065102
0.902932 0.775267 0.065728
0.934276 0.775893 0.066354
0.965641 0.776520 0.066981
0.979763 0.776802 0.067263
0.050721 0.790300 0.050721
0.050721 0.790300 0.050721
0.073904 0.790763 0.051184
0.103365 0.791352 0.051773
0.133172 0.791948 0.052368
0.163196 0.792547 0.052968
0.193380 0.793150 0.053571
0.223691 0.793756 0.054177
0.254107 0.794364 0.054784
0.284613 0.794973 0.055394
0.315197 0.795584 0.056005
0.345851 0.796197 0.056617
0.376568 0.796810 0.057231
0.407341 0.797425 0.057846
0.438167 0.798041 0.058462
0.469041 0.798658 0.059079
0.499960 0.799276 0.059696
0.530920 0.799894 0.060315
0.561920 0.800513 0.060934
