library/cube/ARRI_Natural_001.cube
# CINEGRADE LAB — Premium Cinematic LUT
# Title: ARRI Natural
# Category: ARRI Alexa Look
# Description: Digital cinema natural skin tones with wide dynamic range emulation
# Mood: Cinematic, natural, professional
# Variant: 2
# Generated: 2026-05-21T16:12:51.785637
TITLE "ARRI Natural"
LUT_3D_SIZE 5
0.000000 0.000000 0.000000
0.203386 0.004063 0.004063
0.449239 0.008975 0.008975
0.697909 0.013944 0.013944
0.931103 0.018602 0.018602
0.013992 0.218014 0.013992
0.217378 0.222077 0.018055
0.476871 0.227262 0.023240
0.730515 0.232329 0.028307
0.945094 0.236616 0.032594
0.030206 0.470653 0.030206
0.233593 0.474717 0.034270
0.479445 0.479629 0.039182
0.746729 0.484969 0.044522
0.961309 0.489256 0.048809
0.046602 0.726126 0.046602
0.249989 0.730189 0.050666
0.495841 0.735101 0.055578
0.744511 0.740069 0.060546
0.977705 0.744728 0.065205
0.062580 0.975080 0.062580
0.265966 0.979143 0.066643
0.511819 0.984055 0.071555
0.760489 0.989024 0.076524
0.993683 0.993683 0.081182
0.001445 0.001445 0.210096
0.204831 0.005508 0.214159
0.450683 0.010420 0.219071
0.699353 0.015388 0.224039
0.932547 0.020047 0.228698
0.015437 0.219458 0.224088
0.218823 0.223522 0.228151
0.464675 0.228434 0.233063
0.713345 0.233402 0.238031
0.946539 0.238061 0.242690
0.031651 0.472098 0.240302
0.235037 0.476161 0.244365
0.480890 0.481073 0.249277
0.748173 0.486413 0.254617
0.962753 0.490700 0.258904
0.048047 0.727570 0.256698
0.251433 0.731634 0.260761
0.497286 0.736545 0.265673
0.745956 0.741514 0.270642
0.979149 0.746173 0.275301
0.064025 0.976525 0.272676
0.267411 0.980588 0.276739
0.513263 0.985500 0.281651
0.761933 0.990468 0.286619
0.995127 0.995127 0.291278
0.003030 0.003030 0.440642
0.206416 0.007093 0.444705
0.452269 0.012005 0.449617
0.700939 0.016973 0.454585
0.934132 0.021632 0.459244
0.017022 0.221043 0.454634
0.220408 0.225107 0.458697
0.466261 0.230019 0.463609
0.714931 0.234987 0.468577
0.948124 0.239646 0.473236
0.033236 0.473683 0.470848
0.236622 0.477746 0.474911
0.482475 0.482658 0.479823
0.731145 0.487627 0.484791
0.964338 0.492286 0.489450
0.049632 0.729155 0.487244
0.253018 0.733219 0.491307
0.498871 0.738131 0.496219
0.747541 0.743099 0.501187
0.980734 0.747758 0.505846
0.065610 0.978110 0.503222
0.268996 0.982173 0.507285
0.514849 0.987085 0.512197
0.763519 0.992053 0.517165
0.996712 0.996712 0.521824
0.004641 0.004641 0.674936
0.208027 0.008704 0.679000
0.453880 0.013616 0.683912
0.702550 0.018584 0.688880
0.935743 0.023243 0.693539
0.018633 0.222654 0.688928
0.222019 0.226718 0.692992
0.467872 0.231630 0.697904
0.716542 0.236598 0.702872
0.949735 0.241257 0.707531
0.034847 0.475294 0.705142
0.238233 0.479357 0.709206
0.484086 0.484269 0.714118
0.732756 0.489237 0.719086
0.965949 0.493896 0.723745
0.051243 0.730766 0.721538
0.254629 0.734830 0.725602
0.500482 0.739742 0.730514
0.749152 0.744710 0.735482
0.982345 0.749369 0.740141
0.067221 0.979721 0.737516
0.270607 0.983784 0.741580
0.516460 0.988696 0.746492
0.765130 0.993664 0.751460
0.998323 0.998323 0.756119
0.006268 0.006268 0.911673
0.209655 0.010332 0.915737
0.455507 0.015244 0.920648
0.704177 0.020212 0.925617
0.937371 0.024871 0.930276
0.020260 0.224282 0.925665
0.223647 0.228346 0.929729
0.469499 0.233257 0.934640
0.718169 0.238226 0.939609
0.951363 0.242885 0.944268
0.036475 0.476922 0.941879
0.239861 0.480985 0.945943
0.485714 0.485897 0.950855
0.734384 0.490865 0.955823
0.967577 0.495524 0.960482
0.052871 0.732394 0.958275
0.256257 0.736457 0.962339
0.502110 0.741369 0.967251
0.750780 0.746337 0.972219
0.983973 0.750996 0.976878
0.068848 0.981348 0.974253
0.272235 0.985412 0.978317
0.518087 0.990324 0.983228
0.766757 0.995292 0.988197
0.999951 0.999951 0.992856
