library/cube/Azure_Escape_003.cube
# CINEGRADE LAB — Premium Cinematic LUT
# Title: Azure Escape
# Category: Luxury Travel
# Description: Golden hour tones, rich landscapes, and vivid colors for travel content
# Mood: Wanderlust, golden, rich
# Variant: 4
# Generated: 2026-05-21T16:12:24.604402
TITLE "Azure Escape"
LUT_3D_SIZE 5
0.000000 0.000000 0.000000
0.241075 0.000000 0.000000
0.546489 0.000000 0.000000
0.852173 0.000000 0.000000
1.000000 0.000000 0.000000
0.000000 0.263607 0.000000
0.222580 0.230460 0.000000
0.528726 0.223577 0.000000
0.835401 0.216706 0.000000
1.000000 0.211432 0.000000
0.000000 0.578329 0.000000
0.201230 0.512236 0.000000
0.508539 0.505503 0.000000
0.816639 0.498788 0.000000
1.000000 0.493810 0.000000
0.000000 0.894081 0.000000
0.173018 0.889077 0.000000
0.489574 0.788489 0.000000
0.799531 0.781998 0.000000
1.000000 0.777434 0.000000
0.000000 1.000000 0.000000
0.165040 1.000000 0.000000
0.476048 1.000000 0.000000
0.788371 1.000000 0.000000
1.000000 1.000000 0.000000
0.000000 0.000000 0.265470
0.239075 0.000000 0.259939
0.544543 0.000000 0.252916
0.850308 0.000000 0.245865
1.000000 0.000000 0.240293
0.000000 0.233887 0.246144
0.220667 0.228466 0.240529
0.526911 0.221589 0.233413
0.833713 0.214724 0.226263
1.000000 0.209467 0.220674
0.000000 0.576393 0.217914
0.194454 0.571154 0.212197
0.506856 0.503579 0.209920
0.815126 0.496873 0.202654
1.000000 0.491920 0.197082
0.000000 0.892239 0.191615
0.171275 0.887252 0.185782
0.488021 0.786656 0.186083
0.798192 0.780179 0.178684
1.000000 0.775649 0.173162
0.000000 1.000000 0.179450
0.163408 1.000000 0.173564
0.474650 1.000000 0.166145
0.787234 1.000000 0.158675
1.000000 1.000000 0.153319
0.000000 0.000000 0.554498
0.236903 0.000000 0.548935
0.542430 0.000000 0.541856
0.848281 0.000000 0.534727
1.000000 0.000000 0.529062
0.000000 0.231708 0.534975
0.218582 0.226294 0.529253
0.524931 0.219424 0.522008
0.831862 0.212566 0.514706
1.000000 0.207326 0.508956
0.000000 0.513451 0.511247
0.197405 0.508192 0.505352
0.505007 0.501479 0.497924
0.813451 0.494784 0.490433
1.000000 0.489857 0.484630
0.000000 0.890225 0.479311
0.169362 0.885255 0.473224
0.478644 0.878836 0.465591
0.796694 0.778187 0.465552
1.000000 0.773692 0.459730
0.000000 1.000000 0.466235
0.161608 1.000000 0.460023
0.473089 1.000000 0.452254
0.785939 1.000000 0.444413
1.000000 1.000000 0.438691
0.000000 0.000000 0.843512
0.234740 0.000000 0.837900
0.540331 0.000000 0.830751
0.846272 0.000000 0.823531
1.000000 0.000000 0.817758
0.000000 0.229532 0.823742
0.216507 0.224125 0.817898
0.522964 0.217263 0.810509
0.830030 0.210411 0.803042
1.000000 0.205189 0.797115
0.000000 0.511335 0.799521
0.195417 0.506087 0.793431
0.503171 0.499385 0.785785
0.811796 0.492699 0.778054
1.000000 0.487799 0.772006
0.000000 0.794144 0.774494
0.175114 0.789126 0.768143
0.484599 0.782653 0.760224
0.795214 0.776201 0.752212
1.000000 0.771742 0.746077
0.000000 1.000000 0.752808
0.159818 1.000000 0.746255
0.471543 1.000000 0.738123
0.784663 1.000000 0.729895
1.000000 1.000000 0.723793
0.000000 0.000000 1.000000
0.232766 0.000000 1.000000
0.538426 0.000000 1.000000
0.844462 0.000000 1.000000
1.000000 0.000000 1.000000
0.000000 0.227539 1.000000
0.214621 0.222140 1.000000
0.521191 0.215284 1.000000
0.828397 0.208438 1.000000
1.000000 0.203236 1.000000
0.000000 0.509404 1.000000
0.193618 0.504167 1.000000
0.501530 0.497475 1.000000
0.810338 0.490799 1.000000
1.000000 0.485926 1.000000
0.000000 0.792303 1.000000
0.173402 0.787299 1.000000
0.483089 0.780840 1.000000
0.793932 0.774402 1.000000
1.000000 0.769978 1.000000
0.000000 1.000000 1.000000
0.158218 1.000000 1.000000
0.470191 1.000000 1.000000
0.783585 1.000000 0.991826
1.000000 1.000000 0.985361
