library/cube/Azure_Escape_003.cube
# CINEGRADE LAB — Premium Cinematic LUT
# Title: Azure Escape
# Category: Luxury Travel
# Description: Golden hour tones, rich landscapes, and vivid colors for travel content
# Mood: Wanderlust, golden, rich
# Variant: 4
# Generated: 2026-05-21T16:12:24.604402
TITLE "Azure Escape"
LUT_3D_SIZE 33
0.000000 0.000000 0.000000
0.000000 0.000000 0.000000
0.012122 0.000000 0.000000
0.050277 0.000000 0.000000
0.088433 0.000000 0.000000
0.126591 0.000000 0.000000
0.164750 0.000000 0.000000
0.202911 0.000000 0.000000
0.241075 0.000000 0.000000
0.279241 0.000000 0.000000
0.317410 0.000000 0.000000
0.355581 0.000000 0.000000
0.393756 0.000000 0.000000
0.431933 0.000000 0.000000
0.470115 0.000000 0.000000
0.508300 0.000000 0.000000
0.546489 0.000000 0.000000
0.584682 0.000000 0.000000
0.622880 0.000000 0.000000
0.661082 0.000000 0.000000
0.699290 0.000000 0.000000
0.737502 0.000000 0.000000
0.775720 0.000000 0.000000
0.813943 0.000000 0.000000
0.852173 0.000000 0.000000
0.890408 0.000000 0.000000
0.928649 0.000000 0.000000
0.966698 0.000000 0.000000
1.000000 0.000000 0.000000
1.000000 0.000000 0.000000
1.000000 0.000000 0.000000
1.000000 0.000000 0.000000
1.000000 0.000000 0.000000
0.000004 0.000001 0.000000
0.000007 0.000002 0.000000
0.012131 0.000000 0.000000
0.050289 0.000000 0.000000
0.088450 0.000000 0.000000
0.126612 0.000000 0.000000
0.164777 0.000000 0.000000
0.202944 0.000000 0.000000
0.241114 0.000000 0.000000
0.279286 0.000000 0.000000
0.317462 0.000000 0.000000
0.355641 0.000000 0.000000
0.393824 0.000000 0.000000
0.432011 0.000000 0.000000
0.470201 0.000000 0.000000
0.508396 0.000000 0.000000
0.546595 0.000000 0.000000
0.584799 0.000000 0.000000
0.623009 0.000000 0.000000
0.661223 0.000000 0.000000
0.699442 0.000000 0.000000
0.737668 0.000000 0.000000
0.775899 0.000000 0.000000
0.814136 0.000000 0.000000
0.852380 0.000000 0.000000
0.890630 0.000000 0.000000
0.928887 0.000000 0.000000
0.966898 0.000000 0.000000
1.000000 0.000000 0.000000
1.000000 0.000000 0.000000
1.000000 0.000000 0.000000
1.000000 0.000000 0.000000
1.000000 0.000000 0.000000
0.000000 0.027976 0.000000
0.000000 0.025036 0.000000
0.010113 0.024761 0.000000
0.048276 0.023890 0.000000
0.086441 0.023020 0.000000
0.124609 0.022150 0.000000
0.162780 0.021280 0.000000
0.200953 0.020410 0.000000
0.239130 0.019541 0.000000
0.277310 0.018672 0.000000
0.315494 0.017802 0.000000
0.353682 0.016933 0.000000
0.391874 0.016064 0.000000
0.430070 0.015196 0.000000
0.468271 0.014327 0.000000
0.506476 0.013459 0.000000
0.544687 0.012590 0.000000
0.582902 0.011722 0.000000
0.621123 0.010854 0.000000
0.659350 0.009986 0.000000
0.697583 0.009118 0.000000
0.735822 0.008250 0.000000
0.774067 0.007382 0.000000
0.812319 0.006515 0.000000
0.850578 0.005647 0.000000
0.888844 0.004780 0.000000
0.927117 0.003912 0.000000
0.965086 0.003052 0.000000
1.000000 0.002195 0.000000
1.000000 0.001339 0.000000
1.000000 0.000484 0.000000
1.000000 0.000219 0.000000
1.000000 0.000229 0.000000
0.000000 0.067233 0.000000
0.000000 0.067236 0.000000
0.007282 0.059892 0.000000
0.045451 0.059022 0.000000
0.083622 0.058153 0.000000
0.121796 0.057284 0.000000
0.159974 0.056415 0.000000
0.198155 0.055546 0.000000
0.236339 0.054678 0.000000
0.274528 0.053810 0.000000
0.312721 0.052942 0.000000
0.350918 0.052074 0.000000
0.389119 0.051206 0.000000
0.427326 0.050338 0.000000
0.465538 0.049471 0.000000
0.503754 0.048603 0.000000
0.541977 0.047736 0.000000
0.580205 0.046869 0.000000
0.618439 0.046002 0.000000
0.656680 0.045135 0.000000
0.694926 0.044268 0.000000
0.733180 0.043401 0.000000
0.771440 0.042535 0.000000
0.809707 0.041668 0.000000
0.847982 0.040802 0.000000
0.886264 0.039936 0.000000
0.924554 0.039070 0.000000
0.962476 0.038212 0.000000
1.000000 0.037358 0.000000
1.000000 0.036506 0.000000
1.000000 0.035655 0.000000
1.000000 0.035392 0.000000
1.000000 0.035403 0.000000
0.000000 0.106494 0.000000
0.000000 0.106499 0.000000
0.004460 0.095027 0.000000
0.042634 0.094159 0.000000
0.080812 0.093291 0.000000
0.118994 0.092423 0.000000
0.157179 0.091555 0.000000
0.195368 0.090688 0.000000
0.233561 0.089820 0.000000
0.271759 0.088953 0.000000
0.309962 0.088086 0.000000
0.348169 0.087220 0.000000
0.386382 0.086353 0.000000
0.424599 0.085487 0.000000
0.462823 0.084620 0.000000
0.501052 0.083754 0.000000
0.539287 0.082888 0.000000
0.577529 0.082022 0.000000
0.615777 0.081156 0.000000
0.654031 0.080291 0.000000
0.692293 0.079425 0.000000
0.730561 0.078560 0.000000
0.768838 0.077695 0.000000
0.807121 0.076830 0.000000
0.845413 0.075965 0.000000
0.883712 0.075100 0.000000
0.922020 0.074235 0.000000
0.959889 0.073380 0.000000
0.997584 0.072530 0.000000
1.000000 0.071681 0.000000
1.000000 0.070834 0.000000
1.000000 0.070574 0.000000
1.000000 0.070587 0.000000
0.000000 0.145762 0.000000
0.000000 0.145767 0.000000
0.000399 0.145496 0.000000
0.039827 0.129301 0.000000
0.078012 0.128435 0.000000
0.116202 0.127568 0.000000
0.154395 0.126701 0.000000
0.192594 0.125835 0.000000
0.230797 0.124969 0.000000
0.269005 0.124103 0.000000
0.307218 0.123238 0.000000
0.345436 0.122372 0.000000
0.383660 0.121507 0.000000
0.421890 0.120642 0.000000
0.460126 0.119777 0.000000
0.498368 0.118912 0.000000
0.536617 0.118048 0.000000
0.574873 0.117183 0.000000
0.613135 0.116319 0.000000
0.651405 0.115455 0.000000
0.689682 0.114591 0.000000
0.727967 0.113727 0.000000
0.766260 0.112863 0.000000
0.804561 0.111999 0.000000
0.842870 0.111136 0.000000
0.881188 0.110272 0.000000
0.919515 0.109409 0.000000
0.957325 0.108558 0.000000
0.994936 0.107711 0.000000
1.000000 0.106867 0.000000
1.000000 0.106023 0.000000
1.000000 0.105766 0.000000
1.000000 0.105781 0.000000
0.000000 0.185036 0.000000
0.000000 0.185043 0.000000
0.000000 0.184773 0.000000
0.037028 0.164450 0.000000
0.075222 0.163585 0.000000
0.113420 0.162719 0.000000
0.151623 0.161854 0.000000
0.189832 0.160990 0.000000
0.228045 0.160125 0.000000
0.266264 0.159261 0.000000
0.304488 0.158396 0.000000
0.342719 0.157532 0.000000
0.380955 0.156668 0.000000
0.419198 0.155805 0.000000
0.457448 0.154941 0.000000
0.495704 0.154078 0.000000
0.533967 0.153215 0.000000
0.572238 0.152352 0.000000
0.610516 0.151489 0.000000
0.648802 0.150627 0.000000
0.687095 0.149764 0.000000
0.725397 0.148902 0.000000
0.763707 0.148040 0.000000
0.802026 0.147178 0.000000
0.840354 0.146316 0.000000
0.878691 0.145454 0.000000
0.917037 0.144592 0.000000
0.954784 0.143744 0.000000
0.992303 0.142902 0.000000
1.000000 0.142062 0.000000
1.000000 0.141223 0.000000
1.000000 0.140969 0.000000
1.000000 0.140986 0.000000
0.000000 0.224317 0.000000
0.000000 0.224326 0.000000
0.000000 0.224059 0.000000
0.032320 0.223195 0.000000
0.072441 0.198742 0.000000
0.110649 0.197878 0.000000
0.148863 0.197015 0.000000
0.187082 0.196151 0.000000
0.225306 0.195288 0.000000
0.263537 0.194426 0.000000
0.301774 0.193563 0.000000
0.340017 0.192701 0.000000
0.378267 0.191838 0.000000
0.416523 0.190976 0.000000
0.454787 0.190114 0.000000
0.493058 0.189253 0.000000
0.531337 0.188391 0.000000
0.569623 0.187530 0.000000
0.607917 0.186669 0.000000
0.646220 0.185808 0.000000
0.684531 0.184947 0.000000
0.722851 0.184087 0.000000
0.761180 0.183226 0.000000
0.799517 0.182366 0.000000
0.837865 0.181506 0.000000
0.876221 0.180646 0.000000
0.914588 0.179786 0.000000
0.952266 0.178942 0.000000
0.989685 0.178104 0.000000
1.000000 0.177268 0.000000
1.000000 0.176435 0.000000
1.000000 0.176183 0.000000
1.000000 0.176203 0.000000
0.000000 0.263607 0.000000
0.000000 0.263618 0.000000
0.000000 0.263352 0.000000
0.029203 0.262491 0.000000
0.069670 0.233907 0.000000
0.107889 0.233045 0.000000
0.146113 0.232183 0.000000
0.184344 0.231322 0.000000
0.222580 0.230460 0.000000
0.260824 0.229599 0.000000
0.299073 0.228738 0.000000
0.337330 0.227878 0.000000
0.375594 0.227017 0.000000
0.413865 0.226157 0.000000
0.452144 0.225297 0.000000
0.490431 0.224437 0.000000
0.528726 0.223577 0.000000
0.567029 0.222718 0.000000
0.605341 0.221859 0.000000
0.643661 0.220999 0.000000
0.681990 0.220140 0.000000
0.720329 0.219282 0.000000
0.758677 0.218423 0.000000
0.797034 0.217565 0.000000
0.835401 0.216706 0.000000
0.873779 0.215848 0.000000
0.912167 0.214990 0.000000
0.949771 0.214150 0.000000
0.987084 0.213318 0.000000
1.000000 0.212487 0.000000
1.000000 0.211658 0.000000
1.000000 0.211410 0.000000
1.000000 0.211432 0.000000
0.000000 0.302906 0.000000
0.000000 0.302919 0.000000
0.000000 0.302655 0.000000
0.026094 0.301796 0.000000
0.064318 0.300937 0.000000
0.105138 0.268221 0.000000
0.143375 0.267361 0.000000
0.181618 0.266501 0.000000
0.219867 0.265642 0.000000
0.258124 0.264782 0.000000
0.296388 0.263923 0.000000
0.334659 0.263064 0.000000
0.372938 0.262206 0.000000
0.411225 0.261347 0.000000
0.449520 0.260489 0.000000
0.487823 0.259631 0.000000
0.526135 0.258774 0.000000
0.564455 0.257916 0.000000
0.602785 0.257059 0.000000
0.641124 0.256202 0.000000
0.679472 0.255345 0.000000
0.717830 0.254488 0.000000
0.756198 0.253631 0.000000
0.794576 0.252775 0.000000
0.832965 0.251918 0.000000
0.871364 0.251062 0.000000
0.909774 0.250206 0.000000
0.947298 0.249371 0.000000
0.984497 0.248543 0.000000
1.000000 0.247718 0.000000
1.000000 0.246894 0.000000
1.000000 0.246650 0.000000
1.000000 0.246674 0.000000
0.000000 0.342215 0.000000
0.000000 0.342231 0.000000
0.000000 0.341969 0.000000
0.022994 0.341112 0.000000
0.061229 0.340255 0.000000
0.102398 0.303406 0.000000
0.140647 0.302548 0.000000
0.178904 0.301691 0.000000
0.217167 0.300833 0.000000
0.255438 0.299976 0.000000
0.293717 0.299119 0.000000
0.332003 0.298262 0.000000
0.370298 0.297405 0.000000
0.408601 0.296549 0.000000
0.446913 0.295693 0.000000
0.485233 0.294837 0.000000
0.523563 0.293981 0.000000
0.561902 0.293126 0.000000
0.600250 0.292270 0.000000
0.638609 0.291415 0.000000
0.676977 0.290560 0.000000
0.715355 0.289706 0.000000
0.753744 0.288851 0.000000
0.792144 0.287997 0.000000
0.830554 0.287142 0.000000
0.868976 0.286288 0.000000
0.907408 0.285435 0.000000
0.944847 0.284604 0.000000
0.981927 0.283782 0.000000
1.000000 0.282962 0.000000
1.000000 0.282144 0.000000
1.000000 0.281904 0.000000
1.000000 0.281931 0.000000
0.000000 0.381535 0.000000
0.000000 0.381553 0.000000
0.000000 0.381294 0.000000
0.019902 0.380439 0.000000
0.058150 0.379585 0.000000
0.096405 0.378731 0.000000
0.137931 0.337746 0.000000
0.176201 0.336891 0.000000
0.214479 0.336035 0.000000
0.252766 0.335180 0.000000
0.291060 0.334325 0.000000
0.329363 0.333470 0.000000
0.367674 0.332616 0.000000
0.405994 0.331762 0.000000
0.444324 0.330908 0.000000
0.482662 0.330054 0.000000
0.521011 0.329200 0.000000
0.559369 0.328347 0.000000
0.597737 0.327494 0.000000
0.636116 0.326641 0.000000
0.674505 0.325788 0.000000
0.712904 0.324936 0.000000
0.751315 0.324084 0.000000
0.789737 0.323232 0.000000
0.828170 0.322380 0.000000
0.866615 0.321528 0.000000
0.905071 0.320676 0.000000
0.942420 0.319851 0.000000
0.979371 0.319034 0.000000
1.000000 0.318220 0.000000
1.000000 0.317409 0.000000
1.000000 0.317172 0.000000
1.000000 0.317202 0.000000
0.000000 0.420867 0.000000
0.000000 0.420887 0.000000
0.000000 0.420631 0.000000
0.016818 0.419779 0.000000
0.055080 0.418927 0.000000
0.093349 0.418075 0.000000
0.135226 0.372956 0.000000
0.173511 0.372102 0.000000
0.211804 0.371249 0.000000
0.250107 0.370396 0.000000
0.288417 0.369543 0.000000
0.326737 0.368691 0.000000
0.365066 0.367839 0.000000
0.403404 0.366987 0.000000
0.441752 0.366135 0.000000
0.480110 0.365284 0.000000
0.518478 0.364433 0.000000
0.556856 0.363582 0.000000
0.595245 0.362731 0.000000
0.633644 0.361880 0.000000
0.672055 0.361030 0.000000
0.710477 0.360180 0.000000
0.748910 0.359330 0.000000
0.787355 0.358480 0.000000
0.825812 0.357631 0.000000
0.864280 0.356781 0.000000
0.902762 0.355932 0.000000
0.940015 0.355112 0.000000
0.976831 0.354302 0.000000
1.000000 0.353494 0.000000
1.000000 0.352689 0.000000
1.000000 0.352456 0.000000
1.000000 0.352490 0.000000
0.000000 0.460211 0.000000
0.000000 0.460235 0.000000
0.000000 0.459981 0.000000
0.013743 0.459131 0.000000
0.052018 0.458282 0.000000
0.090303 0.457433 0.000000
0.128595 0.456584 0.000000
0.170832 0.407326 0.000000
0.209142 0.406475 0.000000
0.247461 0.405625 0.000000
0.285789 0.404774 0.000000
0.324127 0.403924 0.000000
0.362474 0.403075 0.000000
0.400831 0.402225 0.000000
0.439198 0.401376 0.000000
0.477576 0.400527 0.000000
0.515964 0.399678 0.000000
0.554364 0.398830 0.000000
0.592774 0.397981 0.000000
0.631195 0.397133 0.000000
0.669628 0.396285 0.000000
0.708073 0.395438 0.000000
0.746529 0.394590 0.000000
0.784998 0.393743 0.000000
0.823479 0.392896 0.000000
0.861973 0.392050 0.000000
0.900480 0.391203 0.000000
0.937632 0.390388 0.000000
0.974307 0.389584 0.000000
1.000000 0.388783 0.000000
1.000000 0.387984 0.000000
1.000000 0.387756 0.000000
1.000000 0.387793 0.000000
0.000000 0.499569 0.000000
0.000000 0.499595 0.000000
0.000000 0.499345 0.000000
0.010675 0.498498 0.000000
0.048966 0.497651 0.000000
0.087266 0.496805 0.000000
0.125574 0.495959 0.000000
0.168165 0.442563 0.000000
0.206492 0.441715 0.000000
0.244829 0.440867 0.000000
0.283175 0.440019 0.000000
0.321531 0.439171 0.000000
0.359898 0.438324 0.000000
0.398275 0.437477 0.000000
0.436662 0.436630 0.000000
0.475061 0.435784 0.000000
0.513470 0.434938 0.000000
0.551891 0.434092 0.000000
0.590324 0.433246 0.000000
0.628768 0.432401 0.000000
0.667224 0.431556 0.000000
0.705692 0.430711 0.000000
0.744173 0.429866 0.000000
0.782667 0.429021 0.000000
0.821173 0.428177 0.000000
0.859693 0.427333 0.000000
0.898226 0.426489 0.000000
0.935272 0.425680 0.000000
0.971797 0.424883 0.000000
1.000000 0.424089 0.000000
1.000000 0.423297 0.000000
1.000000 0.423073 0.000000
1.000000 0.423114 0.000000
0.000000 0.538941 0.000000
0.000000 0.538971 0.000000
0.000000 0.538723 0.000000
0.007616 0.537879 0.000000
0.045923 0.537036 0.000000
0.084239 0.536192 0.000000
0.122565 0.535349 0.000000
0.160900 0.534507 0.000000
0.203855 0.476968 0.000000
0.242210 0.476123 0.000000
0.280575 0.475277 0.000000
0.318951 0.474433 0.000000
0.357338 0.473588 0.000000
0.395735 0.472744 0.000000
0.434144 0.471900 0.000000
0.472564 0.471056 0.000000
0.510995 0.470213 0.000000
0.549439 0.469369 0.000000
0.587894 0.468526 0.000000
0.626362 0.467684 0.000000
0.664842 0.466841 0.000000
0.703335 0.465999 0.000000
0.741841 0.465157 0.000000
0.780361 0.464316 0.000000
0.818893 0.463474 0.000000
0.857440 0.462633 0.000000
0.896000 0.461792 0.000000
0.932934 0.460988 0.000000
0.969303 0.460199 0.000000
1.000000 0.459412 0.000000
1.000000 0.458627 0.000000
1.000000 0.458408 0.000000
1.000000 0.458452 0.000000
0.000000 0.578329 0.000000
0.000000 0.578362 0.000000
0.000000 0.578117 0.000000
0.004565 0.577276 0.000000
0.042889 0.576436 0.000000
0.081222 0.575596 0.000000
0.119565 0.574756 0.000000
0.157919 0.573917 0.000000
0.201230 0.512236 0.000000
0.239604 0.511393 0.000000
0.277989 0.510551 0.000000
0.316386 0.509709 0.000000
0.354793 0.508867 0.000000
0.393212 0.508026 0.000000
0.431642 0.507185 0.000000
0.470085 0.506344 0.000000
0.508539 0.505503 0.000000
0.547006 0.504663 0.000000
0.585486 0.503823 0.000000
0.623978 0.502983 0.000000
0.662483 0.502143 0.000000
0.701002 0.501304 0.000000
0.739534 0.500465 0.000000
0.778079 0.499626 0.000000
0.816639 0.498788 0.000000
0.855213 0.497950 0.000000
0.893801 0.497112 0.000000
0.930618 0.496314 0.000000
0.966823 0.495532 0.000000
1.000000 0.494752 0.000000
1.000000 0.493976 0.000000
1.000000 0.493762 0.000000
1.000000 0.493810 0.000000
0.000000 0.617732 0.000000
0.000000 0.617769 0.000000
0.000000 0.617528 0.000000
0.001522 0.616690 0.000000
0.039863 0.615853 0.000000
0.078215 0.615016 0.000000
0.116577 0.614179 0.000000
0.154949 0.613343 0.000000
0.193332 0.612508 0.000000
0.237012 0.546680 0.000000
0.275418 0.545840 0.000000
0.313835 0.545001 0.000000
0.352264 0.544163 0.000000
0.390705 0.543324 0.000000
0.429159 0.542486 0.000000
0.467624 0.541648 0.000000
0.506103 0.540810 0.000000
0.544594 0.539973 0.000000
0.583098 0.539136 0.000000
0.621616 0.538299 0.000000
0.660147 0.537463 0.000000
0.698691 0.536626 0.000000
0.737250 0.535790 0.000000
0.775823 0.534955 0.000000
0.814411 0.534119 0.000000
0.853013 0.533284 0.000000
0.891630 0.532449 0.000000
0.928324 0.531659 0.000000
0.964359 0.530884 0.000000
1.000000 0.530112 0.000000
1.000000 0.529343 0.000000
1.000000 0.529135 0.000000
1.000000 0.529186 0.000000
0.000000 0.657153 0.000000
0.000000 0.657193 0.000000
0.000000 0.656956 0.000000
0.000000 0.656121 0.000000
0.036846 0.655287 0.000000
0.075217 0.654454 0.000000
0.113598 0.653621 0.000000
0.151991 0.652788 0.000000
0.190395 0.651956 0.000000
0.234432 0.581983 0.000000
0.272860 0.581146 0.000000
0.311299 0.580310 0.000000
0.349751 0.579475 0.000000
0.388215 0.578639 0.000000
0.426692 0.577804 0.000000
0.465182 0.576969 0.000000
0.503685 0.576135 0.000000
0.542201 0.575301 0.000000
0.580731 0.574467 0.000000
0.619275 0.573633 0.000000
0.657832 0.572800 0.000000
0.696404 0.571967 0.000000
0.734991 0.571134 0.000000
0.773592 0.570301 0.000000
0.812208 0.569469 0.000000
0.850840 0.568637 0.000000
0.889486 0.567805 0.000000
0.926053 0.567022 0.000000
0.961910 0.566255 0.000000
0.997656 0.565491 0.000000
1.000000 0.564731 0.000000
1.000000 0.564528 0.000000
1.000000 0.564583 0.000000
0.000000 0.696591 0.000000
0.000000 0.696635 0.000000
0.000000 0.696402 0.000000
0.000000 0.695571 0.000000
0.033838 0.694740 0.000000
0.072229 0.693911 0.000000
0.110630 0.693081 0.000000
0.149044 0.692252 0.000000
0.187469 0.691423 0.000000
0.225906 0.690595 0.000000
0.270316 0.616470 0.000000
0.308778 0.615637 0.000000
0.347253 0.614804 0.000000
0.385742 0.613972 0.000000
0.424243 0.613140 0.000000
0.462758 0.612309 0.000000
0.501286 0.611477 0.000000
0.539828 0.610646 0.000000
0.578385 0.609816 0.000000
0.616955 0.608985 0.000000
0.655540 0.608155 0.000000
0.694140 0.607326 0.000000
0.732755 0.606496 0.000000
0.771386 0.605667 0.000000
0.810031 0.604838 0.000000
0.848693 0.604010 0.000000
0.887370 0.603181 0.000000
0.923804 0.602405 0.000000
0.959476 0.601646 0.000000
0.995033 0.600891 0.000000
1.000000 0.600139 0.000000
1.000000 0.599942 0.000000
1.000000 0.600001 0.000000
0.000000 0.736048 0.000000
0.000000 0.736096 0.000000
0.000000 0.735867 0.000000
0.000000 0.735040 0.000000
0.030839 0.734213 0.000000
0.069250 0.733387 0.000000
0.107673 0.732561 0.000000
0.146108 0.731736 0.000000
0.184555 0.730911 0.000000
0.223015 0.730086 0.000000
0.267786 0.651811 0.000000
0.306272 0.650981 0.000000
0.344771 0.650152 0.000000
0.383284 0.649323 0.000000
0.421811 0.648495 0.000000
0.460351 0.647667 0.000000
0.498906 0.646839 0.000000
0.537475 0.646011 0.000000
0.576059 0.645184 0.000000
0.614657 0.644357 0.000000
0.653271 0.643531 0.000000
0.691900 0.642704 0.000000
0.730544 0.641878 0.000000
0.769204 0.641053 0.000000
0.807880 0.640227 0.000000
0.846572 0.639402 0.000000
0.885281 0.638577 0.000000
0.921576 0.637808 0.000000
0.957056 0.637058 0.000000
0.992417 0.636312 0.000000
1.000000 0.635569 0.000000
1.000000 0.635377 0.000000
1.000000 0.635441 0.000000
0.000000 0.775525 0.000000
0.000000 0.775577 0.000000
0.000000 0.775352 0.000000
0.000000 0.774528 0.000000
0.027848 0.773705 0.000000
0.066280 0.772883 0.000000
0.104725 0.772061 0.000000
0.143183 0.771240 0.000000
0.181653 0.770419 0.000000
0.220137 0.769598 0.000000
0.258633 0.768778 0.000000
0.303780 0.686345 0.000000
0.342305 0.685519 0.000000
0.380843 0.684694 0.000000
0.419396 0.683869 0.000000
0.457963 0.683044 0.000000
0.496545 0.682220 0.000000
0.535142 0.681396 0.000000
0.573753 0.680572 0.000000
0.612381 0.679749 0.000000
0.651023 0.678926 0.000000
0.689682 0.678103 0.000000
0.728357 0.677281 0.000000
0.767047 0.676459 0.000000
0.805755 0.675637 0.000000
0.844479 0.674815 0.000000
0.883220 0.673994 0.000000
0.919371 0.673233 0.000000
0.954651 0.672492 0.000000
0.989809 0.671755 0.000000
1.000000 0.671021 0.000000
1.000000 0.670835 0.000000
1.000000 0.670904 0.000000
0.000000 0.815022 0.000000
0.000000 0.815079 0.000000
0.000000 0.814857 0.000000
0.000000 0.814038 0.000000
0.024865 0.813219 0.000000
0.063320 0.812401 0.000000
0.101788 0.811583 0.000000
0.140269 0.810765 0.000000
0.178763 0.809949 0.000000
0.217271 0.809132 0.000000
0.255793 0.808316 0.000000
0.301303 0.721728 0.000000
0.339853 0.720906 0.000000
0.378418 0.720085 0.000000
0.416998 0.719263 0.000000
0.455593 0.718442 0.000000
0.494203 0.717622 0.000000
0.532828 0.716801 0.000000
0.571469 0.715981 0.000000
0.610125 0.715162 0.000000
0.648798 0.714342 0.000000
0.687487 0.713523 0.000000
0.726193 0.712704 0.000000
0.764915 0.711886 0.000000
0.803655 0.711068 0.000000
0.842411 0.710250 0.000000
0.881185 0.709433 0.000000
0.917187 0.708679 0.000000
0.952261 0.707948 0.000000
0.987208 0.707220 0.000000
1.000000 0.706496 0.000000
1.000000 0.706316 0.000000
1.000000 0.706389 0.000000
0.000000 0.854540 0.000000
0.000000 0.854601 0.000000
0.000000 0.854385 0.000000
0.000000 0.853569 0.000000
0.021891 0.852755 0.000000
0.060369 0.851941 0.000000
0.098860 0.851127 0.000000
0.137366 0.850314 0.000000
0.175885 0.849501 0.000000
0.214418 0.848689 0.000000
0.252965 0.847877 0.000000
0.291527 0.847065 0.000000
0.337417 0.756314 0.000000
0.376010 0.755496 0.000000
0.414617 0.754678 0.000000
0.453240 0.753861 0.000000
0.491879 0.753044 0.000000
0.530534 0.752228 0.000000
0.569204 0.751412 0.000000
0.607891 0.750596 0.000000
0.646595 0.749780 0.000000
0.685315 0.748965 0.000000
0.724053 0.748150 0.000000
0.762808 0.747336 0.000000
0.801580 0.746521 0.000000
0.840370 0.745708 0.000000
0.879178 0.744894 0.000000
0.915026 0.744149 0.000000
0.949886 0.743427 0.000000
0.984615 0.742709 0.000000
1.000000 0.741994 0.000000
1.000000 0.741821 0.000000
1.000000 0.741899 0.000000
0.000000 0.894081 0.000000
0.000000 0.894147 0.000000
0.000000 0.893934 0.000000
0.000000 0.893124 0.000000
0.018925 0.892313 0.000000
0.057427 0.891503 0.000000
0.095943 0.890694 0.000000
0.134473 0.889885 0.000000
0.173018 0.889077 0.000000
0.211577 0.888269 0.000000
0.250151 0.887461 0.000000
0.288740 0.886654 0.000000
0.334997 0.791743 0.000000
0.373617 0.790929 0.000000
0.412253 0.790115 0.000000
0.450906 0.789302 0.000000
0.489574 0.788489 0.000000
0.528259 0.787676 0.000000
0.566960 0.786864 0.000000
0.605678 0.786052 0.000000
0.644414 0.785241 0.000000
0.683166 0.784430 0.000000
0.721937 0.783619 0.000000
0.760725 0.782808 0.000000
0.799531 0.781998 0.000000
0.838355 0.781188 0.000000
0.877198 0.780379 0.000000
0.912886 0.779642 0.000000
0.947525 0.778930 0.000000
0.982029 0.778222 0.000000
1.000000 0.777518 0.000000
1.000000 0.777351 0.000000
1.000000 0.777434 0.000000
0.000000 0.933644 0.000000
0.000000 0.933715 0.000000
0.000000 0.933508 0.000000
0.000000 0.932701 0.000000
0.015967 0.931895 0.000000
0.054494 0.931090 0.000000
0.093036 0.930285 0.000000
0.131592 0.929480 0.000000
0.170163 0.928677 0.000000
0.208749 0.927873 0.000000
0.247350 0.927070 0.000000
0.285967 0.926268 0.000000
0.324600 0.925466 0.000000
0.371241 0.826384 0.000000
0.409906 0.825575 0.000000
0.448589 0.824765 0.000000
0.487288 0.823957 0.000000
0.526003 0.823148 0.000000
0.564736 0.822340 0.000000
0.603487 0.821532 0.000000
0.642255 0.820725 0.000000
0.681040 0.819917 0.000000
0.719844 0.819111 0.000000
0.758666 0.818304 0.000000
0.797507 0.817498 0.000000
0.836366 0.816693 0.000000
0.875244 0.815887 0.000000
0.910767 0.815159 0.000000
0.945179 0.814458 0.000000
0.979450 0.813760 0.000000
1.000000 0.813066 0.000000
1.000000 0.812906 0.000000
1.000000 0.812995 0.000000
0.000000 0.973232 0.000000
0.000000 0.973308 0.000000
0.000000 0.973105 0.000000
0.000000 0.972303 0.000000
0.013017 0.971502 0.000000
0.051570 0.970701 0.000000
0.090138 0.969901 0.000000
0.128721 0.969101 0.000000
0.167319 0.968302 0.000000
0.205933 0.967503 0.000000
0.244563 0.966705 0.000000
0.283209 0.965907 0.000000
0.321871 0.965110 0.000000
0.368880 0.861863 0.000000
0.407576 0.861057 0.000000
0.446289 0.860252 0.000000
0.485020 0.859448 0.000000
0.523767 0.858643 0.000000
0.562533 0.857839 0.000000
