library/cube/Azure_Escape_003.cube
# CINEGRADE LAB — Premium Cinematic LUT
# Title: Azure Escape
# Category: Luxury Travel
# Description: Golden hour tones, rich landscapes, and vivid colors for travel content
# Mood: Wanderlust, golden, rich
# Variant: 4
# Generated: 2026-05-21T16:12:24.604402
TITLE "Azure Escape"
LUT_3D_SIZE 9
0.000000 0.000000 0.000000
0.088433 0.000000 0.000000
0.241075 0.000000 0.000000
0.393756 0.000000 0.000000
0.546489 0.000000 0.000000
0.699290 0.000000 0.000000
0.852173 0.000000 0.000000
1.000000 0.000000 0.000000
1.000000 0.000000 0.000000
0.000000 0.106494 0.000000
0.080812 0.093291 0.000000
0.233561 0.089820 0.000000
0.386382 0.086353 0.000000
0.539287 0.082888 0.000000
0.692293 0.079425 0.000000
0.845413 0.075965 0.000000
0.997584 0.072530 0.000000
1.000000 0.070587 0.000000
0.000000 0.263607 0.000000
0.069670 0.233907 0.000000
0.222580 0.230460 0.000000
0.375594 0.227017 0.000000
0.528726 0.223577 0.000000
0.681990 0.220140 0.000000
0.835401 0.216706 0.000000
0.987084 0.213318 0.000000
1.000000 0.211432 0.000000
0.000000 0.420867 0.000000
0.055080 0.418927 0.000000
0.211804 0.371249 0.000000
0.365066 0.367839 0.000000
0.518478 0.364433 0.000000
0.672055 0.361030 0.000000
0.825812 0.357631 0.000000
0.976831 0.354302 0.000000
1.000000 0.352490 0.000000
0.000000 0.578329 0.000000
0.042889 0.576436 0.000000
0.201230 0.512236 0.000000
0.354793 0.508867 0.000000
0.508539 0.505503 0.000000
0.662483 0.502143 0.000000
0.816639 0.498788 0.000000
0.966823 0.495532 0.000000
1.000000 0.493810 0.000000
0.000000 0.736048 0.000000
0.030839 0.734213 0.000000
0.184555 0.730911 0.000000
0.344771 0.650152 0.000000
0.498906 0.646839 0.000000
0.653271 0.643531 0.000000
0.807880 0.640227 0.000000
0.957056 0.637058 0.000000
1.000000 0.635441 0.000000
0.000000 0.894081 0.000000
0.018925 0.892313 0.000000
0.173018 0.889077 0.000000
0.334997 0.791743 0.000000
0.489574 0.788489 0.000000
0.644414 0.785241 0.000000
0.799531 0.781998 0.000000
0.947525 0.778930 0.000000
1.000000 0.777434 0.000000
0.000000 1.000000 0.000000
0.008724 1.000000 0.000000
0.163278 1.000000 0.000000
0.318100 1.000000 0.000000
0.480539 0.930503 0.000000
0.635908 0.927324 0.000000
0.791587 0.924150 0.000000
0.938227 0.921196 0.000000
1.000000 0.919838 0.000000
0.000000 1.000000 0.000000
0.009993 1.000000 0.000000
0.165040 1.000000 0.000000
0.320387 1.000000 0.000000
0.476048 1.000000 0.000000
0.632038 1.000000 0.000000
0.788371 1.000000 0.000000
0.933524 1.000000 0.000000
1.000000 1.000000 0.000000
0.000000 0.000000 0.120952
0.087513 0.000000 0.118928
0.240164 0.000000 0.115433
0.392856 0.000000 0.111934
0.545604 0.000000 0.108432
0.698424 0.000000 0.104925
0.851328 0.000000 0.101414
1.000000 0.000000 0.097910
1.000000 0.000000 0.095883
0.000000 0.094377 0.113185
0.079909 0.092372 0.111150
0.232672 0.088903 0.107644
0.385509 0.085437 0.104133
0.538436 0.081973 0.100617
0.691465 0.078512 0.097097
0.844612 0.075052 0.093571
0.996743 0.071620 0.090065
1.000000 0.069681 0.088045
0.000000 0.262697 0.099452
0.066528 0.260722 0.097405
0.221712 0.229553 0.096139
0.374749 0.226111 0.092614
0.527907 0.222673 0.089083
0.681201 0.219238 0.085546
0.834645 0.215805 0.082002
0.986268 0.212420 0.078498
1.000000 0.210539 0.076489
0.000000 0.419971 0.086589
0.054208 0.418033 0.084528
0.210958 0.370354 0.084591
0.364248 0.366946 0.081049
0.517692 0.363542 0.077500
0.671304 0.360142 0.073945
0.825099 0.356744 0.070383
0.976042 0.353420 0.066883
1.000000 0.351614 0.064891
0.000000 0.577450 0.073680
0.042033 0.575560 0.071603
0.195457 0.572205 0.068048
0.354002 0.507992 0.069435
0.507786 0.504630 0.065867
0.661770 0.501273 0.062291
0.815970 0.497920 0.058708
0.966061 0.494669 0.055215
1.000000 0.492954 0.053245
0.000000 0.735191 0.060721
0.029998 0.733359 0.058627
0.183751 0.730061 0.055052
0.344007 0.649297 0.057768
0.498185 0.645987 0.054178
0.652596 0.642681 0.050580
0.807255 0.639381 0.046973
0.956320 0.636218 0.043491
1.000000 0.634610 0.041549
0.000000 0.893249 0.047708
0.018100 0.891486 0.045595
0.172235 0.888253 0.041997
0.326607 0.885028 0.038390
0.488885 0.787662 0.042430
0.643777 0.784417 0.038807
0.798949 0.781177 0.035174
0.946815 0.778116 0.031706
1.000000 0.776630 0.029797
0.000000 1.000000 0.036197
0.007925 1.000000 0.034094
0.162527 1.000000 0.030502
0.317399 1.000000 0.026901
0.479883 0.929704 0.030618
0.635309 0.926528 0.026968
0.791048 0.923358 0.023309
0.937543 0.920413 0.019857
1.000000 0.919065 0.017986
0.000000 1.000000 0.035980
0.009212 1.000000 0.033863
0.164312 1.000000 0.030252
0.319716 1.000000 0.026631
0.475437 1.000000 0.023002
0.631490 1.000000 0.019362
0.787890 1.000000 0.015712
0.932880 1.000000 0.012321
1.000000 1.000000 0.010534
0.000000 0.000000 0.265470
0.086415 0.000000 0.263441
0.239075 0.000000 0.259939
0.391779 0.000000 0.256431
0.544543 0.000000 0.252916
0.697381 0.000000 0.249394
0.850308 0.000000 0.245865
1.000000 0.000000 0.242342
1.000000 0.000000 0.240293
0.000000 0.093277 0.257678
0.078827 0.091274 0.255630
0.231604 0.087806 0.252107
0.384460 0.084341 0.248577
0.537407 0.080879 0.245040
0.690461 0.077419 0.241495
0.843636 0.073960 0.237942
0.995724 0.070531 0.234408
1.000000 0.068595 0.232357
0.000000 0.233887 0.246144
0.067717 0.231909 0.244074
0.220667 0.228466 0.240529
0.373727 0.225026 0.236975
0.526911 0.221589 0.233413
0.680235 0.218156 0.229842
0.833713 0.214724 0.226263
0.985276 0.211343 0.222721
1.000000 0.209467 0.220674
0.000000 0.418896 0.230940
0.053158 0.416961 0.228847
0.206333 0.413561 0.225275
0.363253 0.365875 0.225296
0.516729 0.362473 0.221708
0.670377 0.359074 0.218109
0.824211 0.355679 0.214501
0.975077 0.352359 0.210956
1.000000 0.350559 0.208917
0.000000 0.576393 0.217914
0.040999 0.574507 0.215796
0.194454 0.571154 0.212197
0.353034 0.506938 0.213538
0.506856 0.503579 0.209920
0.660881 0.500224 0.206292
0.815126 0.496873 0.202654
0.965122 0.493628 0.199107
1.000000 0.491920 0.197082
0.000000 0.734156 0.204807
0.028980 0.732328 0.202663
0.182770 0.729033 0.199034
0.336766 0.725744 0.195395
0.497288 0.644957 0.198047
0.651745 0.641654 0.194387
0.806454 0.638357 0.190716
0.955407 0.635201 0.187171
1.000000 0.633601 0.185165
0.000000 0.892239 0.191615
0.017097 0.890480 0.189443
0.171275 0.887252 0.185782
0.325692 0.884031 0.182110
0.488021 0.786656 0.186083
0.642965 0.783415 0.182390
0.798192 0.780179 0.178684
0.945929 0.777126 0.175143
1.000000 0.775649 0.173162
0.000000 1.000000 0.179905
0.006948 1.000000 0.177733
0.161599 1.000000 0.174070
0.316523 1.000000 0.170395
0.471735 1.000000 0.166709
0.634535 0.925555 0.170296
0.790335 0.922389 0.166553
0.936683 0.919452 0.163021
1.000000 0.918115 0.161069
0.000000 1.000000 0.179450
0.008254 1.000000 0.177255
0.163408 1.000000 0.173564
0.318869 1.000000 0.169860
0.474650 1.000000 0.166145
0.630767 1.000000 0.162416
0.787234 1.000000 0.158675
0.932061 1.000000 0.155195
1.000000 1.000000 0.153319
0.000000 0.000000 0.409985
0.085318 0.000000 0.407951
0.237987 0.000000 0.404440
0.390705 0.000000 0.400920
0.543485 0.000000 0.397391
0.696343 0.000000 0.393852
0.849292 0.000000 0.390303
1.000000 0.000000 0.386759
1.000000 0.000000 0.384686
0.000000 0.092178 0.402163
0.077746 0.090177 0.400100
0.230539 0.086710 0.396559
0.383413 0.083246 0.393008
0.536382 0.079785 0.389447
0.689461 0.076326 0.385876
0.842665 0.072869 0.382294
0.994707 0.069442 0.378730
1.000000 0.067510 0.376647
0.000000 0.232797 0.390567
0.066653 0.230821 0.388473
0.219623 0.227379 0.384900
0.372707 0.223941 0.381317
0.525919 0.220506 0.377722
0.679274 0.217074 0.374116
0.832785 0.213645 0.370498
0.984286 0.210267 0.366918
1.000000 0.208396 0.364830
0.000000 0.373558 0.378869
0.055710 0.371616 0.376744
0.208912 0.368208 0.373137
0.362261 0.364804 0.369518
0.515770 0.361404 0.365887
0.669454 0.358008 0.362244
0.823327 0.354615 0.358589
0.974114 0.351300 0.354995
1.000000 0.349506 0.352908
0.000000 0.514511 0.367067
0.039966 0.573454 0.359961
0.193454 0.570105 0.356316
0.347119 0.566761 0.352658
0.505929 0.502528 0.353940
0.659997 0.499176 0.350258
0.814286 0.495828 0.346562
0.964185 0.492589 0.342959
1.000000 0.490888 0.340877
0.000000 0.733122 0.348860
0.027964 0.731298 0.346664
0.181791 0.728006 0.342980
0.335828 0.724721 0.339283
0.496394 0.643928 0.341875
0.650899 0.640629 0.338152
0.805659 0.637334 0.334415
0.954497 0.634185 0.330805
1.000000 0.632593 0.328733
0.000000 0.891231 0.335483
0.016097 0.889477 0.333250
0.170317 0.886252 0.329525
0.324781 0.883035 0.325786
0.479502 0.879826 0.322032
0.642157 0.782415 0.325924
0.797441 0.779182 0.322143
0.945046 0.776136 0.318529
1.000000 0.774670 0.316473
0.000000 1.000000 0.323567
0.005974 1.000000 0.321326
0.160673 1.000000 0.317589
0.315650 1.000000 0.313839
0.470918 1.000000 0.310074
0.633765 0.924584 0.313569
0.789628 0.921422 0.309742
0.935826 0.918494 0.306127
1.000000 0.917168 0.304092
0.000000 1.000000 0.322869
0.007298 1.000000 0.320595
0.162507 1.000000 0.316821
0.318025 1.000000 0.313033
0.473868 1.000000 0.309229
0.630049 1.000000 0.305410
0.786584 1.000000 0.301575
0.931245 1.000000 0.298005
1.000000 1.000000 0.296039
0.000000 0.000000 0.554498
0.084223 0.000000 0.552456
0.236903 0.000000 0.548935
0.389633 0.000000 0.545401
0.542430 0.000000 0.541856
0.695308 0.000000 0.538298
0.848281 0.000000 0.534727
1.000000 0.000000 0.531160
1.000000 0.000000 0.529062
0.000000 0.091080 0.546639
0.076668 0.089080 0.544559
0.229476 0.085614 0.540998
0.382369 0.082152 0.537425
0.535360 0.078692 0.533838
0.688465 0.075234 0.530239
0.841698 0.071778 0.526626
0.993694 0.068354 0.523030
1.000000 0.066426 0.520914
0.000000 0.231708 0.534975
0.065590 0.229734 0.532855
0.218582 0.226294 0.529253
0.371691 0.222858 0.525637
0.524931 0.219424 0.522008
0.678316 0.215994 0.518364
0.831862 0.212566 0.514706
0.983300 0.209192 0.511086
1.000000 0.207326 0.508956
0.000000 0.372482 0.523179
0.054664 0.370542 0.521018
0.207893 0.367137 0.517373
0.361272 0.363735 0.513713
0.514814 0.360337 0.510038
0.668535 0.356943 0.506348
0.822448 0.353551 0.502643
0.973154 0.350241 0.499001
1.000000 0.348454 0.496863
0.000000 0.513451 0.511247
0.043884 0.511555 0.509043
0.197405 0.508192 0.505352
0.351108 0.504833 0.501646
0.505007 0.501479 0.497924
0.659116 0.498130 0.494187
0.813451 0.494784 0.490433
0.963252 0.491550 0.486771
1.000000 0.489857 0.484630
0.000000 0.654664 0.499175
0.033247 0.652822 0.496927
0.180814 0.726981 0.486889
0.334893 0.723700 0.483132
0.489200 0.720425 0.479359
0.650057 0.639604 0.481875
0.804868 0.636312 0.478070
0.953591 0.633170 0.474393
1.000000 0.631587 0.472254
0.000000 0.890225 0.479311
0.015098 0.888475 0.477015
0.169362 0.885255 0.473224
0.323872 0.882042 0.469416
0.478644 0.878836 0.465591
0.641353 0.781416 0.469410
0.796694 0.778187 0.465552
0.944165 0.775149 0.461862
1.000000 0.773692 0.459730
0.000000 1.000000 0.467183
0.005002 1.000000 0.464871
0.159750 1.000000 0.461059
0.314780 1.000000 0.457231
0.470104 1.000000 0.453386
0.625737 1.000000 0.449524
0.788925 0.920457 0.452873
0.934973 0.917537 0.449174
1.000000 0.916222 0.447055
0.000000 1.000000 0.466235
0.006344 1.000000 0.463881
0.161608 1.000000 0.460023
0.317185 1.000000 0.456147
0.473089 1.000000 0.452254
0.629336 1.000000 0.448343
0.785939 1.000000 0.444413
0.930432 1.000000 0.440750
1.000000 1.000000 0.438691
0.000000 0.000000 0.699007
0.083130 0.000000 0.696955
0.235820 0.000000 0.693422
0.388565 0.000000 0.689873
0.541379 0.000000 0.686310
0.694277 0.000000 0.682731
0.847274 0.000000 0.679137
0.999625 0.000000 0.675544
1.000000 0.000000 0.673420
0.000000 0.089982 0.691105
0.075591 0.087983 0.689006
0.228416 0.084519 0.685423
0.381328 0.081058 0.681826
0.534342 0.077599 0.678212
0.687473 0.074143 0.674583
0.840735 0.070687 0.670937
0.992683 0.067267 0.667307
1.000000 0.065343 0.665156
0.000000 0.230620 0.679367
0.064530 0.228647 0.677219
0.217543 0.225209 0.673586
0.370677 0.221775 0.669937
0.523945 0.218343 0.666271
0.677363 0.214914 0.662588
0.830944 0.211488 0.658888
0.982316 0.208118 0.655225
1.000000 0.206257 0.653051
0.000000 0.371407 0.667466
0.053619 0.369470 0.665268
0.206876 0.366066 0.661582
0.360285 0.362667 0.657880
0.513862 0.359271 0.654159
0.667620 0.355878 0.650421
0.821574 0.352489 0.646665
0.972196 0.349184 0.642971
1.000000 0.347402 0.640781
0.000000 0.512392 0.655399
0.042855 0.510500 0.653149
0.196410 0.507139 0.649408
0.350149 0.503783 0.645650
0.504087 0.500432 0.641873
0.658240 0.497084 0.638078
0.812621 0.493741 0.634263
0.962322 0.490513 0.630542
1.000000 0.488828 0.628340
0.000000 0.653626 0.643160
0.032235 0.651787 0.640857
0.186140 0.648477 0.637060
0.340263 0.645174 0.633244
0.494618 0.641875 0.629409
0.649219 0.638581 0.625554
0.804082 0.635292 0.621679
0.952687 0.632157 0.617934
1.000000 0.630582 0.615725
0.000000 0.795157 0.630747
0.021753 0.793380 0.628389
0.176063 0.790131 0.624533
0.322967 0.881050 0.613001
0.477789 0.877848 0.609102
0.632891 0.874653 0.605183
0.795951 0.777193 0.608908
0.943288 0.774163 0.605142
1.000000 0.772716 0.602932
0.000000 0.937036 0.618155
0.004031 1.000000 0.608367
0.158830 1.000000 0.604479
0.313913 1.000000 0.600571
0.469294 1.000000 0.596644
0.624987 1.000000 0.592696
0.788226 0.919493 0.595947
0.934122 0.916582 0.592162
1.000000 0.915278 0.589956
0.000000 1.000000 0.609548
0.005392 1.000000 0.607111
0.160712 1.000000 0.603168
0.316348 1.000000 0.599204
0.472314 1.000000 0.595219
0.628626 1.000000 0.591213
0.785298 1.000000 0.587187
0.929622 1.000000 0.583429
1.000000 1.000000 0.581276
0.000000 0.000000 0.843512
0.082039 0.000000 0.841448
0.234740 0.000000 0.837900
0.387499 0.000000 0.834335
0.540331 0.000000 0.830751
0.693251 0.000000 0.827150
0.846272 0.000000 0.823531
0.998590 0.000000 0.819911
1.000000 0.000000 0.817758
0.000000 0.088884 0.835560
0.074516 0.086887 0.833440
0.227357 0.083425 0.829834
0.380290 0.079965 0.826210
0.533328 0.076507 0.822568
0.686485 0.073052 0.818906
0.839777 0.069598 0.815226
0.991675 0.066180 0.811561
1.000000 0.064260 0.809372
0.000000 0.229532 0.823742
0.063471 0.227562 0.821564
0.216507 0.224125 0.817898
0.369666 0.220693 0.814214
0.522964 0.217263 0.810509
0.676414 0.213835 0.806786
0.830030 0.210411 0.803042
0.981335 0.207045 0.799334
1.000000 0.205189 0.797115
0.000000 0.370333 0.811730
0.052576 0.368398 0.809493
0.205861 0.364996 0.805765
0.359302 0.361599 0.802018
0.512913 0.358205 0.798250
0.666709 0.354815 0.794462
0.820704 0.351428 0.790652
0.971242 0.348127 0.786906
1.000000 0.346353 0.784661
0.000000 0.511335 0.799521
0.041829 0.509445 0.797223
0.195417 0.506087 0.793431
0.349193 0.502734 0.789619
0.503171 0.499385 0.785785
0.657368 0.496040 0.781930
0.811796 0.492699 0.778054
0.961394 0.489477 0.774271
1.000000 0.487799 0.772006
0.000000 0.652589 0.787110
0.031224 0.650753 0.784750
0.185169 0.647447 0.780892
0.339334 0.644146 0.777013
0.493735 0.640851 0.773111
0.648385 0.637560 0.769188
0.803300 0.634274 0.765242
0.951786 0.631145 0.761426
1.000000 0.629579 0.759146
0.000000 0.794144 0.774494
0.020759 0.792371 0.772069
0.175114 0.789126 0.768143
0.329722 0.785886 0.764195
0.484599 0.782653 0.760224
0.639758 0.779424 0.756230
0.795214 0.776201 0.752212
0.942414 0.773179 0.748366
1.000000 0.771742 0.746077
0.000000 0.936050 0.761668
0.010427 0.934349 0.759178
0.165248 0.931173 0.755182
0.320354 0.928003 0.751163
0.468487 1.000000 0.739846
0.624241 1.000000 0.735812
0.780326 1.000000 0.731754
0.933274 0.915630 0.735089
1.000000 0.914337 0.732795
0.000000 1.000000 0.752808
0.004442 1.000000 0.750286
0.159818 1.000000 0.746255
0.315514 1.000000 0.742200
0.471543 1.000000 0.738123
0.627922 1.000000 0.734021
0.784663 1.000000 0.729895
0.928816 1.000000 0.726042
1.000000 1.000000 0.723793
0.000000 0.000000 0.988011
0.080949 0.000000 0.985934
0.233662 0.000000 0.982370
0.386436 0.000000 0.978785
0.539287 0.000000 0.975180
0.692228 0.000000 0.971554
0.845274 0.000000 0.967908
0.997558 0.000000 0.964259
1.000000 0.000000 0.962076
0.000000 0.087787 0.980003
0.073442 0.085792 0.977861
0.226301 0.082331 0.974230
0.379254 0.078872 0.970577
0.532316 0.075416 0.966904
0.685501 0.071961 0.963209
0.838824 0.068509 0.959492
0.990671 0.065094 0.955790
1.000000 0.063178 0.953563
0.000000 0.228445 0.968099
0.062413 0.226477 0.965889
0.215473 0.223042 0.962189
0.368659 0.219611 0.958467
0.521986 0.216183 0.954723
0.675468 0.212757 0.950956
0.829121 0.209334 0.947166
0.980357 0.205972 0.943413
1.000000 0.204122 0.941146
0.000000 0.369259 0.955970
0.051536 0.367327 0.953692
0.204849 0.363928 0.949921
0.358322 0.360533 0.946126
0.511968 0.357141 0.942309
0.665802 0.353753 0.938469
0.819839 0.350368 0.934604
0.970291 0.347072 0.930803
1.000000 0.345304 0.928503
0.000000 0.510279 0.943613
0.040804 0.508392 0.941265
0.194426 0.505037 0.937420
0.348239 0.501686 0.933552
0.502259 0.498340 0.929660
0.656499 0.494997 0.925743
0.810975 0.491659 0.921802
0.960469 0.488443 0.917956
1.000000 0.486773 0.915627
0.000000 0.651554 0.931023
0.030216 0.649721 0.928604
0.184200 0.646418 0.924684
0.338408 0.643121 0.920739
0.492855 0.639828 0.916770
0.647555 0.636540 0.912776
0.802523 0.633257 0.908756
0.950888 0.630135 0.904869
1.000000 0.628578 0.902516
0.000000 0.793133 0.918198
0.019766 0.791364 0.915705
0.174167 0.788122 0.911708
0.328824 0.784886 0.907685
0.483752 0.781656 0.903637
0.638967 0.778431 0.899563
0.794481 0.775211 0.895462
0.941543 0.772197 0.891536
1.000000 0.770770 0.889165
0.000000 0.935067 0.905132
0.009451 0.933370 0.902564
0.164322 0.930198 0.898487
0.319483 0.927032 0.894385
0.474947 0.923873 0.890255
0.630729 0.920719 0.886099
0.786844 0.917572 0.881916
0.932430 0.914679 0.877954
1.000000 0.913397 0.875570
0.000000 1.000000 0.896013
0.003495 1.000000 0.893405
0.158927 1.000000 0.889284
0.314683 1.000000 0.885137
0.470776 1.000000 0.880964
0.627221 1.000000 0.876764
0.784033 1.000000 0.872538
0.928013 1.000000 0.868587
1.000000 1.000000 0.866240
0.000000 0.000000 1.000000
0.080041 0.000000 1.000000
0.232766 0.000000 1.000000
0.385556 0.000000 1.000000
0.538426 0.000000 1.000000
0.691390 0.000000 1.000000
0.844462 0.000000 1.000000
0.996709 0.000000 1.000000
1.000000 0.000000 1.000000
0.000000 0.086871 1.000000
0.072550 0.084877 1.000000
0.225428 0.081418 1.000000
0.378402 0.077960 1.000000
0.531489 0.074505 1.000000
0.684702 0.071052 1.000000
0.838056 0.067600 1.000000
0.989848 0.064189 1.000000
1.000000 0.062277 1.000000
0.000000 0.227539 1.000000
0.061538 0.225573 1.000000
0.214621 0.222140 1.000000
0.367834 0.218711 1.000000
0.521191 0.215284 1.000000
0.674707 0.211860 1.000000
0.828397 0.208438 1.000000
0.979561 0.205080 1.000000
1.000000 0.203236 1.000000
0.000000 0.368367 1.000000
0.050676 0.366437 1.000000
0.204019 0.363040 1.000000
0.357524 0.359647 1.000000
0.511206 0.356258 1.000000
0.665079 0.352871 1.000000
0.819159 0.349488 1.000000
0.969522 0.346197 1.000000
1.000000 0.344436 1.000000
0.000000 0.509404 1.000000
0.039961 0.507520 1.000000
0.193618 0.504167 1.000000
0.347469 0.500819 1.000000
0.501530 0.497475 1.000000
0.655815 0.494135 1.000000
0.810338 0.490799 1.000000
0.959727 0.487589 1.000000
1.000000 0.485926 1.000000
0.000000 0.650699 1.000000
0.029389 0.648870 1.000000
0.183413 0.645570 1.000000
0.337665 0.642276 1.000000
0.492159 0.638986 1.000000
0.646909 0.635701 1.000000
0.801931 0.632420 1.000000
0.950172 0.629305 1.000000
1.000000 0.627757 1.000000
0.000000 0.792303 1.000000
0.018955 0.790538 1.000000
0.173402 0.787299 1.000000
0.328108 0.784067 1.000000
0.483089 0.780840 1.000000
0.638359 0.777618 1.000000
0.793932 0.774402 1.000000
0.940854 0.771395 1.000000
1.000000 0.769978 1.000000
0.000000 0.934265 1.000000
0.008656 0.932572 1.000000
0.163579 0.929404 1.000000
0.318793 0.926242 1.000000
0.474315 0.923086 1.000000
0.630159 0.919937 1.000000
0.786339 0.916793 1.000000
0.931767 0.913908 0.997433
1.000000 0.912638 0.994973
0.000000 1.000000 1.000000
0.002728 1.000000 1.000000
0.158218 1.000000 1.000000
0.314034 1.000000 1.000000
0.470191 1.000000 1.000000
0.626703 1.000000 0.996140
0.783585 1.000000 0.991826
0.927391 1.000000 0.987791
1.000000 1.000000 0.985361
