library/cube/Beat_Drop_004.cube
# CINEGRADE LAB — Premium Cinematic LUT
# Title: Beat Drop
# Category: Music Video Looks
# Description: Stylized, dramatic, high-impact looks inspired by music video grading
# Mood: Dynamic, stylized, intense
# Variant: 5
# Generated: 2026-05-21T16:12:40.791612
TITLE "Beat Drop"
LUT_3D_SIZE 5
0.000000 0.000000 0.000000
0.170467 0.000000 0.000000
0.531925 0.000000 0.000000
0.902901 0.000000 0.000000
1.000000 0.000000 0.000000
0.000000 0.169723 0.000000
0.152411 0.162843 0.000000
0.528947 0.147742 0.000000
0.913662 0.132291 0.000000
1.000000 0.124982 0.000000
0.000000 0.526709 0.000000
0.104992 0.520285 0.000000
0.494336 0.505337 0.000000
0.889088 0.490103 0.000000
1.000000 0.483519 0.000000
0.000000 0.888368 0.000000
0.056511 0.882104 0.000000
0.456502 0.867060 0.000000
0.857585 0.851857 0.000000
1.000000 0.845815 0.000000
0.000000 1.000000 0.000000
0.036722 1.000000 0.000000
0.445314 1.000000 0.000000
0.849502 1.000000 0.000000
1.000000 1.000000 0.000000
0.000000 0.000000 0.202878
0.168548 0.000000 0.195154
0.531647 0.000000 0.179489
0.904126 0.000000 0.163432
1.000000 0.000000 0.155025
0.000000 0.167145 0.174510
0.150453 0.160239 0.166388
0.528403 0.145085 0.150033
0.914318 0.129589 0.133349
1.000000 0.122290 0.124878
0.000000 0.524413 0.117186
0.102986 0.517951 0.108677
0.493523 0.502942 0.091693
0.889100 0.487661 0.074512
1.000000 0.481087 0.066111
0.000000 0.886239 0.059130
0.054477 0.879924 0.050331
0.455439 0.864810 0.032865
0.856979 0.849559 0.015393
1.000000 0.843525 0.007271
0.000000 1.000000 0.030010
0.034720 1.000000 0.021150
0.444058 1.000000 0.003479
0.848406 1.000000 0.000000
1.000000 1.000000 0.000000
0.000000 0.000000 0.623582
0.163653 0.000000 0.614515
0.528378 0.000000 0.597473
0.902347 0.000000 0.580045
1.000000 0.000000 0.570319
0.000000 0.161615 0.590782
0.145550 0.154693 0.581321
0.524901 0.139495 0.563599
0.911989 0.123965 0.545560
1.000000 0.116689 0.535791
0.000000 0.519192 0.529012
0.098069 0.512700 0.519173
0.489785 0.497639 0.500839
0.886157 0.482323 0.482324
1.000000 0.475770 0.472646
0.000000 0.881209 0.466538
0.049562 0.874852 0.456421
0.451482 0.859679 0.437619
0.853454 0.844390 0.418834
1.000000 0.838375 0.409455
0.000000 1.000000 0.433074
0.029870 1.000000 0.422904
0.439941 1.000000 0.403912
0.844433 1.000000 0.385178
1.000000 1.000000 0.376428
0.000000 0.000000 1.000000
0.158765 0.000000 1.000000
0.525094 0.000000 1.000000
0.900530 0.000000 0.995771
1.000000 0.000000 0.984727
0.000000 0.156096 1.000000
0.140656 0.149158 0.995364
0.521384 0.133918 0.976278
0.909608 0.118355 0.956886
1.000000 0.111103 0.945820
0.000000 0.513975 0.939951
0.093160 0.507455 0.928784
0.486033 0.492343 0.909101
0.883163 0.476993 0.889253
1.000000 0.470462 0.878301
0.000000 0.876178 0.873063
0.044657 0.869780 0.861627
0.447513 0.854548 0.841491
0.849883 0.839223 0.821394
1.000000 0.833229 0.810761
0.000000 1.000000 0.835256
0.025031 1.000000 0.823778
0.435810 1.000000 0.803464
0.840423 1.000000 0.783431
1.000000 1.000000 0.773440
0.000000 0.000000 1.000000
0.156856 0.000000 1.000000
0.524756 0.000000 1.000000
0.901626 0.000000 1.000000
1.000000 0.000000 1.000000
0.000000 0.153537 1.000000
0.138711 0.146574 1.000000
0.520785 0.131283 1.000000
0.910097 0.115680 1.000000
1.000000 0.108444 1.000000
0.000000 0.511680 1.000000
0.091170 0.505123 1.000000
0.485168 0.489953 1.000000
0.883007 0.474560 1.000000
1.000000 0.468045 1.000000
0.000000 0.874033 1.000000
0.042640 0.867584 1.000000
0.446399 0.852285 1.000000
0.849125 0.836916 1.000000
1.000000 0.830935 1.000000
0.000000 1.000000 1.000000
0.023050 1.000000 1.000000
0.434505 1.000000 0.994809
0.839208 1.000000 0.974153
1.000000 1.000000 0.963598
