library/cube/Beat_Drop_004.cube
# CINEGRADE LAB — Premium Cinematic LUT
# Title: Beat Drop
# Category: Music Video Looks
# Description: Stylized, dramatic, high-impact looks inspired by music video grading
# Mood: Dynamic, stylized, intense
# Variant: 5
# Generated: 2026-05-21T16:12:40.791612
TITLE "Beat Drop"
LUT_3D_SIZE 33
0.000000 0.000000 0.000000
0.000000 0.000000 0.000000
0.000002 0.000000 0.000000
0.000004 0.000001 0.000000
0.000007 0.000001 0.000000
0.037500 0.000000 0.000000
0.081662 0.000000 0.000000
0.125984 0.000000 0.000000
0.170467 0.000000 0.000000
0.215108 0.000000 0.000000
0.259905 0.000000 0.000000
0.304859 0.000000 0.000000
0.349968 0.000000 0.000000
0.395230 0.000000 0.000000
0.440644 0.000000 0.000000
0.486209 0.000000 0.000000
0.531925 0.000000 0.000000
0.577789 0.000000 0.000000
0.623800 0.000000 0.000000
0.669958 0.000000 0.000000
0.716261 0.000000 0.000000
0.762708 0.000000 0.000000
0.809298 0.000000 0.000000
0.856029 0.000000 0.000000
0.902901 0.000000 0.000000
0.949831 0.000000 0.000000
0.996670 0.000000 0.000000
1.000000 0.000000 0.000000
1.000000 0.000000 0.000000
1.000000 0.000000 0.000000
1.000000 0.000000 0.000000
1.000000 0.000000 0.000000
1.000000 0.000000 0.000000
0.000005 0.000001 0.000000
0.000009 0.000001 0.000000
0.000013 0.000002 0.000000
0.000018 0.000003 0.000000
0.000025 0.000004 0.000000
0.037749 0.000000 0.000000
0.082181 0.000000 0.000000
0.126771 0.000000 0.000000
0.171518 0.000000 0.000000
0.216420 0.000000 0.000000
0.261477 0.000000 0.000000
0.306687 0.000000 0.000000
0.352049 0.000000 0.000000
0.397562 0.000000 0.000000
0.443224 0.000000 0.000000
0.489035 0.000000 0.000000
0.534993 0.000000 0.000000
0.581097 0.000000 0.000000
0.627346 0.000000 0.000000
0.673739 0.000000 0.000000
0.720274 0.000000 0.000000
0.766951 0.000000 0.000000
0.813767 0.000000 0.000000
0.860723 0.000000 0.000000
0.907816 0.000000 0.000000
0.954905 0.000000 0.000000
1.000000 0.000000 0.000000
1.000000 0.000000 0.000000
1.000000 0.000000 0.000000
1.000000 0.000000 0.000000
1.000000 0.000000 0.000000
1.000000 0.000000 0.000000
1.000000 0.000000 0.000000
0.000021 0.000003 0.000000
0.000027 0.000004 0.000000
0.000035 0.000006 0.000000
0.000043 0.000007 0.000000
0.000052 0.000009 0.000000
0.038006 0.000000 0.000000
0.082703 0.000000 0.000000
0.127555 0.000000 0.000000
0.172561 0.000000 0.000000
0.217721 0.000000 0.000000
0.263032 0.000000 0.000000
0.308494 0.000000 0.000000
0.354105 0.000000 0.000000
0.399864 0.000000 0.000000
0.445770 0.000000 0.000000
0.491822 0.000000 0.000000
0.538018 0.000000 0.000000
0.584358 0.000000 0.000000
0.630840 0.000000 0.000000
0.677463 0.000000 0.000000
0.724226 0.000000 0.000000
0.771128 0.000000 0.000000
0.818167 0.000000 0.000000
0.865343 0.000000 0.000000
0.912654 0.000000 0.000000
0.959877 0.000000 0.000000
1.000000 0.000000 0.000000
1.000000 0.000000 0.000000
1.000000 0.000000 0.000000
1.000000 0.000000 0.000000
1.000000 0.000000 0.000000
1.000000 0.000000 0.000000
1.000000 0.000000 0.000000
0.000046 0.000008 0.000000
0.000056 0.000009 0.000000
0.000066 0.000011 0.000000
0.000078 0.000013 0.000000
0.000090 0.000015 0.000000
0.038268 0.000000 0.000000
0.083226 0.000000 0.000000
0.128336 0.000000 0.000000
0.173598 0.000000 0.000000
0.219010 0.000000 0.000000
0.264571 0.000000 0.000000
0.310280 0.000000 0.000000
0.356135 0.000000 0.000000
0.402136 0.000000 0.000000
0.448282 0.000000 0.000000
0.494570 0.000000 0.000000
0.541001 0.000000 0.000000
0.587572 0.000000 0.000000
0.634283 0.000000 0.000000
0.681132 0.000000 0.000000
0.728118 0.000000 0.000000
0.775241 0.000000 0.000000
0.822499 0.000000 0.000000
0.869890 0.000000 0.000000
0.917414 0.000000 0.000000
0.964745 0.000000 0.000000
1.000000 0.000000 0.000000
1.000000 0.000000 0.000000
1.000000 0.000000 0.000000
1.000000 0.000000 0.000000
1.000000 0.000000 0.000000
1.000000 0.000000 0.000000
1.000000 0.000000 0.000000
0.000082 0.000014 0.000000
0.000095 0.000016 0.000000
0.000109 0.000018 0.000000
0.000123 0.000020 0.000000
0.000139 0.000023 0.000000
0.038537 0.000000 0.000000
0.083751 0.000000 0.000000
0.129115 0.000000 0.000000
0.174627 0.000000 0.000000
0.220287 0.000000 0.000000
0.266094 0.000000 0.000000
0.312045 0.000000 0.000000
0.358141 0.000000 0.000000
0.404380 0.000000 0.000000
0.450760 0.000000 0.000000
0.497281 0.000000 0.000000
0.543941 0.000000 0.000000
0.590739 0.000000 0.000000
0.637674 0.000000 0.000000
0.684745 0.000000 0.000000
0.731950 0.000000 0.000000
0.779289 0.000000 0.000000
0.826761 0.000000 0.000000
0.874363 0.000000 0.000000
0.922096 0.000000 0.000000
0.969506 0.000000 0.000000
1.000000 0.000000 0.000000
1.000000 0.000000 0.000000
1.000000 0.000000 0.000000
1.000000 0.000000 0.000000
1.000000 0.000000 0.000000
1.000000 0.000000 0.000000
1.000000 0.000000 0.000000
0.000000 0.037409 0.000000
0.000000 0.037425 0.000000
0.000000 0.037441 0.000000
0.000000 0.037458 0.000000
0.000000 0.037475 0.000000
0.033030 0.035893 0.000000
0.078493 0.034029 0.000000
0.124104 0.032158 0.000000
0.169861 0.030281 0.000000
0.215762 0.028399 0.000000
0.261808 0.026510 0.000000
0.307996 0.024616 0.000000
0.354325 0.022716 0.000000
0.400795 0.020810 0.000000
0.447404 0.018899 0.000000
0.494150 0.016982 0.000000
0.541034 0.015059 0.000000
0.588052 0.013131 0.000000
0.635206 0.011198 0.000000
0.682492 0.009259 0.000000
0.729910 0.007315 0.000000
0.777460 0.005365 0.000000
0.825139 0.003411 0.000000
0.872946 0.001450 0.000000
0.920881 0.000000 0.000000
0.968339 0.000000 0.000000
1.000000 0.000000 0.000000
1.000000 0.000000 0.000000
1.000000 0.000000 0.000000
1.000000 0.000000 0.000000
1.000000 0.000000 0.000000
1.000000 0.000000 0.000000
1.000000 0.000000 0.000000
0.000000 0.081408 0.000000
0.000000 0.081440 0.000000
0.000000 0.081473 0.000000
0.000000 0.081505 0.000000
0.000000 0.081537 0.000000
0.026509 0.079963 0.000000
0.072217 0.078104 0.000000
0.118070 0.076239 0.000000
0.164066 0.074367 0.000000
0.210205 0.072490 0.000000
0.256484 0.070607 0.000000
0.302904 0.068719 0.000000
0.349463 0.066824 0.000000
0.396159 0.064924 0.000000
0.442991 0.063018 0.000000
0.489959 0.061107 0.000000
0.537061 0.059190 0.000000
0.584296 0.057268 0.000000
0.631663 0.055340 0.000000
0.679160 0.053407 0.000000
0.726787 0.051468 0.000000
0.774542 0.049524 0.000000
0.822424 0.047575 0.000000
0.870432 0.045620 0.000000
0.918565 0.043661 0.000000
0.966036 0.041729 0.000000
1.000000 0.039801 0.000000
1.000000 0.037872 0.000000
1.000000 0.036224 0.000000
1.000000 0.036201 0.000000
1.000000 0.036179 0.000000
1.000000 0.036157 0.000000
1.000000 0.036136 0.000000
0.000000 0.125514 0.000000
0.000000 0.125561 0.000000
0.000000 0.125609 0.000000
0.000000 0.125657 0.000000
0.000000 0.125704 0.000000
0.019978 0.124136 0.000000
0.065927 0.122282 0.000000
0.112018 0.120422 0.000000
0.158249 0.118556 0.000000
0.204620 0.116684 0.000000
0.251130 0.114806 0.000000
0.297777 0.112922 0.000000
0.344560 0.111033 0.000000
0.391479 0.109138 0.000000
0.438531 0.107237 0.000000
0.485716 0.105331 0.000000
0.533032 0.103419 0.000000
0.580479 0.101502 0.000000
0.628054 0.099579 0.000000
0.675758 0.097651 0.000000
0.723589 0.095717 0.000000
0.771546 0.093778 0.000000
0.819627 0.091834 0.000000
0.867831 0.089885 0.000000
0.916158 0.087931 0.000000
0.963609 0.086012 0.000000
1.000000 0.084096 0.000000
1.000000 0.082179 0.000000
1.000000 0.080544 0.000000
1.000000 0.080536 0.000000
1.000000 0.080528 0.000000
1.000000 0.080521 0.000000
1.000000 0.080515 0.000000
0.000000 0.169723 0.000000
0.000000 0.169785 0.000000
0.000000 0.169848 0.000000
0.000000 0.169910 0.000000
0.000000 0.169972 0.000000
0.013439 0.168410 0.000000
0.059624 0.166560 0.000000
0.105948 0.164704 0.000000
0.152411 0.162843 0.000000
0.199010 0.160975 0.000000
0.245746 0.159102 0.000000
0.292616 0.157223 0.000000
0.339619 0.155338 0.000000
0.386756 0.153447 0.000000
0.434023 0.151551 0.000000
0.481421 0.149650 0.000000
0.528947 0.147742 0.000000
0.576601 0.145830 0.000000
0.624382 0.143911 0.000000
0.672288 0.141988 0.000000
0.720319 0.140059 0.000000
0.768473 0.138125 0.000000
0.816749 0.136185 0.000000
0.865145 0.134241 0.000000
0.913662 0.132291 0.000000
0.961058 0.130388 0.000000
1.000000 0.128483 0.000000
1.000000 0.126578 0.000000
1.000000 0.124955 0.000000
1.000000 0.124961 0.000000
1.000000 0.124968 0.000000
1.000000 0.124974 0.000000
1.000000 0.124982 0.000000
0.000000 0.214032 0.000000
0.000000 0.214108 0.000000
0.000000 0.214185 0.000000
0.000000 0.214261 0.000000
0.000000 0.214336 0.000000
0.006892 0.212780 0.000000
0.053309 0.210934 0.000000
0.099862 0.209083 0.000000
0.146551 0.207225 0.000000
0.193374 0.205361 0.000000
0.240331 0.203492 0.000000
0.287420 0.201617 0.000000
0.334640 0.199736 0.000000
0.381990 0.197850 0.000000
0.429469 0.195958 0.000000
0.477075 0.194060 0.000000
0.524807 0.192157 0.000000
0.572664 0.190249 0.000000
0.620646 0.188335 0.000000
0.668751 0.186415 0.000000
0.716977 0.184490 0.000000
0.765324 0.182560 0.000000
0.813790 0.180625 0.000000
0.862375 0.178685 0.000000
0.910976 0.176743 0.000000
0.958381 0.174851 0.000000
1.000000 0.172958 0.000000
1.000000 0.171065 0.000000
1.000000 0.169455 0.000000
1.000000 0.169474 0.000000
1.000000 0.169494 0.000000
1.000000 0.169514 0.000000
1.000000 0.169534 0.000000
0.000000 0.258437 0.000000
0.000000 0.258527 0.000000
0.000000 0.258617 0.000000
0.000000 0.258706 0.000000
0.000000 0.258795 0.000000
0.000337 0.257243 0.000000
0.046981 0.255401 0.000000
0.093760 0.253553 0.000000
0.140671 0.251699 0.000000
0.187714 0.249839 0.000000
0.234888 0.247973 0.000000
0.282192 0.246102 0.000000
0.329624 0.244225 0.000000
0.377183 0.242342 0.000000
0.424868 0.240454 0.000000
0.472678 0.238560 0.000000
0.520612 0.236660 0.000000
0.568669 0.234755 0.000000
0.616847 0.232845 0.000000
0.665146 0.230929 0.000000
0.713563 0.229008 0.000000
0.762099 0.227082 0.000000
0.810752 0.225150 0.000000
0.859520 0.223213 0.000000
0.908180 0.221281 0.000000
0.955578 0.219400 0.000000
1.000000 0.217519 0.000000
1.000000 0.215637 0.000000
1.000000 0.214039 0.000000
1.000000 0.214071 0.000000
1.000000 0.214104 0.000000
1.000000 0.214136 0.000000
1.000000 0.214169 0.000000
0.000000 0.302936 0.000000
0.000000 0.303039 0.000000
0.000000 0.303141 0.000000
0.000000 0.303243 0.000000
0.000000 0.303344 0.000000
0.000000 0.301797 0.000000
0.040643 0.299958 0.000000
0.087642 0.298113 0.000000
0.134771 0.296262 0.000000
0.182030 0.294405 0.000000
0.229416 0.292542 0.000000
0.276930 0.290674 0.000000
0.324570 0.288800 0.000000
0.372334 0.286920 0.000000
0.420222 0.285035 0.000000
0.468232 0.283144 0.000000
0.516364 0.281248 0.000000
0.564616 0.279346 0.000000
0.612986 0.277439 0.000000
0.661474 0.275526 0.000000
0.710079 0.273608 0.000000
0.758800 0.271685 0.000000
0.807634 0.269757 0.000000
0.856582 0.267823 0.000000
0.905273 0.265900 0.000000
0.952649 0.264030 0.000000
1.000000 0.262161 0.000000
1.000000 0.260291 0.000000
1.000000 0.258705 0.000000
1.000000 0.258750 0.000000
1.000000 0.258794 0.000000
1.000000 0.258838 0.000000
1.000000 0.258883 0.000000
0.000000 0.347524 0.000000
0.000000 0.347639 0.000000
0.000000 0.347753 0.000000
0.000000 0.347867 0.000000
0.000000 0.347980 0.000000
0.000000 0.346437 0.000000
0.034293 0.344600 0.000000
0.081508 0.342758 0.000000
0.128852 0.340910 0.000000
0.176321 0.339055 0.000000
0.223917 0.337195 0.000000
0.271637 0.335330 0.000000
0.319480 0.333458 0.000000
0.367445 0.331581 0.000000
0.415532 0.329698 0.000000
0.463738 0.327810 0.000000
0.512062 0.325917 0.000000
0.560505 0.324017 0.000000
0.609063 0.322113 0.000000
0.657737 0.320203 0.000000
0.706525 0.318288 0.000000
0.755426 0.316367 0.000000
0.804439 0.314441 0.000000
0.853562 0.312511 0.000000
0.902256 0.310597 0.000000
0.949594 0.308739 0.000000
0.996912 0.306881 0.000000
1.000000 0.305023 0.000000
1.000000 0.303450 0.000000
1.000000 0.303505 0.000000
1.000000 0.303561 0.000000
1.000000 0.303617 0.000000
1.000000 0.303672 0.000000
0.000000 0.392199 0.000000
0.000000 0.392326 0.000000
0.000000 0.392451 0.000000
0.000000 0.392576 0.000000
0.000000 0.392700 0.000000
0.000000 0.391160 0.000000
0.027933 0.389326 0.000000
0.075361 0.387485 0.000000
0.122913 0.385639 0.000000
0.170590 0.383787 0.000000
0.218390 0.381929 0.000000
0.266312 0.380066 0.000000
0.314354 0.378196 0.000000
0.362516 0.376321 0.000000
0.410797 0.374441 0.000000
0.459195 0.372555 0.000000
0.507708 0.370663 0.000000
0.556337 0.368766 0.000000
0.605080 0.366864 0.000000
0.653935 0.364956 0.000000
0.702902 0.363043 0.000000
0.751979 0.361125 0.000000
0.801165 0.359201 0.000000
0.850460 0.357273 0.000000
0.899129 0.355369 0.000000
0.946413 0.353523 0.000000
0.993668 0.351676 0.000000
1.000000 0.349831 0.000000
1.000000 0.348269 0.000000
1.000000 0.348335 0.000000
1.000000 0.348402 0.000000
1.000000 0.348468 0.000000
1.000000 0.348534 0.000000
0.000000 0.436957 0.000000
0.000000 0.437094 0.000000
0.000000 0.437230 0.000000
0.000000 0.437366 0.000000
0.000000 0.437500 0.000000
0.000000 0.435964 0.000000
0.021564 0.434131 0.000000
0.069199 0.432292 0.000000
0.116957 0.430447 0.000000
0.164837 0.428597 0.000000
0.212837 0.426741 0.000000
0.260956 0.424879 0.000000
0.309194 0.423011 0.000000
0.357548 0.421138 0.000000
0.406018 0.419259 0.000000
0.454604 0.417374 0.000000
0.503302 0.415485 0.000000
0.552113 0.413589 0.000000
0.601035 0.411689 0.000000
0.650068 0.409783 0.000000
0.699209 0.407871 0.000000
0.748458 0.405955 0.000000
0.797814 0.404033 0.000000
0.847276 0.402106 0.000000
0.895892 0.400213 0.000000
0.943106 0.398378 0.000000
0.990282 0.396543 0.000000
1.000000 0.394710 0.000000
1.000000 0.393160 0.000000
1.000000 0.393236 0.000000
1.000000 0.393313 0.000000
1.000000 0.393389 0.000000
1.000000 0.393464 0.000000
0.000000 0.481795 0.000000
0.000000 0.481942 0.000000
0.000000 0.482088 0.000000
0.000000 0.482234 0.000000
0.000000 0.482378 0.000000
0.000000 0.480843 0.000000
0.015185 0.479012 0.000000
0.063024 0.477174 0.000000
0.110983 0.475330 0.000000
0.159061 0.473481 0.000000
0.207257 0.471626 0.000000
0.255570 0.469765 0.000000
0.303998 0.467899 0.000000
0.352541 0.466027 0.000000
0.401197 0.464149 0.000000
0.449965 0.462266 0.000000
0.498845 0.460377 0.000000
0.547834 0.458483 0.000000
0.596931 0.456584 0.000000
0.646137 0.454679 0.000000
0.695449 0.452769 0.000000
0.744866 0.450853 0.000000
0.794387 0.448933 0.000000
0.844011 0.447007 0.000000
0.892544 0.445126 0.000000
0.939673 0.443302 0.000000
0.986755 0.441479 0.000000
1.000000 0.439657 0.000000
1.000000 0.438119 0.000000
1.000000 0.438205 0.000000
1.000000 0.438290 0.000000
1.000000 0.438376 0.000000
1.000000 0.438461 0.000000
0.000000 0.526709 0.000000
0.000000 0.526866 0.000000
0.000000 0.527021 0.000000
0.000000 0.527176 0.000000
0.000000 0.527329 0.000000
0.000000 0.525796 0.000000
0.008798 0.523965 0.000000
0.056836 0.522128 0.000000
0.104992 0.520285 0.000000
0.153265 0.518437 0.000000
0.201652 0.516582 0.000000
0.250154 0.514722 0.000000
0.298769 0.512856 0.000000
0.347496 0.510985 0.000000
0.396333 0.509108 0.000000
0.445281 0.507225 0.000000
0.494336 0.505337 0.000000
0.543499 0.503444 0.000000
0.592768 0.501545 0.000000
0.642142 0.499641 0.000000
0.691620 0.497732 0.000000
0.741201 0.495817 0.000000
0.790883 0.493898 0.000000
0.840666 0.491973 0.000000
0.889088 0.490103 0.000000
0.936115 0.488290 0.000000
0.983087 0.486479 0.000000
1.000000 0.484669 0.000000
1.000000 0.483143 0.000000
1.000000 0.483237 0.000000
1.000000 0.483331 0.000000
1.000000 0.483425 0.000000
1.000000 0.483519 0.000000
0.000000 0.571696 0.000000
0.000000 0.571861 0.000000
0.000000 0.572026 0.000000
0.000000 0.572189 0.000000
0.000000 0.572350 0.000000
0.000000 0.570819 0.000000
0.002402 0.568988 0.000000
0.050636 0.567151 0.000000
0.098984 0.565309 0.000000
0.147447 0.563460 0.000000
0.196022 0.561606 0.000000
0.244709 0.559746 0.000000
0.293506 0.557880 0.000000
0.342413 0.556009 0.000000
0.391428 0.554132 0.000000
0.440550 0.552250 0.000000
0.489778 0.550362 0.000000
0.539110 0.548469 0.000000
0.588546 0.546571 0.000000
0.638085 0.544667 0.000000
0.687725 0.542758 0.000000
0.737465 0.540843 0.000000
0.787304 0.538924 0.000000
0.837241 0.536999 0.000000
0.885522 0.535142 0.000000
0.932433 0.533341 0.000000
0.979278 0.531541 0.000000
1.000000 0.529743 0.000000
1.000000 0.528228 0.000000
1.000000 0.528331 0.000000
1.000000 0.528433 0.000000
1.000000 0.528534 0.000000
1.000000 0.528636 0.000000
0.000000 0.616753 0.000000
0.000000 0.616926 0.000000
0.000000 0.617098 0.000000
0.000000 0.617269 0.000000
0.000000 0.617439 0.000000
0.000000 0.615909 0.000000
0.000000 0.614077 0.000000
0.044424 0.612240 0.000000
0.092961 0.610397 0.000000
0.141609 0.608548 0.000000
0.190368 0.606694 0.000000
0.239235 0.604833 0.000000
0.288211 0.602967 0.000000
0.337293 0.601096 0.000000
0.386481 0.599219 0.000000
0.435773 0.597336 0.000000
0.485169 0.595448 0.000000
0.534667 0.593555 0.000000
0.584266 0.591656 0.000000
0.633965 0.589752 0.000000
0.683763 0.587843 0.000000
0.733658 0.585928 0.000000
0.783650 0.584008 0.000000
0.833737 0.582084 0.000000
0.881848 0.580239 0.000000
0.928627 0.578449 0.000000
0.975331 0.576661 0.000000
1.000000 0.574875 0.000000
1.000000 0.573371 0.000000
1.000000 0.573481 0.000000
1.000000 0.573591 0.000000
1.000000 0.573700 0.000000
1.000000 0.573808 0.000000
0.000000 0.661876 0.000000
0.000000 0.662057 0.000000
0.000000 0.662236 0.000000
0.000000 0.662414 0.000000
0.000000 0.662591 0.000000
0.000000 0.661061 0.000000
0.000000 0.659229 0.000000
0.038200 0.657391 0.000000
0.086922 0.655547 0.000000
0.135751 0.653697 0.000000
0.184689 0.651842 0.000000
0.233733 0.649981 0.000000
0.282883 0.648114 0.000000
0.332136 0.646242 0.000000
0.381493 0.644364 0.000000
0.430952 0.642481 0.000000
0.480512 0.640592 0.000000
0.530171 0.638698 0.000000
0.579929 0.636798 0.000000
0.629784 0.634894 0.000000
0.679735 0.632984 0.000000
0.729781 0.631068 0.000000
0.779922 0.629148 0.000000
0.830155 0.627222 0.000000
0.878066 0.625392 0.000000
0.924698 0.623613 0.000000
0.971245 0.621836 0.000000
1.000000 0.620061 0.000000
1.000000 0.618569 0.000000
1.000000 0.618686 0.000000
1.000000 0.618802 0.000000
1.000000 0.618918 0.000000
1.000000 0.619032 0.000000
0.000000 0.707062 0.000000
0.000000 0.707249 0.000000
0.000000 0.707435 0.000000
0.000000 0.707620 0.000000
0.000000 0.707803 0.000000
0.000000 0.706273 0.000000
0.000000 0.704440 0.000000
0.031966 0.702600 0.000000
0.080867 0.700755 0.000000
0.129875 0.698904 0.000000
0.178987 0.697048 0.000000
0.228204 0.695185 0.000000
0.277523 0.693317 0.000000
0.326944 0.691444 0.000000
0.376465 0.689565 0.000000
0.426086 0.687680 0.000000
0.475805 0.685790 0.000000
0.525621 0.683895 0.000000
0.575534 0.681994 0.000000
0.625541 0.680088 0.000000
0.675641 0.678177 0.000000
0.725834 0.676260 0.000000
0.776119 0.674339 0.000000
0.826493 0.672412 0.000000
0.874178 0.670595 0.000000
0.920647 0.668827 0.000000
0.967021 0.667062 0.000000
1.000000 0.665300 0.000000
1.000000 0.663819 0.000000
1.000000 0.663942 0.000000
1.000000 0.664064 0.000000
1.000000 0.664185 0.000000
1.000000 0.664305 0.000000
0.000000 0.752307 0.000000
0.000000 0.752501 0.000000
0.000000 0.752693 0.000000
0.000000 0.752884 0.000000
0.000000 0.753073 0.000000
0.000000 0.751542 0.000000
0.000000 0.749707 0.000000
0.025722 0.747865 0.000000
0.074799 0.746019 0.000000
0.123979 0.744166 0.000000
0.173262 0.742307 0.000000
0.222647 0.740443 0.000000
0.272132 0.738574 0.000000
0.321716 0.736698 0.000000
0.371398 0.734817 0.000000
0.421176 0.732931 0.000000
0.471051 0.731039 0.000000
0.521020 0.729142 0.000000
0.571082 0.727240 0.000000
0.621237 0.725332 0.000000
0.671482 0.723419 0.000000
0.721818 0.721501 0.000000
0.772242 0.719578 0.000000
0.822754 0.717649 0.000000
0.870185 0.715847 0.000000
0.916475 0.714090 0.000000
0.962662 0.712337 0.000000
1.000000 0.710586 0.000000
1.000000 0.709116 0.000000
1.000000 0.709244 0.000000
1.000000 0.709372 0.000000
1.000000 0.709498 0.000000
1.000000 0.709624 0.000000
0.000000 0.797609 0.000000
0.000000 0.797808 0.000000
0.000000 0.798006 0.000000
0.000000 0.798201 0.000000
0.000000 0.798396 0.000000
0.000000 0.796864 0.000000
0.000000 0.795026 0.000000
0.019468 0.793183 0.000000
0.068716 0.791333 0.000000
0.118066 0.789478 0.000000
0.167515 0.787618 0.000000
0.217064 0.785751 0.000000
0.266710 0.783879 0.000000
0.316452 0.782002 0.000000
0.366291 0.780119 0.000000
0.416223 0.778230 0.000000
0.466248 0.776336 0.000000
0.516366 0.774437 0.000000
0.566574 0.772532 0.000000
0.616872 0.770622 0.000000
0.667259 0.768707 0.000000
0.717732 0.766787 0.000000
0.768292 0.764861 0.000000
0.818938 0.762931 0.000000
0.866087 0.761143 0.000000
0.912183 0.759398 0.000000
0.958168 0.757656 0.000000
1.000000 0.755917 0.000000
1.000000 0.754458 0.000000
1.000000 0.754591 0.000000
1.000000 0.754723 0.000000
1.000000 0.754854 0.000000
1.000000 0.754984 0.000000
0.000000 0.842964 0.000000
0.000000 0.843168 0.000000
0.000000 0.843370 0.000000
0.000000 0.843570 0.000000
0.000000 0.843769 0.000000
0.000000 0.842235 0.000000
0.000000 0.840395 0.000000
0.013204 0.838548 0.000000
0.062620 0.836696 0.000000
0.112134 0.834839 0.000000
0.161746 0.832975 0.000000
0.211454 0.831106 0.000000
0.261257 0.829231 0.000000
0.311155 0.827351 0.000000
0.361145 0.825465 0.000000
0.411226 0.823574 0.000000
0.461399 0.821678 0.000000
0.511660 0.819776 0.000000
0.562010 0.817868 0.000000
0.612448 0.815956 0.000000
0.662971 0.814038 0.000000
0.713578 0.812115 0.000000
0.764270 0.810187 0.000000
0.815044 0.808253 0.000000
0.861886 0.806481 0.000000
0.907774 0.804747 0.000000
0.953541 0.803016 0.000000
0.999182 0.801289 0.000000
1.000000 0.799841 0.000000
1.000000 0.799978 0.000000
1.000000 0.800113 0.000000
1.000000 0.800248 0.000000
1.000000 0.800382 0.000000
0.000000 0.888368 0.000000
0.000000 0.888576 0.000000
0.000000 0.888782 0.000000
0.000000 0.888986 0.000000
0.000000 0.889189 0.000000
0.000000 0.887653 0.000000
0.000000 0.885809 0.000000
0.006932 0.883960 0.000000
0.056511 0.882104 0.000000
0.106186 0.880243 0.000000
0.155956 0.878377 0.000000
0.205819 0.876504 0.000000
0.255775 0.874626 0.000000
0.305823 0.872743 0.000000
0.355960 0.870854 0.000000
0.406187 0.868960 0.000000
0.456502 0.867060 0.000000
0.506904 0.865155 0.000000
0.557391 0.863244 0.000000
0.607963 0.861328 0.000000
0.658619 0.859407 0.000000
0.709356 0.857481 0.000000
0.760175 0.855550 0.000000
0.811073 0.853614 0.000000
0.857585 0.851857 0.000000
0.903248 0.850134 0.000000
0.948782 0.848414 0.000000
0.994181 0.846699 0.000000
1.000000 0.845261 0.000000
1.000000 0.845401 0.000000
1.000000 0.845540 0.000000
1.000000 0.845678 0.000000
1.000000 0.845815 0.000000
0.000000 0.933818 0.000000
0.000000 0.934030 0.000000
0.000000 0.934239 0.000000
0.000000 0.934446 0.000000
0.000000 0.934652 0.000000
0.000000 0.933113 0.000000
0.000000 0.931266 0.000000
0.000652 0.929413 0.000000
0.050390 0.927554 0.000000
0.100221 0.925689 0.000000
0.150144 0.923819 0.000000
0.200159 0.921943 0.000000
0.250264 0.920061 0.000000
0.300457 0.918174 0.000000
0.350738 0.916281 0.000000
0.401106 0.914383 0.000000
0.451559 0.912480 0.000000
0.502097 0.910571 0.000000
0.552717 0.908657 0.000000
0.603420 0.906737 0.000000
0.654203 0.904813 0.000000
0.705066 0.902883 0.000000
0.756007 0.900948 0.000000
0.807026 0.899008 0.000000
0.853183 0.897267 0.000000
0.898608 0.895555 0.000000
0.943893 0.893847 0.000000
0.989036 0.892143 0.000000
1.000000 0.890716 0.000000
1.000000 0.890859 0.000000
1.000000 0.891000 0.000000
1.000000 0.891141 0.000000
1.000000 0.891280 0.000000
0.000000 0.979311 0.000000
0.000000 0.979525 0.000000
0.000000 0.979737 0.000000
0.000000 0.979947 0.000000
0.000000 0.980155 0.000000
0.000000 0.978613 0.000000
0.000000 0.976762 0.000000
0.000000 0.974904 0.000000
0.044257 0.973041 0.000000
0.094240 0.971172 0.000000
0.144313 0.969298 0.000000
0.194474 0.967418 0.000000
0.244723 0.965532 0.000000
0.295058 0.963640 0.000000
0.345479 0.961744 0.000000
0.395983 0.959841 0.000000
0.446570 0.957934 0.000000
0.497239 0.956021 0.000000
0.547989 0.954102 0.000000
