library/cube/Beat_Drop_004.cube
# CINEGRADE LAB — Premium Cinematic LUT
# Title: Beat Drop
# Category: Music Video Looks
# Description: Stylized, dramatic, high-impact looks inspired by music video grading
# Mood: Dynamic, stylized, intense
# Variant: 5
# Generated: 2026-05-21T16:12:40.791612
TITLE "Beat Drop"
LUT_3D_SIZE 9
0.000000 0.000000 0.000000
0.000007 0.000001 0.000000
0.170467 0.000000 0.000000
0.349968 0.000000 0.000000
0.531925 0.000000 0.000000
0.716261 0.000000 0.000000
0.902901 0.000000 0.000000
1.000000 0.000000 0.000000
1.000000 0.000000 0.000000
0.000082 0.000014 0.000000
0.000139 0.000023 0.000000
0.174627 0.000000 0.000000
0.358141 0.000000 0.000000
0.543941 0.000000 0.000000
0.731950 0.000000 0.000000
0.922096 0.000000 0.000000
1.000000 0.000000 0.000000
1.000000 0.000000 0.000000
0.000000 0.169723 0.000000
0.000000 0.169972 0.000000
0.152411 0.162843 0.000000
0.339619 0.155338 0.000000
0.528947 0.147742 0.000000
0.720319 0.140059 0.000000
0.913662 0.132291 0.000000
1.000000 0.124955 0.000000
1.000000 0.124982 0.000000
0.000000 0.347524 0.000000
0.000000 0.347980 0.000000
0.128852 0.340910 0.000000
0.319480 0.333458 0.000000
0.512062 0.325917 0.000000
0.706525 0.318288 0.000000
0.902256 0.310597 0.000000
1.000000 0.303450 0.000000
1.000000 0.303672 0.000000
0.000000 0.526709 0.000000
0.000000 0.527329 0.000000
0.104992 0.520285 0.000000
0.298769 0.512856 0.000000
0.494336 0.505337 0.000000
0.691620 0.497732 0.000000
0.889088 0.490103 0.000000
1.000000 0.483143 0.000000
1.000000 0.483519 0.000000
0.000000 0.707062 0.000000
0.000000 0.707803 0.000000
0.080867 0.700755 0.000000
0.277523 0.693317 0.000000
0.475805 0.685790 0.000000
0.675641 0.678177 0.000000
0.874178 0.670595 0.000000
1.000000 0.663819 0.000000
1.000000 0.664305 0.000000
0.000000 0.888368 0.000000
0.000000 0.889189 0.000000
0.056511 0.882104 0.000000
0.255775 0.874626 0.000000
0.456502 0.867060 0.000000
0.658619 0.859407 0.000000
0.857585 0.851857 0.000000
1.000000 0.845261 0.000000
1.000000 0.845815 0.000000
0.000000 1.000000 0.000000
0.000000 1.000000 0.000000
0.033490 1.000000 0.000000
0.235136 1.000000 0.000000
0.438082 1.000000 0.000000
0.642253 1.000000 0.000000
0.841124 1.000000 0.000000
1.000000 1.000000 0.000000
1.000000 1.000000 0.000000
0.000000 1.000000 0.000000
0.000000 1.000000 0.000000
0.036722 1.000000 0.000000
0.240452 1.000000 0.000000
0.445314 1.000000 0.000000
0.651231 1.000000 0.000000
0.849502 1.000000 0.000000
1.000000 1.000000 0.000000
1.000000 1.000000 0.000000
0.000001 0.000000 0.000000
0.000013 0.000002 0.000000
0.170892 0.000000 0.000000
0.350811 0.000000 0.000000
0.533169 0.000000 0.000000
0.717889 0.000000 0.000000
0.904895 0.000000 0.000000
1.000000 0.000000 0.000000
1.000000 0.000000 0.000000
0.000100 0.000016 0.000000
0.000161 0.000026 0.000000
0.175041 0.000000 0.000000
0.358944 0.000000 0.000000
0.545116 0.000000 0.000000
0.733481 0.000000 0.000000
0.923965 0.000000 0.000000
1.000000 0.000000 0.000000
1.000000 0.000000 0.000000
0.000000 0.169808 0.000000
0.000000 0.170055 0.000000
0.152802 0.162910 0.000000
0.340372 0.155390 0.000000
0.530043 0.147779 0.000000
0.721743 0.140081 0.000000
0.915359 0.132300 0.000000
1.000000 0.124963 0.000000
1.000000 0.124992 0.000000
0.000000 0.347680 0.000000
0.000000 0.348133 0.000000
0.129222 0.341045 0.000000
0.320184 0.333577 0.000000
0.513083 0.326019 0.000000
0.707846 0.318374 0.000000
0.903785 0.310672 0.000000
1.000000 0.303525 0.000000
1.000000 0.303748 0.000000
0.000000 0.526921 0.000000
0.000000 0.527536 0.000000
0.105345 0.520474 0.000000
0.299427 0.513027 0.000000
0.495283 0.505491 0.000000
0.692840 0.497869 0.000000
0.890448 0.490229 0.000000
1.000000 0.483271 0.000000
1.000000 0.483645 0.000000
0.000000 0.707316 0.000000
0.000000 0.708050 0.000000
0.081204 0.700983 0.000000
0.278138 0.693526 0.000000
0.476682 0.685980 0.000000
0.676762 0.678349 0.000000
0.875373 0.670757 0.000000
1.000000 0.663985 0.000000
1.000000 0.664468 0.000000
0.000000 0.888650 0.000000
0.000000 0.889461 0.000000
0.056835 0.882356 0.000000
0.256349 0.874858 0.000000
0.457310 0.867272 0.000000
0.659643 0.859601 0.000000
0.858621 0.852041 0.000000
1.000000 0.845451 0.000000
1.000000 0.845999 0.000000
0.000000 1.000000 0.000000
0.000000 1.000000 0.000000
0.033817 1.000000 0.000000
0.235686 1.000000 0.000000
0.438839 1.000000 0.000000
0.643199 1.000000 0.000000
0.842029 1.000000 0.000000
1.000000 1.000000 0.000000
1.000000 1.000000 0.000000
0.000000 1.000000 0.000000
0.000000 1.000000 0.000000
0.037047 1.000000 0.000000
0.240972 1.000000 0.000000
0.446011 1.000000 0.000000
0.652088 1.000000 0.000000
0.850278 1.000000 0.000000
1.000000 1.000000 0.000000
1.000000 1.000000 0.000000
0.000000 0.000000 0.202878
0.000000 0.000000 0.202562
0.168548 0.000000 0.195154
0.348887 0.000000 0.187372
0.531647 0.000000 0.179489
0.716752 0.000000 0.171508
0.904126 0.000000 0.163432
1.000000 0.000000 0.155604
1.000000 0.000000 0.155025
0.000000 0.000000 0.201810
0.000000 0.000000 0.201490
0.172700 0.000000 0.193916
0.356994 0.000000 0.185968
0.543539 0.000000 0.177926
0.732261 0.000000 0.169794
0.923085 0.000000 0.161574
1.000000 0.000000 0.153690
1.000000 0.000000 0.153139
0.000000 0.167145 0.174510
0.000000 0.167396 0.174151
0.150453 0.160239 0.166388
0.338385 0.152706 0.158253
0.528403 0.145085 0.150033
0.720432 0.137377 0.141729
0.914318 0.129589 0.133349
1.000000 0.122255 0.125428
1.000000 0.122290 0.124878
0.000000 0.345102 0.145956
0.000000 0.345555 0.145564
0.126867 0.338455 0.137628
0.318164 0.330974 0.129324
0.511381 0.323404 0.120941
0.706445 0.315749 0.112483
0.902591 0.308039 0.103982
1.000000 0.300898 0.096062
1.000000 0.301125 0.095519
0.000000 0.524413 0.117186
0.000000 0.525027 0.116766
0.102986 0.517951 0.108677
0.297376 0.510491 0.100220
0.493523 0.502942 0.091693
0.691354 0.495307 0.083100
0.889100 0.487661 0.074512
1.000000 0.480710 0.066639
1.000000 0.481087 0.066111
0.000000 0.704864 0.088232
0.000000 0.705595 0.087793
0.078845 0.698512 0.079566
0.276058 0.691041 0.070976
0.474865 0.683482 0.062324
0.675192 0.675837 0.053612
0.873875 0.668239 0.044972
1.000000 0.661477 0.037193
1.000000 0.661959 0.036684
0.000000 0.886239 0.059130
0.000000 0.887044 0.058677
0.054477 0.879924 0.050331
0.254243 0.872410 0.041625
0.455439 0.864810 0.032865
0.657991 0.857125 0.024053
0.856979 0.849559 0.015393
1.000000 0.842980 0.007754
1.000000 0.843525 0.007271
0.000000 1.000000 0.031387
0.000000 1.000000 0.030970
0.031477 1.000000 0.022567
0.233571 1.000000 0.013810
0.436932 1.000000 0.005008
0.641483 1.000000 0.000000
0.840271 1.000000 0.000000
1.000000 1.000000 0.000000
1.000000 1.000000 0.000000
0.000000 1.000000 0.030010
0.000000 1.000000 0.029615
0.034720 1.000000 0.021150
0.238841 1.000000 0.012334
0.444058 1.000000 0.003479
0.650297 1.000000 0.000000
0.848406 1.000000 0.000000
1.000000 1.000000 0.000000
1.000000 1.000000 0.000000
0.000000 0.000000 0.413341
0.000000 0.000000 0.412698
0.166100 0.000000 0.404946
0.346855 0.000000 0.396819
0.530014 0.000000 0.388592
0.715502 0.000000 0.380268
0.903242 0.000000 0.371850
1.000000 0.000000 0.363686
1.000000 0.000000 0.362783
0.000000 0.000000 0.411172
0.000000 0.000000 0.410524
0.170255 0.000000 0.402606
0.354937 0.000000 0.394315
0.541853 0.000000 0.385930
0.730929 0.000000 0.377456
0.922090 0.000000 0.368894
1.000000 0.000000 0.360680
1.000000 0.000000 0.359805
0.000000 0.164379 0.382757
0.000000 0.164633 0.382071
0.148001 0.157465 0.373966
0.336293 0.149921 0.365489
0.526654 0.142289 0.356927
0.719009 0.134571 0.348283
0.913160 0.126775 0.339566
1.000000 0.119446 0.331318
1.000000 0.119488 0.330445
0.000000 0.342420 0.353090
0.000000 0.342875 0.352371
0.124410 0.335762 0.344095
0.316039 0.328269 0.335450
0.509571 0.320687 0.326728
0.704934 0.313021 0.317932
0.901279 0.305304 0.309097
1.000000 0.298170 0.300855
1.000000 0.298401 0.299990
0.000000 0.521802 0.323210
0.000000 0.522414 0.322464
0.100526 0.515325 0.314036
0.295221 0.507851 0.305241
0.491656 0.500290 0.296377
0.689758 0.492643 0.287447
0.887635 0.484991 0.278528
1.000000 0.478049 0.270339
1.000000 0.478427 0.269488
0.000000 0.702308 0.293150
0.000000 0.703035 0.292385
0.076385 0.695939 0.283822
0.273875 0.688453 0.274895
0.472942 0.680880 0.265907
0.673513 0.673223 0.256861
0.872260 0.665620 0.247893
1.000000 0.658867 0.239803
1.000000 0.659349 0.238973
0.000000 0.883724 0.262945
0.000000 0.884524 0.262167
0.052018 0.877388 0.253486
0.252034 0.869860 0.244446
0.453462 0.862244 0.235352
0.656230 0.854545 0.226207
0.855222 0.846974 0.217223
1.000000 0.840407 0.209277
1.000000 0.840950 0.208473
0.000000 1.000000 0.234117
0.000000 1.000000 0.233376
0.029038 1.000000 0.224641
0.231354 1.000000 0.215552
0.434919 1.000000 0.206419
0.639658 1.000000 0.197245
0.838401 1.000000 0.188326
1.000000 1.000000 0.180621
1.000000 1.000000 0.179902
0.000000 1.000000 0.231652
0.000000 1.000000 0.230934
0.032294 1.000000 0.222137
0.236608 1.000000 0.212990
0.442001 1.000000 0.203806
0.648398 1.000000 0.194587
0.846424 1.000000 0.185721
1.000000 1.000000 0.178262
1.000000 1.000000 0.177592
0.000000 0.000000 0.623582
0.000000 0.000000 0.622612
0.163653 0.000000 0.614515
0.344822 0.000000 0.606044
0.528378 0.000000 0.597473
0.714245 0.000000 0.588806
0.902347 0.000000 0.580045
1.000000 0.000000 0.571547
1.000000 0.000000 0.570319
0.000000 0.000000 0.620311
0.000000 0.000000 0.619335
0.167812 0.000000 0.611074
0.352879 0.000000 0.602439
0.540163 0.000000 0.593712
0.729591 0.000000 0.584896
0.921086 0.000000 0.575993
1.000000 0.000000 0.567449
1.000000 0.000000 0.566250
0.000000 0.161615 0.590782
0.000000 0.161872 0.589768
0.145550 0.154693 0.581321
0.334200 0.147138 0.572502
0.524901 0.139495 0.563599
0.717580 0.131768 0.554615
0.911989 0.123965 0.545560
1.000000 0.116641 0.536987
1.000000 0.116689 0.535791
0.000000 0.339741 0.560002
0.000000 0.340196 0.558956
0.121955 0.333071 0.550340
0.313913 0.325566 0.541355
0.507758 0.317973 0.532294
0.703417 0.310296 0.523159
0.899954 0.302573 0.513990
1.000000 0.295445 0.505427
1.000000 0.295680 0.504240
0.000000 0.519192 0.529012
0.000000 0.519803 0.527940
0.098069 0.512700 0.519173
0.293065 0.505213 0.510041
0.489785 0.497639 0.500839
0.688155 0.489981 0.491573
0.886157 0.482323 0.482324
1.000000 0.475389 0.473819
1.000000 0.475770 0.472646
0.000000 0.699753 0.497846
0.000000 0.700477 0.496756
0.073927 0.693366 0.487856
0.271691 0.685866 0.478593
0.471016 0.678280 0.469270
0.671827 0.670610 0.459889
0.870633 0.663001 0.450595
1.000000 0.656258 0.442193
1.000000 0.656741 0.441042
0.000000 0.881209 0.466538
0.000000 0.882004 0.465436
0.049562 0.874852 0.456421
0.249824 0.867309 0.447046
0.451482 0.859679 0.437619
0.654462 0.851966 0.428141
0.853454 0.844390 0.418834
1.000000 0.837835 0.410580
1.000000 0.838375 0.409455
0.000000 1.000000 0.436627
0.000000 1.000000 0.435563
0.026602 1.000000 0.426495
0.229137 1.000000 0.417074
0.432904 1.000000 0.407610
0.637828 1.000000 0.398105
0.836520 1.000000 0.388865
1.000000 1.000000 0.380858
1.000000 1.000000 0.379819
0.000000 1.000000 0.433074
0.000000 1.000000 0.432032
0.029870 1.000000 0.422904
0.234374 1.000000 0.413427
0.439941 1.000000 0.403912
0.646493 1.000000 0.394363
0.844433 1.000000 0.385178
1.000000 1.000000 0.377420
1.000000 1.000000 0.376428
0.000000 0.000000 0.833601
0.000000 0.000000 0.832303
0.161208 0.000000 0.823862
0.342788 0.000000 0.815047
0.526738 0.000000 0.806132
0.712981 0.000000 0.797122
0.901443 0.000000 0.788019
1.000000 0.000000 0.779187
1.000000 0.000000 0.777634
0.000000 0.000000 0.829227
0.000000 0.000000 0.827924
0.165371 0.000000 0.819320
0.350820 0.000000 0.810342
0.538470 0.000000 0.801272
0.728245 0.000000 0.792114
0.920072 0.000000 0.782870
1.000000 0.000000 0.773997
1.000000 0.000000 0.772474
0.000000 0.158854 0.798584
0.000000 0.159115 0.797242
0.143102 0.151924 0.788454
0.332106 0.144358 0.779293
0.523144 0.136705 0.770050
0.716144 0.128968 0.760726
0.910805 0.121159 0.751334
1.000000 0.113839 0.742436
1.000000 0.113894 0.740916
0.000000 0.337063 0.766692
0.000000 0.337520 0.765318
0.119502 0.330382 0.756362
0.311786 0.322865 0.747038
0.505942 0.315261 0.737638
0.701894 0.307573 0.728165
0.898616 0.299844 0.718662
1.000000 0.292723 0.709779
1.000000 0.292963 0.708269
0.000000 0.516583 0.734593
0.000000 0.517192 0.733194
0.095613 0.510077 0.724090
0.290908 0.502577 0.714619
0.487910 0.494991 0.705080
0.686547 0.487321 0.695478
0.884666 0.479657 0.685899
1.000000 0.472732 0.677078
1.000000 0.473115 0.675584
0.000000 0.697198 0.702321
0.000000 0.697919 0.700905
0.071471 0.690793 0.691669
0.269507 0.683279 0.682071
0.469086 0.675680 0.672412
0.670136 0.667997 0.662697
0.868994 0.660383 0.653076
1.000000 0.653652 0.644363
1.000000 0.654134 0.642891
0.000000 0.878694 0.669911
0.000000 0.879483 0.668484
0.047108 0.872316 0.659134
0.247614 0.864757 0.649426
0.449499 0.857113 0.639665
0.652689 0.849387 0.629855
0.851674 0.841806 0.620224
1.000000 0.835263 0.611664
1.000000 0.835802 0.610218
0.000000 1.000000 0.638916
0.000000 1.000000 0.637528
0.024168 1.000000 0.628129
0.226919 1.000000 0.618376
0.430886 1.000000 0.608581
0.635992 1.000000 0.598745
0.834629 1.000000 0.589185
1.000000 1.000000 0.580875
1.000000 1.000000 0.579516
0.000000 1.000000 0.634275
0.000000 1.000000 0.632910
0.027449 1.000000 0.623451
0.232141 1.000000 0.613643
0.437877 1.000000 0.603798
0.644582 1.000000 0.593920
0.842432 1.000000 0.584414
1.000000 1.000000 0.576357
1.000000 1.000000 0.575044
0.000000 0.000000 1.000000
0.000000 0.000000 1.000000
0.158765 0.000000 1.000000
0.340753 0.000000 1.000000
0.525094 0.000000 1.000000
0.711711 0.000000 1.000000
0.900530 0.000000 0.995771
1.000000 0.000000 0.986605
1.000000 0.000000 0.984727
0.000000 0.000000 1.000000
0.000000 0.000000 1.000000
0.162932 0.000000 1.000000
0.348760 0.000000 1.000000
0.536772 0.000000 1.000000
0.726893 0.000000 0.999110
0.919049 0.000000 0.989525
1.000000 0.000000 0.980324
1.000000 0.000000 0.978477
0.000000 0.156096 1.000000
0.000000 0.156360 1.000000
0.140656 0.149158 0.995364
0.330011 0.141581 0.985863
0.521384 0.133918 0.976278
0.714702 0.126171 0.966614
0.909608 0.118355 0.956886
1.000000 0.111041 0.947663
1.000000 0.111103 0.945820
0.000000 0.334387 0.973159
0.000000 0.334845 0.971459
0.117051 0.327695 0.962163
0.309659 0.320166 0.952499
0.504122 0.312551 0.942760
0.700364 0.304852 0.932949
0.897265 0.297117 0.923114
1.000000 0.290003 0.913911
1.000000 0.290248 0.912078
0.000000 0.513975 0.939951
0.000000 0.514583 0.938227
0.093160 0.507455 0.928784
0.288751 0.499942 0.918976
0.486033 0.492343 0.909101
0.684932 0.484662 0.899162
0.883163 0.476993 0.889253
1.000000 0.470077 0.880118
1.000000 0.470462 0.878301
0.000000 0.694643 0.906574
0.000000 0.695361 0.904833
0.069018 0.688221 0.895261
0.267322 0.680693 0.885327
0.467153 0.673081 0.875333
0.668438 0.665385 0.865284
0.867343 0.657767 0.855337
1.000000 0.651046 0.846314
1.000000 0.651529 0.844520
0.000000 0.876178 0.873063
0.000000 0.876962 0.871311
0.044657 0.869780 0.861627
0.245403 0.862206 0.851585
0.447513 0.854548 0.841491
0.650910 0.846808 0.831348
0.849883 0.839223 0.821394
1.000000 0.832693 0.812528
1.000000 0.833229 0.810761
0.000000 1.000000 0.840985
0.000000 1.000000 0.839274
0.021737 1.000000 0.829542
0.224702 1.000000 0.819458
0.428864 1.000000 0.809331
0.634150 1.000000 0.799165
0.832728 1.000000 0.789284
1.000000 1.000000 0.780674
1.000000 1.000000 0.778993
0.000000 1.000000 0.835256
0.000000 1.000000 0.833568
0.025031 1.000000 0.823778
0.229907 1.000000 0.813639
0.435810 1.000000 0.803464
0.642665 1.000000 0.793256
0.840423 1.000000 0.783431
1.000000 1.000000 0.775075
1.000000 1.000000 0.773440
0.000000 0.000000 1.000000
0.000000 0.000000 1.000000
0.156430 0.000000 1.000000
0.338823 0.000000 1.000000
0.523552 0.000000 1.000000
0.710540 0.000000 1.000000
0.899712 0.000000 1.000000
1.000000 0.000000 1.000000
1.000000 0.000000 1.000000
0.000000 0.000000 1.000000
0.000000 0.000000 1.000000
0.160600 0.000000 1.000000
0.346805 0.000000 1.000000
0.535176 0.000000 1.000000
0.725640 0.000000 1.000000
0.918122 0.000000 1.000000
1.000000 0.000000 1.000000
1.000000 0.000000 1.000000
0.000000 0.153446 1.000000
0.000000 0.153713 1.000000
0.138318 0.146500 1.000000
0.328021 0.138912 1.000000
0.519726 0.131238 1.000000
0.713358 0.123482 1.000000
0.908502 0.115660 1.000000
1.000000 0.108351 1.000000
1.000000 0.108419 1.000000
0.000000 0.331818 1.000000
0.000000 0.332277 1.000000
0.114707 0.325115 1.000000
0.307636 0.317574 1.000000
0.502402 0.309947 1.000000
0.698933 0.302238 1.000000
0.896005 0.294497 1.000000
1.000000 0.287391 1.000000
1.000000 0.287640 1.000000
0.000000 0.511472 1.000000
0.000000 0.512080 1.000000
0.090813 0.504938 1.000000
0.286698 0.497412 1.000000
0.484256 0.489801 1.000000
0.683415 0.482108 1.000000
0.881749 0.474434 1.000000
1.000000 0.467528 1.000000
1.000000 0.467915 1.000000
0.000000 0.692193 1.000000
0.000000 0.692907 1.000000
0.066671 0.685753 1.000000
0.265240 0.678211 1.000000
0.465320 0.670585 1.000000
0.666837 0.662878 1.000000
0.865781 0.655254 1.000000
1.000000 0.648545 1.000000
1.000000 0.649027 1.000000
0.000000 0.873765 1.000000
0.000000 0.874543 1.000000
0.042311 0.867346 1.000000
0.243296 0.859758 1.000000
0.445625 0.852085 1.000000
0.649227 0.844331 1.000000
0.848182 0.836742 1.000000
1.000000 0.830225 1.000000
1.000000 0.830758 1.000000
0.000000 1.000000 1.000000
0.000000 1.000000 1.000000
0.019412 1.000000 1.000000
0.222586 1.000000 1.000000
0.426942 1.000000 1.000000
0.632403 1.000000 0.991929
0.830919 1.000000 0.981739
0.998456 0.999995 0.972839
0.999223 1.000000 0.970850
0.000000 1.000000 1.000000
0.000000 1.000000 1.000000
0.022717 1.000000 1.000000
0.227774 1.000000 1.000000
0.433842 1.000000 0.995501
0.640843 1.000000 0.984976
0.838507 1.000000 0.974843
1.000000 1.000000 0.966201
1.000000 1.000000 0.964256
0.000000 0.000000 1.000000
0.000000 0.000000 1.000000
0.156856 0.000000 1.000000
0.339647 0.000000 1.000000
0.524756 0.000000 1.000000
0.712107 0.000000 1.000000
0.901626 0.000000 1.000000
1.000000 0.000000 1.000000
1.000000 0.000000 1.000000
0.000000 0.000000 1.000000
0.000000 0.000000 1.000000
0.161015 0.000000 1.000000
0.347589 0.000000 1.000000
0.536312 0.000000 1.000000
0.727112 0.000000 1.000000
0.919912 0.000000 1.000000
1.000000 0.000000 1.000000
1.000000 0.000000 1.000000
0.000000 0.153537 1.000000
0.000000 0.153802 1.000000
0.138711 0.146574 1.000000
0.328755 0.138971 1.000000
0.520785 0.131283 1.000000
0.714725 0.123513 1.000000
0.910097 0.115680 1.000000
1.000000 0.108374 1.000000
1.000000 0.108444 1.000000
0.000000 0.331975 1.000000
0.000000 0.332430 1.000000
0.115081 0.325252 1.000000
0.308323 0.317695 1.000000
0.503386 0.310052 1.000000
0.700197 0.302329 1.000000
0.897430 0.294578 1.000000
1.000000 0.287475 1.000000
1.000000 0.287724 1.000000
0.000000 0.511680 1.000000
0.000000 0.512282 1.000000
0.091170 0.505123 1.000000
0.287340 0.497580 1.000000
0.485168 0.489953 1.000000
0.684580 0.482244 1.000000
0.883007 0.474560 1.000000
1.000000 0.467660 1.000000
1.000000 0.468045 1.000000
0.000000 0.692438 1.000000
0.000000 0.693144 1.000000
0.067012 0.685972 1.000000
0.265840 0.678412 1.000000
0.466162 0.670769 1.000000
0.667904 0.663044 1.000000
0.866877 0.655412 1.000000
1.000000 0.648710 1.000000
1.000000 0.649188 1.000000
0.000000 0.874033 1.000000
0.000000 0.874801 1.000000
0.042640 0.867584 1.000000
0.243855 0.859977 1.000000
0.446399 0.852285 1.000000
0.650197 0.844514 1.000000
0.849125 0.836916 1.000000
1.000000 0.830408 1.000000
1.000000 0.830935 1.000000
0.000000 1.000000 1.000000
0.000000 1.000000 1.000000
0.019747 1.000000 1.000000
0.223124 1.000000 1.000000
0.427666 1.000000 1.000000
0.633296 1.000000 0.991222
0.831740 1.000000 0.981038
0.998738 1.000000 0.972162
0.999442 1.000000 0.970177
0.000000 1.000000 1.000000
0.000000 1.000000 1.000000
0.023050 1.000000 1.000000
0.228281 1.000000 1.000000
0.434505 1.000000 0.994809
0.641645 1.000000 0.984280
0.839208 1.000000 0.974153
1.000000 1.000000 0.965539
1.000000 1.000000 0.963598
