library/cube/Binge_Night_001.cube
# CINEGRADE LAB — Premium Cinematic LUT
# Title: Binge Night
# Category: Netflix Inspired
# Description: Cinematic teal/orange with filmic qualities inspired by streaming content
# Mood: Cinematic, binge-worthy, polished
# Variant: 2
# Generated: 2026-05-21T16:12:43.190755
TITLE "Binge Night"
LUT_3D_SIZE 33
0.001086 0.014698 0.013791
0.001068 0.014456 0.013563
0.001052 0.014215 0.013337
0.010642 0.014182 0.013318
0.039579 0.014561 0.013711
0.068717 0.014947 0.014110
0.098052 0.015340 0.014516
0.127581 0.015739 0.014928
0.157302 0.016146 0.015346
0.187213 0.016559 0.015771
0.217309 0.016978 0.016202
0.247590 0.017404 0.016639
0.278052 0.017836 0.017082
0.308692 0.018275 0.017531
0.339507 0.018719 0.017985
0.370496 0.019170 0.018446
0.401656 0.019627 0.018912
0.432984 0.020091 0.019385
0.464477 0.020560 0.019862
0.496133 0.021035 0.020346
0.527949 0.021516 0.020835
0.559924 0.022003 0.021329
0.592053 0.022496 0.021829
0.624336 0.022994 0.022334
0.656769 0.023498 0.022845
0.689350 0.024007 0.023360
0.722077 0.024522 0.023881
0.754814 0.025040 0.024404
0.787569 0.025561 0.024930
0.820425 0.026086 0.025460
0.832741 0.026177 0.025556
0.834733 0.026052 0.025436
0.836701 0.025929 0.025317
0.001030 0.013892 0.013033
0.001016 0.013658 0.012813
0.001002 0.013427 0.012595
0.010708 0.013404 0.012585
0.039979 0.013799 0.012992
0.069444 0.014201 0.013406
0.099101 0.014610 0.013826
0.128946 0.015025 0.014253
0.158976 0.015446 0.014685
0.189190 0.015874 0.015124
0.219585 0.016308 0.015568
0.250157 0.016749 0.016018
0.280904 0.017196 0.016475
0.311824 0.017649 0.016937
0.342914 0.018108 0.017405
0.374172 0.018573 0.017878
0.405594 0.019044 0.018358
0.437179 0.019521 0.018842
0.468924 0.020004 0.019333
0.500826 0.020492 0.019828
0.532882 0.020987 0.020330
0.565092 0.021487 0.020836
0.597451 0.021993 0.021348
0.629958 0.022504 0.021865
0.662610 0.023021 0.022387
0.695404 0.023543 0.022914
0.728339 0.024070 0.023447
0.761189 0.024598 0.023979
0.794073 0.025130 0.024514
0.827048 0.025665 0.025054
0.839346 0.025765 0.025157
0.841255 0.025646 0.025041
0.843141 0.025529 0.024927
0.000986 0.013116 0.012301
0.000974 0.012891 0.012088
0.000964 0.012668 0.011877
0.010780 0.012657 0.011878
0.040375 0.013067 0.012299
0.070158 0.013484 0.012727
0.100126 0.013908 0.013161
0.130276 0.014338 0.013601
0.160607 0.014774 0.014047
0.191114 0.015217 0.014499
0.221797 0.015666 0.014957
0.252651 0.016121 0.015421
0.283674 0.016582 0.015890
0.314865 0.017049 0.016365
0.346220 0.017522 0.016846
0.377737 0.018001 0.017332
0.409413 0.018486 0.017824
0.441245 0.018976 0.018321
0.473233 0.019473 0.018824
0.505372 0.019974 0.019332
0.537660 0.020482 0.019845
0.570096 0.020995 0.020363
0.602676 0.021513 0.020887
0.635399 0.022037 0.021415
0.668261 0.022567 0.021949
0.701261 0.023101 0.022487
0.734396 0.023641 0.023031
0.767324 0.024179 0.023572
0.800320 0.024720 0.024116
0.833398 0.025266 0.024665
0.845673 0.025372 0.024774
0.847500 0.025260 0.024663
0.849303 0.025149 0.024554
0.002619 0.036912 0.013261
0.002610 0.036687 0.013056
0.002602 0.036465 0.012852
0.012526 0.036456 0.012861
0.042434 0.036873 0.013296
0.072523 0.037297 0.013737
0.102792 0.037727 0.014185
0.133238 0.038164 0.014638
0.163858 0.038607 0.015097
0.194649 0.039056 0.015561
0.225609 0.039512 0.016032
0.256735 0.039973 0.016508
0.288025 0.040441 0.016990
0.319476 0.040914 0.017477
0.351086 0.041394 0.017970
0.382853 0.041879 0.018468
0.414773 0.042370 0.018971
0.446844 0.042867 0.019480
0.479065 0.043370 0.019994
0.511432 0.043878 0.020513
0.543943 0.044392 0.021038
0.576596 0.044911 0.021567
0.609388 0.045435 0.022102
0.642318 0.045966 0.022641
0.675382 0.046501 0.023185
0.708578 0.047041 0.023735
0.741859 0.047586 0.024288
0.774875 0.048128 0.024837
0.807966 0.048674 0.025390
0.841130 0.049223 0.025946
0.853377 0.049331 0.026061
0.855122 0.049219 0.025955
0.856843 0.049109 0.025851
0.005060 0.072472 0.015044
0.005053 0.072244 0.014845
0.005048 0.072018 0.014648
0.015075 0.072008 0.014666
0.045286 0.072429 0.015114
0.075672 0.072856 0.015568
0.106232 0.073290 0.016028
0.136963 0.073730 0.016493
0.167862 0.074177 0.016965
0.198927 0.074629 0.017442
0.230155 0.075088 0.017924
0.261544 0.075553 0.018412
0.293091 0.076024 0.018906
0.324794 0.076502 0.019405
0.356650 0.076985 0.019909
0.388657 0.077474 0.020419
0.420812 0.077968 0.020934
0.453114 0.078469 0.021454
0.485559 0.078975 0.021979
0.518145 0.079487 0.022509
0.550870 0.080004 0.023044
0.583732 0.080527 0.023584
0.616728 0.081056 0.024129
0.649856 0.081589 0.024679
0.683114 0.082128 0.025234
0.716499 0.082673 0.025793
0.749876 0.083220 0.026355
0.782981 0.083763 0.026912
0.816152 0.084311 0.027473
0.849385 0.084862 0.028037
0.861599 0.084970 0.028157
0.863263 0.084857 0.028056
0.864903 0.084745 0.027956
0.007506 0.107980 0.016847
0.007501 0.107749 0.016654
0.007498 0.107522 0.016463
0.017626 0.107512 0.016490
0.048130 0.107937 0.016951
0.078804 0.108368 0.017417
0.109645 0.108806 0.017890
0.140652 0.109251 0.018367
0.171821 0.109702 0.018851
0.203150 0.110159 0.019340
0.234637 0.110622 0.019834
0.266280 0.111091 0.020334
0.298075 0.111567 0.020840
0.330020 0.112048 0.021350
0.362113 0.112536 0.021866
0.394352 0.113029 0.022387
0.426734 0.113528 0.022913
0.459257 0.114033 0.023444
0.491918 0.114544 0.023980
0.524715 0.115060 0.024521
0.557646 0.115582 0.025067
0.590709 0.116109 0.025617
0.623901 0.116642 0.026173
0.657220 0.117181 0.026733
0.690663 0.117724 0.027298
0.724229 0.118273 0.027867
0.757670 0.118822 0.028436
0.790848 0.119368 0.029001
0.824084 0.119918 0.029569
0.857371 0.120472 0.030141
0.869547 0.120580 0.030266
0.871131 0.120467 0.030169
0.872691 0.120355 0.030074
0.009957 0.143442 0.018668
0.009955 0.143210 0.018482
0.009954 0.142981 0.018298
0.020180 0.142972 0.018333
0.050967 0.143402 0.018807
0.081918 0.143839 0.019286
0.113032 0.144282 0.019770
0.144305 0.144732 0.020260
0.175735 0.145188 0.020756
0.207320 0.145650 0.021257
0.239057 0.146118 0.021763
0.270944 0.146593 0.022274
0.302978 0.147073 0.022791
0.335157 0.147560 0.023313
0.367479 0.148053 0.023840
0.399941 0.148551 0.024372
0.432541 0.149055 0.024909
0.465277 0.149566 0.025451
0.498146 0.150081 0.025997
0.531146 0.150603 0.026549
0.564275 0.151130 0.027105
0.597531 0.151663 0.027666
0.630910 0.152201 0.028232
0.664412 0.152744 0.028802
0.698034 0.153293 0.029377
0.731773 0.153847 0.029956
0.765245 0.154399 0.030532
0.798481 0.154948 0.031104
0.831764 0.155501 0.031680
0.865091 0.156057 0.032258
0.877224 0.156167 0.032389
0.878729 0.156054 0.032296
0.880210 0.155943 0.032205
0.012414 0.178863 0.020510
0.012415 0.178631 0.020330
0.012416 0.178402 0.020153
0.022736 0.178395 0.020196
0.053797 0.178831 0.020682
0.085017 0.179273 0.021173
0.116393 0.179722 0.021670
0.147924 0.180178 0.022172
0.179606 0.180639 0.022679
0.211437 0.181107 0.023191
0.243415 0.181582 0.023709
0.275538 0.182062 0.024232
0.307803 0.182549 0.024760
0.340207 0.183041 0.025293
0.372749 0.183540 0.025831
0.405427 0.184044 0.026374
0.438237 0.184555 0.026921
0.471177 0.185071 0.027474
0.504246 0.185592 0.028031
0.537441 0.186120 0.028593
0.570760 0.186653 0.029160
0.604200 0.187192 0.029731
0.637760 0.187736 0.030307
0.671438 0.188285 0.030887
0.705230 0.188840 0.031471
0.739135 0.189401 0.032060
0.772603 0.189954 0.032642
0.805881 0.190507 0.033221
0.839197 0.191064 0.033803
0.872548 0.191624 0.034388
0.884635 0.191735 0.034524
0.886061 0.191624 0.034436
0.887464 0.191515 0.034349
0.014877 0.214249 0.022371
0.014880 0.214017 0.022198
0.014885 0.213789 0.022027
0.025295 0.213784 0.022079
0.056621 0.214227 0.022577
0.088100 0.214676 0.023080
0.119730 0.215132 0.023588
0.151509 0.215594 0.024102
0.183434 0.216062 0.024621
0.215503 0.216537 0.025145
0.247714 0.217018 0.025674
0.280064 0.217505 0.026208
0.312551 0.217998 0.026747
0.345172 0.218497 0.027291
0.377926 0.219003 0.027839
0.410810 0.219514 0.028393
0.443822 0.220031 0.028951
0.476959 0.220554 0.029514
0.510220 0.221082 0.030082
0.543602 0.221616 0.030654
0.577103 0.222156 0.031230
0.610721 0.222701 0.031812
0.644454 0.223252 0.032397
0.678299 0.223809 0.032987
0.712255 0.224370 0.033581
0.746319 0.224937 0.034179
0.779747 0.225494 0.034766
0.813053 0.226051 0.035352
0.846387 0.226611 0.035941
0.879745 0.227175 0.036532
0.891781 0.227290 0.036673
0.893130 0.227181 0.036589
0.894457 0.227074 0.036506
0.017346 0.249604 0.024252
0.017352 0.249374 0.024085
0.017359 0.249147 0.023921
0.027858 0.249146 0.023981
0.059439 0.249596 0.024491
0.091169 0.250053 0.025006
0.123044 0.250516 0.025526
0.155062 0.250985 0.026051
0.187221 0.251461 0.026581
0.219520 0.251943 0.027116
0.251954 0.252432 0.027656
0.284523 0.252926 0.028201
0.317224 0.253427 0.028751
0.350054 0.253933 0.029306
0.383012 0.254446 0.029865
0.416094 0.254964 0.030429
0.449300 0.255489 0.030998
0.482627 0.256019 0.031571
0.516072 0.256555 0.032149
0.549633 0.257097 0.032731
0.583309 0.257644 0.033318
0.617097 0.258197 0.033908
0.650995 0.258755 0.034504
0.685001 0.259319 0.035103
0.719113 0.259888 0.035706
0.753329 0.260462 0.036314
0.786681 0.261022 0.036905
0.819999 0.261583 0.037498
0.853336 0.262148 0.038093
0.886688 0.262717 0.038690
0.898669 0.262835 0.038835
0.899943 0.262729 0.038755
0.901194 0.262626 0.038677
0.019822 0.284933 0.026152
0.019831 0.284706 0.025992
0.019841 0.284482 0.025835
0.030425 0.284486 0.025903
0.062253 0.284944 0.026424
0.094223 0.285408 0.026951
0.126334 0.285880 0.027482
0.158584 0.286357 0.028019
0.190969 0.286841 0.028560
0.223488 0.287331 0.029106
0.256138 0.287828 0.029657
0.288918 0.288330 0.030213
0.321824 0.288839 0.030774
0.354855 0.289354 0.031339
0.388008 0.289874 0.031909
0.421282 0.290401 0.032483
0.454674 0.290933 0.033062
0.488181 0.291472 0.033645
0.521803 0.292016 0.034233
0.555537 0.292566 0.034825
0.589380 0.293121 0.035421
0.623330 0.293682 0.036021
0.657387 0.294248 0.036626
0.691546 0.294820 0.037235
0.725808 0.295398 0.037847
0.760109 0.295979 0.038463
0.793409 0.296542 0.039059
0.826724 0.297109 0.039658
0.860049 0.297679 0.040258
0.893380 0.298253 0.040860
0.905303 0.298375 0.041011
0.906502 0.298274 0.040935
0.907679 0.298175 0.040861
0.022306 0.320242 0.028073
0.022317 0.320018 0.027920
0.022330 0.319798 0.027768
0.032996 0.319807 0.027845
0.065062 0.320274 0.028378
0.097265 0.320747 0.028916
0.129604 0.321227 0.029458
0.162075 0.321714 0.030006
0.194678 0.322206 0.030558
0.227409 0.322705 0.031115
0.260267 0.323211 0.031677
0.293249 0.323722 0.032243
0.326353 0.324240 0.032814
0.359576 0.324763 0.033390
0.392918 0.325293 0.033970
0.426375 0.325828 0.034554
0.459945 0.326369 0.035143
0.493627 0.326917 0.035736
0.527418 0.327469 0.036334
0.561316 0.328028 0.036935
0.595319 0.328592 0.037541
0.629425 0.329162 0.038151
0.663633 0.329737 0.038764
0.697939 0.330318 0.039382
0.732343 0.330904 0.040004
0.766643 0.331491 0.040626
0.799935 0.332060 0.041228
0.833232 0.332633 0.041831
0.866531 0.333209 0.042437
0.899827 0.333788 0.043045
0.911687 0.333915 0.043199
0.912813 0.333818 0.043128
0.913917 0.333724 0.043058
0.024796 0.355535 0.030014
0.024811 0.355316 0.029867
0.024826 0.355100 0.029722
0.035572 0.355115 0.029807
0.067867 0.355592 0.030351
0.100294 0.356075 0.030900
0.132852 0.356564 0.031453
0.165538 0.357060 0.032012
0.198350 0.357562 0.032575
0.231285 0.358071 0.033143
0.264342 0.358586 0.033715
0.297519 0.359106 0.034292
0.330812 0.359633 0.034873
0.364221 0.360166 0.035459
0.397743 0.360706 0.036049
0.431375 0.361250 0.036643
0.465117 0.361801 0.037241
0.498965 0.362358 0.037844
0.532918 0.362920 0.038451
0.566973 0.363488 0.039062
0.601130 0.364062 0.039677
0.635385 0.364641 0.040296
0.669737 0.365226 0.040919
0.704184 0.365816 0.041546
0.738723 0.366411 0.042176
0.772993 0.367005 0.042803
0.806262 0.367580 0.043411
0.839528 0.368159 0.044020
0.872786 0.368741 0.044630
0.906033 0.369326 0.045243
0.917826 0.369459 0.045402
0.918881 0.369368 0.045335
0.919914 0.369279 0.045269
0.027295 0.390817 0.031974
0.027312 0.390603 0.031834
0.027330 0.390393 0.031696
0.038152 0.390415 0.031789
0.070668 0.390902 0.032344
0.103312 0.391395 0.032903
0.136080 0.391895 0.033468
0.168972 0.392401 0.034037
0.201985 0.392913 0.034611
0.235117 0.393432 0.035189
0.268365 0.393957 0.035771
0.301729 0.394488 0.036358
0.335204 0.395025 0.036950
0.368791 0.395568 0.037545
0.402485 0.396117 0.038145
0.436286 0.396672 0.038749
0.470191 0.397233 0.039357
0.504199 0.397800 0.039969
0.538307 0.398372 0.040586
0.572513 0.398951 0.041206
0.606816 0.399534 0.041830
0.641213 0.400124 0.042458
0.675702 0.400718 0.043090
0.710283 0.401319 0.043725
0.744952 0.401924 0.044364
0.779164 0.402524 0.044996
0.812396 0.403106 0.045608
0.845615 0.403691 0.046222
0.878819 0.404279 0.046838
0.912002 0.404871 0.047454
0.923726 0.405010 0.047618
0.924711 0.404926 0.047555
0.925675 0.404844 0.047494
0.029801 0.426093 0.033955
0.029821 0.425885 0.033821
0.029842 0.425681 0.033689
0.040739 0.425712 0.033790
0.073467 0.426209 0.034356
0.106318 0.426713 0.034927
0.139289 0.427224 0.035502
0.172379 0.427741 0.036081
0.205585 0.428264 0.036665
0.238906 0.428793 0.037253
0.272338 0.429329 0.037846
0.305880 0.429871 0.038443
0.339531 0.430419 0.039044
0.373287 0.430973 0.039650
0.407147 0.431532 0.040259
0.441109 0.432098 0.040872
0.475171 0.432670 0.041490
0.509331 0.433247 0.042111
0.543587 0.433831 0.042737
0.577937 0.434419 0.043366
0.612380 0.435014 0.043999
0.646912 0.435614 0.044636
0.681533 0.436219 0.045276
0.716241 0.436830 0.045920
0.751033 0.437447 0.046568
0.785159 0.438052 0.047204
0.818340 0.438642 0.047821
0.851500 0.439234 0.048439
0.884635 0.439829 0.049059
0.917742 0.440427 0.049680
0.929393 0.440574 0.049847
0.930310 0.440496 0.049789
0.931206 0.440422 0.049731
0.032316 0.461368 0.035956
0.032339 0.461167 0.035829
0.032363 0.460970 0.035703
0.043331 0.461009 0.035812
0.076263 0.461518 0.036388
0.109314 0.462033 0.036969
0.142480 0.462555 0.037555
0.175760 0.463083 0.038144
0.209152 0.463618 0.038738
0.242653 0.464159 0.039337
0.276262 0.464706 0.039939
0.309976 0.465259 0.040546
0.343794 0.465819 0.041157
0.377713 0.466384 0.041772
0.411731 0.466955 0.042391
0.445848 0.467532 0.043013
0.480059 0.468115 0.043640
0.514365 0.468704 0.044271
0.548762 0.469299 0.044905
0.583250 0.469899 0.045543
0.617825 0.470505 0.046185
0.652486 0.471116 0.046830
0.687232 0.471733 0.047479
0.722061 0.472355 0.048131
0.756970 0.472983 0.048787
0.790984 0.473595 0.049426
0.824100 0.474192 0.050048
0.857187 0.474791 0.050670
0.890241 0.475394 0.051294
0.923258 0.475999 0.051918
0.934832 0.476153 0.052090
0.935682 0.476084 0.052035
0.936513 0.476017 0.051982
0.034839 0.496645 0.037977
0.034865 0.496452 0.037856
0.034892 0.496262 0.037737
0.045929 0.496311 0.037853
0.079058 0.496832 0.038440
0.112300 0.497359 0.039031
0.145654 0.497894 0.039627
0.179116 0.498434 0.040227
0.212686 0.498981 0.040831
0.246360 0.499534 0.041439
0.280138 0.500093 0.042051
0.314017 0.500658 0.042667
0.347995 0.501229 0.043288
0.382069 0.501807 0.043912
0.416240 0.502390 0.044540
0.450503 0.502979 0.045172
0.484858 0.503574 0.045807
0.519303 0.504175 0.046447
0.553835 0.504781 0.047090
0.588453 0.505393 0.047736
0.623155 0.506011 0.048387
0.657939 0.506634 0.049040
0.692804 0.507263 0.049698
0.727748 0.507897 0.050358
0.762769 0.508536 0.051022
0.796644 0.509155 0.051664
0.829681 0.509760 0.052289
0.862682 0.510367 0.052916
0.895641 0.510977 0.053543
0.928554 0.511590 0.054171
0.940049 0.511753 0.054346
0.940835 0.511691 0.054296
0.941602 0.511633 0.054247
0.037372 0.531929 0.040018
0.037401 0.531744 0.039903
0.037431 0.531564 0.039790
0.048533 0.531622 0.039914
0.081851 0.532156 0.040511
0.115277 0.532696 0.041113
0.148810 0.533243 0.041718
0.182448 0.533796 0.042328
0.216188 0.534356 0.042942
0.250029 0.534921 0.043559
0.283968 0.535493 0.044181
0.318004 0.536071 0.044807
0.352135 0.536655 0.045436
0.386359 0.537245 0.046070
0.420674 0.537840 0.046707
0.455078 0.538442 0.047347
0.489570 0.539049 0.047992
0.524147 0.539663 0.048640
0.558808 0.540282 0.049291
0.593550 0.540906 0.049946
0.628373 0.541536 0.050605
0.663274 0.542172 0.051267
0.698252 0.542813 0.051932
0.733305 0.543459 0.052601
0.768432 0.544111 0.053273
0.802142 0.544736 0.053917
0.835089 0.545349 0.054546
0.867990 0.545965 0.055175
0.900841 0.546583 0.055806
0.933639 0.547204 0.056437
0.945052 0.547375 0.056616
0.945775 0.547323 0.056570
0.946480 0.547274 0.056525
0.039913 0.567225 0.042079
0.039945 0.567050 0.041970
0.039979 0.566878 0.041864
0.051144 0.566947 0.041995
0.084643 0.567495 0.042603
0.118246 0.568048 0.043214
0.151951 0.568608 0.043829
0.185757 0.569174 0.044448
0.219660 0.569747 0.045071
0.253660 0.570326 0.045699
0.287754 0.570911 0.046330
0.321941 0.571502 0.046964
0.356218 0.572099 0.047603
0.390584 0.572702 0.048245
0.425038 0.573311 0.048891
0.459576 0.573925 0.049540
0.494198 0.574546 0.050193
0.528901 0.575172 0.050850
0.563684 0.575804 0.051510
0.598545 0.576441 0.052173
0.633483 0.577084 0.052840
0.668495 0.577733 0.053510
0.703580 0.578387 0.054183
0.738737 0.579046 0.054859
0.773963 0.579711 0.055539
0.807486 0.580343 0.056184
0.840328 0.580965 0.056816
0.873117 0.581589 0.057449
0.905848 0.582216 0.058083
0.938518 0.582845 0.058716
0.949845 0.583025 0.058899
0.950508 0.582983 0.058856
0.951153 0.582944 0.058816
0.042464 0.602536 0.044160
0.042500 0.602371 0.044058
0.042536 0.602210 0.043957
0.053763 0.602290 0.044096
0.087435 0.602851 0.044713
0.121208 0.603419 0.045334
0.155078 0.603993 0.045959
0.189043 0.604573 0.046587
0.223103 0.605159 0.047220
0.257255 0.605751 0.047856
0.291497 0.606350 0.048496
0.325828 0.606955 0.049140
0.360245 0.607565 0.049787
0.394747 0.608182 0.050438
0.429332 0.608805 0.051093
0.463998 0.609433 0.051750
0.498744 0.610067 0.052412
0.533567 0.610707 0.053077
0.568467 0.611352 0.053745
0.603440 0.612003 0.054416
0.638487 0.612660 0.055091
0.673605 0.613321 0.055768
0.708792 0.613989 0.056449
0.744047 0.614661 0.057133
0.779368 0.615339 0.057820
0.812680 0.615979 0.058466
0.845405 0.616609 0.059102
0.878069 0.617242 0.059737
0.910668 0.617878 0.060373
0.943198 0.618515 0.061009
0.954438 0.618705 0.061195
0.955041 0.618673 0.061157
0.955628 0.618645 0.061120
0.045025 0.637867 0.046261
0.045064 0.637713 0.046165
0.045104 0.637562 0.046070
0.056389 0.637655 0.046217
0.090228 0.638230 0.046843
0.124162 0.638812 0.047473
0.158190 0.639400 0.048107
0.192309 0.639995 0.048745
0.226518 0.640595 0.049387
0.260816 0.641202 0.050032
0.295199 0.641815 0.050681
0.329667 0.642434 0.051333
0.364217 0.643059 0.051989
0.398849 0.643689 0.052649
0.433559 0.644326 0.053312
0.468347 0.644968 0.053978
0.503211 0.645616 0.054647
0.538149 0.646270 0.055320
0.573159 0.646930 0.055996
0.608240 0.647594 0.056675
0.643390 0.648265 0.057357
0.678608 0.648941 0.058043
0.713891 0.649622 0.058731
0.749239 0.650308 0.059423
0.784650 0.651000 0.060117
0.817729 0.651646 0.060764
0.850326 0.652286 0.061401
0.882853 0.652928 0.062039
0.915307 0.653573 0.062677
0.947686 0.654219 0.063315
0.958835 0.654419 0.063504
0.959383 0.654398 0.063470
0.959914 0.654380 0.063437
0.047596 0.673222 0.048381
0.047638 0.673079 0.048291
0.047681 0.672940 0.048203
0.059023 0.673045 0.048357
0.093021 0.673635 0.048992
0.127110 0.674232 0.049632
0.161288 0.674835 0.050275
0.195555 0.675444 0.050922
0.229907 0.676060 0.051572
0.264343 0.676681 0.052226
0.298861 0.677309 0.052884
0.333460 0.677942 0.053545
0.368137 0.678582 0.054209
0.402892 0.679227 0.054877
0.437722 0.679878 0.055548
0.472626 0.680535 0.056222
0.507602 0.681198 0.056899
0.542648 0.681866 0.057580
0.577764 0.682540 0.058264
0.612946 0.683219 0.058951
0.648194 0.683904 0.059640
0.683507 0.684594 0.060333
0.718882 0.685289 0.061029
0.754319 0.685990 0.061727
0.789815 0.686696 0.062429
0.822641 0.687349 0.063075
0.855096 0.687999 0.063715
0.887475 0.688650 0.064355
0.919773 0.689304 0.064995
0.951988 0.689960 0.065635
0.963045 0.690170 0.065827
0.963539 0.690161 0.065796
0.964016 0.690154 0.065767
0.050177 0.708604 0.050522
0.050223 0.708473 0.050438
0.050269 0.708346 0.050356
0.061664 0.708464 0.050516
0.095815 0.709070 0.051161
0.130052 0.709682 0.051809
0.164375 0.710300 0.052461
0.198781 0.710925 0.053117
0.233270 0.711555 0.053776
0.267838 0.712192 0.054439
0.302485 0.712835 0.055104
0.337209 0.713484 0.055774
0.372007 0.714138 0.056446
0.406879 0.714799 0.057122
0.441823 0.715465 0.057801
0.476837 0.716137 0.058483
0.511920 0.716814 0.059168
0.547069 0.717497 0.059856
0.582284 0.718186 0.060548
0.617563 0.718880 0.061242
0.652905 0.719580 0.061939
0.688307 0.720285 0.062639
0.723769 0.720995 0.063342
0.759289 0.721710 0.064047
0.794865 0.722431 0.064756
0.827420 0.723091 0.065401
0.859723 0.723750 0.066043
0.891942 0.724411 0.066685
0.924073 0.725075 0.067326
0.956114 0.725739 0.067967
0.967076 0.725961 0.068162
0.967517 0.725963 0.068136
0.967944 0.725969 0.068110
0.052769 0.744017 0.052681
0.052818 0.743898 0.052604
0.052868 0.743784 0.052527
0.064314 0.743917 0.052695
0.098610 0.744538 0.053348
0.132989 0.745166 0.054006
0.167450 0.745800 0.054666
0.201990 0.746440 0.055331
0.236608 0.747087 0.055998
0.271303 0.747739 0.056669
0.306072 0.748397 0.057343
0.340915 0.749062 0.058020
0.375829 0.749732 0.058701
0.410812 0.750408 0.059384
0.445864 0.751089 0.060071
0.480983 0.751777 0.060761
0.516167 0.752469 0.061454
0.551414 0.753168 0.062149
0.586724 0.753872 0.062848
0.622094 0.754581 0.063549
0.657524 0.755296 0.064253
0.693011 0.756016 0.064960
0.728555 0.756741 0.065670
0.764154 0.757472 0.066382
0.799807 0.758207 0.067097
0.832074 0.758875 0.067742
0.864213 0.759544 0.068385
0.896260 0.760215 0.069028
0.928214 0.760887 0.069671
0.960069 0.761562 0.070312
0.970935 0.761795 0.070510
0.971327 0.761810 0.070487
0.971704 0.761828 0.070466
0.055372 0.779464 0.054861
0.055424 0.779359 0.054789
0.055477 0.779259 0.054718
0.066973 0.779405 0.054892
0.101408 0.780043 0.055555
0.135922 0.780687 0.056221
0.170514 0.781337 0.056890
0.205182 0.781994 0.057562
0.239924 0.782656 0.058238
0.274739 0.783325 0.058917
0.309625 0.783999 0.059599
0.344580 0.784679 0.060284
0.379604 0.785365 0.060972
0.414694 0.786057 0.061664
0.449848 0.786755 0.062358
0.485066 0.787458 0.063055
0.520346 0.788166 0.063755
0.555687 0.788880 0.064458
0.591086 0.789600 0.065164
0.626543 0.790325 0.065872
0.662056 0.791055 0.066583
0.697624 0.791791 0.067297
0.733246 0.792531 0.068013
0.768920 0.793277 0.068732
0.804548 0.794026 0.069452
0.836608 0.794703 0.070097
0.868572 0.795382 0.070741
0.900438 0.796063 0.071385
0.932203 0.796745 0.072028
0.963863 0.797429 0.072671
0.974630 0.797674 0.072871
0.974975 0.797702 0.072852
0.975306 0.797733 0.072834
0.057985 0.814950 0.057059
0.058041 0.814859 0.056993
0.058097 0.814772 0.056928
0.069641 0.814934 0.057109
0.104209 0.815588 0.057780
0.138852 0.816249 0.058454
0.173569 0.816916 0.059132
0.208358 0.817589 0.059812
0.243218 0.818268 0.060496
0.278147 0.818952 0.061183
0.313144 0.819643 0.061872
0.348207 0.820340 0.062565
0.383335 0.821042 0.063261
0.418525 0.821750 0.063960
0.453778 0.822464 0.064661
0.489090 0.823183 0.065366
0.524461 0.823908 0.066073
0.559890 0.824638 0.066783
0.595374 0.825373 0.067495
0.630913 0.826114 0.068210
0.666505 0.826860 0.068928
0.702150 0.827612 0.069648
0.737845 0.828368 0.070371
0.773589 0.829129 0.071097
0.809148 0.829891 0.071819
0.841029 0.830578 0.072466
0.872808 0.831268 0.073111
0.904482 0.831959 0.073755
0.936048 0.832651 0.074399
0.967503 0.833345 0.075041
0.978170 0.833602 0.075244
0.978470 0.833642 0.075229
0.978757 0.833686 0.075214
0.060587 0.850139 0.059254
0.060647 0.850076 0.059194
0.060708 0.850016 0.059136
0.072298 0.850206 0.059324
0.106993 0.850890 0.060004
0.141759 0.851579 0.060687
0.176596 0.852275 0.061373
0.211502 0.852976 0.062063
0.246475 0.853683 0.062755
0.281514 0.854395 0.063450
0.316617 0.855113 0.064148
0.351783 0.855837 0.064849
0.387010 0.856566 0.065553
0.422297 0.857300 0.066259
0.457642 0.858039 0.066969
0.493045 0.858784 0.067681
0.528503 0.859534 0.068395
0.564016 0.860289 0.069112
0.599581 0.861049 0.069832
