library/cube/Binge_Night_001.cube
# CINEGRADE LAB — Premium Cinematic LUT
# Title: Binge Night
# Category: Netflix Inspired
# Description: Cinematic teal/orange with filmic qualities inspired by streaming content
# Mood: Cinematic, binge-worthy, polished
# Variant: 2
# Generated: 2026-05-21T16:12:43.190755
TITLE "Binge Night"
LUT_3D_SIZE 5
0.001086 0.014698 0.013791
0.157302 0.016146 0.015346
0.401656 0.019627 0.018912
0.656769 0.023498 0.022845
0.836701 0.025929 0.025317
0.014877 0.214249 0.022371
0.183434 0.216062 0.024621
0.443822 0.220031 0.028951
0.712255 0.224370 0.033581
0.894457 0.227074 0.036506
0.034839 0.496645 0.037977
0.212686 0.498981 0.040831
0.484858 0.503574 0.045807
0.762769 0.508536 0.051022
0.941602 0.511633 0.054247
0.055372 0.779464 0.054861
0.239924 0.782656 0.058238
0.520346 0.788166 0.063755
0.804548 0.794026 0.069452
0.975306 0.797733 0.072834
0.070428 0.973751 0.066790
0.259578 0.977761 0.070582
0.545484 0.983824 0.076491
0.832783 0.989917 0.082486
0.993124 0.993317 0.085835
0.002542 0.015547 0.218799
0.160152 0.017073 0.219366
0.406333 0.020641 0.221993
0.662980 0.024590 0.225019
0.843396 0.027077 0.226599
0.016365 0.215104 0.224102
0.185988 0.217005 0.225487
0.447743 0.221065 0.228992
0.717292 0.225488 0.232821
0.899399 0.228248 0.234948
0.036368 0.497584 0.236841
0.214997 0.500019 0.238926
0.488146 0.504712 0.243162
0.766824 0.509767 0.247652
0.945024 0.512923 0.250137
0.056951 0.780625 0.251169
0.242051 0.783921 0.253839
0.523134 0.789533 0.258663
0.807725 0.795484 0.263667
0.977553 0.799247 0.266331
0.072063 0.975172 0.260716
0.261572 0.979185 0.263812
0.547909 0.985252 0.269022
0.835458 0.991345 0.274304
0.994622 0.994715 0.276892
0.004469 0.016878 0.487157
0.163434 0.018479 0.486435
0.411389 0.022130 0.487834
0.669524 0.026154 0.489676
0.850364 0.028693 0.490096
0.018317 0.216440 0.488221
0.188972 0.218424 0.488475
0.452050 0.222572 0.490898
0.722673 0.227076 0.493679
0.904626 0.229889 0.494766
0.038353 0.499004 0.497238
0.217737 0.501534 0.498316
0.491826 0.506324 0.501576
0.771238 0.511467 0.505111
0.948755 0.514678 0.506632
0.058982 0.782263 0.508227
0.244606 0.785660 0.509965
0.526321 0.791370 0.513871
0.811277 0.797407 0.517958
0.980142 0.801224 0.519678
0.074142 0.977032 0.514636
0.263994 0.981045 0.516808
0.550744 0.987114 0.521086
0.838540 0.993206 0.525415
0.996510 0.996544 0.526992
0.006395 0.018221 0.754587
0.166681 0.019896 0.752611
0.416363 0.023628 0.752817
0.675940 0.027727 0.753506
0.857147 0.030316 0.752795
0.020269 0.217794 0.751527
0.191926 0.219861 0.750681
0.456285 0.224095 0.752049
0.727946 0.228678 0.753806
0.909686 0.231541 0.753874
0.040341 0.500448 0.756916
0.220454 0.503072 0.757006
0.495447 0.507957 0.759310
0.775564 0.513187 0.761905
0.952350 0.516450 0.762472
0.061017 0.783930 0.764627
0.247144 0.787426 0.765443
0.529465 0.793231 0.768438
0.814765 0.799353 0.771611
0.982638 0.803219 0.772383
0.076221 0.978887 0.767916
0.266402 0.982901 0.769161
0.553551 0.988971 0.772499
0.841595 0.995061 0.775861
0.998360 0.998366 0.776403
0.007544 0.018801 0.914824
0.169162 0.020593 0.917784
0.420564 0.024447 0.922464
0.681577 0.028656 0.927165
0.863127 0.031327 0.929997
0.021583 0.218526 0.926424
0.194245 0.220706 0.928977
0.459873 0.225055 0.933321
0.732560 0.229742 0.937634
0.914054 0.232676 0.939831
0.041787 0.501373 0.941492
0.222626 0.504112 0.943592
0.498509 0.509108 0.947531
0.779317 0.514439 0.951397
0.955341 0.517767 0.952860
0.062572 0.785143 0.954442
0.249196 0.788748 0.956063
0.532107 0.794657 0.959551
0.817740 0.800869 0.962919
0.984599 0.804788 0.963590
0.077853 0.980289 0.959190
0.268355 0.984308 0.960264
0.555895 0.990385 0.963204
0.844194 0.996476 0.965966
0.999750 0.999750 0.965718
