library/cube/Binge_Night_001.cube
# CINEGRADE LAB — Premium Cinematic LUT
# Title: Binge Night
# Category: Netflix Inspired
# Description: Cinematic teal/orange with filmic qualities inspired by streaming content
# Mood: Cinematic, binge-worthy, polished
# Variant: 2
# Generated: 2026-05-21T16:12:43.190755
TITLE "Binge Night"
LUT_3D_SIZE 9
0.001086 0.014698 0.013791
0.039579 0.014561 0.013711
0.157302 0.016146 0.015346
0.278052 0.017836 0.017082
0.401656 0.019627 0.018912
0.527949 0.021516 0.020835
0.656769 0.023498 0.022845
0.787569 0.025561 0.024930
0.836701 0.025929 0.025317
0.005060 0.072472 0.015044
0.045286 0.072429 0.015114
0.167862 0.074177 0.016965
0.293091 0.076024 0.018906
0.420812 0.077968 0.020934
0.550870 0.080004 0.023044
0.683114 0.082128 0.025234
0.816152 0.084311 0.027473
0.864903 0.084745 0.027956
0.014877 0.214249 0.022371
0.056621 0.214227 0.022577
0.183434 0.216062 0.024621
0.312551 0.217998 0.026747
0.443822 0.220031 0.028951
0.577103 0.222156 0.031230
0.712255 0.224370 0.033581
0.846387 0.226611 0.035941
0.894457 0.227074 0.036506
0.024796 0.355535 0.030014
0.067867 0.355592 0.030351
0.198350 0.357562 0.032575
0.330812 0.359633 0.034873
0.465117 0.361801 0.037241
0.601130 0.364062 0.039677
0.738723 0.366411 0.042176
0.872786 0.368741 0.044630
0.919914 0.369279 0.045269
0.034839 0.496645 0.037977
0.079058 0.496832 0.038440
0.212686 0.498981 0.040831
0.347995 0.501229 0.043288
0.484858 0.503574 0.045807
0.623155 0.506011 0.048387
0.762769 0.508536 0.051022
0.895641 0.510977 0.053543
0.941602 0.511633 0.054247
0.045025 0.637867 0.046261
0.090228 0.638230 0.046843
0.226518 0.640595 0.049387
0.364217 0.643059 0.051989
0.503211 0.645616 0.054647
0.643390 0.648265 0.057357
0.784650 0.651000 0.060117
0.915307 0.653573 0.062677
0.959914 0.654380 0.063437
0.055372 0.779464 0.054861
0.101408 0.780043 0.055555
0.239924 0.782656 0.058238
0.379604 0.785365 0.060972
0.520346 0.788166 0.063755
0.662056 0.791055 0.066583
0.804548 0.794026 0.069452
0.932203 0.796745 0.072028
0.975306 0.797733 0.072834
0.065653 0.918116 0.063527
0.112402 0.919141 0.064338
0.252765 0.922184 0.067156
0.394074 0.925281 0.070017
0.536244 0.928427 0.072916
0.679194 0.931621 0.075851
0.822203 0.934844 0.078806
0.946600 0.937702 0.081384
0.988092 0.938827 0.082219
0.070428 0.973751 0.066790
0.117739 0.974753 0.067675
0.259578 0.977761 0.070582
0.402183 0.980785 0.073521
0.545484 0.983824 0.076491
0.689419 0.986876 0.079488
0.832783 0.989917 0.082486
0.953326 0.992473 0.085011
0.993124 0.993317 0.085835
0.001579 0.014886 0.084265
0.040257 0.014766 0.084014
0.158498 0.016374 0.085491
0.279727 0.018087 0.087069
0.403773 0.019901 0.088745
0.530471 0.021810 0.090515
0.659660 0.023812 0.092376
0.790734 0.025892 0.094313
0.839842 0.026272 0.094548
0.005564 0.072675 0.084945
0.045952 0.072649 0.084855
0.168983 0.074420 0.086556
0.294630 0.076291 0.088350
0.422734 0.078256 0.090233
0.553141 0.080312 0.092201
0.685700 0.082456 0.094251
0.818901 0.084654 0.096349
0.867596 0.085101 0.096688
0.015390 0.214443 0.091734
0.057276 0.214441 0.091791
0.184485 0.216302 0.093695
0.313963 0.218261 0.095682
0.445563 0.220317 0.097751
0.579141 0.222464 0.099896
0.714559 0.224700 0.102114
0.848736 0.226957 0.104340
0.896722 0.227433 0.104769
0.025320 0.355742 0.098875
0.068514 0.355821 0.099073
0.199338 0.357818 0.101165
0.332109 0.359914 0.103333
0.466692 0.362106 0.105573
0.602955 0.364390 0.107881
0.740770 0.366762 0.110255
0.874761 0.369107 0.112579
0.921781 0.369660 0.113089
0.035376 0.496884 0.106369
0.079700 0.497095 0.106701
0.213618 0.499270 0.108966
0.349187 0.501545 0.111299
0.486284 0.503915 0.113696
0.624788 0.506376 0.116154
0.764583 0.508924 0.118670
0.897275 0.511381 0.121063
0.943107 0.512052 0.121643
0.045575 0.638156 0.114211
0.090868 0.638543 0.114668
0.227402 0.640936 0.117092
0.365318 0.643426 0.119576
0.504504 0.646009 0.122115
0.644851 0.648682 0.124708
0.786259 0.651441 0.127350
0.916639 0.654027 0.129786
0.961099 0.654851 0.130423
0.055937 0.779817 0.122390
0.102049 0.780421 0.122964
0.240766 0.783062 0.125531
0.380624 0.785797 0.128150
0.521523 0.788624 0.130817
0.663370 0.791537 0.133529
0.805924 0.794530 0.136281
0.933277 0.797263 0.138734
0.976221 0.798266 0.139418
0.066239 0.918617 0.130656
0.113050 0.919653 0.131349
0.253576 0.922710 0.134052
0.395029 0.925820 0.136797
0.537325 0.928978 0.139580
0.680385 0.932183 0.142399
0.823434 0.935417 0.145236
0.947467 0.938275 0.147687
0.988790 0.939404 0.148399
0.071024 0.974240 0.133516
0.118385 0.975243 0.134283
0.260356 0.978253 0.137074
0.403077 0.981278 0.139896
0.546480 0.984319 0.142747
0.690506 0.987372 0.145625
0.833906 0.990413 0.148501
0.954033 0.992960 0.150894
0.993661 0.993799 0.151588
0.002542 0.015547 0.218799
0.041400 0.015442 0.218212
0.160152 0.017073 0.219366
0.281852 0.018807 0.220627
0.406333 0.020641 0.221993
0.533429 0.022570 0.223458
0.662980 0.024590 0.225019
0.794318 0.026687 0.226661
0.843396 0.027077 0.226599
0.006533 0.073347 0.218360
0.047081 0.073337 0.217956
0.170559 0.075131 0.219356
0.296617 0.077022 0.220854
0.425098 0.079008 0.222446
0.555847 0.081083 0.224128
0.688716 0.083245 0.225896
0.822067 0.085459 0.227715
0.870701 0.085915 0.227776
0.016365 0.215104 0.224102
0.058391 0.215121 0.223866
0.185988 0.217005 0.225487
0.315821 0.218987 0.227197
0.447743 0.221065 0.228992
0.581613 0.223233 0.230868
0.717292 0.225488 0.232821
0.851501 0.227760 0.234782
0.899399 0.228248 0.234948
0.026303 0.356413 0.230266
0.069618 0.356513 0.230188
0.200775 0.358534 0.232014
0.333849 0.360655 0.233919
0.468705 0.362870 0.235901
0.605212 0.365176 0.237955
0.743244 0.367569 0.240077
0.877152 0.369928 0.242148
0.924060 0.370495 0.242407
0.036368 0.497584 0.236841
0.080796 0.497817 0.236913
0.214997 0.500019 0.238926
0.350821 0.502319 0.241011
0.488146 0.504712 0.243162
0.626851 0.507196 0.245377
0.766824 0.509767 0.247652
0.899325 0.512237 0.249800
0.945024 0.512923 0.250137
0.046578 0.638902 0.243816
0.091958 0.639314 0.244026
0.228730 0.641733 0.246209
0.366858 0.644248 0.248454
0.506231 0.646856 0.250757
0.646743 0.649553 0.253115
0.788293 0.652334 0.255525
0.918388 0.654933 0.257719
0.962699 0.655772 0.258121
0.056951 0.780625 0.251169
0.103137 0.781254 0.251505
0.242051 0.783921 0.253839
0.382083 0.786682 0.256226
0.523134 0.789533 0.258663
0.665113 0.792470 0.261146
0.807725 0.795484 0.263667
0.934770 0.798229 0.265882
0.977553 0.799247 0.266331
0.067271 0.919565 0.258642
0.114142 0.920613 0.259102
0.254828 0.923683 0.261576
0.396421 0.926804 0.264092
0.538839 0.929974 0.266646
0.682005 0.933189 0.269235
0.825092 0.936432 0.271841
0.948755 0.939289 0.274050
0.989908 0.940422 0.274523
0.072063 0.975172 0.260716
0.119472 0.976174 0.261251
0.261572 0.979185 0.263812
0.404406 0.982211 0.266403
0.547909 0.985252 0.269022
0.692023 0.988306 0.271665
0.835458 0.991345 0.274304
0.955165 0.993881 0.276447
0.994622 0.994715 0.276892
0.003506 0.016211 0.353095
0.042542 0.016121 0.352177
0.161797 0.017774 0.353013
0.283963 0.019530 0.353963
0.408872 0.021384 0.355022
0.536360 0.023332 0.356187
0.666268 0.025371 0.357452
0.797858 0.027484 0.358802
0.846904 0.027884 0.358448
0.007503 0.074023 0.351554
0.048208 0.074029 0.350840
0.172127 0.075844 0.351942
0.298591 0.077757 0.353148
0.427441 0.079762 0.354453
0.558527 0.081857 0.355853
0.691701 0.084037 0.357343
0.825190 0.086265 0.358886
0.873761 0.086731 0.358673
0.017341 0.215770 0.356264
0.059504 0.215805 0.355738
0.187483 0.217712 0.357080
0.317666 0.219717 0.358515
0.449905 0.221816 0.360040
0.584061 0.224005 0.361651
0.719996 0.226280 0.363342
0.854226 0.228567 0.365040
0.902033 0.229067 0.364946
0.027286 0.357090 0.361462
0.070720 0.357210 0.361112
0.202205 0.359256 0.362675
0.335578 0.361400 0.364322
0.470702 0.363638 0.366048
0.607448 0.365966 0.367850
0.745693 0.368380 0.369724
0.879506 0.370754 0.371543
0.926299 0.371334 0.371553
0.037360 0.498291 0.367131
0.081890 0.498546 0.366945
0.216370 0.500774 0.368709
0.352445 0.503098 0.370547
0.489993 0.505515 0.372455
0.628896 0.508022 0.374429
0.769042 0.510614 0.376465
0.901342 0.513098 0.378369
0.946907 0.513798 0.378467
0.047581 0.639656 0.373247
0.093048 0.640091 0.373212
0.230053 0.642536 0.375156
0.368389 0.645077 0.377164
0.507946 0.647709 0.379233
0.648619 0.650429 0.381358
0.790308 0.653232 0.383536
0.920108 0.655843 0.385491
0.964268 0.656697 0.385657
0.057966 0.781440 0.379781
0.104224 0.782093 0.379881
0.243331 0.784787 0.381983
0.383533 0.787574 0.384140
0.524733 0.790449 0.386347
0.666842 0.793408 0.388601
0.809509 0.796443 0.390893
0.936239 0.799201 0.392870
0.978859 0.800233 0.393084
0.068303 0.920517 0.386467
0.115233 0.921575 0.386695
0.256075 0.924658 0.388940
0.397805 0.927791 0.391227
0.540343 0.930972 0.393552
0.683613 0.934198 0.395911
0.826737 0.937448 0.398284
0.950024 0.940305 0.400251
0.991007 0.941441 0.400485
0.073102 0.976102 0.387756
0.120558 0.977104 0.388060
0.262785 0.980116 0.390390
0.405730 0.983143 0.392750
0.549330 0.986184 0.395135
0.693531 0.989238 0.397543
0.837003 0.992276 0.399942
0.956284 0.994802 0.401833
0.995571 0.995630 0.402027
0.004469 0.016878 0.487157
0.043681 0.016804 0.485912
0.163434 0.018479 0.486435
0.286059 0.020255 0.487077
0.411389 0.022130 0.487834
0.539264 0.024097 0.488702
0.669524 0.026154 0.489676
0.801354 0.028283 0.490737
0.850364 0.028693 0.490096
0.008473 0.074702 0.484528
0.049333 0.074724 0.483509
0.173687 0.076561 0.484318
0.300550 0.078494 0.485236
0.429766 0.080520 0.486257
0.561183 0.082633 0.487378
0.694656 0.084832 0.488595
0.828271 0.087074 0.489866
0.876777 0.087550 0.489380
0.018317 0.216440 0.488221
0.060615 0.216494 0.487409
0.188972 0.218424 0.488475
0.319498 0.220452 0.489640
0.452050 0.222572 0.490898
0.586486 0.224781 0.492246
0.722673 0.227076 0.493679
0.856911 0.229377 0.495118
0.904626 0.229889 0.494766
0.028270 0.357772 0.492466
0.071820 0.357912 0.491847
0.203629 0.359983 0.493150
0.337294 0.362151 0.494541
0.472682 0.364411 0.496015
0.609664 0.366761 0.497568
0.748116 0.369196 0.499196
0.881823 0.371583 0.500765
0.928500 0.372176 0.500528
0.038353 0.499004 0.497238
0.082983 0.499281 0.496799
0.217737 0.501534 0.498316
0.354058 0.503883 0.499910
0.491826 0.506324 0.501576
0.630923 0.508853 0.503312
0.771238 0.511467 0.505111
0.903326 0.513963 0.506773
0.948755 0.514678 0.506632
0.048585 0.640417 0.502506
0.094136 0.640875 0.502228
0.231370 0.643346 0.503935
0.369910 0.645912 0.505709
0.509647 0.648568 0.507544
0.650477 0.651310 0.509438
0.792303 0.654135 0.511385
0.921800 0.656759 0.513101
0.965808 0.657627 0.513033
0.058982 0.782263 0.508227
0.105311 0.782940 0.508093
0.244606 0.785660 0.509965
0.384975 0.788471 0.511892
0.526321 0.791370 0.513871
0.668556 0.794352 0.515897
0.811277 0.797407 0.517958
0.937686 0.800177 0.519698
0.980142 0.801224 0.519678
0.069336 0.921471 0.514130
0.116323 0.922540 0.514127
0.257318 0.925635 0.516144
0.399183 0.928780 0.518202
0.541838 0.931972 0.520298
0.685210 0.935208 0.522427
0.828370 0.938466 0.524567
0.951275 0.941322 0.526291
0.992088 0.942461 0.526284
0.074142 0.977032 0.514636
0.121644 0.978032 0.514708
0.263994 0.981045 0.516808
0.407047 0.984073 0.518935
0.550744 0.987114 0.521086
0.695031 0.990168 0.523257
0.838540 0.993206 0.525415
0.957393 0.995720 0.527051
0.996510 0.996544 0.526992
0.005432 0.017548 0.620987
0.044818 0.017489 0.619420
0.165062 0.019186 0.619633
0.288139 0.020984 0.619972
0.413886 0.022878 0.620432
0.542142 0.024864 0.621007
0.672748 0.026940 0.621693
0.804808 0.029084 0.622470
0.853779 0.029503 0.621544
0.009443 0.075385 0.617286
0.050455 0.075423 0.615966
0.175239 0.077281 0.616485
0.302496 0.079235 0.617118
0.432071 0.081280 0.617860
0.563815 0.083413 0.618707
0.697582 0.085629 0.619653
0.831311 0.087885 0.620654
0.879748 0.088371 0.619900
0.019293 0.217115 0.619975
0.061724 0.217187 0.618880
0.190453 0.219140 0.619675
0.321318 0.221190 0.620572
0.454176 0.223331 0.621567
0.588889 0.225561 0.622656
0.725323 0.227875 0.623833
0.859558 0.230190 0.625015
0.907177 0.230713 0.624408
0.029254 0.358459 0.623279
0.072919 0.358620 0.622395
0.205047 0.360715 0.623442
0.339000 0.362906 0.624579
0.474646 0.365189 0.625803
0.611859 0.367560 0.627110
0.750515 0.370016 0.628494
0.884105 0.372417 0.629816
0.930664 0.373023 0.629335
0.039347 0.499723 0.627166
0.084075 0.500022 0.626475
0.219098 0.502300 0.627748
0.355661 0.504674 0.629100
0.493643 0.507138 0.630528
0.632931 0.509689 0.632026
0.773412 0.512324 0.633591
0.905278 0.514834 0.635012
0.950569 0.515562 0.634633
0.049590 0.641184 0.631593
0.095224 0.641666 0.631075
0.232683 0.644163 0.632547
0.371422 0.646753 0.634088
0.511336 0.649432 0.635691
0.652320 0.652197 0.637354
0.794279 0.655044 0.639072
0.923464 0.657679 0.640550
0.967319 0.658562 0.640248
0.059999 0.783093 0.636509
0.106397 0.783794 0.636142
0.245877 0.786540 0.637785
0.386409 0.789375 0.639484
0.527898 0.792298 0.641234
0.670257 0.795302 0.643032
0.813029 0.798378 0.644864
0.939109 0.801158 0.646366
0.981402 0.802219 0.646110
0.070370 0.922428 0.641632
0.117413 0.923507 0.641399
0.258558 0.926615 0.643188
0.400554 0.929771 0.645018
0.543323 0.932974 0.646884
0.686795 0.936219 0.648782
0.829991 0.939486 0.650689
0.952509 0.942341 0.652169
0.993152 0.943482 0.651919
0.075181 0.977960 0.641356
0.122729 0.978960 0.641197
0.265199 0.981973 0.643065
0.408360 0.985002 0.644959
0.552151 0.988043 0.646874
0.696523 0.991098 0.648806
0.840071 0.994134 0.650722
0.958491 0.996638 0.652100
0.997439 0.997456 0.651785
0.006395 0.018221 0.754587
0.045953 0.018177 0.752702
0.166681 0.019896 0.752611
0.290205 0.021714 0.752651
0.416363 0.023628 0.752817
0.544993 0.025634 0.753103
0.675940 0.027727 0.753506
0.808218 0.029887 0.754002
0.857147 0.030316 0.752795
0.010413 0.076071 0.749829
0.051577 0.076125 0.748212
0.176783 0.078005 0.748446
0.304428 0.079979 0.748798
0.434357 0.082043 0.749265
0.566421 0.084195 0.749840
0.700478 0.086429 0.750519
0.834310 0.088698 0.751254
0.882675 0.089194 0.750235
0.020269 0.217794 0.751527
0.062832 0.217884 0.750155
0.191926 0.219861 0.750681
0.323125 0.221932 0.751314
0.456285 0.224095 0.752049
0.591270 0.226344 0.752882
0.727946 0.228678 0.753806
0.862166 0.231006 0.754733
0.909686 0.231541 0.753874
0.030238 0.359152 0.753904
0.074017 0.359333 0.752758
0.206458 0.361453 0.753550
0.340694 0.363667 0.754438
0.476594 0.365972 0.755415
0.614033 0.368364 0.756477
0.752890 0.370840 0.757620
0.886351 0.373254 0.758696
0.932789 0.373873 0.757972
0.040341 0.500448 0.756916
0.085166 0.500769 0.755976
0.220454 0.503072 0.757006
0.357254 0.505470 0.758120
0.495447 0.507957 0.759310
0.634920 0.510530 0.760574
0.775564 0.513187 0.761905
0.907199 0.515708 0.763086
0.952350 0.516450 0.762472
0.050595 0.641958 0.760511
0.096311 0.642463 0.759754
0.233990 0.644985 0.760993
0.372925 0.647600 0.762302
0.513011 0.650303 0.763675
0.654147 0.653090 0.765109
0.796236 0.655958 0.766598
0.925101 0.658605 0.767839
0.968802 0.659502 0.767303
0.061017 0.783930 0.764627
0.107483 0.784655 0.764028
0.247144 0.787426 0.765443
0.387836 0.790286 0.766914
0.529465 0.793231 0.768438
0.671945 0.796258 0.770008
0.814765 0.799353 0.771611
0.940510 0.802145 0.772874
0.982638 0.803219 0.772383
0.071403 0.923387 0.768974
0.118502 0.924477 0.768511
0.259794 0.927597 0.770072
0.401918 0.930764 0.771673
0.544800 0.933977 0.773310
0.688370 0.937233 0.774977
0.831601 0.940508 0.776650
0.953727 0.943360 0.777883
0.994198 0.944505 0.777389
0.076221 0.978887 0.767916
0.123813 0.979886 0.767525
0.266402 0.982901 0.769161
0.409667 0.985929 0.770820
0.553551 0.988971 0.772499
0.698008 0.992026 0.774191
0.841595 0.995061 0.775861
0.959579 0.997554 0.776980
0.998360 0.998366 0.776403
0.007176 0.018716 0.863074
0.046916 0.018700 0.862606
0.168134 0.020452 0.863873
0.292111 0.022302 0.865203
0.418684 0.024247 0.866592
0.547694 0.026282 0.868037
0.678986 0.028403 0.869533
0.811481 0.030587 0.871057
0.860374 0.031035 0.870809
0.011242 0.076619 0.862806
0.052565 0.076700 0.862384
0.178199 0.078611 0.863754
0.306236 0.080615 0.865178
0.436522 0.082709 0.866652
0.568912 0.084887 0.868172
0.703261 0.087147 0.869734
0.837192 0.089438 0.871287
0.885489 0.089951 0.871024
0.021139 0.218371 0.868255
0.063841 0.218488 0.867863
0.193304 0.220496 0.869313
0.324839 0.222598 0.870808
0.458304 0.224789 0.872344
0.593562 0.227066 0.873918
0.730483 0.229425 0.875526
0.864682 0.231773 0.877074
0.912109 0.232325 0.876778
0.031145 0.359772 0.873674
0.075044 0.359981 0.873304
0.207799 0.362132 0.874818
0.342320 0.364375 0.876369
0.478476 0.366709 0.877952
0.616143 0.369128 0.879565
0.755201 0.371630 0.881203
0.888528 0.374061 0.882714
0.934848 0.374698 0.882374
0.041281 0.501125 0.879056
0.086208 0.501474 0.878699
0.221761 0.503808 0.880261
0.358799 0.506234 0.881851
0.497204 0.508749 0.883465
0.636863 0.511349 0.885100
0.777670 0.514030 0.886752
0.909068 0.516567 0.888196
0.954081 0.517326 0.887799
0.051565 0.642703 0.884387
0.097366 0.643235 0.884033
0.235266 0.645787 0.885626
0.374397 0.648430 0.887238
0.514656 0.651160 0.888866
0.655941 0.653972 0.890506
0.798161 0.656865 0.892156
0.926701 0.659524 0.893503
0.970248 0.660437 0.893035
0.062013 0.784752 0.889649
0.108549 0.785504 0.889285
0.248392 0.788303 0.890891
0.389242 0.791190 0.892508
0.531010 0.794161 0.894132
0.673611 0.797212 0.895761
0.816479 0.800328 0.897380
0.941886 0.803131 0.898613
0.983849 0.804220 0.898058
0.072426 0.924338 0.894603
0.119581 0.925441 0.894223
0.261018 0.928574 0.895828
0.403271 0.931754 0.897432
0.546264 0.934979 0.899033
0.689931 0.938245 0.900628
0.833198 0.941529 0.902193
0.954927 0.944380 0.903277
0.995228 0.945528 0.902608
0.077256 0.979808 0.893655
0.124893 0.980808 0.893212
0.267599 0.983824 0.894763
0.410968 0.986854 0.896304
0.554945 0.989897 0.897831
0.699486 0.992952 0.899342
0.843115 0.995987 0.900804
0.960659 0.998468 0.901680
0.999275 0.999276 0.900846
0.007544 0.018801 0.914824
0.047463 0.018810 0.915460
0.169162 0.020593 0.917784
0.293583 0.022474 0.920120
0.420564 0.024447 0.922464
0.549946 0.026509 0.924814
0.681577 0.028656 0.927165
0.814275 0.030863 0.929493
0.863127 0.031327 0.929997
0.011651 0.076751 0.918049
0.053130 0.076856 0.918559
0.179183 0.078797 0.920817
0.307604 0.080829 0.923079
0.438242 0.082949 0.925343
0.570950 0.085154 0.927605
0.705585 0.087438 0.929863
0.839602 0.089748 0.932061
0.887828 0.090277 0.932394
0.021583 0.218526 0.926424
0.064420 0.218669 0.926801
0.194245 0.220706 0.928977
0.326110 0.222836 0.931151
0.459873 0.225055 0.933321
0.595400 0.227358 0.935483
0.732560 0.229742 0.937634
0.866726 0.232108 0.939676
0.914054 0.232676 0.939831
0.031621 0.359967 0.934232
0.075636 0.360202 0.934475
0.208701 0.362382 0.936562
0.343500 0.364654 0.938641
0.479907 0.367015 0.940710
0.617797 0.369460 0.942765
0.757051 0.371986 0.944804
0.890233 0.374435 0.946669
0.936431 0.375088 0.946645
0.041787 0.501373 0.941492
0.086813 0.501749 0.941601
0.222626 0.504112 0.943592
0.359897 0.506566 0.945570
0.498509 0.509108 0.947531
0.638351 0.511733 0.949474
0.779317 0.514439 0.951397
0.910467 0.516991 0.953066
0.955341 0.517767 0.952860
0.052098 0.643017 0.948223
0.097982 0.643576 0.948199
0.236098 0.646157 0.950087
0.375421 0.648827 0.951957
0.515848 0.651583 0.953806
0.657282 0.654421 0.955632
0.799628 0.657337 0.957432
0.927835 0.660009 0.958889
0.971228 0.660938 0.958501
0.062572 0.785143 0.954442
0.109177 0.785921 0.954284
0.249196 0.788748 0.956063
0.390202 0.791661 0.957820
0.532107 0.794657 0.959551
0.674826 0.797732 0.961255
0.817740 0.800869 0.962919
0.942801 0.803684 0.964160
0.984599 0.804788 0.963590
0.073011 0.924852 0.959951
0.120221 0.925968 0.959665
0.261800 0.929114 0.961334
0.404178 0.932308 0.962973
0.547281 0.935544 0.964582
0.691044 0.938821 0.966157
0.834347 0.942114 0.967676
0.955675 0.944964 0.968683
0.995806 0.946115 0.967920
0.077853 0.980289 0.959190
0.125534 0.981290 0.958742
0.268355 0.984308 0.960264
0.411826 0.987340 0.961752
0.555895 0.990385 0.963204
0.700521 0.993440 0.964619
0.844194 0.996476 0.965966
0.961296 0.998947 0.966700
0.999750 0.999750 0.965718
