library/cube/Bleach_Raw_001.cube
# CINEGRADE LAB — Premium Cinematic LUT
# Title: Bleach Raw
# Category: Bleach Bypass
# Description: Silver retention, high contrast, desaturated bleach bypass film process
# Mood: Gritty, stark, intense
# Variant: 2
# Generated: 2026-05-21T16:12:56.247778
TITLE "Bleach Raw"
LUT_3D_SIZE 9
0.000000 0.000000 0.000000
0.000001 0.000000 0.000000
0.123078 0.012267 0.010302
0.242743 0.024170 0.020286
0.359609 0.035773 0.030007
0.474819 0.047190 0.039561
0.588894 0.058475 0.048995
0.690926 0.068546 0.057402
0.691890 0.068581 0.057402
0.000013 0.000000 0.000000
0.000022 0.000000 0.000000
0.123731 0.012291 0.010302
0.243984 0.024216 0.020286
0.361392 0.035839 0.030007
0.477110 0.047274 0.039561
0.591659 0.058576 0.048995
0.694084 0.068660 0.057402
0.694976 0.068691 0.057402
0.047219 0.161534 0.034655
0.047301 0.161618 0.034655
0.171660 0.174012 0.044957
0.292514 0.186035 0.054941
0.410481 0.197751 0.064662
0.526720 0.209276 0.074216
0.641757 0.220662 0.083650
0.744591 0.230824 0.092057
0.745467 0.230916 0.092057
0.093418 0.318630 0.068243
0.093559 0.318777 0.068243
0.218507 0.331250 0.078545
0.339904 0.343348 0.088529
0.458373 0.355135 0.098250
0.575078 0.366726 0.107805
0.690546 0.378173 0.117238
0.793739 0.388393 0.125645
0.794585 0.388525 0.125645
0.138783 0.472011 0.100944
0.138972 0.472201 0.100944
0.264450 0.484732 0.111246
0.386332 0.496883 0.121230
0.505246 0.508719 0.130951
0.622360 0.520354 0.140505
0.738206 0.531842 0.149939
0.841707 0.542097 0.158346
0.842511 0.542250 0.158346
0.183700 0.623109 0.133086
0.183928 0.623324 0.133086
0.309876 0.635891 0.143388
0.432187 0.648075 0.153372
0.551489 0.659939 0.163093
0.668958 0.671598 0.172648
0.785127 0.683107 0.182081
0.888887 0.693376 0.190488
0.889639 0.693533 0.190488
0.228321 0.772534 0.164821
0.228575 0.772756 0.164821
0.354937 0.785341 0.175123
0.477620 0.797537 0.185107
0.597256 0.809409 0.194828
0.715025 0.821072 0.204382
0.831462 0.832581 0.213816
0.934346 0.842847 0.222223
0.934936 0.842989 0.222223
0.268369 0.905915 0.193104
0.268637 0.906124 0.193104
0.395350 0.918702 0.203406
0.518345 0.930889 0.213390
0.638258 0.942746 0.223111
0.756270 0.954393 0.232665
0.872918 0.965880 0.242099
0.973373 0.976120 0.250506
0.973728 0.976229 0.250506
0.269242 0.906557 0.193104
0.269486 0.906714 0.193104
0.396470 0.919248 0.203406
0.519699 0.931388 0.213390
0.639810 0.943198 0.223111
0.757990 0.954795 0.232665
0.874778 0.966233 0.242099
0.974418 0.976421 0.250506
0.974648 0.976474 0.250506
0.000000 0.000000 0.000000
0.000002 0.000000 0.000000
0.123145 0.012269 0.010302
0.242872 0.024175 0.020286
0.359794 0.035780 0.030007
0.475058 0.047199 0.039561
0.589183 0.058486 0.048995
0.691255 0.068558 0.057402
0.692212 0.068593 0.057402
0.000015 0.000000 0.000000
0.000025 0.000000 0.000000
0.123796 0.012293 0.010302
0.244105 0.024220 0.020286
0.361566 0.035845 0.030007
0.477332 0.047282 0.039561
0.591927 0.058585 0.048995
0.694389 0.068670 0.057402
0.695274 0.068701 0.057402
0.047247 0.161563 0.034655
0.047328 0.161646 0.034655
0.171743 0.174041 0.044957
0.292649 0.186065 0.054941
0.410663 0.197782 0.064662
0.526947 0.209307 0.074216
0.642024 0.220693 0.083650
0.744891 0.230856 0.092057
0.745759 0.230947 0.092057
0.093466 0.318681 0.068243
0.093607 0.318826 0.068243
0.218606 0.331299 0.078545
0.340049 0.343397 0.088529
0.458560 0.355183 0.098250
0.575303 0.366773 0.107805
0.690808 0.378220 0.117238
0.794029 0.388438 0.125645
0.794867 0.388569 0.125645
0.138847 0.472076 0.100944
0.139036 0.472264 0.100944
0.264559 0.484794 0.111246
0.386482 0.496944 0.121230
0.505433 0.508777 0.130951
0.622581 0.520411 0.140505
0.738458 0.531898 0.149939
0.841983 0.542150 0.158346
0.842779 0.542300 0.158346
0.183778 0.623183 0.133086
0.184004 0.623395 0.133086
0.309992 0.635960 0.143388
0.432339 0.648141 0.153372
0.551674 0.660002 0.163093
0.669172 0.671659 0.172648
0.785366 0.683164 0.182081
0.889145 0.693431 0.190488
0.889889 0.693584 0.190488
0.228408 0.772611 0.164821
0.228660 0.772829 0.164821
0.355057 0.785410 0.175123
0.477770 0.797603 0.185107
0.597434 0.809471 0.194828
0.715227 0.821131 0.204382
0.831684 0.832635 0.213816
0.934550 0.842897 0.222223
0.935129 0.843034 0.222223
0.268461 0.905988 0.193104
0.268726 0.906192 0.193104
0.395469 0.918765 0.203406
0.518490 0.930947 0.213390
0.638424 0.942800 0.223111
0.756455 0.954442 0.232665
0.873120 0.965924 0.242099
0.973498 0.976159 0.250506
0.973840 0.976262 0.250506
0.269326 0.906612 0.193104
0.269568 0.906764 0.193104
0.396577 0.919293 0.203406
0.519826 0.931429 0.213390
0.639955 0.943234 0.223111
0.758149 0.954826 0.232665
0.874948 0.966258 0.242099
0.974500 0.976441 0.250506
0.974718 0.976488 0.250506
0.004719 0.004162 0.134507
0.004729 0.004165 0.134507
0.127945 0.016439 0.144808
0.247740 0.028350 0.154793
0.364726 0.039959 0.164513
0.480049 0.051383 0.174068
0.594230 0.062673 0.183501
0.696351 0.072749 0.191909
0.697306 0.072785 0.191909
0.004762 0.004171 0.134507
0.004779 0.004173 0.134507
0.128618 0.016471 0.144808
0.248989 0.028402 0.154793
0.366509 0.040031 0.164513
0.482330 0.051472 0.174068
0.596976 0.062779 0.183501
0.699481 0.072867 0.191909
0.700365 0.072899 0.191909
0.052040 0.165770 0.169162
0.052129 0.165854 0.169162
0.176606 0.178252 0.179463
0.297568 0.190279 0.189448
0.415635 0.201998 0.199168
0.531968 0.213526 0.208723
0.647091 0.224914 0.218156
0.749996 0.235079 0.226564
0.750861 0.235170 0.226564
0.098301 0.322916 0.202750
0.098448 0.323061 0.202750
0.223502 0.335536 0.213052
0.344997 0.347635 0.223036
0.463555 0.359423 0.232757
0.580342 0.371014 0.242311
0.695887 0.382462 0.251745
0.799142 0.392680 0.260152
0.799975 0.392810 0.260152
0.143718 0.476333 0.235451
0.143912 0.476519 0.235451
0.269484 0.489049 0.245753
0.391454 0.501199 0.255737
0.510446 0.513033 0.265458
0.627632 0.524666 0.275012
0.743543 0.536152 0.284446
0.847097 0.546403 0.292853
0.847888 0.546552 0.292853
0.188679 0.627453 0.267593
0.188908 0.627662 0.267593
0.314941 0.640226 0.277895
0.437328 0.652407 0.287879
0.556698 0.664266 0.297600
0.674229 0.675921 0.307154
0.790452 0.687425 0.316588
0.894255 0.697689 0.324995
0.894993 0.697839 0.324995
0.233334 0.776888 0.299328
0.233588 0.777102 0.299328
0.360023 0.789681 0.309629
0.482771 0.801871 0.319614
0.602465 0.813736 0.329334
0.720285 0.825393 0.338889
0.836766 0.836895 0.348322
0.939386 0.847152 0.356730
0.939941 0.847286 0.356730
0.273405 0.910263 0.327611
0.273671 0.910463 0.327611
0.400447 0.923033 0.337912
0.523496 0.935211 0.347897
0.643456 0.947060 0.357617
0.761508 0.958697 0.367172
0.878191 0.970175 0.376605
0.978206 0.980405 0.385013
0.978519 0.980504 0.385013
0.274274 0.910873 0.327611
0.274517 0.911020 0.327611
0.401553 0.923545 0.337912
0.524826 0.935677 0.347897
0.644974 0.947477 0.357617
0.763186 0.959065 0.367172
0.879998 0.970492 0.376605
0.979108 0.980669 0.385013
0.979294 0.980712 0.385013
0.009298 0.008198 0.264873
0.009316 0.008203 0.264873
0.132604 0.020483 0.275174
0.252466 0.032398 0.285159
0.369515 0.044011 0.294879
0.484897 0.055439 0.304434
0.599133 0.066733 0.313867
0.701301 0.076813 0.322275
0.702255 0.076851 0.322275
0.009367 0.008215 0.264873
0.009392 0.008219 0.264873
0.133297 0.020521 0.275174
0.253731 0.032457 0.285159
0.371308 0.044090 0.294879
0.487183 0.055534 0.304434
0.601879 0.066844 0.313867
0.704427 0.076936 0.322275
0.705309 0.076970 0.322275
0.056692 0.169850 0.299528
0.056787 0.169935 0.299528
0.181324 0.182336 0.309829
0.302343 0.194365 0.319814
0.420462 0.206087 0.329534
0.536843 0.217617 0.339089
0.652011 0.229007 0.348522
0.754954 0.239174 0.356930
0.755817 0.239265 0.356930
0.102993 0.327023 0.333116
0.103145 0.327168 0.333116
0.228254 0.339644 0.343417
0.349800 0.351745 0.353402
0.468404 0.363534 0.363123
0.585234 0.375126 0.372677
0.700819 0.386574 0.382110
0.804106 0.396793 0.390518
0.804936 0.396922 0.390518
0.148444 0.480460 0.365817
0.148642 0.480645 0.365817
0.274264 0.493175 0.376118
0.396278 0.505325 0.386103
0.515311 0.517159 0.395823
0.632535 0.528791 0.405378
0.748480 0.540277 0.414811
0.852062 0.550527 0.423219
0.852848 0.550674 0.423219
0.193434 0.631593 0.397959
0.193667 0.631800 0.397959
0.319743 0.644363 0.408261
0.442169 0.656542 0.418245
0.561575 0.668400 0.427966
0.679137 0.680053 0.437520
0.795389 0.691555 0.446954
0.899215 0.701817 0.455361
0.899947 0.701963 0.455361
0.238113 0.781034 0.429694
0.238370 0.781245 0.429694
0.364842 0.793822 0.439995
0.487623 0.806009 0.449980
0.607347 0.817872 0.459700
0.725194 0.829525 0.469255
0.841698 0.841024 0.478688
0.944068 0.851278 0.487096
0.944597 0.851407 0.487096
0.278201 0.914408 0.457977
0.278469 0.914603 0.457977
0.405276 0.927170 0.468278
0.528354 0.939344 0.478263
0.648337 0.951189 0.487983
0.766411 0.962822 0.497538
0.883112 0.974296 0.506971
0.982757 0.984521 0.515379
0.983041 0.984614 0.515379
0.279074 0.915003 0.457977
0.279318 0.915145 0.457977
0.406380 0.927666 0.468278
0.529676 0.939793 0.478263
0.649843 0.951590 0.487983
0.768071 0.963172 0.497538
0.884896 0.974595 0.506971
0.983559 0.984767 0.515379
0.983715 0.984804 0.515379
0.013761 0.012129 0.391795
0.013787 0.012137 0.391795
0.137146 0.024421 0.402096
0.257075 0.036340 0.412080
0.374185 0.047958 0.421801
0.489626 0.059390 0.431356
0.603917 0.070688 0.440789
0.706131 0.080770 0.449197
0.707084 0.080810 0.449197
0.013855 0.012154 0.391795
0.013887 0.012160 0.391795
0.137859 0.024467 0.402096
0.258354 0.036406 0.412080
0.375988 0.048043 0.421801
0.491916 0.059491 0.431356
0.606662 0.070804 0.440789
0.709251 0.080898 0.449197
0.710132 0.080933 0.449197
0.061226 0.173823 0.426450
0.061326 0.173909 0.426450
0.185924 0.186313 0.436751
0.306999 0.198345 0.446736
0.425169 0.210070 0.456456
0.541598 0.221601 0.466011
0.656810 0.232994 0.475444
0.759790 0.243162 0.483852
0.760649 0.243253 0.483852
0.107566 0.331023 0.460038
0.107723 0.331168 0.460038
0.232887 0.343646 0.470339
0.354482 0.355748 0.480324
0.473132 0.367538 0.490044
0.590004 0.379130 0.499599
0.705628 0.390580 0.509032
0.808947 0.400799 0.517440
0.809773 0.400926 0.517440
0.153051 0.484480 0.492739
0.153253 0.484664 0.492739
0.278923 0.497194 0.503040
0.400982 0.509344 0.513025
0.520055 0.521177 0.522745
0.637315 0.532809 0.532300
0.753294 0.544294 0.541733
0.856902 0.554543 0.550141
0.857684 0.554688 0.550141
0.198069 0.635625 0.524881
0.198304 0.635830 0.524881
0.324423 0.648392 0.535182
0.446888 0.660570 0.545167
0.566329 0.672426 0.554888
0.683922 0.684077 0.564442
0.800202 0.695577 0.573876
0.904050 0.705836 0.582283
0.904776 0.705980 0.582283
0.242770 0.785072 0.556615
0.243029 0.785280 0.556615
0.369538 0.797854 0.566917
0.492352 0.810039 0.576901
0.612105 0.821898 0.586622
0.729978 0.833549 0.596177
0.846505 0.845044 0.605610
0.948618 0.855294 0.614017
0.949122 0.855419 0.614017
0.282875 0.918445 0.584899
0.283144 0.918635 0.584899
0.409982 0.931198 0.595200
0.533087 0.943368 0.605184
0.653094 0.955209 0.614905
0.771188 0.966837 0.624460
0.887906 0.978306 0.633893
0.987176 0.988527 0.642301
0.987431 0.988614 0.642301
0.283751 0.919024 0.584899
0.283995 0.919162 0.584899
0.411083 0.931679 0.595200
0.534401 0.943801 0.605184
0.654587 0.955593 0.614905
0.772830 0.967170 0.624460
0.889668 0.978588 0.633893
0.987878 0.988755 0.642301
0.988003 0.988786 0.642301
0.018153 0.015995 0.516548
0.018186 0.016005 0.516548
0.141616 0.028293 0.526850
0.261611 0.040217 0.536834
0.378783 0.051839 0.546555
0.494281 0.063275 0.556109
0.608626 0.074576 0.565543
0.710885 0.084662 0.573950
0.711837 0.084703 0.573950
0.018272 0.016027 0.516548
0.018311 0.016035 0.516548
0.142348 0.028346 0.526850
0.262903 0.040290 0.536834
0.380593 0.051929 0.546555
0.496574 0.063381 0.556109
0.611369 0.074697 0.565543
0.714000 0.084795 0.573950
0.714878 0.084831 0.573950
0.065686 0.177730 0.551203
0.065793 0.177817 0.551203
0.190451 0.190224 0.561505
0.311580 0.202259 0.571489
0.429801 0.213985 0.581210
0.546277 0.225519 0.590764
0.661533 0.236913 0.600198
0.764549 0.247083 0.608605
0.765405 0.247174 0.608605
0.112065 0.334957 0.584791
0.112227 0.335102 0.584791
0.237445 0.347581 0.595093
0.359089 0.359684 0.605077
0.477784 0.371474 0.614798
0.594698 0.383068 0.624353
0.710360 0.394518 0.633786
0.813710 0.404737 0.642193
0.814532 0.404863 0.642193
0.157583 0.488432 0.617492
0.157788 0.488615 0.617492
0.283507 0.501145 0.627794
0.405609 0.513295 0.637778
0.524722 0.525128 0.647499
0.642018 0.536759 0.657053
0.758030 0.548243 0.666487
0.861664 0.558491 0.674894
0.862441 0.558633 0.674894
0.202628 0.639590 0.649634
0.202866 0.639792 0.649634
0.329027 0.652353 0.659936
0.451530 0.664529 0.669920
0.571005 0.676383 0.679641
0.688629 0.688033 0.689196
0.804936 0.699530 0.698629
0.908806 0.709787 0.707036
0.909526 0.709927 0.707036
0.247351 0.789042 0.681369
0.247612 0.789246 0.681369
0.374158 0.801817 0.691671
0.497004 0.813999 0.701655
0.616785 0.825856 0.711376
0.734683 0.837503 0.720930
0.851232 0.848995 0.730364
0.953080 0.859241 0.738771
0.953560 0.859361 0.738771
0.287472 0.922412 0.709652
0.287742 0.922598 0.709652
0.414611 0.935157 0.719954
0.537742 0.947323 0.729938
0.657772 0.959160 0.739659
0.775886 0.970783 0.749213
0.892621 0.982248 0.758647
0.991506 0.992463 0.767054
0.991732 0.992545 0.767054
0.288350 0.922975 0.709652
0.288595 0.923109 0.709652
0.415708 0.935621 0.719954
0.539047 0.947739 0.729938
0.659252 0.959526 0.739659
0.777509 0.971099 0.749213
0.894358 0.982511 0.758647
0.992108 0.992673 0.767054
0.992202 0.992698 0.767054
0.022494 0.019813 0.639719
0.022535 0.019825 0.639719
0.146035 0.032118 0.650021
0.266095 0.044046 0.660005
0.383327 0.055672 0.669726
0.498882 0.067112 0.679280
0.613280 0.078417 0.688714
0.715585 0.088506 0.697121
0.716535 0.088548 0.697121
0.022637 0.019852 0.639719
0.022682 0.019863 0.639719
0.146784 0.032177 0.650021
0.267400 0.044125 0.660005
0.385146 0.055768 0.669726
0.501178 0.067223 0.679280
0.616022 0.078543 0.688714
0.718693 0.088642 0.697121
0.719569 0.088680 0.697121
0.070095 0.181589 0.674374
0.070208 0.181677 0.674374
0.194924 0.194086 0.684676
0.316107 0.206124 0.694660
0.434379 0.217852 0.704381
0.550901 0.229388 0.713936
0.666200 0.240784 0.723369
0.769252 0.250955 0.731776
0.770105 0.251046 0.731776
0.116511 0.338842 0.707963
0.116678 0.338986 0.707963
0.241949 0.351467 0.718264
0.363642 0.363571 0.728249
0.482381 0.375362 0.737969
0.599336 0.386956 0.747524
0.715035 0.398406 0.756957
0.818416 0.408626 0.765365
0.819234 0.408751 0.765365
0.162061 0.492335 0.740663
0.162270 0.492517 0.740663
0.288036 0.505047 0.750965
0.410181 0.517197 0.760949
0.529333 0.529029 0.770670
0.646665 0.540659 0.780225
0.762709 0.552142 0.789658
0.866369 0.562389 0.798065
0.867140 0.562529 0.798065
0.207133 0.643505 0.772806
0.207374 0.643704 0.772806
0.333576 0.656264 0.783107
0.456116 0.668438 0.793092
0.575624 0.680291 0.802812
0.693279 0.691938 0.812367
0.809613 0.703433 0.821800
0.913397 0.713688 0.830208
0.914084 0.713824 0.830208
0.251878 0.792961 0.804540
0.252140 0.793162 0.804540
0.378721 0.805731 0.814842
0.501599 0.817910 0.824826
0.621409 0.829763 0.834547
0.739331 0.841407 0.844101
0.855901 0.852895 0.853535
0.957475 0.863137 0.861942
0.957929 0.863253 0.861942
0.292013 0.926328 0.832823
0.292284 0.926510 0.832823
0.419183 0.939065 0.843125
0.542340 0.951227 0.853109
0.662393 0.963059 0.862830
0.780525 0.974678 0.872384
0.897276 0.986138 0.881818
0.995768 0.996348 0.890225
0.995964 0.996425 0.890225
0.292893 0.926876 0.832823
0.293139 0.927005 0.832823
0.420276 0.939513 0.843125
0.543636 0.951626 0.853109
0.663858 0.963408 0.862830
0.782129 0.974976 0.872384
0.898990 0.986383 0.881818
0.996269 0.996539 0.890225
0.996331 0.996559 0.890225
0.026369 0.023218 0.749494
0.026416 0.023232 0.749494
0.149985 0.035529 0.759796
0.270109 0.047461 0.769780
0.387400 0.059091 0.779501
0.503011 0.070534 0.789055
0.617462 0.081842 0.798489
0.719810 0.091934 0.806896
0.720757 0.091977 0.806896
0.026533 0.023263 0.749494
0.026585 0.023275 0.749494
0.150750 0.035594 0.759796
0.271424 0.047545 0.769780
0.389224 0.059191 0.779501
0.505308 0.070649 0.789055
0.620199 0.081972 0.798489
0.722910 0.092074 0.806896
0.723783 0.092112 0.806896
0.074032 0.185033 0.784149
0.074150 0.185121 0.784149
0.198923 0.197532 0.794451
0.320160 0.209572 0.804435
0.438480 0.221303 0.814156
0.555048 0.232840 0.823710
0.670389 0.244238 0.833144
0.773475 0.254409 0.841551
0.774324 0.254500 0.841551
0.120483 0.342310 0.817737
0.120654 0.342454 0.817737
0.245977 0.354935 0.828039
0.367717 0.367040 0.838023
0.486500 0.378832 0.847744
0.603495 0.390427 0.857299
0.719231 0.401877 0.866732
0.822642 0.412096 0.875139
0.823455 0.412220 0.875139
0.166063 0.495821 0.850438
0.166275 0.496000 0.850438
0.292087 0.508531 0.860740
0.414273 0.520680 0.870724
0.533463 0.532511 0.880445
0.650830 0.544141 0.889999
0.766905 0.555623 0.899433
0.870590 0.565868 0.907840
0.871356 0.566006 0.907840
0.211159 0.647001 0.882580
0.211402 0.647198 0.882580
0.337645 0.659756 0.892882
0.460221 0.671928 0.902866
0.579762 0.683779 0.912587
0.697445 0.695424 0.922142
0.813805 0.706917 0.931575
0.917435 0.717169 0.939982
0.918101 0.717302 0.939982
0.255923 0.796461 0.914315
0.256187 0.796658 0.914315
0.382802 0.809224 0.924617
0.505711 0.821400 0.934601
0.625547 0.833250 0.944322
0.743493 0.844890 0.953876
0.860085 0.856374 0.963310
0.961398 0.866613 0.971717
0.961828 0.866725 0.971717
0.296072 0.929824 0.942598
0.296343 0.930001 0.942598
0.423271 0.942552 0.952900
0.546453 0.954710 0.962884
0.666527 0.966538 0.972605
0.784678 0.978152 0.982159
0.901444 0.989607 0.991593
0.999560 0.999812 1.000000
0.999728 0.999884 1.000000
0.296953 0.930356 0.942598
0.297198 0.930480 0.942598
0.424359 0.942984 0.952900
0.547739 0.955092 0.962884
0.667977 0.966870 0.972605
0.786262 0.978432 0.982159
0.903133 0.989834 0.991593
0.999965 0.999985 1.000000
0.999998 0.999999 1.000000
0.026385 0.023223 0.749494
0.026433 0.023236 0.749494
0.150064 0.035536 0.759796
0.270245 0.047470 0.769780
0.387590 0.059102 0.779501
0.503250 0.070546 0.789055
0.617748 0.081856 0.798489
0.720134 0.091949 0.806896
0.721074 0.091992 0.806896
0.026550 0.023267 0.749494
0.026602 0.023279 0.749494
0.150825 0.035600 0.759796
0.271552 0.047553 0.769780
0.389402 0.059201 0.779501
0.505530 0.070660 0.789055
0.620463 0.081984 0.798489
0.723209 0.092087 0.806896
0.724074 0.092125 0.806896
0.074072 0.185063 0.784149
0.074189 0.185150 0.784149
0.199015 0.197563 0.794451
0.320300 0.209603 0.804435
0.438664 0.221334 0.814156
0.555272 0.232872 0.823710
0.670650 0.244269 0.833144
0.773766 0.254441 0.841551
0.774607 0.254530 0.841551
0.120541 0.342359 0.817737
0.120712 0.342501 0.817737
0.246081 0.354982 0.828039
0.367864 0.367087 0.838023
0.486686 0.378878 0.847744
0.603716 0.390472 0.857299
0.719484 0.401921 0.866732
0.822921 0.412139 0.875139
0.823725 0.412260 0.875139
0.166135 0.495883 0.850438
0.166347 0.496060 0.850438
0.292200 0.508588 0.860740
0.414424 0.520736 0.870724
0.533647 0.532565 0.880445
0.651044 0.544193 0.889999
0.767147 0.555673 0.899433
0.870853 0.565916 0.907840
0.871610 0.566050 0.907840
0.211242 0.647069 0.882580
0.211484 0.647262 0.882580
0.337763 0.659818 0.892882
0.460371 0.671987 0.902866
0.579940 0.683835 0.912587
0.697649 0.695477 0.922142
0.814032 0.706967 0.931575
0.917664 0.717215 0.939982
0.918320 0.717344 0.939982
0.256013 0.796530 0.914315
0.256275 0.796722 0.914315
0.382921 0.809284 0.924617
0.505857 0.821456 0.934601
0.625717 0.833302 0.944322
0.743683 0.844938 0.953876
0.860292 0.856418 0.963310
0.961548 0.866653 0.971717
0.961966 0.866759 0.971717
0.296165 0.929886 0.942598
0.296433 0.930058 0.942598
0.423387 0.942604 0.952900
0.546591 0.954757 0.962884
0.666684 0.966580 0.972605
0.784850 0.978189 0.982159
0.901629 0.989639 0.991593
0.999622 0.999839 1.000000
0.999776 0.999904 1.000000
0.297037 0.930400 0.942598
0.297279 0.930518 0.942598
0.424462 0.943017 0.952900
0.547859 0.955121 0.962884
0.668111 0.966893 0.972605
0.786407 0.978450 0.982159
0.903286 0.989846 0.991593
0.999980 0.999992 1.000000
1.000000 1.000000 1.000000
