library/cube/Bleach_Raw_001.cube
# CINEGRADE LAB — Premium Cinematic LUT
# Title: Bleach Raw
# Category: Bleach Bypass
# Description: Silver retention, high contrast, desaturated bleach bypass film process
# Mood: Gritty, stark, intense
# Variant: 2
# Generated: 2026-05-21T16:12:56.247778
TITLE "Bleach Raw"
LUT_3D_SIZE 5
0.000000 0.000000 0.000000
0.123078 0.012267 0.010302
0.359609 0.035773 0.030007
0.588894 0.058475 0.048995
0.691890 0.068581 0.057402
0.047219 0.161534 0.034655
0.171660 0.174012 0.044957
0.410481 0.197751 0.064662
0.641757 0.220662 0.083650
0.745467 0.230916 0.092057
0.138783 0.472011 0.100944
0.264450 0.484732 0.111246
0.505246 0.508719 0.130951
0.738206 0.531842 0.149939
0.842511 0.542250 0.158346
0.228321 0.772534 0.164821
0.354937 0.785341 0.175123
0.597256 0.809409 0.194828
0.831462 0.832581 0.213816
0.934936 0.842989 0.222223
0.269242 0.906557 0.193104
0.396470 0.919248 0.203406
0.639810 0.943198 0.223111
0.874778 0.966233 0.242099
0.974648 0.976474 0.250506
0.004719 0.004162 0.134507
0.127945 0.016439 0.144808
0.364726 0.039959 0.164513
0.594230 0.062673 0.183501
0.697306 0.072785 0.191909
0.052040 0.165770 0.169162
0.176606 0.178252 0.179463
0.415635 0.201998 0.199168
0.647091 0.224914 0.218156
0.750861 0.235170 0.226564
0.143718 0.476333 0.235451
0.269484 0.489049 0.245753
0.510446 0.513033 0.265458
0.743543 0.536152 0.284446
0.847888 0.546552 0.292853
0.233334 0.776888 0.299328
0.360023 0.789681 0.309629
0.602465 0.813736 0.329334
0.836766 0.836895 0.348322
0.939941 0.847286 0.356730
0.274274 0.910873 0.327611
0.401553 0.923545 0.337912
0.644974 0.947477 0.357617
0.879998 0.970492 0.376605
0.979294 0.980712 0.385013
0.013761 0.012129 0.391795
0.137146 0.024421 0.402096
0.374185 0.047958 0.421801
0.603917 0.070688 0.440789
0.707084 0.080810 0.449197
0.061226 0.173823 0.426450
0.185924 0.186313 0.436751
0.425169 0.210070 0.456456
0.656810 0.232994 0.475444
0.760649 0.243253 0.483852
0.153051 0.484480 0.492739
0.278923 0.497194 0.503040
0.520055 0.521177 0.522745
0.753294 0.544294 0.541733
0.857684 0.554688 0.550141
0.242770 0.785072 0.556615
0.369538 0.797854 0.566917
0.612105 0.821898 0.586622
0.846505 0.845044 0.605610
0.949122 0.855419 0.614017
0.283751 0.919024 0.584899
0.411083 0.931679 0.595200
0.654587 0.955593 0.614905
0.889668 0.978588 0.633893
0.988003 0.988786 0.642301
0.022494 0.019813 0.639719
0.146035 0.032118 0.650021
0.383327 0.055672 0.669726
0.613280 0.078417 0.688714
0.716535 0.088548 0.697121
0.070095 0.181589 0.674374
0.194924 0.194086 0.684676
0.434379 0.217852 0.704381
0.666200 0.240784 0.723369
0.770105 0.251046 0.731776
0.162061 0.492335 0.740663
0.288036 0.505047 0.750965
0.529333 0.529029 0.770670
0.762709 0.552142 0.789658
0.867140 0.562529 0.798065
0.251878 0.792961 0.804540
0.378721 0.805731 0.814842
0.621409 0.829763 0.834547
0.855901 0.852895 0.853535
0.957929 0.863253 0.861942
0.292893 0.926876 0.832823
0.420276 0.939513 0.843125
0.663858 0.963408 0.862830
0.898990 0.986383 0.881818
0.996331 0.996559 0.890225
0.026385 0.023223 0.749494
0.150064 0.035536 0.759796
0.387590 0.059102 0.779501
0.617748 0.081856 0.798489
0.721074 0.091992 0.806896
0.074072 0.185063 0.784149
0.199015 0.197563 0.794451
0.438664 0.221334 0.814156
0.670650 0.244269 0.833144
0.774607 0.254530 0.841551
0.166135 0.495883 0.850438
0.292200 0.508588 0.860740
0.533647 0.532565 0.880445
0.767147 0.555673 0.899433
0.871610 0.566050 0.907840
0.256013 0.796530 0.914315
0.382921 0.809284 0.924617
0.625717 0.833302 0.944322
0.860292 0.856418 0.963310
0.961966 0.866759 0.971717
0.297037 0.930400 0.942598
0.424462 0.943017 0.952900
0.668111 0.966893 0.972605
0.903286 0.989846 0.991593
1.000000 1.000000 1.000000
