library/cube/Bleach_Raw_001.cube
# CINEGRADE LAB — Premium Cinematic LUT
# Title: Bleach Raw
# Category: Bleach Bypass
# Description: Silver retention, high contrast, desaturated bleach bypass film process
# Mood: Gritty, stark, intense
# Variant: 2
# Generated: 2026-05-21T16:12:56.247778
TITLE "Bleach Raw"
LUT_3D_SIZE 33
0.000000 0.000000 0.000000
0.000000 0.000000 0.000000
0.000000 0.000000 0.000000
0.000001 0.000000 0.000000
0.000001 0.000000 0.000000
0.029105 0.002903 0.002439
0.061194 0.006102 0.005126
0.092401 0.009211 0.007737
0.123078 0.012267 0.010302
0.153377 0.015283 0.012833
0.183386 0.018269 0.015337
0.213162 0.021230 0.017821
0.242743 0.024170 0.020286
0.272159 0.027093 0.022735
0.301431 0.030000 0.025171
0.330576 0.032892 0.027594
0.359609 0.035773 0.030007
0.388541 0.038642 0.032409
0.417381 0.041501 0.034801
0.446138 0.044350 0.037185
0.474819 0.047190 0.039561
0.503431 0.050022 0.041930
0.531977 0.052847 0.044291
0.560464 0.055664 0.046646
0.588894 0.058475 0.048995
0.617273 0.061279 0.051337
0.645603 0.064077 0.053674
0.673887 0.066870 0.056006
0.690926 0.068546 0.057402
0.691169 0.068555 0.057402
0.691410 0.068563 0.057402
0.691651 0.068572 0.057402
0.691890 0.068581 0.057402
0.000001 0.000000 0.000000
0.000001 0.000000 0.000000
0.000002 0.000000 0.000000
0.000003 0.000000 0.000000
0.000004 0.000000 0.000000
0.029147 0.002904 0.002439
0.061279 0.006105 0.005126
0.092527 0.009216 0.007737
0.123243 0.012273 0.010302
0.153581 0.015290 0.012833
0.183629 0.018278 0.015337
0.213442 0.021240 0.017821
0.243060 0.024182 0.020286
0.272511 0.027106 0.022735
0.301819 0.030014 0.025171
0.330998 0.032908 0.027594
0.360065 0.035790 0.030007
0.389031 0.038660 0.032409
0.417904 0.041520 0.034801
0.446694 0.044371 0.037185
0.475407 0.047212 0.039561
0.504049 0.050045 0.041930
0.532627 0.052871 0.044291
0.561144 0.055690 0.046646
0.589604 0.058501 0.048995
0.618013 0.061307 0.051337
0.646371 0.064106 0.053674
0.674684 0.066899 0.056006
0.691738 0.068575 0.057402
0.691976 0.068584 0.057402
0.692213 0.068593 0.057402
0.692449 0.068601 0.057402
0.692684 0.068610 0.057402
0.000003 0.000000 0.000000
0.000004 0.000000 0.000000
0.000005 0.000000 0.000000
0.000007 0.000000 0.000000
0.000008 0.000000 0.000000
0.029190 0.002906 0.002439
0.061364 0.006108 0.005126
0.092652 0.009221 0.007737
0.123407 0.012279 0.010302
0.153783 0.015298 0.012833
0.183868 0.018287 0.015337
0.213718 0.021251 0.017821
0.243372 0.024194 0.020286
0.272859 0.027119 0.022735
0.302200 0.030028 0.025171
0.331414 0.032924 0.027594
0.360515 0.035807 0.030007
0.389513 0.038678 0.032409
0.418419 0.041539 0.034801
0.447240 0.044391 0.037185
0.475984 0.047233 0.039561
0.504658 0.050068 0.041930
0.533265 0.052895 0.044291
0.561812 0.055714 0.046646
0.590302 0.058527 0.048995
0.618739 0.061333 0.051337
0.647126 0.064133 0.053674
0.675466 0.066928 0.056006
0.692535 0.068604 0.057402
0.692769 0.068613 0.057402
0.693001 0.068621 0.057402
0.693233 0.068629 0.057402
0.693463 0.068638 0.057402
0.000007 0.000000 0.000000
0.000009 0.000000 0.000000
0.000010 0.000000 0.000000
0.000012 0.000000 0.000000
0.000014 0.000000 0.000000
0.029234 0.002907 0.002439
0.061448 0.006111 0.005126
0.092777 0.009225 0.007737
0.123570 0.012285 0.010302
0.153984 0.015305 0.012833
0.184105 0.018295 0.015337
0.213991 0.021261 0.017821
0.243680 0.024205 0.020286
0.273201 0.027131 0.022735
0.302577 0.030042 0.025171
0.331824 0.032939 0.027594
0.360957 0.035823 0.030007
0.389987 0.038696 0.032409
0.418925 0.041558 0.034801
0.447777 0.044410 0.037185
0.476552 0.047254 0.039561
0.505256 0.050090 0.041930
0.533893 0.052917 0.044291
0.562468 0.055738 0.046646
0.590987 0.058552 0.048995
0.619452 0.061359 0.051337
0.647866 0.064160 0.053674
0.676234 0.066955 0.056006
0.693317 0.068632 0.057402
0.693546 0.068641 0.057402
0.693774 0.068649 0.057402
0.694001 0.068657 0.057402
0.694227 0.068665 0.057402
0.000013 0.000000 0.000000
0.000015 0.000000 0.000000
0.000017 0.000000 0.000000
0.000019 0.000000 0.000000
0.000022 0.000000 0.000000
0.029278 0.002909 0.002439
0.061533 0.006114 0.005126
0.092900 0.009230 0.007737
0.123731 0.012291 0.010302
0.154182 0.015312 0.012833
0.184339 0.018304 0.015337
0.214260 0.021270 0.017821
0.243984 0.024216 0.020286
0.273539 0.027144 0.022735
0.302947 0.030056 0.025171
0.332227 0.032953 0.027594
0.361392 0.035839 0.030007
0.390454 0.038713 0.032409
0.419422 0.041576 0.034801
0.448305 0.044430 0.037185
0.477110 0.047274 0.039561
0.505843 0.050111 0.041930
0.534509 0.052940 0.044291
0.563113 0.055761 0.046646
0.591659 0.058576 0.048995
0.620151 0.061384 0.051337
0.648593 0.064186 0.053674
0.676987 0.066982 0.056006
0.694084 0.068660 0.057402
0.694309 0.068668 0.057402
0.694532 0.068676 0.057402
0.694755 0.068683 0.057402
0.694976 0.068691 0.057402
0.011147 0.038191 0.008205
0.011153 0.038196 0.008205
0.011160 0.038202 0.008205
0.011167 0.038207 0.008205
0.011174 0.038212 0.008205
0.040471 0.041128 0.010644
0.072769 0.044340 0.013331
0.104178 0.047462 0.015942
0.135050 0.050529 0.018506
0.165541 0.053558 0.021037
0.195737 0.056555 0.023542
0.225696 0.059528 0.026025
0.255457 0.062480 0.028491
0.285049 0.065414 0.030940
0.314494 0.068332 0.033376
0.343810 0.071236 0.035799
0.373010 0.074127 0.038211
0.402106 0.077007 0.040613
0.431109 0.079876 0.043006
0.460025 0.082735 0.045390
0.488863 0.085586 0.047766
0.517628 0.088428 0.050134
0.546326 0.091262 0.052496
0.574961 0.094089 0.054851
0.603538 0.096909 0.057199
0.632061 0.099723 0.059542
0.660532 0.102530 0.061879
0.688955 0.105332 0.064211
0.706069 0.107014 0.065607
0.706293 0.107026 0.065607
0.706516 0.107038 0.065607
0.706737 0.107049 0.065607
0.706957 0.107061 0.065607
0.023443 0.080305 0.017244
0.023454 0.080316 0.017244
0.023466 0.080327 0.017244
0.023477 0.080338 0.017244
0.023489 0.080349 0.017244
0.052826 0.083271 0.019683
0.085168 0.086490 0.022370
0.116618 0.089619 0.024981
0.147531 0.092693 0.027546
0.178060 0.095728 0.030077
0.208295 0.098732 0.032581
0.238292 0.101712 0.035065
0.268091 0.104670 0.037530
0.297719 0.107610 0.039980
0.327200 0.110534 0.042415
0.356551 0.113444 0.044839
0.385786 0.116342 0.047251
0.414916 0.119227 0.049653
0.443952 0.122103 0.052045
0.472901 0.124968 0.054429
0.501771 0.127824 0.056805
0.530568 0.130672 0.059174
0.559297 0.133512 0.061535
0.587963 0.136345 0.063890
0.616571 0.139170 0.066239
0.645123 0.141989 0.068581
0.673624 0.144802 0.070918
0.702075 0.147609 0.073250
0.719206 0.149296 0.074646
0.719429 0.149312 0.074646
0.719651 0.149328 0.074646
0.719872 0.149344 0.074646
0.720091 0.149360 0.074646
0.035423 0.121266 0.026028
0.035439 0.121283 0.026028
0.035455 0.121299 0.026028
0.035471 0.121315 0.026028
0.035487 0.121331 0.026028
0.064863 0.124260 0.028467
0.097247 0.127485 0.031154
0.128738 0.130620 0.033765
0.159689 0.133701 0.036329
0.190257 0.136742 0.038860
0.220530 0.139752 0.041365
0.250564 0.142738 0.043849
0.280398 0.145702 0.046314
0.310062 0.148648 0.048763
0.339578 0.151578 0.051199
0.368963 0.154493 0.053622
0.398231 0.157396 0.056034
0.427395 0.160288 0.058436
0.456463 0.163168 0.060829
0.485444 0.166039 0.063213
0.514346 0.168901 0.065589
0.543173 0.171754 0.067958
0.571933 0.174599 0.070319
0.600629 0.177437 0.072674
0.629266 0.180268 0.075022
0.657847 0.183092 0.077365
0.686376 0.185909 0.079702
0.714856 0.188721 0.082034
0.732002 0.190413 0.083430
0.732224 0.190433 0.083430
0.732445 0.190452 0.083430
0.732665 0.190472 0.083430
0.732883 0.190491 0.083430
0.047219 0.161534 0.034655
0.047239 0.161556 0.034655
0.047260 0.161577 0.034655
0.047280 0.161598 0.034655
0.047301 0.161618 0.034655
0.076714 0.164553 0.037094
0.109139 0.167784 0.039781
0.140670 0.170925 0.042392
0.171660 0.174012 0.044957
0.202265 0.177058 0.047488
0.232574 0.180074 0.049992
0.262644 0.183065 0.052476
0.292514 0.186035 0.054941
0.322212 0.188986 0.057391
0.351762 0.191922 0.059826
0.381180 0.194843 0.062250
0.410481 0.197751 0.064662
0.439676 0.200647 0.067064
0.468776 0.203533 0.069456
0.497788 0.206409 0.071840
0.526720 0.209276 0.074216
0.555578 0.212134 0.076585
0.584367 0.214984 0.078946
0.613092 0.217826 0.081301
0.641757 0.220662 0.083650
0.670366 0.223490 0.085992
0.698923 0.226313 0.088329
0.727430 0.229129 0.090661
0.744591 0.230824 0.092057
0.744812 0.230848 0.092057
0.745032 0.230871 0.092057
0.745250 0.230894 0.092057
0.745467 0.230916 0.092057
0.058890 0.201310 0.043170
0.058914 0.201336 0.043170
0.058939 0.201361 0.043170
0.058963 0.201387 0.043170
0.058987 0.201412 0.043170
0.088438 0.204352 0.045608
0.120903 0.207589 0.048296
0.152472 0.210736 0.050907
0.183499 0.213827 0.053471
0.214141 0.216879 0.056002
0.244486 0.219901 0.058507
0.274591 0.222897 0.060990
0.304495 0.225871 0.063456
0.334227 0.228828 0.065905
0.363809 0.231768 0.068341
0.393260 0.234694 0.070764
0.422593 0.237607 0.073176
0.451819 0.240508 0.075578
0.480950 0.243399 0.077971
0.509992 0.246279 0.080355
0.538954 0.249150 0.082731
0.567841 0.252013 0.085099
0.596658 0.254867 0.087461
0.625411 0.257714 0.089816
0.654104 0.260554 0.092164
0.682740 0.263387 0.094507
0.711323 0.266213 0.096844
0.739856 0.269034 0.099176
0.757033 0.270733 0.100572
0.757252 0.270759 0.100572
0.757470 0.270786 0.100572
0.757686 0.270811 0.100572
0.757901 0.270837 0.100572
0.070467 0.240707 0.051596
0.070495 0.240737 0.051596
0.070524 0.240766 0.051596
0.070552 0.240796 0.051596
0.070580 0.240825 0.051596
0.100067 0.243770 0.054035
0.132571 0.247012 0.056722
0.164177 0.250164 0.059333
0.195241 0.253261 0.061897
0.225919 0.256318 0.064428
0.256298 0.259344 0.066933
0.286437 0.262345 0.069417
0.316374 0.265325 0.071882
0.346139 0.268286 0.074331
0.375753 0.271231 0.076767
0.405235 0.274161 0.079190
0.434599 0.277079 0.081603
0.463856 0.279984 0.084005
0.493017 0.282879 0.086397
0.522088 0.285764 0.088781
0.551078 0.288639 0.091157
0.579993 0.291506 0.093526
0.608839 0.294364 0.095887
0.637619 0.297215 0.098242
0.666338 0.300059 0.100591
0.695001 0.302896 0.102933
0.723609 0.305726 0.105270
0.752167 0.308550 0.107602
0.769358 0.310253 0.108998
0.769576 0.310282 0.108998
0.769792 0.310311 0.108998
0.770007 0.310339 0.108998
0.770220 0.310367 0.108998
0.081972 0.279797 0.059950
0.082004 0.279830 0.059950
0.082036 0.279864 0.059950
0.082068 0.279897 0.059950
0.082099 0.279930 0.059950
0.111622 0.282880 0.062389
0.144164 0.286127 0.065076
0.175806 0.289284 0.067687
0.206906 0.292385 0.070252
0.237618 0.295447 0.072783
0.268031 0.298477 0.075288
0.298203 0.301483 0.077771
0.328173 0.304467 0.080236
0.357969 0.307432 0.082686
0.387615 0.310381 0.085121
0.417127 0.313316 0.087545
0.446521 0.316238 0.089957
0.475808 0.319147 0.092359
0.504997 0.322046 0.094751
0.534097 0.324935 0.097135
0.563115 0.327814 0.099511
0.592057 0.330684 0.101880
0.620929 0.333547 0.104241
0.649736 0.336401 0.106596
0.678481 0.339249 0.108945
0.707169 0.342089 0.111287
0.735802 0.344923 0.113625
0.764384 0.347750 0.115956
0.781589 0.349456 0.117352
0.781805 0.349487 0.117352
0.782019 0.349518 0.117352
0.782232 0.349549 0.117352
0.782443 0.349580 0.117352
0.093418 0.318630 0.068243
0.093453 0.318667 0.068243
0.093489 0.318704 0.068243
0.093524 0.318741 0.068243
0.093559 0.318777 0.068243
0.123116 0.321732 0.070682
0.155695 0.324983 0.073369
0.187373 0.328144 0.075980
0.218507 0.331250 0.078545
0.249253 0.334316 0.081076
0.279699 0.337351 0.083581
0.309903 0.340360 0.086064
0.339904 0.343348 0.088529
0.369732 0.346318 0.090979
0.399408 0.349271 0.093414
0.428950 0.352209 0.095838
0.458373 0.355135 0.098250
0.487688 0.358048 0.100652
0.516905 0.360951 0.103045
0.546033 0.363843 0.105429
0.575078 0.366726 0.107805
0.604046 0.369599 0.110173
0.632944 0.372465 0.112534
0.661776 0.375323 0.114889
0.690546 0.378173 0.117238
0.719259 0.381017 0.119581
0.747916 0.383854 0.121918
0.776522 0.386684 0.124249
0.793739 0.388393 0.125645
0.793953 0.388426 0.125645
0.794165 0.388460 0.125645
0.794376 0.388493 0.125645
0.794585 0.388525 0.125645
0.104815 0.357243 0.076484
0.104854 0.357284 0.076484
0.104892 0.357324 0.076484
0.104931 0.357364 0.076484
0.104970 0.357403 0.076484
0.134560 0.360362 0.078923
0.167175 0.363617 0.081610
0.198888 0.366783 0.084221
0.230055 0.369892 0.086785
0.260834 0.372962 0.089316
0.291312 0.376001 0.091821
0.321547 0.379014 0.094304
0.351579 0.382006 0.096770
0.381437 0.384979 0.099219
0.411142 0.387936 0.101655
0.440713 0.390878 0.104078
0.470164 0.393807 0.106490
0.499507 0.396723 0.108892
0.528751 0.399629 0.111285
0.557905 0.402524 0.113669
0.586977 0.405410 0.116045
0.615971 0.408287 0.118413
0.644894 0.411156 0.120775
0.673751 0.414017 0.123130
0.702545 0.416870 0.125478
0.731280 0.419717 0.127821
0.759961 0.422556 0.130158
0.788589 0.425390 0.132490
0.805819 0.427100 0.133886
0.806031 0.427136 0.133886
0.806241 0.427171 0.133886
0.806449 0.427206 0.133886
0.806656 0.427240 0.133886
0.116171 0.395664 0.084677
0.116213 0.395708 0.084677
0.116255 0.395751 0.084677
0.116297 0.395793 0.084677
0.116338 0.395835 0.084677
0.145961 0.398798 0.087116
0.178611 0.402057 0.089803
0.210358 0.405226 0.092414
0.241558 0.408340 0.094979
0.272369 0.411413 0.097510
0.302878 0.414455 0.100015
0.333144 0.417472 0.102498
0.363205 0.420467 0.104963
0.393092 0.423444 0.107413
0.422826 0.426404 0.109849
0.452425 0.429349 0.112272
0.481903 0.432281 0.114684
0.511273 0.435201 0.117086
0.540543 0.438109 0.119479
0.569723 0.441008 0.121863
0.598820 0.443896 0.124239
0.627839 0.446776 0.126607
0.656786 0.449648 0.128969
0.685666 0.452511 0.131323
0.714484 0.455367 0.133672
0.743242 0.458216 0.136015
0.771945 0.461058 0.138352
0.800595 0.463894 0.140684
0.817837 0.465607 0.142079
0.818046 0.465644 0.142079
0.818253 0.465680 0.142079
0.818459 0.465716 0.142079
0.818663 0.465752 0.142079
0.127492 0.433914 0.092830
0.127537 0.433960 0.092830
0.127582 0.434006 0.092830
0.127626 0.434051 0.092830
0.127671 0.434096 0.092830
0.157325 0.437061 0.095269
0.190010 0.440325 0.097956
0.221789 0.443497 0.100567
0.253021 0.446614 0.103131
0.283863 0.449691 0.105662
0.314403 0.452736 0.108167
0.344698 0.455756 0.110650
0.374788 0.458754 0.113116
0.404703 0.461733 0.115565
0.434464 0.464696 0.118001
0.464090 0.467644 0.120424
0.493595 0.470579 0.122836
0.522991 0.473501 0.125238
0.552287 0.476413 0.127631
0.581492 0.479314 0.130015
0.610613 0.482205 0.132391
0.639656 0.485087 0.134759
0.668626 0.487961 0.137121
0.697529 0.490827 0.139476
0.726369 0.493685 0.141824
0.755149 0.496536 0.144167
0.783874 0.499381 0.146504
0.812545 0.502219 0.148836
0.829798 0.503933 0.150232
0.830004 0.503971 0.150232
0.830209 0.504009 0.150232
0.830412 0.504046 0.150232
0.830614 0.504083 0.150232
0.138783 0.472011 0.100944
0.138830 0.472059 0.100944
0.138878 0.472107 0.100944
0.138925 0.472154 0.100944
0.138972 0.472201 0.100944
0.168658 0.475170 0.103383
0.201375 0.478437 0.106070
0.233187 0.481612 0.108681
0.264450 0.484732 0.111246
0.295321 0.487812 0.113777
0.325890 0.490860 0.116282
0.356214 0.493882 0.118765
0.386332 0.496883 0.121230
0.416274 0.499865 0.123680
0.446063 0.502831 0.126115
0.475715 0.505781 0.128539
0.505246 0.508719 0.130951
0.534666 0.511643 0.133353
0.563987 0.514557 0.135745
0.593216 0.517460 0.138129
0.622360 0.520354 0.140505
0.651426 0.523238 0.142874
0.680419 0.526114 0.145235
0.709344 0.528982 0.147590
0.738206 0.531842 0.149939
0.767007 0.534695 0.152282
0.795752 0.537541 0.154619
0.824443 0.540381 0.156950
0.841707 0.542097 0.158346
0.841910 0.542136 0.158346
0.842112 0.542175 0.158346
0.842313 0.542213 0.158346
0.842511 0.542250 0.158346
0.150046 0.509968 0.109025
0.150096 0.510018 0.109025
0.150146 0.510068 0.109025
0.150196 0.510118 0.109025
0.150246 0.510166 0.109025
0.179961 0.513138 0.111464
0.212711 0.516407 0.114151
0.244554 0.519586 0.116762
0.275847 0.522708 0.119326
0.306747 0.525790 0.121857
0.337345 0.528841 0.124362
0.367696 0.531866 0.126845
0.397842 0.534870 0.129311
0.427810 0.537854 0.131760
0.457624 0.540822 0.134196
0.487302 0.543774 0.136619
0.516857 0.546714 0.139031
0.546302 0.549641 0.141433
0.575647 0.552556 0.143826
0.604899 0.555461 0.146210
0.634066 0.558357 0.148586
0.663154 0.561243 0.150954
0.692169 0.564121 0.153316
0.721115 0.566990 0.155671
0.749997 0.569852 0.158019
0.778819 0.572707 0.160362
0.807583 0.575554 0.162699
0.836294 0.578395 0.165031
0.853567 0.580112 0.166427
0.853768 0.580152 0.166427
0.853967 0.580192 0.166427
0.854164 0.580230 0.166427
0.854360 0.580268 0.166427
0.161285 0.547797 0.117074
0.161338 0.547849 0.117074
0.161390 0.547901 0.117074
0.161443 0.547952 0.117074
0.161495 0.548002 0.117074
0.191239 0.550977 0.119513
0.224021 0.554248 0.122200
0.255893 0.557429 0.124811
0.287215 0.560554 0.127375
0.318144 0.563638 0.129906
0.348769 0.566691 0.132411
0.379147 0.569719 0.134894
0.409319 0.572724 0.137360
0.439313 0.575710 0.139809
0.469152 0.578680 0.142245
0.498855 0.581635 0.144668
0.528434 0.584576 0.147080
0.557902 0.587505 0.149482
0.587269 0.590422 0.151875
0.616544 0.593329 0.154259
0.645732 0.596226 0.156635
0.674842 0.599113 0.159003
0.703878 0.601993 0.161365
0.732844 0.604864 0.163720
0.761746 0.607727 0.166068
0.790587 0.610583 0.168411
0.819370 0.613431 0.170748
0.848099 0.616274 0.173080
0.865383 0.617991 0.174476
0.865580 0.618032 0.174476
0.865776 0.618071 0.174476
0.865970 0.618110 0.174476
0.866163 0.618149 0.174476
0.172503 0.585508 0.125094
0.172558 0.585562 0.125094
0.172612 0.585615 0.125094
0.172667 0.585667 0.125094
0.172721 0.585719 0.125094
0.202494 0.588695 0.127532
0.235306 0.591969 0.130219
0.267207 0.595152 0.132831
0.298558 0.598279 0.135395
0.329514 0.601365 0.137926
0.360166 0.604420 0.140431
0.390570 0.607449 0.142914
0.420767 0.610457 0.145379
0.450786 0.613445 0.147829
0.480649 0.616416 0.150265
0.510375 0.619372 0.152688
0.539977 0.622315 0.155100
0.569468 0.625245 0.157502
0.598857 0.628164 0.159895
0.628153 0.631072 0.162279
0.657363 0.633970 0.164655
0.686493 0.636859 0.167023
0.715548 0.639739 0.169385
0.744534 0.642611 0.171740
0.773455 0.645475 0.174088
0.802315 0.648332 0.176431
0.831116 0.651182 0.178768
0.859863 0.654025 0.181100
0.877155 0.655743 0.182496
0.877349 0.655784 0.182496
0.877542 0.655823 0.182496
0.877733 0.655862 0.182496
0.877922 0.655901 0.182496
0.183700 0.623109 0.133086
0.183758 0.623163 0.133086
0.183814 0.623218 0.133086
0.183871 0.623271 0.133086
0.183928 0.623324 0.133086
0.213728 0.626302 0.135525
0.246569 0.629578 0.138212
0.278499 0.632763 0.140823
0.309876 0.635891 0.143388
0.340859 0.638980 0.145919
0.371536 0.642036 0.148424
0.401966 0.645067 0.150907
0.432187 0.648075 0.153372
0.462230 0.651065 0.155822
0.492117 0.654037 0.158258
0.521865 0.656995 0.160681
0.551489 0.659939 0.163093
0.581002 0.662870 0.165495
0.610412 0.665790 0.167888
0.639729 0.668699 0.170272
0.668958 0.671598 0.172648
0.698108 0.674488 0.175016
0.727183 0.677369 0.177378
0.756188 0.680242 0.179732
0.785127 0.683107 0.182081
0.814004 0.685964 0.184424
0.842822 0.688814 0.186761
0.871586 0.691658 0.189093
0.888887 0.693376 0.190488
0.889077 0.693417 0.190488
0.889266 0.693456 0.190488
0.889454 0.693495 0.190488
0.889639 0.693533 0.190488
0.194880 0.660606 0.141054
0.194939 0.660662 0.141054
0.194998 0.660717 0.141054
0.195056 0.660771 0.141054
0.195115 0.660825 0.141054
0.224941 0.663805 0.143493
0.257811 0.667082 0.146180
0.289768 0.670268 0.148791
0.321172 0.673398 0.151356
0.352180 0.676488 0.153887
0.382883 0.679546 0.156392
0.413336 0.682578 0.158875
0.443581 0.685587 0.161340
0.473647 0.688578 0.163790
0.503556 0.691551 0.166225
0.533326 0.694510 0.168649
0.562972 0.697455 0.171061
0.592506 0.700387 0.173463
0.621936 0.703307 0.175855
0.651272 0.706217 0.178239
0.680521 0.709117 0.180615
0.709690 0.712007 0.182984
0.738783 0.714889 0.185345
0.767805 0.717762 0.187700
0.796762 0.720627 0.190049
0.825656 0.723485 0.192391
0.854491 0.726336 0.194729
0.883270 0.729179 0.197060
0.900579 0.730898 0.198456
0.900766 0.730938 0.198456
0.900951 0.730977 0.198456
0.901135 0.731015 0.198456
0.901317 0.731052 0.198456
0.206043 0.698006 0.148998
0.206103 0.698063 0.148998
0.206164 0.698118 0.148998
0.206224 0.698173 0.148998
0.206284 0.698227 0.148998
0.236137 0.701208 0.151437
0.269034 0.704487 0.154124
0.301017 0.707675 0.156735
0.332447 0.710806 0.159300
0.363480 0.713896 0.161831
0.394206 0.716955 0.164336
0.424683 0.719988 0.166819
0.454951 0.722998 0.169284
0.485039 0.725990 0.171734
0.514969 0.728964 0.174169
0.544761 0.731923 0.176593
0.574427 0.734868 0.179005
0.603980 0.737801 0.181407
0.633430 0.740722 0.183800
0.662785 0.743632 0.186184
0.692053 0.746532 0.188559
0.721239 0.749423 0.190928
0.750350 0.752305 0.193289
0.779389 0.755178 0.195644
0.808362 0.758043 0.197993
0.837272 0.760901 0.200336
0.866123 0.763752 0.202673
0.894917 0.766595 0.205004
0.912177 0.768313 0.206400
0.912354 0.768352 0.206400
0.912530 0.768391 0.206400
0.912704 0.768428 0.206400
0.912876 0.768465 0.206400
0.217189 0.735314 0.156920
0.217252 0.735371 0.156920
0.217314 0.735427 0.156920
0.217376 0.735482 0.156920
0.217438 0.735536 0.156920
0.247315 0.738519 0.159359
0.280238 0.741798 0.162046
0.312248 0.744986 0.164657
0.343701 0.748118 0.167222
0.374758 0.751210 0.169753
0.405508 0.754269 0.172258
0.436007 0.757302 0.174741
0.466296 0.760313 0.177206
0.496406 0.763305 0.179656
0.526357 0.766280 0.182091
0.556169 0.769239 0.184515
0.585855 0.772185 0.186927
0.615427 0.775118 0.189329
0.644895 0.778039 0.191721
0.674269 0.780949 0.194105
0.703554 0.783849 0.196481
0.732757 0.786740 0.198850
0.761884 0.789622 0.201211
0.790940 0.792495 0.203566
0.819928 0.795360 0.205915
0.848854 0.798217 0.208257
0.877719 0.801068 0.210595
0.906527 0.803911 0.212926
0.923309 0.805628 0.214322
0.923474 0.805666 0.214322
0.923636 0.805704 0.214322
0.923797 0.805740 0.214322
0.923955 0.805776 0.214322
0.228321 0.772534 0.164821
0.228385 0.772591 0.164821
0.228449 0.772647 0.164821
0.228512 0.772702 0.164821
0.228575 0.772756 0.164821
0.258476 0.775739 0.167260
0.291426 0.779020 0.169947
0.323459 0.782208 0.172558
0.354937 0.785341 0.175123
0.386017 0.788432 0.177654
0.416788 0.791492 0.180158
0.447309 0.794526 0.182642
0.477620 0.797537 0.185107
0.507749 0.800529 0.187556
0.537721 0.803504 0.189992
0.567551 0.806463 0.192415
0.597256 0.809409 0.194828
0.626847 0.812342 0.197230
0.656333 0.815263 0.199622
0.685723 0.818173 0.202006
0.715025 0.821072 0.204382
0.744245 0.823963 0.206751
0.773388 0.826844 0.209112
0.802458 0.829717 0.211467
0.831462 0.832581 0.213816
0.860401 0.835438 0.216158
0.889280 0.838288 0.218495
0.917798 0.841130 0.220827
0.934346 0.842847 0.222223
0.934496 0.842884 0.222223
0.934645 0.842920 0.222223
0.934791 0.842955 0.222223
0.934936 0.842989 0.222223
0.239439 0.809670 0.172702
0.239504 0.809727 0.172702
0.239569 0.809782 0.172702
0.239634 0.809837 0.172702
0.239698 0.809891 0.172702
0.269622 0.812875 0.175141
0.302596 0.816155 0.177828
0.334653 0.819344 0.180439
0.366154 0.822477 0.183004
0.397256 0.825569 0.185535
0.428048 0.828628 0.188039
0.458590 0.831662 0.190523
0.488921 0.834673 0.192988
0.519070 0.837665 0.195437
0.549060 0.840640 0.197873
0.578909 0.843599 0.200296
0.608632 0.846544 0.202709
0.638240 0.849476 0.205111
0.667743 0.852397 0.207503
0.697150 0.855306 0.209887
0.726468 0.858206 0.212263
0.755703 0.861095 0.214632
0.784860 0.863976 0.216993
0.813946 0.866848 0.219348
0.842963 0.869712 0.221697
0.871916 0.872568 0.224039
0.900808 0.875416 0.226376
0.928789 0.878258 0.228708
0.945284 0.879973 0.230104
0.945420 0.880008 0.230104
0.945554 0.880043 0.230104
0.945686 0.880076 0.230104
0.945815 0.880109 0.230104
0.250543 0.846725 0.180564
0.250609 0.846781 0.180564
0.250675 0.846837 0.180564
0.250741 0.846891 0.180564
0.250806 0.846945 0.180564
0.280752 0.849928 0.183003
0.313751 0.853208 0.185690
0.345831 0.856397 0.188301
0.377353 0.859530 0.190866
0.408476 0.862621 0.193397
0.439289 0.865681 0.195901
0.469850 0.868714 0.198385
0.500200 0.871725 0.200850
0.530368 0.874716 0.203300
0.560376 0.877690 0.205735
0.590243 0.880649 0.208159
0.619983 0.883594 0.210571
0.649607 0.886525 0.212973
0.679127 0.889445 0.215365
0.708549 0.892354 0.217749
