library/cube/Blockbuster_000.cube
# CINEGRADE LAB — Premium Cinematic LUT
# Title: Blockbuster
# Category: Teal & Orange Modern
# Description: Complementary colors with modern cinematic teal and orange grading
# Mood: Blockbuster, cinematic, contemporary
# Variant: 1
# Generated: 2026-05-21T16:12:57.998067
TITLE "Blockbuster"
LUT_3D_SIZE 33
0.000655 0.016615 0.014905
0.000645 0.016340 0.014659
0.000635 0.016069 0.014415
0.003999 0.015838 0.014210
0.033509 0.015898 0.014298
0.063263 0.015965 0.014390
0.093258 0.016037 0.014488
0.123490 0.016115 0.014591
0.153956 0.016198 0.014698
0.184652 0.016286 0.014811
0.215575 0.016380 0.014928
0.246723 0.016479 0.015050
0.278091 0.016583 0.015177
0.309677 0.016693 0.015309
0.341477 0.016807 0.015445
0.373488 0.016927 0.015587
0.405708 0.017052 0.015732
0.438132 0.017182 0.015883
0.470758 0.017317 0.016037
0.503584 0.017457 0.016197
0.536604 0.017602 0.016361
0.569818 0.017752 0.016529
0.603221 0.017906 0.016701
0.636811 0.018066 0.016878
0.670585 0.018230 0.017060
0.704540 0.018399 0.017245
0.738672 0.018572 0.017435
0.772737 0.018747 0.017626
0.806908 0.018927 0.017821
0.841205 0.019110 0.018019
0.847295 0.018984 0.017907
0.849692 0.018819 0.017757
0.852059 0.018657 0.017609
0.000625 0.015703 0.014086
0.000618 0.015438 0.013847
0.000613 0.015177 0.013612
0.004027 0.014956 0.013416
0.033945 0.015031 0.013516
0.064099 0.015111 0.013621
0.094486 0.015197 0.013731
0.125103 0.015289 0.013846
0.155946 0.015386 0.013965
0.187013 0.015488 0.014090
0.218299 0.015595 0.014219
0.249803 0.015707 0.014353
0.281520 0.015825 0.014492
0.313448 0.015948 0.014635
0.345583 0.016076 0.014783
0.377923 0.016208 0.014936
0.410463 0.016346 0.015093
0.443202 0.016489 0.015254
0.476136 0.016637 0.015420
0.509262 0.016789 0.015591
0.542577 0.016946 0.015765
0.576078 0.017108 0.015944
0.609762 0.017275 0.016128
0.643627 0.017447 0.016315
0.677669 0.017623 0.016507
0.711885 0.017803 0.016703
0.746235 0.017988 0.016903
0.780448 0.018174 0.017103
0.814779 0.018364 0.017307
0.849223 0.018558 0.017514
0.855241 0.018439 0.017409
0.857538 0.018283 0.017265
0.859806 0.018128 0.017123
0.000607 0.014824 0.013294
0.000605 0.014569 0.013064
0.000603 0.014317 0.012836
0.004066 0.014106 0.012649
0.034379 0.014196 0.012761
0.064920 0.014290 0.012878
0.095688 0.014390 0.013000
0.126678 0.014495 0.013127
0.157887 0.014605 0.013258
0.189312 0.014720 0.013395
0.220950 0.014841 0.013536
0.252798 0.014967 0.013681
0.284853 0.015097 0.013832
0.317111 0.015233 0.013986
0.349570 0.015374 0.014146
0.382226 0.015519 0.014309
0.415077 0.015670 0.014477
0.448119 0.015825 0.014650
0.481350 0.015985 0.014827
0.514766 0.016150 0.015008
0.548365 0.016319 0.015194
0.582143 0.016493 0.015383
0.616098 0.016672 0.015577
0.650227 0.016855 0.015775
0.684527 0.017043 0.015977
0.718995 0.017235 0.016184
0.753501 0.017431 0.016392
0.787865 0.017627 0.016602
0.822336 0.017827 0.016815
0.856908 0.018031 0.017031
0.862852 0.017921 0.016932
0.865050 0.017772 0.016795
0.867219 0.017625 0.016659
0.001361 0.034884 0.013287
0.001362 0.034629 0.013064
0.001364 0.034377 0.012844
0.004874 0.034166 0.012665
0.035569 0.034259 0.012789
0.066486 0.034357 0.012918
0.097621 0.034461 0.013052
0.128971 0.034570 0.013190
0.160534 0.034684 0.013333
0.192306 0.034804 0.013480
0.224283 0.034928 0.013633
0.256464 0.035058 0.013789
0.288845 0.035193 0.013951
0.321422 0.035333 0.014116
0.354193 0.035477 0.014286
0.387155 0.035627 0.014461
0.420305 0.035782 0.014639
0.453639 0.035941 0.014823
0.487156 0.036105 0.015010
0.520852 0.036274 0.015201
0.554723 0.036447 0.015397
0.588768 0.036626 0.015597
0.622983 0.036809 0.015801
0.657366 0.036996 0.016009
0.691914 0.037188 0.016221
0.726624 0.037384 0.016437
0.761245 0.037583 0.016654
0.795741 0.037782 0.016872
0.830331 0.037985 0.017094
0.865012 0.038192 0.017318
0.870880 0.038083 0.017226
0.872980 0.037934 0.017094
0.875050 0.037788 0.016964
0.002722 0.071355 0.013901
0.002726 0.071092 0.013686
0.002731 0.070833 0.013473
0.006287 0.070616 0.013302
0.037352 0.070706 0.013437
0.068631 0.070802 0.013577
0.100122 0.070903 0.013722
0.131821 0.071009 0.013871
0.163725 0.071121 0.014025
0.195832 0.071238 0.014184
0.228138 0.071361 0.014346
0.260640 0.071488 0.014514
0.293335 0.071621 0.014686
0.326220 0.071759 0.014862
0.359292 0.071902 0.015042
0.392549 0.072050 0.015227
0.425987 0.072203 0.015416
0.459603 0.072360 0.015609
0.493395 0.072523 0.015807
0.527359 0.072691 0.016008
0.561494 0.072863 0.016214
0.595795 0.073040 0.016423
0.630261 0.073222 0.016637
0.664888 0.073408 0.016855
0.699673 0.073599 0.017076
0.734615 0.073795 0.017302
0.769306 0.073991 0.017526
0.803915 0.074188 0.017753
0.838606 0.074390 0.017982
0.873375 0.074595 0.018214
0.879166 0.074482 0.018127
0.881168 0.074330 0.018001
0.883141 0.074181 0.017877
0.004091 0.107745 0.014538
0.004098 0.107476 0.014330
0.004107 0.107210 0.014124
0.007707 0.106988 0.013961
0.039130 0.107077 0.014107
0.070760 0.107171 0.014258
0.102595 0.107271 0.014414
0.134632 0.107376 0.014574
0.166866 0.107486 0.014739
0.199297 0.107602 0.014908
0.231919 0.107724 0.015082
0.264732 0.107850 0.015260
0.297730 0.107982 0.015442
0.330912 0.108119 0.015628
0.364275 0.108261 0.015819
0.397816 0.108409 0.016014
0.431532 0.108561 0.016213
0.465419 0.108719 0.016416
0.499476 0.108881 0.016623
0.533700 0.109048 0.016835
0.568087 0.109220 0.017050
0.602635 0.109397 0.017269
0.637341 0.109579 0.017492
0.672202 0.109766 0.017720
0.707217 0.109957 0.017950
0.742381 0.110153 0.018185
0.777097 0.110347 0.018417
0.811798 0.110543 0.018651
0.846571 0.110744 0.018888
0.881411 0.110948 0.019127
0.887123 0.110833 0.019047
0.889028 0.110679 0.018926
0.890904 0.110527 0.018807
0.005470 0.144060 0.015197
0.005480 0.143786 0.014996
0.005492 0.143516 0.014798
0.009135 0.143289 0.014642
0.040904 0.143378 0.014799
0.072874 0.143472 0.014962
0.105042 0.143571 0.015128
0.137404 0.143676 0.015299
0.169958 0.143787 0.015474
0.202701 0.143902 0.015654
0.235630 0.144024 0.015838
0.268741 0.144151 0.016026
0.302033 0.144283 0.016219
0.335502 0.144420 0.016415
0.369145 0.144563 0.016616
0.402959 0.144710 0.016821
0.436943 0.144863 0.017030
0.471092 0.145021 0.017243
0.505404 0.145184 0.017460
0.539876 0.145352 0.017681
0.574506 0.145525 0.017906
0.609291 0.145703 0.018135
0.644228 0.145886 0.018367
0.679315 0.146074 0.018604
0.714548 0.146266 0.018844
0.749910 0.146463 0.019088
0.784620 0.146656 0.019326
0.819395 0.146853 0.019568
0.854231 0.147054 0.019812
0.889121 0.147258 0.020059
0.894754 0.147142 0.019984
0.896563 0.146986 0.019869
0.898344 0.146833 0.019755
0.006857 0.180307 0.015879
0.006871 0.180030 0.015685
0.006886 0.179756 0.015494
0.010571 0.179527 0.015346
0.042675 0.179616 0.015514
0.074973 0.179710 0.015687
0.107462 0.179811 0.015864
0.140139 0.179916 0.016045
0.173002 0.180028 0.016231
0.206046 0.180145 0.016421
0.239270 0.180267 0.016616
0.272671 0.180395 0.016814
0.306245 0.180529 0.017017
0.339990 0.180667 0.017223
0.373903 0.180811 0.017434
0.407981 0.180961 0.017649
0.442222 0.181115 0.017868
0.476623 0.181275 0.018090
0.511180 0.181440 0.018317
0.545892 0.181610 0.018547
0.580756 0.181785 0.018782
0.615768 0.181965 0.019020
0.650927 0.182150 0.019262
0.686230 0.182339 0.019507
0.721674 0.182534 0.019756
0.757100 0.182732 0.020007
0.791877 0.182926 0.020253
0.826708 0.183124 0.020502
0.861588 0.183325 0.020753
0.896512 0.183530 0.021007
0.902063 0.183414 0.020938
0.903778 0.183258 0.020829
0.905465 0.183105 0.020721
0.008254 0.216492 0.016583
0.008271 0.216213 0.016396
0.008289 0.215937 0.016212
0.012015 0.215707 0.016072
0.044443 0.215797 0.016251
0.077058 0.215894 0.016434
0.109858 0.215996 0.016622
0.142839 0.216103 0.016814
0.175999 0.216217 0.017010
0.209334 0.216336 0.017210
0.242843 0.216461 0.017414
0.276522 0.216591 0.017623
0.310368 0.216727 0.017836
0.344379 0.216868 0.018052
0.378552 0.217014 0.018273
0.412884 0.217166 0.018497
0.447373 0.217323 0.018725
0.482015 0.217486 0.018958
0.516809 0.217653 0.019194
0.551751 0.217826 0.019433
0.586838 0.218004 0.019677
0.622070 0.218187 0.019924
0.657441 0.218375 0.020175
0.692951 0.218568 0.020430
0.728596 0.218766 0.020688
0.764048 0.218965 0.020946
0.798873 0.219161 0.021199
0.833741 0.219360 0.021455
0.868647 0.219564 0.021713
0.903585 0.219771 0.021973
0.909055 0.219655 0.021910
0.910677 0.219500 0.021806
0.912272 0.219348 0.021703
0.009660 0.252623 0.017309
0.009681 0.252343 0.017130
0.009702 0.252066 0.016953
0.013468 0.251835 0.016820
0.046208 0.251928 0.017009
0.079129 0.252027 0.017203
0.112229 0.252132 0.017401
0.145503 0.252243 0.017603
0.178950 0.252360 0.017810
0.212566 0.252482 0.018020
0.246350 0.252610 0.018234
0.280297 0.252743 0.018453
0.314405 0.252882 0.018675
0.348673 0.253027 0.018901
0.383096 0.253177 0.019132
0.417672 0.253332 0.019366
0.452399 0.253493 0.019603
0.487273 0.253659 0.019845
0.522293 0.253831 0.020090
0.557456 0.254007 0.020339
0.592759 0.254189 0.020592
0.628199 0.254376 0.020848
0.663775 0.254568 0.021108
0.699483 0.254765 0.021371
0.735321 0.254967 0.021638
0.770757 0.255169 0.021902
0.805612 0.255367 0.022162
0.840499 0.255569 0.022425
0.875413 0.255775 0.022690
0.910348 0.255985 0.022957
0.915735 0.255871 0.022899
0.917266 0.255718 0.022800
0.918769 0.255568 0.022703
0.011076 0.288705 0.018058
0.011100 0.288425 0.017886
0.011126 0.288148 0.017716
0.014929 0.287918 0.017590
0.047971 0.288015 0.017790
0.081188 0.288118 0.017994
0.114576 0.288227 0.018202
0.148134 0.288342 0.018415
0.181857 0.288462 0.018631
0.215744 0.288589 0.018851
0.249792 0.288721 0.019076
0.283997 0.288859 0.019304
0.318358 0.289002 0.019536
0.352872 0.289151 0.019771
0.387535 0.289305 0.020011
0.422346 0.289465 0.020254
0.457301 0.289631 0.020501
0.492399 0.289802 0.020752
0.527637 0.289978 0.021007
0.563011 0.290159 0.021265
0.598520 0.290346 0.021526
0.634161 0.290538 0.021791
0.669932 0.290735 0.022060
0.705830 0.290937 0.022332
0.741853 0.291144 0.022607
0.777230 0.291348 0.022877
0.812097 0.291550 0.023144
0.846986 0.291755 0.023413
0.881889 0.291965 0.023684
0.916804 0.292178 0.023957
0.922108 0.292067 0.023904
0.923549 0.291917 0.023811
0.924963 0.291770 0.023719
0.012503 0.324744 0.018829
0.012530 0.324465 0.018664
0.012559 0.324190 0.018501
0.016399 0.323962 0.018383
0.049733 0.324063 0.018593
0.083234 0.324171 0.018807
0.116902 0.324285 0.019025
0.150731 0.324405 0.019248
0.184721 0.324531 0.019474
0.218869 0.324662 0.019704
0.253171 0.324800 0.019938
0.287625 0.324943 0.020175
0.322228 0.325091 0.020417
0.356979 0.325246 0.020662
0.391873 0.325405 0.020911
0.426909 0.325571 0.021163
0.462085 0.325742 0.021420
0.497396 0.325918 0.021679
0.532842 0.326100 0.021943
0.568420 0.326287 0.022209
0.604126 0.326480 0.022480
0.639960 0.326677 0.022753
0.675917 0.326880 0.023031
0.711997 0.327089 0.023311
0.748196 0.327302 0.023595
0.783472 0.327509 0.023870
0.818334 0.327715 0.024143
0.853206 0.327925 0.024418
0.888082 0.328138 0.024696
0.922959 0.328356 0.024975
0.928180 0.328249 0.024927
0.929532 0.328102 0.024839
0.930858 0.327959 0.024753
0.013939 0.360747 0.019622
0.013970 0.360470 0.019464
0.014003 0.360198 0.019308
0.017879 0.359972 0.019197
0.051493 0.360080 0.019418
0.085269 0.360193 0.019642
0.119205 0.360313 0.019870
0.153297 0.360439 0.020102
0.187544 0.360571 0.020338
0.221942 0.360708 0.020577
0.256489 0.360852 0.020820
0.291182 0.361001 0.021068
0.326018 0.361156 0.021318
0.360996 0.361316 0.021573
0.396112 0.361483 0.021831
0.431365 0.361655 0.022092
0.466751 0.361832 0.022357
0.502268 0.362015 0.022626
0.537913 0.362203 0.022898
0.573685 0.362397 0.023174
0.609581 0.362596 0.023452
0.645598 0.362801 0.023735
0.681734 0.363011 0.024020
0.717987 0.363225 0.024309
0.754354 0.363446 0.024601
0.789489 0.363656 0.024881
0.824327 0.363867 0.025161
0.859165 0.364082 0.025441
0.893997 0.364301 0.025724
0.928819 0.364523 0.026009
0.933956 0.364420 0.025967
0.935222 0.364279 0.025884
0.936462 0.364141 0.025803
0.015386 0.396719 0.020438
0.015421 0.396446 0.020287
0.015457 0.396177 0.020138
0.019368 0.395955 0.020034
0.053252 0.396069 0.020264
0.087293 0.396190 0.020498
0.121487 0.396317 0.020736
0.155833 0.396449 0.020977
0.190326 0.396588 0.021222
0.224965 0.396732 0.021471
0.259747 0.396883 0.021724
0.294670 0.397039 0.021980
0.329730 0.397201 0.022240
0.364926 0.397369 0.022504
0.400255 0.397543 0.022771
0.435715 0.397722 0.023041
0.471303 0.397907 0.023315
0.507016 0.398097 0.023592
0.542853 0.398293 0.023873
0.578811 0.398494 0.024157
0.614887 0.398701 0.024444
0.651080 0.398913 0.024735
0.687387 0.399130 0.025029
0.723805 0.399353 0.025326
0.760333 0.399581 0.025626
0.795283 0.399795 0.025910
0.830082 0.400012 0.026195
0.864869 0.400232 0.026482
0.899640 0.400457 0.026770
0.934390 0.400685 0.027060
0.939443 0.400588 0.027023
0.940624 0.400452 0.026945
0.941781 0.400320 0.026869
0.016844 0.432666 0.021275
0.016882 0.432397 0.021131
0.016922 0.432133 0.020989
0.020866 0.431916 0.020892
0.055011 0.432038 0.021132
0.089307 0.432166 0.021376
0.123750 0.432301 0.021623
0.158338 0.432441 0.021874
0.193069 0.432588 0.022128
0.227939 0.432740 0.022387
0.262947 0.432898 0.022648
0.298090 0.433063 0.022914
0.333366 0.433233 0.023183
0.368771 0.433409 0.023455
0.404304 0.433590 0.023731
0.439963 0.433778 0.024010
0.475744 0.433971 0.024292
0.511646 0.434169 0.024578
0.547665 0.434374 0.024867
0.583801 0.434583 0.025159
0.620050 0.434798 0.025455
0.656410 0.435019 0.025754
0.692880 0.435245 0.026056
0.729456 0.435476 0.026361
0.766103 0.435712 0.026668
0.800862 0.435931 0.026957
0.835603 0.436154 0.027247
0.870323 0.436381 0.027539
0.905017 0.436612 0.027833
0.939679 0.436846 0.028128
0.944647 0.436756 0.028096
0.945746 0.436627 0.028023
0.946821 0.436501 0.027952
0.018313 0.468594 0.022134
0.018355 0.468331 0.021997
0.018398 0.468072 0.021862
0.022374 0.467861 0.021773
0.056770 0.467991 0.022022
0.091311 0.468128 0.022275
0.125993 0.468271 0.022531
0.160815 0.468420 0.022791
0.195773 0.468576 0.023055
0.230866 0.468737 0.023322
0.266091 0.468904 0.023593
0.301446 0.469077 0.023867
0.336927 0.469256 0.024145
0.372533 0.469441 0.024426
0.408262 0.469631 0.024710
0.444111 0.469828 0.024998
0.480077 0.470030 0.025289
0.516158 0.470238 0.025583
0.552353 0.470451 0.025880
0.588658 0.470670 0.026181
0.625072 0.470894 0.026484
0.661593 0.471124 0.026791
0.698217 0.471359 0.027101
0.734944 0.471599 0.027414
0.771534 0.471842 0.027727
0.806230 0.472069 0.028021
0.840898 0.472299 0.028316
0.875534 0.472533 0.028613
0.910134 0.472771 0.028912
0.944692 0.473012 0.029212
0.949576 0.472929 0.029185
0.950595 0.472807 0.029117
0.951590 0.472689 0.029051
0.019792 0.504508 0.023015
0.019838 0.504251 0.022885
0.019885 0.503999 0.022757
0.023893 0.503795 0.022674
0.058530 0.503935 0.022933
0.093306 0.504081 0.023195
0.128218 0.504233 0.023461
0.163264 0.504392 0.023730
0.198441 0.504557 0.024003
0.233748 0.504728 0.024279
0.269181 0.504904 0.024558
0.304738 0.505087 0.024841
0.340417 0.505276 0.025127
0.376215 0.505470 0.025417
0.412131 0.505671 0.025710
0.448161 0.505877 0.026006
0.484304 0.506089 0.026305
0.520558 0.506306 0.026607
0.556919 0.506529 0.026912
0.593387 0.506758 0.027221
0.629958 0.506992 0.027532
0.666631 0.507232 0.027847
0.703404 0.507477 0.028164
0.740273 0.507728 0.028485
0.776777 0.507978 0.028803
0.811393 0.508213 0.029102
0.845971 0.508450 0.029402
0.880508 0.508692 0.029704
0.914998 0.508937 0.030007
0.949437 0.509186 0.030312
0.954237 0.509111 0.030290
0.955178 0.508997 0.030227
0.956096 0.508888 0.030165
0.021284 0.540413 0.023918
0.021333 0.540164 0.023794
0.021383 0.539919 0.023673
0.025421 0.539723 0.023597
0.060290 0.539873 0.023865
0.095292 0.540030 0.024136
0.130425 0.540192 0.024411
0.165686 0.540361 0.024689
0.201074 0.540536 0.024970
0.236585 0.540718 0.025255
0.272217 0.540905 0.025543
0.307968 0.541098 0.025835
0.343836 0.541297 0.026129
0.379819 0.541502 0.026427
0.415913 0.541713 0.026728
0.452117 0.541930 0.027032
0.488429 0.542152 0.027339
0.524847 0.542380 0.027650
0.561368 0.542614 0.027963
0.597990 0.542854 0.028279
0.634711 0.543099 0.028599
0.671530 0.543349 0.028921
0.708443 0.543605 0.029246
0.745449 0.543866 0.029573
0.781836 0.544125 0.029896
0.816357 0.544367 0.030200
0.850830 0.544613 0.030505
0.885251 0.544863 0.030812
0.919616 0.545117 0.031119
0.953921 0.545374 0.031428
0.958638 0.545307 0.031410
0.959502 0.545203 0.031352
0.960345 0.545102 0.031296
0.022786 0.576316 0.024842
0.022839 0.576074 0.024725
0.022893 0.575838 0.024610
0.026961 0.575651 0.024541
0.062052 0.575812 0.024818
0.097271 0.575979 0.025098
0.132616 0.576153 0.025382
0.168083 0.576333 0.025668
0.203672 0.576519 0.025958
0.239379 0.576712 0.026252
0.275202 0.576910 0.026548
0.311139 0.577115 0.026848
0.347188 0.577325 0.027151
0.383346 0.577541 0.027457
0.419611 0.577763 0.027766
0.455982 0.577991 0.028078
0.492455 0.578225 0.028393
0.529029 0.578465 0.028711
0.565702 0.578710 0.029032
0.602472 0.578961 0.029356
0.639336 0.579217 0.029683
0.676292 0.579479 0.030012
0.713339 0.579746 0.030345
0.750475 0.580019 0.030680
0.786719 0.580286 0.031007
0.821128 0.580537 0.031315
0.855481 0.580792 0.031625
0.889772 0.581051 0.031935
0.923997 0.581313 0.032247
0.958152 0.581579 0.032559
0.962785 0.581522 0.032547
0.963577 0.581427 0.032493
0.964347 0.581336 0.032441
0.024300 0.612219 0.025788
0.024357 0.611987 0.025677
0.024415 0.611760 0.025568
0.028510 0.611583 0.025507
0.063815 0.611756 0.025792
0.099243 0.611935 0.026081
0.134790 0.612121 0.026373
0.170456 0.612313 0.026668
0.206237 0.612511 0.026966
0.242132 0.612715 0.027268
0.278138 0.612925 0.027573
0.314252 0.613141 0.027881
0.350474 0.613364 0.028192
0.386800 0.613592 0.028506
0.423229 0.613826 0.028823
0.459758 0.614066 0.029142
0.496385 0.614312 0.029465
0.533108 0.614564 0.029791
0.569926 0.614821 0.030119
0.606835 0.615083 0.030451
0.643835 0.615352 0.030785
0.680923 0.615626 0.031122
0.718097 0.615905 0.031461
0.755356 0.616190 0.031803
0.791431 0.616466 0.032134
0.825714 0.616727 0.032447
0.859930 0.616991 0.032760
0.894076 0.617259 0.033075
0.928147 0.617530 0.033390
0.962138 0.617805 0.033706
0.966689 0.617758 0.033698
0.967409 0.617674 0.033649
0.968109 0.617593 0.033602
0.025826 0.648130 0.026754
0.025887 0.647908 0.026650
0.025948 0.647691 0.026548
0.030071 0.647524 0.026492
0.065581 0.647709 0.026786
0.101208 0.647901 0.027084
0.136950 0.648099 0.027384
0.172805 0.648304 0.027688
0.208770 0.648515 0.027994
0.244845 0.648731 0.028304
0.281025 0.648954 0.028617
0.317310 0.649183 0.028933
0.353696 0.649418 0.029252
0.390183 0.649659 0.029573
0.426767 0.649906 0.029898
0.463447 0.650159 0.030225
0.500221 0.650417 0.030556
0.537087 0.650681 0.030889
0.574042 0.650951 0.031224
0.611085 0.651226 0.031563
0.648214 0.651507 0.031904
0.685427 0.651794 0.032248
0.722722 0.652086 0.032595
0.760097 0.652383 0.032944
0.795978 0.652669 0.033278
0.830120 0.652939 0.033595
0.864186 0.653213 0.033912
0.898172 0.653491 0.034230
0.932074 0.653772 0.034549
0.965888 0.654057 0.034868
0.970356 0.654021 0.034865
0.971008 0.653947 0.034820
0.971641 0.653877 0.034777
0.027364 0.684052 0.027741
0.027428 0.683841 0.027643
0.027494 0.683635 0.027547
0.031643 0.683479 0.027499
0.067349 0.683678 0.027801
0.103167 0.683883 0.028107
0.139095 0.684094 0.028415
0.175131 0.684312 0.028727
0.211273 0.684536 0.029042
0.247519 0.684766 0.029359
0.283866 0.685002 0.029680
0.320313 0.685244 0.030004
0.356857 0.685493 0.030330
0.393497 0.685747 0.030659
0.430229 0.686007 0.030992
0.467054 0.686273 0.031326
0.503967 0.686544 0.031664
0.540968 0.686822 0.032004
0.578054 0.687105 0.032347
0.615224 0.687394 0.032693
0.652476 0.687688 0.033041
0.689808 0.687988 0.033392
0.727218 0.688293 0.033745
0.764704 0.688603 0.034101
0.800369 0.688898 0.034438
0.834355 0.689179 0.034758
0.868256 0.689464 0.035079
0.902068 0.689752 0.035401
0.935787 0.690043 0.035723
0.969410 0.690337 0.036045
0.973797 0.690313 0.036046
0.974383 0.690250 0.036006
0.974951 0.690192 0.035967
0.028914 0.719990 0.028749
0.028982 0.719790 0.028657
0.029052 0.719596 0.028568
0.033226 0.719452 0.028525
0.069120 0.719665 0.028836
0.105121 0.719884 0.029150
0.141227 0.720109 0.029466
0.177436 0.720341 0.029786
0.213747 0.720579 0.030108
0.250157 0.720823 0.030434
0.286663 0.721073 0.030762
0.323265 0.721329 0.031093
0.359959 0.721591 0.031427
0.396744 0.721859 0.031764
0.433618 0.722133 0.032103
0.470580 0.722413 0.032445
0.507626 0.722698 0.032790
0.544756 0.722989 0.033137
0.581967 0.723286 0.033487
0.619257 0.723589 0.033840
0.656626 0.723897 0.034195
0.694070 0.724210 0.034552
0.731589 0.724529 0.034912
0.769180 0.724854 0.035274
0.804608 0.725159 0.035614
0.838425 0.725450 0.035938
0.872147 0.725745 0.036262
0.905772 0.726044 0.036586
0.939295 0.726345 0.036911
0.972713 0.726650 0.037237
0.977019 0.726637 0.037241
0.977543 0.726587 0.037206
0.978049 0.726540 0.037171
0.030477 0.755948 0.029777
0.030549 0.755761 0.029691
0.030622 0.755579 0.029608
0.034821 0.755448 0.029572
0.070894 0.755675 0.029890
0.107070 0.755909 0.030212
0.143346 0.756149 0.030536
0.179721 0.756395 0.030864
0.216193 0.756647 0.031194
0.252759 0.756906 0.031527
0.289417 0.757170 0.031863
0.326166 0.757441 0.032201
0.363004 0.757717 0.032542
0.399928 0.758000 0.032886
0.436937 0.758288 0.033233
0.474029 0.758582 0.033582
0.511201 0.758882 0.033933
0.548453 0.759187 0.034288
0.585783 0.759499 0.034644
0.623188 0.759815 0.035003
0.660667 0.760138 0.035365
0.698219 0.760466 0.035729
0.735840 0.760799 0.036095
0.773531 0.761137 0.036463
0.808705 0.761453 0.036806
0.842338 0.761755 0.037132
0.875868 0.762061 0.037459
0.909292 0.762371 0.037787
0.942606 0.762683 0.038114
0.975807 0.762999 0.038442
0.980034 0.762998 0.038451
0.980498 0.762960 0.038419
0.980944 0.762926 0.038389
0.032052 0.791932 0.030824
0.032128 0.791757 0.030745
0.032205 0.791589 0.030668
0.036427 0.791471 0.030638
0.072672 0.791713 0.030964
0.109015 0.791962 0.031294
0.145454 0.792217 0.031626
0.181987 0.792478 0.031961
0.218612 0.792745 0.032298
0.255327 0.793019 0.032639
0.292130 0.793298 0.032982
0.329020 0.793584 0.033327
0.365994 0.793875 0.033675
0.403050 0.794173 0.034026
0.440187 0.794476 0.034380
0.477403 0.794785 0.034735
0.514696 0.795099 0.035094
0.552065 0.795420 0.035455
0.589507 0.795746 0.035818
0.627021 0.796077 0.036183
0.664605 0.796414 0.036551
0.702258 0.796757 0.036921
0.739978 0.797105 0.037294
0.777763 0.797458 0.037668
0.812665 0.797784 0.038013
0.846101 0.798098 0.038342
0.879427 0.798415 0.038672
0.912638 0.798736 0.039002
0.945730 0.799059 0.039332
0.978701 0.799386 0.039662
0.982850 0.799398 0.039674
0.983257 0.799372 0.039647
0.983647 0.799351 0.039620
0.033639 0.827943 0.031892
0.033719 0.827783 0.031819
0.033800 0.827628 0.031747
0.038045 0.827525 0.031723
0.074454 0.827783 0.032057
0.110957 0.828047 0.032394
0.147551 0.828317 0.032734
0.184234 0.828594 0.033076
0.221006 0.828877 0.033421
0.257863 0.829166 0.033768
0.294804 0.829461 0.034118
0.331828 0.829762 0.034471
0.368931 0.830069 0.034826
0.406113 0.830381 0.035184
0.443372 0.830700 0.035544
0.480706 0.831024 0.035906
0.518114 0.831354 0.036271
0.555593 0.831690 0.036638
0.593142 0.832031 0.037008
0.630759 0.832378 0.037379
0.668443 0.832730 0.037753
0.706192 0.833088 0.038130
0.744005 0.833450 0.038508
0.781880 0.833819 0.038888
0.816497 0.834155 0.039234
0.849724 0.834481 0.039566
0.882832 0.834810 0.039898
0.915817 0.835142 0.040230
0.948676 0.835477 0.040562
0.981405 0.835814 0.040894
0.985478 0.835839 0.040910
0.985830 0.835827 0.040887
0.986167 0.835819 0.040864
0.035202 0.862952 0.032941
0.035287 0.862846 0.032875
0.035374 0.862745 0.032811
0.039642 0.862695 0.032795
0.076209 0.863007 0.033137
0.112865 0.863324 0.033483
0.149608 0.863646 0.033831
0.186437 0.863974 0.034181
0.223349 0.864307 0.034534
0.260343 0.864645 0.034890
0.297416 0.864988 0.035248
0.334568 0.865336 0.035608
0.371797 0.865689 0.035971
0.409100 0.866047 0.036337
0.446475 0.866410 0.036704
0.483923 0.866778 0.037074
0.521440 0.867150 0.037446
0.559024 0.867528 0.037820
0.596676 0.867910 0.038197
