library/cube/Blockbuster_000.cube
# CINEGRADE LAB — Premium Cinematic LUT
# Title: Blockbuster
# Category: Teal & Orange Modern
# Description: Complementary colors with modern cinematic teal and orange grading
# Mood: Blockbuster, cinematic, contemporary
# Variant: 1
# Generated: 2026-05-21T16:12:57.998067
TITLE "Blockbuster"
LUT_3D_SIZE 5
0.000655 0.016615 0.014905
0.153956 0.016198 0.014698
0.405708 0.017052 0.015732
0.670585 0.018230 0.017060
0.852059 0.018657 0.017609
0.008254 0.216492 0.016583
0.175999 0.216217 0.017010
0.447373 0.217323 0.018725
0.728596 0.218766 0.020688
0.912272 0.219348 0.021703
0.019792 0.504508 0.023015
0.198441 0.504557 0.024003
0.484304 0.506089 0.026305
0.776777 0.507978 0.028803
0.956096 0.508888 0.030165
0.032052 0.791932 0.030824
0.218612 0.792745 0.032298
0.514696 0.795099 0.035094
0.812665 0.797784 0.038013
0.983647 0.799351 0.039620
0.041659 0.985828 0.036427
0.233723 0.987952 0.038308
0.536733 0.991304 0.041489
0.836970 0.994626 0.044702
0.996158 0.996388 0.046407
0.001436 0.016683 0.227335
0.156368 0.016341 0.225786
0.410356 0.017276 0.225532
0.677115 0.018529 0.225611
0.859128 0.019014 0.224940
0.009092 0.216532 0.224612
0.178088 0.216346 0.223842
0.451141 0.217544 0.224403
0.733740 0.219073 0.225242
0.917238 0.219722 0.225147
0.020693 0.504595 0.227109
0.200265 0.504751 0.227009
0.487336 0.506391 0.228253
0.780566 0.508378 0.229709
0.959233 0.509365 0.230030
0.033021 0.792231 0.231317
0.220232 0.793161 0.231769
0.517144 0.795628 0.233554
0.815448 0.798413 0.235459
0.985370 0.800057 0.236036
0.042706 0.986577 0.233488
0.235208 0.988702 0.234348
0.538773 0.992057 0.236498
0.839148 0.995376 0.238655
0.997008 0.997119 0.239258
0.002506 0.017052 0.513851
0.159027 0.016783 0.510500
0.415188 0.017796 0.508512
0.683772 0.019121 0.506913
0.866253 0.019662 0.504602
0.010214 0.216873 0.505240
0.180423 0.216775 0.502860
0.455103 0.218062 0.501864
0.739030 0.219674 0.501187
0.922276 0.220386 0.499598
0.021872 0.504986 0.502454
0.202335 0.505248 0.500887
0.490570 0.506991 0.500698
0.784505 0.509073 0.500741
0.962472 0.510135 0.499652
0.034264 0.792835 0.501804
0.222100 0.793878 0.500867
0.519805 0.796453 0.501272
0.818412 0.799334 0.501795
0.987240 0.801051 0.500964
0.044021 0.987587 0.499302
0.236943 0.989711 0.498763
0.541042 0.993067 0.499495
0.841548 0.996382 0.500197
0.998064 0.998104 0.499282
0.003580 0.017439 0.799094
0.161649 0.017241 0.793983
0.419924 0.018330 0.790302
0.690279 0.019726 0.787062
0.873156 0.020322 0.783149
0.011341 0.217238 0.784733
0.182727 0.217225 0.780776
0.458982 0.218601 0.778255
0.744192 0.220294 0.776090
0.927115 0.221068 0.773032
0.023055 0.505408 0.776770
0.204380 0.505773 0.773759
0.493737 0.507619 0.772156
0.788329 0.509793 0.770801
0.965550 0.510927 0.768312
0.035512 0.793473 0.771325
0.223950 0.794628 0.769007
0.522417 0.797308 0.768038
0.821297 0.800282 0.767175
0.988997 0.802068 0.764929
0.045340 0.988593 0.764157
0.238666 0.990717 0.762211
0.543282 0.994072 0.761507
0.843917 0.997384 0.760728
0.999078 0.999085 0.758259
0.004168 0.017352 0.953841
0.163776 0.017255 0.954999
0.424134 0.018448 0.956988
0.696233 0.019939 0.958822
0.879457 0.020611 0.959388
0.012073 0.217229 0.958123
0.184626 0.217322 0.958448
0.462427 0.218804 0.959655
0.748891 0.220596 0.960675
0.931437 0.221444 0.960261
0.023912 0.505529 0.962329
0.206085 0.506010 0.961792
0.496535 0.507968 0.962173
0.791745 0.510245 0.962324
0.968187 0.511458 0.960880
0.036476 0.793856 0.963252
0.225501 0.795127 0.961838
0.524705 0.797918 0.961363
0.823839 0.800987 0.960607
0.990385 0.802845 0.958101
0.046396 0.989328 0.957522
0.240115 0.991455 0.955210
0.545235 0.994814 0.953840
0.846004 0.998123 0.952131
0.999805 0.999805 0.948505
