library/cube/Blockbuster_000.cube
# CINEGRADE LAB — Premium Cinematic LUT
# Title: Blockbuster
# Category: Teal & Orange Modern
# Description: Complementary colors with modern cinematic teal and orange grading
# Mood: Blockbuster, cinematic, contemporary
# Variant: 1
# Generated: 2026-05-21T16:12:57.998067
TITLE "Blockbuster"
LUT_3D_SIZE 9
0.000655 0.016615 0.014905
0.033509 0.015898 0.014298
0.153956 0.016198 0.014698
0.278091 0.016583 0.015177
0.405708 0.017052 0.015732
0.536604 0.017602 0.016361
0.670585 0.018230 0.017060
0.806908 0.018927 0.017821
0.852059 0.018657 0.017609
0.002722 0.071355 0.013901
0.037352 0.070706 0.013437
0.163725 0.071121 0.014025
0.293335 0.071621 0.014686
0.425987 0.072203 0.015416
0.561494 0.072863 0.016214
0.699673 0.073599 0.017076
0.838606 0.074390 0.017982
0.883141 0.074181 0.017877
0.008254 0.216492 0.016583
0.044443 0.215797 0.016251
0.175999 0.216217 0.017010
0.310368 0.216727 0.017836
0.447373 0.217323 0.018725
0.586838 0.218004 0.019677
0.728596 0.218766 0.020688
0.868647 0.219564 0.021713
0.912272 0.219348 0.021703
0.013939 0.360747 0.019622
0.051493 0.360080 0.019418
0.187544 0.360571 0.020338
0.326018 0.361156 0.021318
0.466751 0.361832 0.022357
0.609581 0.362596 0.023452
0.754354 0.363446 0.024601
0.893997 0.364301 0.025724
0.936462 0.364141 0.025803
0.019792 0.504508 0.023015
0.058530 0.503935 0.022933
0.198441 0.504557 0.024003
0.340417 0.505276 0.025127
0.484304 0.506089 0.026305
0.629958 0.506992 0.027532
0.776777 0.507978 0.028803
0.914998 0.508937 0.030007
0.956096 0.508888 0.030165
0.025826 0.648130 0.026754
0.065581 0.647709 0.026786
0.208770 0.648515 0.027994
0.353696 0.649418 0.029252
0.500221 0.650417 0.030556
0.648214 0.651507 0.031904
0.795978 0.652669 0.033278
0.932074 0.653772 0.034549
0.971641 0.653877 0.034777
0.032052 0.791932 0.030824
0.072672 0.791713 0.030964
0.218612 0.792745 0.032298
0.365994 0.793875 0.033675
0.514696 0.795099 0.035094
0.664605 0.796414 0.036551
0.812665 0.797784 0.038013
0.945730 0.799059 0.039332
0.983647 0.799351 0.039620
0.038351 0.932659 0.035081
0.079715 0.933085 0.035334
0.227948 0.934727 0.036793
0.377364 0.936414 0.038288
0.527858 0.938143 0.039817
0.679335 0.939914 0.041377
0.827238 0.941673 0.042917
0.956482 0.943252 0.044269
0.992682 0.943829 0.044608
0.041659 0.985828 0.036427
0.083625 0.986291 0.036760
0.233723 0.987952 0.038308
0.384787 0.989623 0.039885
0.536733 0.991304 0.041489
0.689489 0.992994 0.043118
0.836970 0.994626 0.044702
0.961704 0.996006 0.046048
0.996158 0.996388 0.046407
0.000902 0.016504 0.083592
0.033946 0.015805 0.082768
0.155025 0.016125 0.082961
0.279746 0.016532 0.083235
0.407903 0.017021 0.083589
0.539296 0.017591 0.084019
0.673729 0.018238 0.084523
0.810380 0.018952 0.085091
0.855482 0.018695 0.084684
0.002986 0.071257 0.081867
0.037783 0.070626 0.081198
0.164712 0.071063 0.081590
0.294833 0.071584 0.082057
0.427955 0.072187 0.082597
0.563890 0.072867 0.083207
0.702457 0.073622 0.083885
0.841572 0.074429 0.084606
0.886027 0.074234 0.084316
0.008533 0.216369 0.083866
0.044869 0.215695 0.083342
0.176908 0.216140 0.083915
0.311721 0.216673 0.084558
0.449130 0.217293 0.085267
0.588961 0.217996 0.086040
0.731048 0.218780 0.086875
0.871126 0.219596 0.087723
0.914644 0.219396 0.087537
0.014235 0.360625 0.086263
0.051916 0.359982 0.085875
0.188384 0.360500 0.086619
0.327239 0.361111 0.087425
0.468314 0.361812 0.088291
0.611453 0.362601 0.089216
0.756501 0.363474 0.090195
0.896020 0.364348 0.091147
0.938355 0.364207 0.091056
0.020105 0.504411 0.089046
0.058952 0.503864 0.088789
0.199220 0.504514 0.089689
0.341517 0.505261 0.090646
0.485693 0.506101 0.091658
0.631604 0.507031 0.092721
0.778552 0.508041 0.093826
0.916602 0.509020 0.094864
0.957551 0.508990 0.094857
0.026157 0.648078 0.092201
0.066005 0.647685 0.092066
0.209495 0.648520 0.093111
0.354690 0.649453 0.094205
0.501454 0.650479 0.095347
0.649658 0.651597 0.096535
0.797479 0.652782 0.097747
0.933307 0.653906 0.098853
0.972711 0.654031 0.098918
0.032401 0.791942 0.095710
0.073101 0.791753 0.095687
0.219291 0.792816 0.096861
0.366895 0.793975 0.098078
0.515794 0.795227 0.099337
0.665874 0.796569 0.100634
0.813935 0.797962 0.101934
0.946647 0.799257 0.103087
0.984392 0.799570 0.103211
0.038725 0.932890 0.099423
0.080155 0.933327 0.099515
0.228593 0.934982 0.100814
0.378190 0.936681 0.102149
0.528844 0.938422 0.103517
0.680462 0.940202 0.104915
0.828329 0.941970 0.106291
0.957146 0.943553 0.107473
0.993170 0.944135 0.107643
0.042050 0.986071 0.100223
0.084070 0.986535 0.100393
0.234336 0.988196 0.101780
0.385548 0.989869 0.103194
0.537627 0.991551 0.104633
0.690500 0.993241 0.106095
0.837934 0.994872 0.107509
0.962181 0.996246 0.108677
0.996461 0.996625 0.108859
0.001436 0.016683 0.227335
0.034665 0.015999 0.226046
0.156368 0.016341 0.225786
0.281667 0.016767 0.225616
0.410356 0.017276 0.225532
0.542236 0.017864 0.225531
0.677115 0.018529 0.225611
0.814078 0.019259 0.225761
0.859128 0.019014 0.224940
0.003533 0.071446 0.224068
0.038494 0.070832 0.222961
0.165971 0.071290 0.222926
0.296596 0.071832 0.222973
0.430178 0.072453 0.223099
0.566534 0.073152 0.223301
0.705483 0.073926 0.223577
0.844763 0.074749 0.223901
0.889135 0.074565 0.223218
0.009092 0.216532 0.224612
0.045572 0.215878 0.223673
0.178088 0.216346 0.223842
0.313336 0.216902 0.224087
0.451141 0.217544 0.224403
0.591331 0.218269 0.224789
0.733740 0.219073 0.225242
0.873830 0.219906 0.225710
0.917238 0.219722 0.225147
0.014808 0.360787 0.225632
0.052613 0.360166 0.224852
0.189492 0.360710 0.225211
0.328719 0.361346 0.225638
0.470132 0.362072 0.226130
0.613573 0.362884 0.226684
0.758890 0.363780 0.227297
0.898268 0.364671 0.227883
0.940471 0.364548 0.227428
0.020693 0.504595 0.227109
0.059647 0.504073 0.226477
0.200265 0.504751 0.227009
0.342877 0.505525 0.227602
0.487336 0.506391 0.228253
0.633498 0.507345 0.228959
0.780566 0.508378 0.229709
0.918434 0.509376 0.230391
0.959233 0.509365 0.230030
0.026760 0.648305 0.229015
0.066700 0.647940 0.228519
0.210484 0.648804 0.229208
0.355942 0.649764 0.229949
0.502940 0.650817 0.230741
0.651351 0.651961 0.231580
0.799220 0.653170 0.232443
0.934771 0.654312 0.233198
0.974011 0.654457 0.232914
0.033021 0.792231 0.231317
0.073797 0.792070 0.230943
0.220232 0.793161 0.231769
0.368053 0.794349 0.232641
0.517144 0.795628 0.233554
0.667392 0.796996 0.234506
0.815448 0.798413 0.235459
0.947799 0.799726 0.236261
0.985370 0.800057 0.236036
0.039367 0.933390 0.233858
0.080860 0.933838 0.233602
0.229499 0.935504 0.234557
0.379273 0.937214 0.235546
0.530083 0.938965 0.236568
0.681837 0.940756 0.237619
0.829667 0.942531 0.238643
0.958049 0.944117 0.239467
0.993895 0.944704 0.239279
0.042706 0.986577 0.233488
0.084779 0.987040 0.233310
0.235208 0.988702 0.234348
0.386566 0.990375 0.235412
0.538773 0.992057 0.236498
0.691762 0.993748 0.237603
0.839148 0.995376 0.238655
0.962901 0.996744 0.239451
0.997008 0.997119 0.239258
0.001971 0.016865 0.370754
0.035383 0.016198 0.369005
0.157702 0.016560 0.368298
0.283570 0.017006 0.367688
0.412784 0.017534 0.367172
0.545145 0.018140 0.366746
0.680462 0.018823 0.366407
0.817723 0.019569 0.366144
0.862718 0.019337 0.364912
0.004081 0.071640 0.365964
0.039203 0.071042 0.364423
0.167220 0.071521 0.363966
0.298342 0.072083 0.363597
0.432380 0.072724 0.363314
0.569150 0.073442 0.363114
0.708474 0.074233 0.362993
0.847904 0.075071 0.362923
0.892190 0.074901 0.361850
0.009653 0.216700 0.365070
0.046274 0.216066 0.363720
0.179259 0.216558 0.363490
0.314937 0.217137 0.363340
0.453132 0.217801 0.363268
0.593675 0.218546 0.363271
0.736401 0.219371 0.363345
0.876487 0.220221 0.363436
0.919782 0.220052 0.362500
0.015382 0.360955 0.364729
0.053310 0.360357 0.363559
0.190593 0.360927 0.363537
0.330187 0.361588 0.363588
0.471931 0.362338 0.363709
0.615669 0.363174 0.363896
0.761250 0.364092 0.364146
0.900472 0.365001 0.364367
0.942540 0.364894 0.363553
0.021282 0.504786 0.364911
0.060342 0.504290 0.363907
0.201303 0.504996 0.364075
0.344225 0.505796 0.364307
0.488961 0.506687 0.364600
0.635369 0.507667 0.364950
0.782550 0.508723 0.365347
0.920227 0.509739 0.365674
0.960873 0.509747 0.364961
0.027365 0.648541 0.365578
0.067394 0.648203 0.364723
0.211468 0.649095 0.365059
0.357184 0.650083 0.365450
0.504411 0.651163 0.365893
0.653024 0.652332 0.366384
0.800935 0.653564 0.366900
0.936201 0.654725 0.367304
0.975275 0.654889 0.366672
0.033642 0.792528 0.366682
0.074494 0.792395 0.365958
0.221169 0.793516 0.366438
0.369203 0.794731 0.366964
0.518481 0.796037 0.367532
0.668893 0.797430 0.368140
0.816940 0.798870 0.368746
0.948922 0.800201 0.369197
0.986319 0.800551 0.368620
0.040009 0.933893 0.368054
0.081565 0.934351 0.367451
0.230401 0.936029 0.368061
0.380349 0.937750 0.368705
0.531311 0.939512 0.369380
0.683199 0.941312 0.370082
0.830988 0.943094 0.370753
0.958930 0.944683 0.371217
0.994599 0.945274 0.370669
0.043363 0.987082 0.366514
0.085487 0.987545 0.365988
0.236078 0.989207 0.366676
0.387577 0.990880 0.367388
0.539911 0.992562 0.368119
0.693014 0.994253 0.368865
0.840352 0.995880 0.369551
0.963608 0.997240 0.369971
0.997542 0.997612 0.369399
0.002506 0.017052 0.513851
0.036099 0.016401 0.511648
0.159027 0.016783 0.510500
0.285457 0.017249 0.509455
0.415188 0.017796 0.508512
0.548023 0.018421 0.507665
0.683772 0.019121 0.506913
0.821317 0.019883 0.506240
0.866253 0.019662 0.504602
0.004630 0.071838 0.507557
0.039912 0.071257 0.505587
0.168461 0.071757 0.504713
0.300073 0.072338 0.503933
0.434559 0.072999 0.503246
0.571736 0.073735 0.502647
0.711429 0.074544 0.502134
0.850994 0.075397 0.501674
0.895191 0.075239 0.500214
0.010214 0.216873 0.505240
0.046975 0.216260 0.503486
0.180423 0.216775 0.502860
0.316523 0.217376 0.502320
0.455103 0.218062 0.501864
0.595992 0.218829 0.501487
0.739030 0.219674 0.501187
0.879095 0.220540 0.500904
0.922276 0.220386 0.499598
0.015957 0.361130 0.503553
0.054007 0.360555 0.501998
0.191687 0.361150 0.501600
0.331642 0.361836 0.501279
0.473711 0.362610 0.501031
0.617740 0.363469 0.500854
0.763581 0.364409 0.500744
0.902632 0.365335 0.500603
0.944564 0.365246 0.499431
0.021872 0.504986 0.502454
0.061036 0.504515 0.501081
0.202335 0.505248 0.500887
0.345561 0.506074 0.500760
0.490570 0.506991 0.500698
0.637220 0.507995 0.500696
0.784505 0.509073 0.500741
0.921980 0.510109 0.500715
0.962472 0.510135 0.499652
0.027970 0.648785 0.501891
0.068089 0.648474 0.500680
0.212446 0.649394 0.500665
0.358415 0.650410 0.500707
0.505868 0.651516 0.500802
0.654678 0.652710 0.500948
0.802626 0.653965 0.501117
0.937596 0.655145 0.501172
0.976504 0.655328 0.500191
0.034264 0.792835 0.501804
0.075191 0.792729 0.500732
0.222100 0.793878 0.500867
0.370343 0.795121 0.501048
0.519805 0.796453 0.501272
0.670378 0.797872 0.501536
0.818412 0.799334 0.501795
0.950016 0.800682 0.501893
0.987240 0.801051 0.500964
0.040653 0.934399 0.502010
0.082270 0.934868 0.501062
0.231298 0.936557 0.501327
0.381416 0.938288 0.501625
0.532528 0.940060 0.501952
0.684547 0.941870 0.502304
0.832295 0.943660 0.502622
0.959789 0.945250 0.502724
0.995281 0.945846 0.501812
0.044021 0.987587 0.499302
0.086196 0.988048 0.498425
0.236943 0.989711 0.498763
0.388583 0.991384 0.499121
0.541042 0.993067 0.499495
0.694257 0.994757 0.499879
0.841548 0.996382 0.500197
0.964302 0.997735 0.500237
0.998064 0.998104 0.499282
0.003043 0.017243 0.656630
0.036815 0.016607 0.653979
0.160343 0.017010 0.652394
0.287327 0.017496 0.650920
0.417568 0.018061 0.649554
0.550870 0.018704 0.648292
0.687044 0.019422 0.647130
0.824859 0.020200 0.646054
0.869732 0.019990 0.644014
0.005180 0.072041 0.648849
0.040619 0.071477 0.646456
0.169694 0.071997 0.645169
0.301788 0.072598 0.643984
0.436715 0.073277 0.642896
0.574294 0.074032 0.641903
0.714350 0.074859 0.641001
0.854034 0.075727 0.640156
0.898139 0.075581 0.638313
0.010777 0.217053 0.645127
0.047675 0.216459 0.642972
0.181579 0.216997 0.641954
0.318095 0.217621 0.641029
0.457053 0.218329 0.640192
0.598283 0.219117 0.639439
0.741626 0.219982 0.638768
0.881657 0.220864 0.638114
0.924720 0.220725 0.636441
0.016533 0.361312 0.642108
0.054702 0.360760 0.640172
0.192774 0.361380 0.639400
0.333084 0.362091 0.638710
0.475473 0.362888 0.638098
0.619788 0.363770 0.637560
0.765845 0.364732 0.637091
0.904749 0.365675 0.636591
0.946542 0.365602 0.635063
0.022463 0.505193 0.639740
0.061729 0.504747 0.638001
0.203361 0.505507 0.637448
0.346886 0.506359 0.636965
0.492162 0.507301 0.636550
0.639048 0.508330 0.636197
0.786431 0.509430 0.635892
0.923694 0.510484 0.635515
0.964031 0.510528 0.634102
0.028577 0.649038 0.637957
0.068782 0.648753 0.636392
0.213418 0.649702 0.636027
0.359637 0.650744 0.635722
0.507309 0.651876 0.635472
0.656313 0.653095 0.635272
0.804291 0.654373 0.635095
0.938958 0.655571 0.634800
0.977698 0.655772 0.633471
0.034887 0.793150 0.636685
0.075887 0.793072 0.635265
0.223028 0.794249 0.635056
0.371475 0.795519 0.634894
0.521117 0.796877 0.634774
0.671848 0.798321 0.634693
0.819864 0.799804 0.634604
0.951084 0.801170 0.634349
0.988132 0.801557 0.633067
0.041298 0.934908 0.635729
0.082976 0.935387 0.634434
0.232192 0.937087 0.634354
0.382477 0.938829 0.634305
0.533736 0.940611 0.634284
0.685883 0.942430 0.634286
0.833588 0.944226 0.634247
0.960628 0.945819 0.633985
0.995943 0.946419 0.632708
0.044680 0.988090 0.631849
0.086904 0.988551 0.630622
0.237806 0.990214 0.630608
0.389583 0.991888 0.630611
0.542165 0.993570 0.630624
0.695492 0.995260 0.630644
0.842736 0.996883 0.630590
0.964983 0.998230 0.630246
0.998576 0.998595 0.628903
0.003580 0.017439 0.799094
0.037528 0.016818 0.795999
0.161649 0.017241 0.793983
0.289180 0.017746 0.792085
0.419924 0.018330 0.790302
0.553686 0.018991 0.788629
0.690279 0.019726 0.787062
0.828348 0.020519 0.785586
0.873156 0.020322 0.783149
0.005731 0.072248 0.789844
0.041325 0.071700 0.787032
0.170919 0.072241 0.785338
0.303488 0.072862 0.783751
0.438850 0.073560 0.782268
0.576824 0.074333 0.780885
0.717237 0.075178 0.779598
0.857024 0.076060 0.778371
0.901035 0.075926 0.776149
0.011341 0.217238 0.784733
0.048374 0.216664 0.782180
0.182727 0.217225 0.780776
0.319653 0.217872 0.779469
0.458982 0.218601 0.778255
0.600549 0.219409 0.777130
0.744192 0.220294 0.776090
0.884171 0.221192 0.775069
0.927115 0.221068 0.773032
0.017111 0.361501 0.780396
0.055397 0.360971 0.778082
0.193854 0.361617 0.776940
0.334513 0.362351 0.775884
0.477216 0.363172 0.774910
0.621812 0.364077 0.774013
0.768039 0.365060 0.773189
0.906822 0.366021 0.772333
0.948475 0.365964 0.770450
0.023055 0.505408 0.776770
0.062423 0.504987 0.774669
0.204380 0.505773 0.773759
0.348200 0.506652 0.772922
0.493737 0.507619 0.772156
0.640856 0.508671 0.771454
0.788329 0.509793 0.770801
0.925370 0.510865 0.770073
0.965550 0.510927 0.768312
0.029186 0.649299 0.773776
0.069476 0.649040 0.771859
0.214385 0.650017 0.771147
0.360848 0.651086 0.770496
0.508736 0.652244 0.769901
0.657930 0.653487 0.769357
0.805933 0.654787 0.768834
0.940287 0.656003 0.768190
0.978859 0.656223 0.766513
0.035512 0.793473 0.771325
0.076584 0.793422 0.769559
0.223950 0.794628 0.769007
0.372598 0.795924 0.768501
0.522417 0.797308 0.768038
0.673301 0.798777 0.767611
0.821297 0.800282 0.767175
0.952125 0.801663 0.766565
0.988997 0.802068 0.764929
0.041944 0.935419 0.769208
0.083680 0.935908 0.767568
0.233082 0.937620 0.767142
0.383530 0.939372 0.766747
0.534933 0.941164 0.766376
0.687207 0.942992 0.766025
0.834867 0.944795 0.765628
0.961448 0.946389 0.764999
0.996585 0.946994 0.763353
0.045340 0.988593 0.764157
0.087613 0.989053 0.762578
0.238666 0.990717 0.762211
0.390579 0.992390 0.761855
0.543282 0.994072 0.761507
0.696720 0.995762 0.761159
0.843917 0.997384 0.760728
0.965653 0.998723 0.759996
0.999078 0.999085 0.758259
0.003981 0.017501 0.905073
0.038114 0.016906 0.904058
0.162828 0.017357 0.904029
0.290908 0.017890 0.904019
0.422155 0.018502 0.904026
0.556379 0.019188 0.904047
0.693392 0.019948 0.904080
0.831708 0.020764 0.904106
0.876454 0.020585 0.903077
0.006176 0.072353 0.902423
0.041932 0.071830 0.901363
0.172044 0.072399 0.901329
0.305090 0.073047 0.901307
0.440887 0.073771 0.901296
0.579257 0.074569 0.901292
0.720026 0.075437 0.901293
0.859908 0.076340 0.901262
0.903827 0.076224 0.900146
0.011825 0.217349 0.902819
0.048999 0.216802 0.901702
0.183801 0.217392 0.901644
0.321137 0.218067 0.901593
0.460837 0.218823 0.901546
0.602739 0.219657 0.901500
0.746682 0.220568 0.901452
0.886600 0.221485 0.901335
0.929426 0.221380 0.900118
0.017631 0.361638 0.902941
0.056039 0.361136 0.901759
0.194880 0.361812 0.901665
0.335887 0.362576 0.901572
0.478904 0.363425 0.901475
0.623780 0.364356 0.901374
0.770172 0.365364 0.901262
0.908828 0.366345 0.901037
0.950342 0.366309 0.899708
0.023608 0.505590 0.902774
0.063079 0.505198 0.901519
0.205362 0.506015 0.901375
0.349474 0.506923 0.901225
0.495272 0.507918 0.901065
0.642622 0.508998 0.900894
0.790180 0.510145 0.900694
0.926992 0.511236 0.900345
0.967017 0.511319 0.898892
0.029769 0.649542 0.902298
0.070147 0.649312 0.900959
0.215327 0.650319 0.900750
0.362032 0.651418 0.900528
0.510135 0.652604 0.900290
0.659516 0.653874 0.900033
0.807541 0.655198 0.899728
0.941576 0.656433 0.899232
0.979980 0.656673 0.897641
0.036122 0.793789 0.901487
0.077267 0.793768 0.900052
0.224858 0.795003 0.899762
0.373704 0.796328 0.899452
0.523697 0.797740 0.899119
0.674734 0.799233 0.898760
0.822707 0.800761 0.898329
0.953136 0.802160 0.897664
0.989834 0.802583 0.895920
0.042583 0.935925 0.900211
0.084379 0.936426 0.898677
0.233963 0.938150 0.898297
0.384572 0.939914 0.897887
0.536117 0.941716 0.897446
0.688517 0.943554 0.896971
0.836132 0.945364 0.896398
0.962247 0.946960 0.895540
0.997208 0.947569 0.893624
0.045998 0.989091 0.895272
0.088319 0.989551 0.893602
0.239522 0.991216 0.893091
0.391567 0.992890 0.892543
0.544391 0.994573 0.891955
0.697939 0.996263 0.891325
0.845092 0.997883 0.890571
0.966313 0.999215 0.889475
0.999572 0.999574 0.887346
0.004168 0.017352 0.953841
0.038478 0.016778 0.953952
0.163776 0.017255 0.954999
0.292393 0.017813 0.956012
0.424134 0.018448 0.956988
0.558809 0.019157 0.957926
0.696233 0.019939 0.958822
0.834779 0.020774 0.959660
0.879457 0.020611 0.959388
0.006396 0.072236 0.954758
0.042308 0.071735 0.954645
0.172929 0.072328 0.955508
0.306441 0.073000 0.956333
0.442664 0.073747 0.957116
0.581420 0.074567 0.957856
0.722539 0.075457 0.958552
0.862497 0.076378 0.959163
0.906319 0.076277 0.958639
0.012073 0.217229 0.958123
0.049384 0.216705 0.957779
0.184626 0.217322 0.958448
0.322363 0.218023 0.959074
0.462427 0.218804 0.959655
0.604655 0.219662 0.960189
0.748891 0.220596 0.960675
0.888731 0.221532 0.961041
0.931437 0.221444 0.960261
0.017908 0.361537 0.960643
0.056433 0.361062 0.960069
0.195651 0.361765 0.960539
0.336998 0.362557 0.960962
0.480321 0.363432 0.961336
0.625471 0.364388 0.961660
0.772019 0.365419 0.961929
0.910535 0.366420 0.962039
0.951908 0.366403 0.961003
0.023912 0.505529 0.962329
0.063483 0.505164 0.961526
0.206085 0.506010 0.961792
0.350482 0.506946 0.962009
0.496535 0.507968 0.962173
0.644110 0.509074 0.962283
0.791745 0.510245 0.962324
0.928320 0.511356 0.962173
0.968187 0.511458 0.960880
0.030098 0.649537 0.963196
0.070561 0.649336 0.962163
0.216007 0.650373 0.962222
0.362948 0.651499 0.962228
0.511261 0.652713 0.962178
0.660826 0.654009 0.962072
0.808866 0.655356 0.961879
0.942574 0.656609 0.961457
0.980808 0.656869 0.959908
0.036476 0.793856 0.963252
0.077691 0.793863 0.961990
0.225501 0.795127 0.961838
0.374542 0.796480 0.961630
0.524705 0.797918 0.961363
0.675892 0.799437 0.961038
0.823839 0.800987 0.960607
0.953863 0.802403 0.959906
0.990385 0.802845 0.958101
0.042963 0.936174 0.962415
0.084817 0.936686 0.960934
0.234581 0.938422 0.960574
0.385348 0.940198 0.960155
0.537033 0.942010 0.959673
0.689556 0.943858 0.959130
0.837125 0.945676 0.958459
0.962770 0.947274 0.957474
0.997556 0.947887 0.955412
0.046396 0.989328 0.957522
0.088765 0.989789 0.955800
0.240115 0.991455 0.955210
0.392292 0.993130 0.954558
0.545235 0.994814 0.953840
0.698893 0.996505 0.953059
0.846004 0.998123 0.952131
0.966708 0.999449 0.950839
0.999805 0.999805 0.948505
