library/cube/Blush_Veil_000.cube
# CINEGRADE LAB — Premium Cinematic LUT
# Title: Blush Veil
# Category: Dreamy Wedding
# Description: Soft, romantic, warm highlights with pastel tones for wedding photography
# Mood: Romantic, ethereal, tender
# Variant: 1
# Generated: 2026-05-21T16:12:17.909902
TITLE "Blush Veil"
LUT_3D_SIZE 5
0.183865 0.175365 0.175365
0.343411 0.176150 0.176148
0.518466 0.177774 0.177765
0.704197 0.180060 0.180040
0.833827 0.180595 0.180560
0.185285 0.338761 0.179141
0.346460 0.340541 0.180901
0.523368 0.343167 0.183503
0.711187 0.346466 0.186772
0.842685 0.348007 0.188277
0.193103 0.521779 0.187999
0.356220 0.524571 0.190747
0.535327 0.528219 0.194348
0.724986 0.532568 0.198607
0.856468 0.535180 0.201044
0.206102 0.719195 0.201332
0.370094 0.723145 0.205051
0.549612 0.727936 0.209605
0.739776 0.733391 0.214817
0.873075 0.737068 0.218245
0.214589 0.859194 0.211040
0.380065 0.864183 0.215736
0.561281 0.870021 0.221275
0.753376 0.876533 0.227480
0.888765 0.881275 0.231908
0.183799 0.175599 0.335189
0.343495 0.176484 0.336070
0.518722 0.178207 0.337786
0.704647 0.180595 0.340161
0.834452 0.181230 0.340779
0.185684 0.339329 0.339294
0.347040 0.341210 0.341153
0.524154 0.343938 0.343855
0.712204 0.347340 0.347225
0.843912 0.348982 0.348831
0.193959 0.522684 0.348480
0.357290 0.525577 0.351329
0.536639 0.529329 0.355031
0.725911 0.533803 0.359373
0.857558 0.536514 0.361910
0.207134 0.720488 0.362138
0.371260 0.724538 0.365955
0.550933 0.729429 0.370607
0.741275 0.734985 0.375918
0.874776 0.738765 0.379447
0.216085 0.860838 0.372176
0.381729 0.865928 0.376972
0.563136 0.871869 0.382610
0.755446 0.878484 0.388916
0.891050 0.883329 0.393445
0.183964 0.176051 0.509697
0.343814 0.177035 0.510676
0.519216 0.178859 0.512490
0.705339 0.181348 0.514965
0.835321 0.182084 0.515683
0.186313 0.340115 0.514130
0.347854 0.342097 0.516088
0.525177 0.344928 0.518890
0.713463 0.348432 0.522362
0.845384 0.350176 0.524068
0.195046 0.523806 0.523644
0.358594 0.526802 0.526594
0.538188 0.530657 0.530397
0.727078 0.535255 0.534823
0.858894 0.538067 0.537459
0.208397 0.722000 0.537628
0.372661 0.726150 0.541543
0.552493 0.731141 0.546293
0.743016 0.736798 0.551704
0.876721 0.740680 0.555332
0.217813 0.862701 0.547997
0.383627 0.867893 0.552891
0.565228 0.873935 0.558629
0.757758 0.880653 0.565036
0.893577 0.885602 0.569665
0.184300 0.176660 0.694069
0.344307 0.177744 0.695146
0.519888 0.179669 0.697060
0.706212 0.182259 0.699635
0.836374 0.183096 0.700452
0.187112 0.341059 0.698830
0.348842 0.343142 0.700889
0.526378 0.346075 0.703791
0.714902 0.349682 0.707364
0.847042 0.351529 0.709170
0.196303 0.525086 0.708674
0.360071 0.528185 0.711724
0.539389 0.532168 0.715615
0.728426 0.536866 0.720139
0.860416 0.539779 0.722873
0.209830 0.723669 0.722983
0.374236 0.727919 0.726995
0.554229 0.733011 0.731844
0.744937 0.738770 0.737354
0.878849 0.742754 0.741083
0.219711 0.864722 0.733681
0.385699 0.870015 0.738675
0.567498 0.876160 0.744513
0.760252 0.882981 0.751020
0.896285 0.888033 0.755750
0.183990 0.176608 0.823320
0.344157 0.177793 0.824496
0.519919 0.179818 0.826509
0.706449 0.182510 0.829184
0.836793 0.183447 0.830100
0.187264 0.341343 0.828410
0.349185 0.343527 0.830568
0.526937 0.346562 0.833571
0.715705 0.350272 0.837245
0.848067 0.352221 0.839152
0.196911 0.525706 0.838582
0.360904 0.528907 0.841733
0.539951 0.533019 0.845711
0.729139 0.537817 0.850334
0.861306 0.540830 0.853167
0.210617 0.724679 0.853216
0.375167 0.729028 0.857327
0.555326 0.734221 0.862274
0.746223 0.740081 0.867884
0.880344 0.744168 0.871713
0.220962 0.866083 0.864245
0.387127 0.871477 0.869338
0.569128 0.877725 0.875276
0.762109 0.884650 0.881885
0.898354 0.889804 0.886715
