library/cube/Blush_Veil_000.cube
# CINEGRADE LAB — Premium Cinematic LUT
# Title: Blush Veil
# Category: Dreamy Wedding
# Description: Soft, romantic, warm highlights with pastel tones for wedding photography
# Mood: Romantic, ethereal, tender
# Variant: 1
# Generated: 2026-05-21T16:12:17.909902
TITLE "Blush Veil"
LUT_3D_SIZE 9
0.183865 0.175365 0.175365
0.261175 0.175634 0.175633
0.343411 0.176150 0.176148
0.429400 0.176872 0.176867
0.518466 0.177774 0.177765
0.610169 0.178840 0.178826
0.704197 0.180060 0.180040
0.800306 0.181425 0.181397
0.833827 0.180595 0.180560
0.183707 0.254036 0.176553
0.261392 0.254552 0.177065
0.344029 0.255317 0.177823
0.430445 0.256287 0.178787
0.519968 0.257439 0.179931
0.612155 0.258757 0.181240
0.706697 0.260230 0.182702
0.803364 0.261849 0.184309
0.837219 0.261265 0.183712
0.185285 0.338761 0.179141
0.263383 0.339526 0.179897
0.346460 0.340541 0.180901
0.433347 0.341763 0.182111
0.523368 0.343167 0.183503
0.616085 0.344739 0.185060
0.711187 0.346466 0.186772
0.808446 0.348341 0.188630
0.842685 0.348007 0.188277
0.188448 0.428256 0.182984
0.266996 0.429273 0.183986
0.350554 0.430540 0.185237
0.437952 0.432015 0.186695
0.528517 0.433675 0.188336
0.621809 0.435502 0.190144
0.717519 0.437487 0.192107
0.815419 0.439621 0.194218
0.850099 0.439538 0.194111
0.193103 0.521779 0.187999
0.272139 0.523049 0.189248
0.356220 0.524571 0.190747
0.444173 0.526302 0.192456
0.535327 0.528219 0.194348
0.629241 0.530305 0.196408
0.724986 0.532568 0.198607
0.822444 0.534986 0.200938
0.856468 0.535180 0.201044
0.199191 0.618840 0.194130
0.278756 0.620365 0.195628
0.363398 0.622144 0.197378
0.451273 0.624187 0.199321
0.542197 0.626409 0.201443
0.635723 0.628795 0.203727
0.731536 0.631333 0.206163
0.829402 0.634015 0.208740
0.863879 0.634474 0.209094
0.206102 0.719195 0.201332
0.285628 0.721046 0.203068
0.370094 0.723145 0.205051
0.458315 0.725450 0.207238
0.549612 0.727936 0.209605
0.643537 0.730587 0.212135
0.739776 0.733391 0.214817
0.838098 0.736340 0.217642
0.873075 0.737068 0.218245
0.213572 0.822692 0.209579
0.293438 0.824806 0.211559
0.378267 0.827170 0.213787
0.466878 0.829740 0.216220
0.558591 0.832493 0.218833
0.652961 0.835411 0.221610
0.749675 0.838484 0.224541
0.848500 0.841704 0.227616
0.884001 0.842703 0.228469
0.214589 0.859194 0.211040
0.294832 0.861563 0.213263
0.380065 0.864183 0.215736
0.469108 0.867010 0.218415
0.561281 0.870021 0.221275
0.656141 0.873199 0.224300
0.753376 0.876533 0.227480
0.852754 0.880014 0.230806
0.888765 0.881275 0.231908
0.183796 0.175448 0.252924
0.261142 0.175742 0.253217
0.343417 0.176283 0.253756
0.429447 0.177030 0.254499
0.518558 0.177957 0.255422
0.610308 0.179048 0.256509
0.704385 0.180294 0.257747
0.800550 0.181684 0.259130
0.834102 0.180879 0.258316
0.183755 0.254203 0.254195
0.261480 0.254744 0.254731
0.344159 0.255533 0.255514
0.430622 0.256529 0.256502
0.520192 0.257707 0.257671
0.612431 0.259050 0.259005
0.707027 0.260548 0.260492
0.803752 0.262193 0.262124
0.837643 0.261634 0.261553
0.185449 0.339011 0.256864
0.263591 0.339802 0.257645
0.346715 0.340842 0.258674
0.433651 0.342089 0.259909
0.523725 0.343519 0.261326
0.616497 0.345116 0.262908
0.711659 0.346869 0.264645
0.808981 0.348770 0.266529
0.843261 0.348461 0.266201
0.188726 0.428591 0.260789
0.267322 0.429632 0.261816
0.350931 0.430925 0.263092
0.438383 0.432426 0.264576
0.529005 0.434111 0.266242
0.622358 0.435965 0.268075
0.718132 0.437975 0.270064
0.816099 0.440135 0.272201
0.850827 0.440077 0.272118
0.193496 0.522198 0.265886
0.272584 0.523493 0.267160
0.356719 0.525040 0.268685
0.444731 0.526797 0.270419
0.535947 0.528740 0.272336
0.629926 0.530852 0.274422
0.725411 0.533152 0.276637
0.822908 0.535594 0.278993
0.856976 0.535813 0.279124
0.199698 0.619343 0.272100
0.279318 0.620894 0.273623
0.363820 0.622718 0.275394
0.451728 0.624785 0.277362
0.542687 0.627032 0.279508
0.636251 0.629443 0.281817
0.732105 0.632006 0.284276
0.830015 0.634713 0.286879
0.864541 0.635198 0.287257
0.206583 0.719808 0.279382
0.286141 0.721684 0.281143
0.370641 0.723808 0.283150
0.458900 0.726138 0.285362
0.550236 0.728649 0.287753
0.644204 0.731325 0.290308
0.740489 0.734154 0.293015
0.838859 0.737129 0.295865
0.873888 0.737882 0.296493
0.214169 0.823395 0.287712
0.294071 0.825534 0.289717
0.378939 0.827923 0.291969
0.467592 0.830518 0.294426
0.559349 0.833296 0.297064
0.653766 0.836240 0.299867
0.750530 0.839338 0.302822
0.849409 0.842584 0.305922
0.884962 0.843609 0.306801
0.215302 0.859982 0.289255
0.295585 0.862377 0.291504
0.380861 0.865022 0.294001
0.469950 0.867875 0.296704
0.562172 0.870911 0.299589
0.657084 0.874114 0.302640
0.754374 0.877474 0.305845
0.853810 0.880982 0.309196
0.889871 0.882268 0.310323
0.183799 0.175599 0.335189
0.261181 0.175917 0.335506
0.343495 0.176484 0.336070
0.429567 0.177255 0.336838
0.518722 0.178207 0.337786
0.610519 0.179324 0.338897
0.704647 0.180595 0.340161
0.800868 0.182011 0.341568
0.834452 0.181230 0.340779
0.183874 0.254437 0.336542
0.261639 0.255003 0.337102
0.344362 0.255818 0.337910
0.430870 0.256839 0.338924
0.520489 0.258042 0.340118
0.612780 0.259410 0.341476
0.707431 0.260934 0.342988
0.804214 0.262604 0.344646
0.838142 0.262071 0.344099
0.185684 0.339329 0.339294
0.263869 0.340145 0.340099
0.347040 0.341210 0.341153
0.434026 0.342483 0.342413
0.524154 0.343938 0.343855
0.616983 0.345561 0.345463
0.712204 0.347340 0.347225
0.809589 0.349267 0.349134
0.843912 0.348982 0.348831
0.189076 0.428993 0.343301
0.267719 0.430059 0.344352
0.351379 0.431377 0.345654
0.438886 0.432904 0.347162
0.529566 0.434615 0.348854
0.622980 0.436494 0.350712
0.718819 0.438531 0.352727
0.816854 0.440717 0.354889
0.851630 0.440684 0.354832
0.193959 0.522684 0.348480
0.273099 0.524004 0.349779
0.357290 0.525577 0.351329
0.445361 0.527360 0.353088
0.536639 0.529329 0.355031
0.630405 0.531478 0.357134
0.725911 0.533803 0.359373
0.823447 0.536270 0.361754
0.857558 0.536514 0.361910
0.200275 0.619913 0.354776
0.279952 0.621490 0.356324
0.364314 0.623359 0.358116
0.452255 0.625451 0.360108
0.543250 0.627723 0.362279
0.636853 0.630159 0.364612
0.732748 0.632747 0.367096
0.830702 0.635479 0.369724
0.865277 0.635989 0.370127
0.207134 0.720488 0.362138
0.286725 0.722389 0.363923
0.371260 0.724538 0.365955
0.459557 0.726893 0.368191
0.550933 0.729429 0.370607
0.644944 0.732130 0.373187
0.741275 0.734985 0.375918
0.839694 0.737985 0.378794
0.874776 0.738765 0.379447
0.214837 0.824165 0.370551
0.294776 0.826329 0.372580
0.379683 0.828743 0.374857
0.468378 0.831364 0.377339
0.560180 0.834167 0.380002
0.654644 0.837136 0.382829
0.751459 0.840260 0.385810
0.850392 0.843531 0.388935
0.885998 0.844582 0.389839
0.216085 0.860838 0.372176
0.296409 0.863258 0.374450
0.381729 0.865928 0.376972
0.470864 0.868807 0.379700
0.563136 0.871869 0.382610
0.658100 0.875098 0.385686
0.755446 0.878484 0.388916
0.854941 0.882017 0.392292
0.891050 0.883329 0.393445
0.183858 0.175802 0.421004
0.261277 0.176146 0.421346
0.343630 0.176737 0.421934
0.429744 0.177534 0.422727
0.518945 0.178511 0.423699
0.610789 0.179653 0.424835
0.704968 0.180949 0.426124
0.801247 0.182390 0.427557
0.834861 0.181635 0.426792
0.184049 0.254724 0.422439
0.261855 0.255315 0.423024
0.344621 0.256155 0.423857
0.431176 0.257201 0.424895
0.520844 0.258430 0.426114
0.613187 0.259824 0.427497
0.707894 0.261373 0.429035
0.804735 0.263069 0.430718
0.838701 0.262560 0.430195
0.185975 0.339700 0.425273
0.264204 0.340541 0.426103
0.347423 0.341631 0.427182
0.434460 0.342929 0.428467
0.524641 0.344411 0.429934
0.617527 0.346059 0.431567
0.712809 0.347864 0.433354
0.810256 0.349816 0.435289
0.844622 0.349557 0.435010
0.189481 0.429447 0.429362
0.268173 0.430540 0.430439
0.351885 0.431883 0.431765
0.439446 0.433435 0.433298
0.530185 0.435172 0.435015
0.623660 0.437077 0.436899
0.719564 0.439140 0.438939
0.817667 0.441351 0.441127
0.852165 0.441348 0.441085
0.194479 0.523223 0.434623
0.273671 0.524569 0.435947
0.357918 0.526167 0.437523
0.446048 0.527976 0.439307
0.537389 0.529971 0.441275
0.630926 0.532157 0.443396
0.726469 0.534507 0.445659
0.824045 0.537000 0.448065
0.858200 0.537268 0.448245
0.200909 0.620537 0.441001
0.280629 0.622140 0.442574
0.364865 0.624053 0.444387
0.452840 0.626170 0.446404
0.543871 0.628466 0.448599
0.637513 0.630927 0.450957
0.733450 0.633541 0.453466
0.831448 0.636298 0.456118
0.866072 0.636834 0.456547
0.207742 0.721222 0.448444
0.287366 0.723148 0.450253
0.371936 0.725322 0.452310
0.460271 0.727702 0.454571
0.551688 0.730263 0.457011
0.645742 0.732989 0.459615
0.742120 0.735869 0.462372
0.840589 0.738895 0.465272
0.875722 0.739700 0.465950
0.215562 0.824988 0.456940
0.295537 0.827177 0.458993
0.380484 0.829616 0.461295
0.469221 0.832262 0.463802
0.561068 0.835091 0.466489
0.655581 0.838086 0.469341
0.752447 0.841236 0.472347
0.851435 0.844532 0.475498
0.887093 0.845609 0.476426
0.216925 0.861748 0.458647
0.297290 0.864192 0.460945
0.382654 0.866888 0.463492
0.471836 0.869792 0.466245
0.564157 0.872880 0.469181
0.659175 0.876135 0.472281
0.756577 0.879546 0.475537
0.856132 0.883106 0.478938
0.892289 0.884443 0.480116
0.183964 0.176051 0.509697
0.261421 0.176419 0.510063
0.343814 0.177035 0.510676
0.429971 0.177857 0.511493
0.519216 0.178859 0.512490
0.611109 0.180027 0.513651
0.705339 0.181348 0.514965
0.801676 0.182815 0.516423
0.835321 0.182084 0.515683
0.184272 0.255056 0.511214
0.262119 0.255672 0.511823
0.344929 0.256537 0.512681
0.431530 0.257608 0.513744
0.521249 0.258862 0.514988
0.613644 0.260282 0.516396
0.708407 0.261856 0.517959
0.805307 0.263578 0.519667
0.839311 0.263094 0.519169
0.186313 0.340115 0.514130
0.264588 0.340981 0.514985
0.347854 0.342097 0.516088
0.434942 0.343421 0.517398
0.525177 0.344928 0.518890
0.618121 0.346602 0.520549
0.713463 0.348432 0.522362
0.810975 0.350411 0.524322
0.845384 0.350176 0.524068
0.189934 0.429947 0.518301
0.268675 0.431064 0.519403
0.352439 0.432433 0.520754
0.440056 0.434011 0.522313
0.530853 0.435774 0.524055
0.624390 0.437705 0.525964
0.720359 0.439793 0.528030
0.818532 0.442031 0.530243
0.852704 0.442057 0.530214
0.195046 0.523806 0.523644
0.274291 0.525178 0.524994
0.358594 0.526802 0.526594
0.446785 0.528637 0.528404
0.538188 0.530657 0.530397
0.631498 0.532880 0.532535
0.727078 0.535255 0.534823
0.824694 0.537773 0.537253
0.858894 0.538067 0.537459
0.201590 0.621205 0.530104
0.281197 0.622854 0.531700
0.365465 0.624791 0.533537
0.453474 0.626933 0.535578
0.544542 0.629255 0.537798
0.638223 0.631741 0.540180
0.734202 0.634379 0.542714
0.832246 0.637162 0.545391
0.866920 0.637723 0.545844
0.208397 0.722000 0.537628
0.288055 0.723951 0.539462
0.372661 0.726150 0.541543
0.461034 0.728555 0.543828
0.552493 0.731141 0.546293
0.646591 0.733893 0.548922
0.743016 0.736798 0.551704
0.841534 0.739849 0.554629
0.876721 0.740680 0.555332
0.216333 0.825855 0.546207
0.296347 0.828070 0.548285
0.381333 0.830534 0.550611
0.470113 0.833205 0.553142
0.562006 0.836059 0.555855
0.656568 0.839080 0.558732
0.753486 0.842255 0.561763
0.852528 0.845578 0.564938
0.888238 0.846680 0.565892
0.217813 0.862701 0.547997
0.298219 0.865172 0.550319
0.383627 0.867893 0.552891
0.472856 0.870822 0.555669
0.565228 0.873935 0.558629
0.660300 0.877216 0.561755
0.757758 0.880653 0.565036
0.857373 0.884239 0.568463
0.893577 0.885602 0.569665
0.184113 0.176338 0.600824
0.261608 0.176731 0.601215
0.344041 0.177372 0.601852
0.430241 0.178219 0.602694
0.519532 0.179246 0.603716
0.611474 0.180439 0.604902
0.705755 0.181786 0.606241
0.802146 0.183278 0.607724
0.835827 0.182572 0.607008
0.184537 0.255426 0.602423
0.262426 0.256068 0.603057
0.345280 0.256958 0.603940
0.431929 0.258055 0.605028
0.521697 0.259334 0.606296
0.614146 0.260779 0.607730
0.708965 0.262379 0.609318
0.805925 0.264126 0.611051
0.839967 0.263667 0.610578
0.186694 0.340570 0.605421
0.265014 0.341461 0.606301
0.348329 0.342602 0.607430
0.435468 0.343951 0.608765
0.525758 0.345484 0.610282
0.618759 0.347183 0.611965
0.714162 0.349040 0.613804
0.811739 0.351044 0.615789
0.846192 0.350835 0.615560
0.190429 0.430485 0.609675
0.269219 0.431628 0.610801
0.353036 0.433023 0.612178
0.440708 0.434626 0.613762
0.531564 0.436414 0.615529
0.625164 0.438371 0.617464
0.721200 0.440486 0.619555
0.819442 0.442750 0.621794
0.853289 0.442805 0.621778
0.195655 0.524429 0.615100
0.274953 0.525826 0.616475
0.359313 0.527476 0.618100
0.447564 0.529336 0.619935
0.538769 0.531395 0.621947
0.632113 0.533643 0.624109
0.727731 0.536043 0.626422
0.825389 0.538586 0.628877
0.859634 0.538905 0.629107
0.202313 0.621912 0.621642
0.281808 0.623607 0.623260
0.366108 0.625569 0.625121
0.454151 0.627735 0.627187
0.545257 0.630082 0.629431
0.638978 0.632593 0.631838
0.735000 0.635257 0.634397
0.833088 0.638065 0.637098
0.867813 0.638652 0.637577
0.209095 0.722817 0.629246
0.288786 0.724793 0.631105
0.373429 0.727017 0.633210
0.461841 0.729447 0.635520
0.553341 0.732059 0.638010
0.647484 0.734835 0.640664
0.743956 0.737766 0.643470
0.842525 0.740843 0.646420
0.877764 0.741699 0.647149
0.217148 0.826762 0.637908
0.297199 0.829002 0.640010
0.382226 0.831491 0.642361
0.471049 0.834188 0.644917
0.562988 0.837067 0.647655
0.657599 0.840113 0.650557
0.754569 0.843314 0.653613
0.853667 0.846663 0.656814
0.889429 0.847791 0.657792
0.218743 0.863694 0.639780
0.299191 0.866190 0.642127
0.384644 0.868936 0.644724
0.473921 0.871891 0.647527
0.566343 0.875030 0.650512
0.661469 0.878336 0.653663
0.758984 0.881800 0.656969
0.858660 0.885411 0.660421
0.894911 0.886800 0.661649
0.184300 0.176660 0.694069
0.261833 0.177078 0.694484
0.344307 0.177744 0.695146
0.430550 0.178616 0.696013
0.519888 0.179669 0.697060
0.611879 0.180887 0.698271
0.706212 0.182259 0.699635
0.802659 0.183777 0.701143
0.836374 0.183096 0.700452
0.184841 0.255832 0.695750
0.262771 0.256498 0.696409
0.345670 0.257414 0.697316
0.432366 0.258536 0.698429
0.522186 0.259840 0.699723
0.614688 0.261311 0.701182
0.709564 0.262937 0.702795
0.806584 0.264709 0.704554
0.840665 0.264276 0.704105
0.187112 0.341059 0.698830
0.265478 0.341976 0.699735
0.348842 0.343142 0.700889
0.436033 0.344517 0.702249
0.526378 0.346075 0.703791
0.619437 0.347800 0.705500
0.714902 0.349682 0.707364
0.812544 0.351712 0.709375
0.847042 0.351529 0.709170
0.190963 0.431058 0.703166
0.269802 0.432227 0.704317
0.353671 0.433647 0.705719
0.441400 0.435276 0.707328
0.532316 0.437090 0.709121
0.625979 0.439073 0.711081
0.722081 0.441213 0.713198
0.820055 0.443508 0.715452
0.853916 0.443588 0.715460
0.196303 0.525086 0.708674
0.275654 0.526509 0.710073
0.360071 0.528185 0.711724
0.448383 0.530071 0.713584
0.539389 0.532168 0.715615
0.632770 0.534441 0.717802
0.728426 0.536866 0.720139
0.826125 0.539434 0.722618
0.860416 0.539779 0.722873
0.203056 0.622656 0.715298
0.282457 0.624395 0.716937
0.366790 0.626381 0.718823
0.454869 0.628573 0.720913
0.546012 0.630945 0.723182
0.639773 0.633481 0.725614
0.735838 0.636170 0.728197
0.833973 0.639003 0.730923
0.868747 0.639615 0.731427
0.209830 0.723669 0.722983
0.289556 0.725670 0.724865
0.374236 0.727919 0.726995
0.462687 0.730374 0.729330
0.554229 0.733011 0.731844
0.648417 0.735813 0.734523
0.744937 0.738770 0.737354
0.843557 0.741872 0.740329
0.878849 0.742754 0.741083
0.218000 0.827704 0.731727
0.298089 0.829968 0.733854
0.383157 0.832483 0.736229
0.472024 0.835205 0.738810
0.564010 0.838110 0.741572
0.658671 0.841181 0.744500
0.755694 0.844408 0.747580
0.854848 0.847782 0.750807
0.890661 0.848936 0.751811
0.219711 0.864722 0.733681
0.300201 0.867243 0.736053
0.385699 0.870015 0.738675
0.475024 0.872995 0.741503
0.567498 0.876160 0.744513
0.662678 0.879492 0.747689
0.760252 0.882981 0.751020
0.859988 0.886619 0.754498
0.896285 0.888033 0.755750
0.184523 0.177014 0.789193
0.262094 0.177457 0.789633
0.344609 0.178148 0.790320
0.430896 0.179045 0.791211
0.520281 0.180123 0.792283
0.612321 0.181366 0.793519
0.706707 0.182764 0.794908
0.803209 0.184308 0.796441
0.836960 0.183651 0.795774
0.185180 0.256270 0.790956
0.263152 0.256961 0.791640
0.346096 0.257902 0.792572
0.432840 0.259049 0.793710
0.522711 0.260379 0.795028
0.615267 0.261875 0.796513
0.710200 0.263526 0.798151
0.807281 0.265325 0.799935
0.841402 0.264916 0.799511
0.187566 0.341580 0.794119
0.265978 0.342522 0.795048
0.349391 0.343714 0.796227
0.436634 0.345114 0.797612
0.527035 0.346698 0.799179
0.620153 0.348449 0.800914
0.715680 0.350357 0.802803
0.813387 0.352413 0.804839
0.847930 0.352254 0.804660
0.191531 0.431663 0.798537
0.270420 0.432857 0.799713
0.354343 0.434303 0.801140
0.442129 0.435958 0.802774
0.533104 0.437798 0.804592
0.626831 0.439806 0.806578
0.723000 0.441973 0.808720
0.820681 0.444298 0.810989
0.854583 0.444403 0.811022
0.196985 0.525776 0.804126
0.276390 0.527224 0.805551
0.360865 0.528926 0.807227
0.449225 0.530838 0.809112
0.540047 0.532973 0.811162
0.633464 0.535271 0.813373
0.729159 0.537721 0.815735
0.826899 0.540314 0.818239
0.861237 0.540684 0.818518
0.203710 0.623451 0.810830
0.283142 0.625215 0.812494
0.367508 0.627226 0.814405
0.455622 0.629442 0.816519
0.546803 0.631839 0.818812
0.640605 0.634400 0.821269
0.736714 0.637115 0.823877
0.834895 0.639973 0.826628
0.869721 0.640611 0.827156
0.210602 0.724554 0.818598
0.290362 0.726579 0.820505
0.375079 0.728853 0.822659
0.463570 0.731333 0.825019
0.555155 0.733995 0.827558
0.649388 0.736823 0.830261
0.745956 0.739805 0.833117
0.844628 0.742933 0.836118
0.879973 0.743840 0.836896
0.218887 0.828677 0.827425
0.299015 0.830967 0.829577
0.384125 0.833507 0.831977
0.473036 0.836254 0.834583
0.565069 0.839185 0.837370
0.659780 0.842282 0.840322
0.756856 0.845535 0.843428
0.856066 0.848935 0.846679
0.891931 0.850114 0.847708
0.220714 0.865782 0.829462
0.301247 0.868328 0.831859
0.386791 0.871125 0.834505
0.476164 0.874131 0.837358
0.568690 0.877322 0.840393
0.663925 0.880680 0.843595
0.761557 0.884195 0.846951
0.861355 0.887859 0.850454
0.897696 0.889298 0.851731
0.183990 0.176608 0.823320
0.261600 0.177077 0.823784
0.344157 0.177793 0.824496
0.430488 0.178715 0.825412
0.519919 0.179818 0.826509
0.612010 0.181087 0.827770
0.706449 0.182510 0.829184
0.803007 0.184079 0.830743
0.836793 0.183447 0.830100
0.184762 0.255948 0.825166
0.262778 0.256665 0.825874
0.345767 0.257630 0.826831
0.432560 0.258803 0.827993
0.522482 0.260158 0.829337
0.615093 0.261680 0.830846
0.710084 0.263357 0.832510
0.807225 0.265181 0.834319
0.841386 0.264798 0.833920
0.187264 0.341343 0.828410
0.265722 0.342310 0.829364
0.349185 0.343527 0.830568
0.436481 0.344952 0.831978
0.526937 0.346562 0.833571
0.620115 0.348339 0.835330
0.715705 0.350272 0.837245
0.813477 0.352354 0.839307
0.848067 0.352221 0.839152
0.191343 0.431510 0.832910
0.270283 0.432729 0.834111
0.354259 0.434200 0.835563
0.442102 0.435881 0.837223
0.533139 0.437746 0.839066
0.626929 0.439781 0.841077
0.723165 0.441974 0.843245
0.820554 0.444329 0.845529
0.854497 0.444460 0.845586
0.196911 0.525706 0.838582
0.276371 0.527180 0.840032
0.360904 0.528907 0.841733
0.449094 0.530860 0.843638
0.539951 0.533019 0.845711
0.633404 0.535342 0.847947
0.729139 0.537817 0.850334
0.826921 0.540435 0.852862
0.861306 0.540830 0.853167
0.203609 0.623487 0.845366
0.283072 0.625275 0.847054
0.367471 0.627311 0.848989
0.455621 0.629553 0.851127
0.546841 0.631975 0.853445
0.640684 0.634561 0.855926
0.736837 0.637300 0.858559
0.835066 0.640185 0.861335
0.869942 0.640848 0.861889
0.210617 0.724679 0.853216
0.290413 0.726729 0.855148
0.375167 0.729028 0.857327
0.463699 0.731534 0.859710
0.555326 0.734221 0.862274
0.649605 0.737074 0.865003
0.746223 0.740081 0.867884
0.844946 0.743235 0.870909
0.880344 0.744168 0.871713
0.219019 0.828892 0.862126
0.299186 0.831207 0.864302
0.384337 0.833772 0.866727
0.473293 0.836545 0.869358
0.565374 0.839501 0.872170
0.660135 0.842623 0.875147
0.757265 0.845902 0.878278
0.856533 0.849328 0.881554
0.892448 0.850533 0.882609
0.220962 0.866083 0.864245
0.301538 0.868654 0.866667
0.387127 0.871477 0.869338
0.476550 0.874509 0.872216
0.569128 0.877725 0.875276
0.664419 0.881109 0.878503
0.762109 0.884650 0.881885
0.861969 0.888340 0.885413
0.898354 0.889804 0.886715
