library/cube/Blush_Veil_000.cube
# CINEGRADE LAB — Premium Cinematic LUT
# Title: Blush Veil
# Category: Dreamy Wedding
# Description: Soft, romantic, warm highlights with pastel tones for wedding photography
# Mood: Romantic, ethereal, tender
# Variant: 1
# Generated: 2026-05-21T16:12:17.909902
TITLE "Blush Veil"
LUT_3D_SIZE 33
0.183865 0.175365 0.175365
0.202631 0.175405 0.175405
0.221796 0.175465 0.175465
0.241321 0.175541 0.175541
0.261175 0.175634 0.175633
0.281331 0.175742 0.175741
0.301767 0.175864 0.175863
0.322466 0.176001 0.175999
0.343411 0.176150 0.176148
0.364588 0.176313 0.176310
0.385986 0.176487 0.176484
0.407593 0.176674 0.176669
0.429400 0.176872 0.176867
0.451398 0.177081 0.177075
0.473580 0.177301 0.177294
0.495938 0.177532 0.177524
0.518466 0.177774 0.177765
0.541159 0.178025 0.178015
0.564010 0.178287 0.178276
0.587015 0.178559 0.178546
0.610169 0.178840 0.178826
0.633468 0.179131 0.179116
0.656908 0.179432 0.179415
0.680485 0.179741 0.179723
0.704197 0.180060 0.180040
0.728038 0.180388 0.180366
0.752008 0.180725 0.180701
0.776102 0.181071 0.181045
0.800306 0.181425 0.181397
0.824522 0.181783 0.181754
0.834900 0.181646 0.181615
0.834361 0.181118 0.181085
0.833827 0.180595 0.180560
0.183650 0.194357 0.175519
0.202438 0.194412 0.175574
0.221625 0.194487 0.175649
0.241173 0.194579 0.175740
0.261050 0.194687 0.175848
0.281229 0.194811 0.175971
0.301690 0.194948 0.176108
0.322413 0.195100 0.176259
0.343382 0.195265 0.176423
0.364585 0.195443 0.176600
0.386008 0.195633 0.176789
0.407641 0.195835 0.176990
0.429474 0.196049 0.177203
0.451500 0.196274 0.177427
0.473709 0.196509 0.177661
0.496095 0.196756 0.177907
0.518651 0.197013 0.178162
0.541372 0.197280 0.178428
0.564252 0.197558 0.178704
0.587287 0.197845 0.178990
0.610471 0.198142 0.179285
0.633800 0.198449 0.179590
0.657271 0.198765 0.179905
0.680880 0.199091 0.180228
0.704623 0.199425 0.180561
0.728497 0.199769 0.180903
0.752499 0.200122 0.181254
0.776626 0.200483 0.181613
0.800871 0.200853 0.181981
0.825093 0.201227 0.182352
0.835490 0.201105 0.182228
0.834976 0.200593 0.181713
0.834469 0.200085 0.181203
0.183555 0.213826 0.175771
0.202365 0.213897 0.175842
0.221576 0.213987 0.175931
0.241147 0.214095 0.176038
0.261048 0.214218 0.176161
0.281251 0.214357 0.176299
0.301736 0.214511 0.176451
0.322484 0.214678 0.176618
0.343479 0.214859 0.176797
0.364707 0.215052 0.176989
0.386157 0.215257 0.177194
0.407816 0.215475 0.177410
0.429677 0.215704 0.177638
0.451729 0.215945 0.177877
0.473966 0.216196 0.178127
0.496381 0.216458 0.178388
0.518966 0.216731 0.178659
0.541716 0.217014 0.178940
0.564626 0.217307 0.179232
0.587691 0.217610 0.179533
0.610905 0.217923 0.179844
0.634266 0.218245 0.180164
0.657768 0.218577 0.180494
0.681409 0.218919 0.180833
0.705184 0.219269 0.181181
0.729091 0.219628 0.181539
0.753127 0.219997 0.181905
0.777288 0.220374 0.182280
0.801573 0.220761 0.182664
0.825804 0.221149 0.183050
0.836217 0.221042 0.182940
0.835730 0.220546 0.182441
0.835252 0.220054 0.181946
0.183575 0.233731 0.176117
0.202409 0.233818 0.176203
0.221643 0.233923 0.176308
0.241238 0.234046 0.176430
0.261163 0.234185 0.176568
0.281391 0.234339 0.176721
0.301901 0.234508 0.176889
0.322675 0.234691 0.177070
0.343696 0.234887 0.177265
0.364950 0.235096 0.177473
0.386427 0.235317 0.177693
0.408114 0.235550 0.177924
0.430002 0.235795 0.178167
0.452083 0.236051 0.178422
0.474348 0.236318 0.178687
0.496791 0.236596 0.178963
0.519406 0.236885 0.179250
0.542186 0.237183 0.179547
0.565127 0.237492 0.179853
0.588222 0.237811 0.180170
0.611468 0.238140 0.180496
0.634860 0.238478 0.180832
0.658395 0.238825 0.181178
0.682068 0.239182 0.181532
0.705877 0.239549 0.181896
0.729818 0.239924 0.182269
0.753888 0.240308 0.182651
0.778084 0.240702 0.183041
0.802403 0.241104 0.183441
0.826651 0.241508 0.183842
0.837080 0.241416 0.183747
0.836620 0.240935 0.183263
0.836169 0.240459 0.182784
0.183707 0.254036 0.176553
0.202564 0.254138 0.176654
0.221822 0.254259 0.176774
0.241442 0.254398 0.176911
0.261392 0.254552 0.177065
0.281645 0.254722 0.177233
0.302181 0.254907 0.177416
0.322981 0.255105 0.177613
0.344029 0.255317 0.177823
0.365310 0.255541 0.178046
0.386814 0.255778 0.178281
0.408529 0.256027 0.178528
0.430445 0.256287 0.178787
0.452555 0.256559 0.179057
0.474850 0.256842 0.179338
0.497323 0.257135 0.179629
0.519968 0.257439 0.179931
0.542778 0.257754 0.180243
0.565750 0.258079 0.180565
0.588877 0.258413 0.180898
0.612155 0.258757 0.181240
0.635580 0.259111 0.181591
0.659147 0.259475 0.181952
0.682854 0.259848 0.182322
0.706697 0.260230 0.182702
0.730672 0.260621 0.183090
0.754777 0.261021 0.183487
0.779008 0.261431 0.183894
0.803364 0.261849 0.184309
0.827632 0.262268 0.184725
0.838074 0.262191 0.184645
0.837642 0.261726 0.184176
0.837219 0.261265 0.183712
0.183946 0.274714 0.177076
0.202828 0.274832 0.177193
0.222111 0.274968 0.177328
0.241756 0.275122 0.177480
0.261731 0.275292 0.177649
0.282010 0.275478 0.177833
0.302573 0.275678 0.178031
0.323399 0.275892 0.178243
0.344474 0.276119 0.178469
0.365783 0.276359 0.178707
0.387315 0.276612 0.178957
0.409059 0.276876 0.179220
0.431004 0.277152 0.179494
0.453143 0.277440 0.179779
0.475468 0.277738 0.180075
0.497971 0.278047 0.180382
0.520647 0.278367 0.180699
0.543489 0.278697 0.181027
0.566493 0.279038 0.181365
0.589652 0.279388 0.181713
0.612963 0.279748 0.182070
0.636421 0.280118 0.182437
0.660022 0.280498 0.182813
0.683763 0.280886 0.183199
0.707640 0.281284 0.183594
0.731651 0.281692 0.183998
0.755791 0.282108 0.184411
0.780059 0.282533 0.184833
0.804451 0.282967 0.185264
0.828742 0.283402 0.185695
0.839197 0.283340 0.185630
0.838793 0.282891 0.185177
0.838397 0.282446 0.184728
0.184291 0.295740 0.177683
0.203197 0.295874 0.177815
0.222505 0.296026 0.177965
0.242176 0.296195 0.178133
0.262177 0.296381 0.178317
0.282483 0.296582 0.178516
0.303073 0.296797 0.178730
0.323927 0.297027 0.178957
0.345029 0.297270 0.179198
0.366367 0.297526 0.179452
0.387928 0.297794 0.179717
0.409700 0.298074 0.179995
0.431676 0.298366 0.180285
0.453845 0.298669 0.180585
0.476200 0.298983 0.180897
0.498735 0.299308 0.181219
0.521442 0.299644 0.181552
0.544316 0.299990 0.181895
0.567352 0.300346 0.182249
0.590544 0.300713 0.182612
0.613888 0.301089 0.182985
0.637380 0.301474 0.183368
0.661016 0.301870 0.183760
0.684792 0.302274 0.184161
0.708705 0.302688 0.184572
0.732751 0.303111 0.184991
0.756928 0.303544 0.185420
0.781232 0.303985 0.185858
0.805662 0.304435 0.186304
0.829979 0.304885 0.186751
0.840447 0.304839 0.186701
0.840071 0.304405 0.186263
0.839702 0.303976 0.185829
0.184738 0.317095 0.178372
0.203670 0.317244 0.178519
0.223004 0.317411 0.178685
0.242701 0.317596 0.178868
0.262729 0.317798 0.179067
0.283062 0.318015 0.179281
0.303679 0.318246 0.179510
0.324561 0.318491 0.179753
0.345692 0.318750 0.180009
0.367059 0.319021 0.180278
0.388649 0.319305 0.180560
0.410451 0.319601 0.180853
0.432457 0.319909 0.181158
0.454657 0.320228 0.181474
0.477044 0.320558 0.181801
0.499610 0.320898 0.182139
0.522350 0.321250 0.182487
0.545256 0.321612 0.182846
0.568325 0.321984 0.183215
0.591551 0.322366 0.183594
0.614930 0.322758 0.183982
0.638456 0.323160 0.184381
0.662127 0.323571 0.184788
0.685939 0.323991 0.185205
0.709888 0.324421 0.185632
0.733970 0.324861 0.186067
0.758184 0.325309 0.186511
0.782526 0.325766 0.186965
0.806994 0.326232 0.187427
0.831343 0.326698 0.187889
0.841821 0.326667 0.187854
0.841473 0.326249 0.187431
0.841132 0.325835 0.187013
0.185285 0.338761 0.179141
0.204243 0.338925 0.179303
0.223604 0.339108 0.179484
0.243328 0.339309 0.179682
0.263383 0.339526 0.179897
0.283744 0.339759 0.180127
0.304389 0.340006 0.180371
0.325300 0.340266 0.180629
0.346460 0.340541 0.180901
0.367857 0.340828 0.181185
0.389477 0.341128 0.181482
0.411310 0.341439 0.181791
0.433347 0.341763 0.182111
0.455578 0.342097 0.182443
0.477997 0.342443 0.182785
0.500595 0.342800 0.183139
0.523368 0.343167 0.183503
0.546308 0.343545 0.183877
0.569411 0.343933 0.184262
0.592671 0.344331 0.184656
0.616085 0.344739 0.185060
0.639647 0.345157 0.185474
0.663353 0.345584 0.185897
0.687201 0.346020 0.186330
0.711187 0.346466 0.186772
0.735307 0.346922 0.187223
0.759559 0.347386 0.187683
0.783940 0.347859 0.188152
0.808446 0.348341 0.188630
0.832830 0.348823 0.189108
0.843318 0.348807 0.189087
0.842998 0.348405 0.188680
0.842685 0.348007 0.188277
0.185932 0.360723 0.179988
0.204916 0.360903 0.180165
0.224304 0.361101 0.180362
0.244055 0.361318 0.180575
0.264138 0.361550 0.180805
0.284528 0.361798 0.181050
0.305202 0.362061 0.181310
0.326142 0.362338 0.181584
0.347332 0.362628 0.181871
0.368759 0.362931 0.182171
0.390410 0.363246 0.182483
0.412274 0.363574 0.182807
0.434342 0.363913 0.183143
0.456606 0.364264 0.183490
0.479057 0.364625 0.183848
0.501689 0.364998 0.184217
0.524495 0.365381 0.184597
0.547470 0.365775 0.184987
0.570607 0.366179 0.185387
0.593903 0.366593 0.185797
0.617352 0.367017 0.186217
0.640950 0.367450 0.186646
0.664693 0.367893 0.187085
0.688578 0.368346 0.187533
0.712602 0.368808 0.187991
0.736760 0.369279 0.188458
0.761050 0.369760 0.188934
0.785470 0.370249 0.189419
0.810016 0.370747 0.189912
0.834439 0.371246 0.190406
0.844937 0.371244 0.190400
0.844644 0.370858 0.190008
0.844360 0.370475 0.189621
0.186675 0.382967 0.180912
0.205687 0.383162 0.181104
0.225102 0.383377 0.181316
0.244881 0.383609 0.181545
0.264993 0.383857 0.181790
0.285412 0.384121 0.182051
0.306115 0.384400 0.182326
0.327085 0.384692 0.182615
0.348306 0.384998 0.182918
0.369763 0.385317 0.183233
0.391446 0.385648 0.183561
0.413342 0.385991 0.183900
0.435443 0.386346 0.184252
0.457739 0.386713 0.184614
0.480224 0.387090 0.184988
0.502890 0.387479 0.185373
0.525730 0.387878 0.185768
0.548739 0.388288 0.186173
0.571912 0.388708 0.186589
0.595243 0.389138 0.187015
0.618729 0.389577 0.187450
0.642364 0.390027 0.187895
0.666145 0.390486 0.188350
0.690067 0.390955 0.188814
0.714129 0.391433 0.189288
0.738326 0.391920 0.189770
0.762656 0.392417 0.190262
0.787116 0.392922 0.190762
0.811703 0.393437 0.191272
0.836170 0.393951 0.191781
0.846675 0.393965 0.191790
0.846410 0.393594 0.191414
0.846154 0.393228 0.191042
0.187514 0.405482 0.181911
0.206554 0.405693 0.182119
0.225997 0.405923 0.182346
0.245805 0.406171 0.182590
0.265946 0.406435 0.182851
0.286394 0.406714 0.183127
0.307128 0.407009 0.183418
0.328128 0.407317 0.183722
0.349380 0.407639 0.184040
0.370869 0.407973 0.184371
0.392584 0.408320 0.184714
0.414512 0.408680 0.185069
0.436646 0.409050 0.185436
0.458976 0.409433 0.185814
0.481495 0.409826 0.186204
0.504195 0.410231 0.186604
0.527071 0.410646 0.187015
0.550116 0.411072 0.187436
0.573325 0.411508 0.187867
0.596693 0.411954 0.188309
0.620215 0.412410 0.188760
0.643887 0.412875 0.189221
0.667706 0.413351 0.189691
0.691668 0.413835 0.190171
0.715769 0.414330 0.190660
0.740006 0.414833 0.191159
0.764376 0.415346 0.191666
0.788876 0.415868 0.192182
0.813504 0.416398 0.192708
0.838020 0.416929 0.193233
0.848532 0.416958 0.193257
0.848296 0.416603 0.192896
0.848067 0.416252 0.192539
0.188448 0.428256 0.182984
0.207515 0.428483 0.183207
0.226987 0.428729 0.183450
0.246825 0.428993 0.183710
0.266996 0.429273 0.183986
0.287474 0.429568 0.184277
0.308238 0.429878 0.184583
0.329270 0.430202 0.184903
0.350554 0.430540 0.185237
0.372075 0.430890 0.185583
0.393822 0.431253 0.185942
0.415784 0.431628 0.186313
0.437952 0.432015 0.186695
0.460316 0.432414 0.187089
0.482870 0.432823 0.187494
0.505605 0.433244 0.187910
0.528517 0.433675 0.188336
0.551598 0.434116 0.188773
0.574843 0.434568 0.189220
0.598249 0.435030 0.189677
0.621809 0.435502 0.190144
0.645520 0.435984 0.190621
0.669377 0.436476 0.191107
0.693378 0.436977 0.191602
0.717519 0.437487 0.192107
0.741796 0.438007 0.192622
0.766207 0.438536 0.193145
0.790749 0.439074 0.193677
0.815419 0.439621 0.194218
0.839989 0.440168 0.194760
0.850507 0.440212 0.194798
0.850299 0.439873 0.194452
0.850099 0.439538 0.194111
0.189474 0.451282 0.184130
0.208571 0.451525 0.184369
0.228072 0.451786 0.184627
0.247939 0.452066 0.184902
0.268141 0.452361 0.185194
0.288650 0.452673 0.185501
0.309446 0.452998 0.185822
0.330510 0.453338 0.186158
0.351826 0.453692 0.186507
0.373380 0.454058 0.186869
0.395160 0.454437 0.187243
0.417156 0.454828 0.187629
0.439358 0.455231 0.188027
0.461758 0.455645 0.188437
0.484347 0.456071 0.188857
0.507118 0.456507 0.189289
0.530066 0.456955 0.189731
0.553184 0.457412 0.190184
0.576467 0.457880 0.190646
0.599910 0.458359 0.191119
0.623509 0.458847 0.191602
0.647259 0.459345 0.192094
0.671156 0.459852 0.192596
0.695198 0.460369 0.193108
0.719379 0.460896 0.193628
0.743697 0.461432 0.194158
0.768150 0.461977 0.194698
0.792734 0.462531 0.195246
0.817447 0.463095 0.195803
0.842077 0.463659 0.196361
0.852599 0.463718 0.196414
0.852419 0.463394 0.196083
0.852116 0.463077 0.195754
0.190593 0.474549 0.185349
0.209719 0.474808 0.185603
0.229250 0.475085 0.185876
0.249148 0.475380 0.186167
0.269380 0.475692 0.186474
0.289921 0.476019 0.186796
0.310749 0.476361 0.187134
0.331845 0.476717 0.187485
0.353194 0.477086 0.187849
0.374782 0.477468 0.188227
0.396597 0.477863 0.188617
0.418628 0.478270 0.189018
0.440865 0.478689 0.189432
0.463300 0.479119 0.189857
0.485925 0.479561 0.190294
0.508733 0.480014 0.190741
0.531718 0.480477 0.191198
0.554874 0.480951 0.191667
0.578195 0.481435 0.192145
0.601677 0.481929 0.192634
0.625315 0.482434 0.193132
0.649105 0.482948 0.193640
0.673043 0.483472 0.194158
0.697125 0.484005 0.194686
0.721347 0.484548 0.195222
0.745708 0.485100 0.195768
0.770203 0.485661 0.196323
0.794830 0.486232 0.196887
0.819586 0.486812 0.197460
0.844052 0.487397 0.198028
0.854299 0.487475 0.198087
0.853870 0.487172 0.197763
0.853450 0.486873 0.197445
0.191803 0.498051 0.186638
0.210959 0.498325 0.186908
0.230521 0.498619 0.187197
0.250450 0.498929 0.187503
0.270713 0.499257 0.187826
0.291287 0.499600 0.188164
0.312147 0.499958 0.188516
0.333277 0.500329 0.188883
0.354659 0.500715 0.189263
0.376282 0.501113 0.189656
0.398131 0.501524 0.190062
0.420197 0.501947 0.190479
0.442470 0.502382 0.190908
0.464941 0.502828 0.191349
0.487603 0.503286 0.191801
0.510449 0.503755 0.192264
0.533472 0.504234 0.192738
0.556666 0.504724 0.193222
0.580027 0.505224 0.193716
0.603548 0.505735 0.194220
0.627226 0.506255 0.194734
0.651056 0.506786 0.195258
0.675035 0.507326 0.195792
0.699159 0.507876 0.196335
0.723424 0.508435 0.196888
0.747777 0.509004 0.197448
0.772059 0.509588 0.198012
0.796461 0.510181 0.198584
0.820981 0.510782 0.199164
0.845452 0.511385 0.199747
0.855693 0.511479 0.199820
0.855292 0.511192 0.199512
0.854901 0.510909 0.199209
0.193103 0.521779 0.187999
0.212289 0.522070 0.188284
0.231883 0.522379 0.188588
0.251843 0.522706 0.188910
0.272139 0.523049 0.189248
0.292745 0.523408 0.189601
0.313639 0.523782 0.189970
0.334803 0.524169 0.190352
0.356220 0.524571 0.190747
0.377877 0.524985 0.191156
0.399762 0.525412 0.191577
0.421864 0.525851 0.192011
0.444173 0.526302 0.192456
0.466682 0.526764 0.192912
0.489381 0.527238 0.193380
0.512265 0.527723 0.193858
0.535327 0.528219 0.194348
0.558560 0.528725 0.194847
0.581960 0.529241 0.195357
0.605522 0.529768 0.195878
0.629241 0.530305 0.196408
0.653113 0.530851 0.196948
0.677003 0.531412 0.197493
0.700930 0.531986 0.198046
0.724986 0.532568 0.198607
0.749168 0.533160 0.199177
0.773474 0.533760 0.199755
0.797900 0.534369 0.200342
0.822444 0.534986 0.200938
0.846969 0.535607 0.201538
0.857203 0.535716 0.201625
0.856831 0.535445 0.201332
0.856468 0.535180 0.201044
0.194492 0.545728 0.189429
0.213710 0.546035 0.189729
0.233335 0.546360 0.190049
0.253328 0.546702 0.190386
0.273657 0.547062 0.190740
0.294297 0.547437 0.191109
0.315225 0.547826 0.191493
0.336423 0.548230 0.191891
0.357875 0.548647 0.192302
0.379568 0.549078 0.192726
0.401489 0.549521 0.193163
0.423627 0.549976 0.193612
0.445974 0.550443 0.194073
0.468520 0.550922 0.194545
0.491258 0.551412 0.195028
0.514181 0.551913 0.195523
0.537282 0.552424 0.196028
0.560555 0.552947 0.196543
0.583996 0.553479 0.197069
0.607402 0.554031 0.197600
0.630939 0.554593 0.198139
0.654618 0.555164 0.198689
0.678434 0.555745 0.199247
0.702383 0.556335 0.199814
0.726463 0.556934 0.200391
0.750669 0.557542 0.200976
0.774999 0.558158 0.201570
0.799449 0.558783 0.202173
0.824018 0.559417 0.202784
0.848603 0.560056 0.203400
0.858828 0.560180 0.203501
0.858485 0.559926 0.203224
0.858150 0.559677 0.202951
0.195971 0.569892 0.190927
0.215220 0.570214 0.191244
0.234878 0.570555 0.191579
0.254904 0.570914 0.191932
0.275266 0.571289 0.192301
0.295940 0.571680 0.192686
0.316902 0.572085 0.193085
0.338136 0.572505 0.193498
0.359624 0.572939 0.193925
0.381353 0.573385 0.194365
0.403311 0.573844 0.194818
0.425487 0.574316 0.195283
0.447872 0.574799 0.195759
0.470456 0.575294 0.196247
0.493233 0.575800 0.196746
0.516140 0.576320 0.197255
0.539086 0.576859 0.197771
0.562194 0.577408 0.198296
0.585457 0.577967 0.198832
0.608870 0.578535 0.199378
0.632430 0.579114 0.199933
0.656131 0.579701 0.200497
0.679970 0.580298 0.201071
0.703944 0.580905 0.201653
0.728047 0.581520 0.202245
0.752278 0.582144 0.202846
0.776632 0.582777 0.203455
0.801109 0.583419 0.204073
0.825703 0.584069 0.204700
0.850353 0.584726 0.205332
0.860568 0.584865 0.205447
0.860253 0.584628 0.205186
0.859947 0.584395 0.204929
0.197537 0.594264 0.192495
0.216819 0.594602 0.192826
0.236510 0.594959 0.193177
0.256569 0.595334 0.193546
0.276966 0.595725 0.193930
0.297674 0.596132 0.194331
0.318672 0.596554 0.194746
0.339941 0.596990 0.195175
0.361466 0.597439 0.195618
0.383232 0.597902 0.196073
0.405228 0.598377 0.196542
0.427442 0.598865 0.197022
0.449753 0.599372 0.197511
0.472198 0.599895 0.198011
0.494824 0.600429 0.198521
0.517624 0.600974 0.199041
0.540591 0.601529 0.199572
0.563720 0.602094 0.200114
0.587006 0.602670 0.200665
0.610442 0.603255 0.201225
0.634025 0.603849 0.201796
0.657750 0.604453 0.202375
0.681613 0.605067 0.202964
0.705610 0.605690 0.203562
0.729738 0.606321 0.204169
0.753994 0.606962 0.204785
0.778375 0.607612 0.205410
0.802877 0.608270 0.206043
0.827498 0.608937 0.206685
0.852217 0.609612 0.207335
0.862421 0.609766 0.207464
0.862135 0.609545 0.207218
0.861857 0.609329 0.206977
0.199191 0.618840 0.194130
0.218506 0.619194 0.194477
0.238230 0.619567 0.194844
0.258324 0.619958 0.195228
0.278756 0.620365 0.195628
0.299500 0.620788 0.196044
0.320533 0.621226 0.196475
0.341839 0.621678 0.196920
0.363398 0.622144 0.197378
0.385049 0.622637 0.197846
0.406919 0.623142 0.198326
0.428996 0.623658 0.198818
0.451273 0.624187 0.199321
0.473738 0.624726 0.199836
0.496385 0.625276 0.200361
0.519207 0.625837 0.200897
0.542197 0.626409 0.201443
0.565348 0.626991 0.202000
0.588657 0.627582 0.202566
0.612116 0.628184 0.203142
0.635723 0.628795 0.203727
0.659472 0.629415 0.204322
0.683360 0.630045 0.204927
0.707382 0.630685 0.205540
0.731536 0.631333 0.206163
0.755818 0.631990 0.206794
0.780224 0.632656 0.207434
0.804753 0.633331 0.208083
0.829402 0.634015 0.208740
0.854167 0.634707 0.209406
0.864387 0.634877 0.209550
0.864129 0.634673 0.209320
0.863879 0.634474 0.209094
0.200932 0.643615 0.195832
0.220281 0.643985 0.196195
0.240039 0.644374 0.196577
0.260168 0.644781 0.196977
0.280635 0.645205 0.197393
0.301364 0.645650 0.197824
0.322297 0.646119 0.198267
0.343491 0.646602 0.198725
0.364931 0.647098 0.199195
0.386602 0.647607 0.199678
0.408493 0.648128 0.200174
0.430592 0.648661 0.200681
0.452889 0.649206 0.201199
0.475376 0.649762 0.201729
0.498045 0.650329 0.202270
0.520890 0.650906 0.202821
0.543902 0.651494 0.203382
0.567077 0.652092 0.203954
0.590409 0.652700 0.204535
0.613893 0.653318 0.205127
0.637524 0.653946 0.205728
0.661298 0.654583 0.206338
0.685211 0.655229 0.206958
0.709259 0.655885 0.207587
0.733439 0.656550 0.208224
0.757747 0.657224 0.208871
0.782181 0.657906 0.209527
0.806738 0.658598 0.210191
0.831414 0.659298 0.210864
0.856208 0.660007 0.211545
0.866464 0.660195 0.211705
0.866234 0.660007 0.211490
0.866013 0.659825 0.211280
0.202759 0.668585 0.197602
0.222142 0.668971 0.197980
0.241850 0.669389 0.198376
0.261890 0.669828 0.198789
0.282260 0.670284 0.199219
0.302932 0.670755 0.199663
0.323884 0.671240 0.200122
0.345099 0.671740 0.200594
0.366559 0.672252 0.201080
0.388251 0.672778 0.201578
0.410162 0.673315 0.202089
0.432283 0.673865 0.202611
0.454602 0.674426 0.203145
0.477111 0.674998 0.203690
0.499803 0.675581 0.204246
0.522671 0.676175 0.204812
0.545707 0.676779 0.205389
0.568905 0.677394 0.205976
0.592262 0.678018 0.206573
0.615770 0.678653 0.207180
0.639427 0.679297 0.207796
0.663226 0.679951 0.208422
0.687165 0.680614 0.209057
0.711240 0.681286 0.209701
0.735447 0.681968 0.210354
0.759783 0.682658 0.211017
0.784245 0.683358 0.211688
0.808830 0.684066 0.212367
0.833535 0.684783 0.213056
0.858358 0.685508 0.213753
0.868653 0.685713 0.213928
0.868451 0.685542 0.213729
0.868257 0.685376 0.213534
0.204452 0.693783 0.199434
0.223751 0.694203 0.199827
0.243450 0.694641 0.200237
0.263510 0.695097 0.200666
0.283899 0.695569 0.201110
0.304591 0.696056 0.201570
0.325564 0.696558 0.202044
0.346799 0.697074 0.202531
0.368280 0.697603 0.203032
0.389993 0.698144 0.203546
0.411927 0.698698 0.204072
0.434069 0.699264 0.204609
0.456411 0.699842 0.205158
0.478943 0.700430 0.205719
0.501659 0.701030 0.206290
0.524550 0.701640 0.206872
0.547610 0.702261 0.207464
0.570833 0.702892 0.208066
0.594215 0.703534 0.208678
0.617749 0.704185 0.209300
0.641431 0.704845 0.209932
0.665257 0.705516 0.210573
0.689223 0.706195 0.211224
0.713325 0.706884 0.211883
0.737560 0.707583 0.212552
0.761924 0.708290 0.213230
0.786414 0.709006 0.213916
0.811028 0.709731 0.214611
0.835763 0.710465 0.215315
0.860616 0.711207 0.216028
0.870951 0.711429 0.216219
0.870777 0.711275 0.216035
0.870612 0.711125 0.215856
0.206102 0.719195 0.201332
0.225420 0.719631 0.201739
0.245139 0.720085 0.202165
0.265219 0.720558 0.202609
0.285628 0.721046 0.203068
0.306341 0.721550 0.203543
0.327334 0.722068 0.204032
0.348591 0.722600 0.204535
0.370094 0.723145 0.205051
0.391829 0.723703 0.205580
0.413785 0.724274 0.206121
0.435950 0.724856 0.206674
0.458315 0.725450 0.207238
0.480871 0.726055 0.207814
0.503611 0.726672 0.208400
0.526526 0.727299 0.208998
0.549612 0.727936 0.209605
0.572860 0.728584 0.210223
0.596267 0.729241 0.210850
0.619828 0.729909 0.211488
0.643537 0.730587 0.212135
0.667390 0.731273 0.212792
0.691383 0.731970 0.213458
0.715513 0.732676 0.214133
0.739776 0.733391 0.214817
0.764169 0.734114 0.215510
0.788689 0.734847 0.216212
0.813333 0.735589 0.216923
0.838098 0.736340 0.217642
0.862982 0.737099 0.218370
0.873359 0.737338 0.218578
0.873213 0.737201 0.218409
0.873075 0.737068 0.218245
0.207840 0.744795 0.203295
0.227178 0.745247 0.203718
0.246916 0.745718 0.204159
0.267017 0.746207 0.204618
0.287447 0.746711 0.205092
0.308181 0.747232 0.205582
0.329196 0.747766 0.206087
0.350474 0.748315 0.206605
0.372000 0.748877 0.207137
0.393758 0.749451 0.207681
0.415737 0.750038 0.208237
0.437926 0.750637 0.208805
0.460315 0.751248 0.209385
0.482895 0.751869 0.209976
0.505659 0.752502 0.210578
0.528600 0.753146 0.211190
0.551711 0.753800 0.211813
0.574986 0.754464 0.212446
0.598419 0.755138 0.213089
0.622007 0.755823 0.213742
0.645743 0.756517 0.214405
0.669624 0.757221 0.215077
0.693645 0.757934 0.215758
0.717804 0.758656 0.216449
0.742097 0.759388 0.217149
0.766519 0.760129 0.217857
0.791069 0.760878 0.218575
0.815743 0.761637 0.219301
0.840540 0.762404 0.220036
0.865455 0.763180 0.220780
0.875875 0.763437 0.221004
0.875757 0.763316 0.220850
0.875646 0.763200 0.220702
0.209664 0.770580 0.205325
0.229023 0.771048 0.205762
0.248782 0.771536 0.206219
0.268904 0.772041 0.206693
0.289355 0.772562 0.207183
0.310111 0.773099 0.207688
0.331148 0.773650 0.208208
0.352449 0.774215 0.208741
0.373998 0.774793 0.209288
0.395779 0.775384 0.209847
0.417782 0.775988 0.210419
0.439995 0.776603 0.211002
0.462409 0.777230 0.211598
0.485014 0.777869 0.212204
0.507804 0.778518 0.212821
0.530770 0.779178 0.213449
0.553907 0.779849 0.214087
0.577209 0.780530 0.214736
0.600670 0.781221 0.215394
