library/cube/Brand_Luxe_001.cube
# CINEGRADE LAB — Premium Cinematic LUT
# Title: Brand Luxe
# Category: Commercial Luxury
# Description: Polished, professional, product-ready aesthetic for commercial work
# Mood: Clean, premium, sharp
# Variant: 2
# Generated: 2026-05-21T16:12:41.446890
TITLE "Brand Luxe"
LUT_3D_SIZE 9
0.005000 0.002000 0.000000
0.085644 0.003017 0.001012
0.221066 0.004726 0.002712
0.356488 0.006434 0.004412
0.491909 0.008143 0.006112
0.627331 0.009851 0.007812
0.762753 0.011560 0.009512
0.898175 0.013268 0.011212
0.978819 0.014286 0.012224
0.008788 0.091278 0.003714
0.089433 0.092295 0.004726
0.239162 0.100016 0.006846
0.377292 0.101759 0.008580
0.515422 0.103502 0.010314
0.653552 0.105244 0.012047
0.766541 0.100837 0.013226
0.901963 0.102546 0.014926
0.982607 0.103563 0.015939
0.014517 0.226275 0.009330
0.095161 0.227293 0.010342
0.230583 0.229001 0.012042
0.383077 0.238107 0.014252
0.521207 0.239849 0.015986
0.659338 0.241592 0.017720
0.797468 0.243335 0.019454
0.935598 0.245077 0.021188
0.988640 0.245747 0.021853
0.020245 0.361273 0.014946
0.100889 0.362291 0.015958
0.236311 0.363999 0.017658
0.371733 0.365708 0.019358
0.507154 0.367416 0.021058
0.665123 0.377940 0.023392
0.803253 0.379683 0.025126
0.941383 0.381425 0.026860
0.994426 0.382094 0.027526
0.025973 0.496271 0.020562
0.106618 0.497288 0.021574
0.242039 0.498997 0.023274
0.377461 0.500705 0.024974
0.512883 0.502414 0.026674
0.648304 0.504122 0.028374
0.809039 0.516030 0.030798
0.947169 0.517773 0.032532
1.000000 0.518442 0.033198
0.031702 0.631269 0.026178
0.112346 0.632286 0.027190
0.247768 0.633995 0.028890
0.383189 0.635703 0.030590
0.518611 0.637412 0.032290
0.654033 0.639120 0.033990
0.789454 0.640829 0.035690
0.952955 0.654121 0.038204
1.000000 0.654790 0.038870
0.037430 0.766267 0.031794
0.118074 0.767284 0.032806
0.253496 0.768992 0.034506
0.388918 0.770701 0.036206
0.524339 0.772409 0.037906
0.659761 0.774118 0.039606
0.795183 0.775826 0.041306
0.930604 0.777535 0.043006
1.000000 0.778552 0.044018
0.043158 0.901264 0.037410
0.123803 0.902282 0.038422
0.259224 0.903990 0.040122
0.394646 0.905699 0.041822
0.530068 0.907407 0.043522
0.665489 0.909116 0.045222
0.800911 0.910824 0.046922
0.936333 0.912533 0.048622
1.000000 0.913550 0.049634
0.046946 0.990542 0.041124
0.127591 0.991560 0.042136
0.263013 0.993268 0.043836
0.398434 0.994976 0.045536
0.533856 0.996685 0.047236
0.669278 0.998393 0.048936
0.804699 1.000000 0.050636
0.940121 1.000000 0.052336
1.000000 1.000000 0.053349
0.005438 0.002432 0.097919
0.086082 0.003449 0.098932
0.221504 0.005157 0.100632
0.356926 0.006866 0.102332
0.492348 0.008574 0.104032
0.627769 0.010283 0.105731
0.763191 0.011991 0.107431
0.898613 0.013700 0.109131
0.979257 0.014717 0.110144
0.009226 0.091709 0.101633
0.089871 0.092727 0.102646
0.225292 0.094435 0.104346
0.360714 0.096144 0.106046
0.496136 0.097852 0.107746
0.631557 0.099561 0.109445
0.766979 0.101269 0.111145
0.902401 0.102977 0.112845
0.983045 0.103995 0.113858
0.014955 0.226707 0.107249
0.095599 0.227724 0.108262
0.231021 0.229433 0.109962
0.383515 0.238538 0.112171
0.521645 0.240281 0.113905
0.659776 0.242024 0.115639
0.797906 0.243766 0.117373
0.908129 0.237975 0.118461
0.988774 0.238993 0.119474
0.020683 0.361705 0.112865
0.101327 0.362722 0.113878
0.236749 0.364431 0.115578
0.372171 0.366139 0.117278
0.527431 0.376629 0.119577
0.665561 0.378371 0.121311
0.803691 0.380114 0.123045
0.941821 0.381857 0.124779
0.994864 0.382526 0.125445
0.026411 0.496703 0.118481
0.107056 0.497720 0.119494
0.242477 0.499429 0.121194
0.377899 0.501137 0.122894
0.513321 0.502845 0.124594
0.648742 0.504554 0.126293
0.809477 0.516462 0.128717
0.947607 0.518204 0.130451
1.000000 0.518874 0.131117
0.032140 0.631700 0.124097
0.112784 0.632718 0.125110
0.248206 0.634426 0.126810
0.383627 0.636135 0.128510
0.519049 0.637843 0.130210
0.654471 0.639552 0.131909
0.789892 0.641260 0.133609
0.953393 0.654552 0.136123
1.000000 0.655221 0.136789
0.037868 0.766698 0.129713
0.118512 0.767716 0.130726
0.253934 0.769424 0.132426
0.389356 0.771133 0.134126
0.524777 0.772841 0.135826
0.660199 0.774549 0.137525
0.795621 0.776258 0.139225
0.931042 0.777966 0.140925
1.000000 0.791569 0.142461
0.043596 0.901696 0.135329
0.124241 0.902713 0.136342
0.259662 0.904422 0.138042
0.395084 0.906130 0.139742
0.530506 0.907839 0.141442
0.665927 0.909547 0.143141
0.801349 0.911256 0.144841
0.936771 0.912964 0.146541
1.000000 0.913982 0.147554
0.047384 0.990974 0.139043
0.128029 0.991991 0.140056
0.263451 0.993700 0.141756
0.398872 0.995408 0.143456
0.534294 0.997116 0.145156
0.669716 0.998825 0.146855
0.805137 1.000000 0.148555
0.940559 1.000000 0.150255
1.000000 1.000000 0.151268
0.005998 0.002983 0.223055
0.086642 0.004000 0.224067
0.222064 0.005709 0.225767
0.357486 0.007417 0.227467
0.492907 0.009126 0.229167
0.628329 0.010834 0.230867
0.763751 0.012543 0.232567
0.899172 0.014251 0.234267
0.979817 0.015269 0.235279
0.009786 0.092261 0.226769
0.090430 0.093278 0.227781
0.225852 0.094987 0.229481
0.361274 0.096695 0.231181
0.496696 0.098404 0.232881
0.632117 0.100112 0.234581
0.767539 0.101821 0.236281
0.902961 0.103529 0.237981
0.983605 0.104546 0.238993
0.015514 0.227259 0.232385
0.096159 0.228276 0.233397
0.231580 0.229984 0.235097
0.367002 0.231693 0.236797
0.502424 0.233401 0.238497
0.637846 0.235110 0.240197
0.773267 0.236818 0.241897
0.908689 0.238527 0.243597
0.989333 0.239544 0.244609
0.021243 0.362256 0.238001
0.101887 0.363274 0.239013
0.237309 0.364982 0.240713
0.372730 0.366691 0.242413
0.527991 0.377180 0.244713
0.666121 0.378923 0.246447
0.804251 0.380666 0.248181
0.942381 0.382408 0.249914
0.995062 0.374542 0.250225
0.026971 0.497254 0.243617
0.107615 0.498272 0.244629
0.243037 0.499980 0.246329
0.378459 0.501688 0.248029
0.513880 0.503397 0.249729
0.671906 0.515271 0.252119
0.810037 0.517013 0.253853
0.948167 0.518756 0.255587
1.000000 0.519425 0.256252
0.032699 0.632252 0.249233
0.113344 0.633269 0.250245
0.248765 0.634978 0.251945
0.384187 0.636686 0.253645
0.519609 0.638395 0.255345
0.655031 0.640103 0.257045
0.790452 0.641812 0.258745
0.953952 0.655104 0.261259
1.000000 0.655773 0.261925
0.038428 0.767250 0.254849
0.119072 0.768267 0.255861
0.254494 0.769976 0.257561
0.389915 0.771684 0.259261
0.525337 0.773393 0.260961
0.660759 0.775101 0.262661
0.796181 0.776809 0.264361
0.931602 0.778518 0.266061
1.000000 0.792121 0.267597
0.044156 0.902247 0.260465
0.124800 0.903265 0.261477
0.260222 0.904973 0.263177
0.395644 0.906682 0.264877
0.531065 0.908390 0.266577
0.666487 0.910099 0.268277
0.801909 0.911807 0.269977
0.937331 0.913516 0.271677
1.000000 0.914533 0.272689
0.047944 0.991525 0.264179
0.128589 0.992543 0.265191
0.264010 0.994251 0.266891
0.399432 0.995960 0.268591
0.534854 0.997668 0.270291
0.670275 0.999376 0.271991
0.805697 1.000000 0.273691
0.941119 1.000000 0.275391
1.000000 1.000000 0.276403
0.006558 0.003535 0.348190
0.087202 0.004552 0.349203
0.222624 0.006260 0.350903
0.358045 0.007969 0.352603
0.493467 0.009677 0.354303
0.628889 0.011386 0.356002
0.764310 0.013094 0.357702
0.899732 0.014803 0.359402
0.980377 0.015820 0.360415
0.010346 0.092812 0.351904
0.090990 0.093830 0.352917
0.226412 0.095538 0.354617
0.361834 0.097247 0.356317
0.497255 0.098955 0.358017
0.632677 0.100664 0.359716
0.768099 0.102372 0.361416
0.903520 0.104081 0.363116
0.984165 0.105098 0.364129
0.016074 0.227810 0.357520
0.096719 0.228828 0.358533
0.232140 0.230536 0.360233
0.367562 0.232244 0.361933
0.502984 0.233953 0.363633
0.638405 0.235661 0.365332
0.773827 0.237370 0.367032
0.909249 0.239078 0.368732
0.989893 0.240096 0.369745
0.021802 0.362808 0.363136
0.102447 0.363825 0.364149
0.237869 0.365534 0.365849
0.373290 0.367242 0.367549
0.508712 0.368951 0.369249
0.644134 0.370659 0.370948
0.779555 0.372368 0.372648
0.914977 0.374076 0.374348
0.995621 0.375094 0.375361
0.027531 0.497806 0.368752
0.108175 0.498823 0.369765
0.243597 0.500532 0.371465
0.379019 0.502240 0.373165
0.514440 0.503948 0.374865
0.672466 0.515822 0.377254
0.810596 0.517565 0.378988
0.948727 0.519308 0.380722
1.000000 0.519977 0.381388
0.033259 0.632803 0.374368
0.113903 0.633821 0.375381
0.249325 0.635529 0.377081
0.384747 0.637238 0.378781
0.520169 0.638946 0.380481
0.655590 0.640655 0.382180
0.816382 0.653913 0.384660
0.954512 0.655655 0.386394
1.000000 0.656324 0.387060
0.038987 0.767801 0.379984
0.119632 0.768819 0.380997
0.255053 0.770527 0.382697
0.390475 0.772236 0.384397
0.525897 0.773944 0.386096
0.661319 0.775653 0.387796
0.796740 0.777361 0.389496
0.932162 0.779069 0.391196
1.000000 0.792672 0.392732
0.044716 0.902799 0.385600
0.125360 0.903816 0.386613
0.260782 0.905525 0.388313
0.396203 0.907233 0.390013
0.531625 0.908942 0.391712
0.667047 0.910650 0.393412
0.802469 0.912359 0.395112
0.937890 0.914067 0.396812
1.000000 0.915085 0.397825
0.048504 0.992077 0.389314
0.129148 0.993094 0.390327
0.264570 0.994803 0.392027
0.399992 0.996511 0.393727
0.535413 0.998220 0.395427
0.670835 0.999928 0.397126
0.806257 1.000000 0.398826
0.941679 1.000000 0.400526
1.000000 1.000000 0.401539
0.007117 0.004086 0.473326
0.087762 0.005104 0.474338
0.223183 0.006812 0.476038
0.358605 0.008520 0.477738
0.494027 0.010229 0.479438
0.629448 0.011937 0.481138
0.764870 0.013646 0.482838
0.900292 0.015354 0.484538
0.980936 0.016372 0.485550
0.010906 0.093364 0.477040
0.091550 0.094381 0.478052
0.226972 0.096090 0.479752
0.362393 0.097798 0.481452
0.497815 0.099507 0.483152
0.633237 0.101215 0.484852
0.768658 0.102924 0.486552
0.904080 0.104632 0.488252
0.984725 0.105649 0.489264
0.016634 0.228362 0.482656
0.097278 0.229379 0.483668
0.232700 0.231087 0.485368
0.368122 0.232796 0.487068
0.503543 0.234504 0.488768
0.638965 0.236213 0.490468
0.774387 0.237921 0.492168
0.909808 0.239630 0.493868
0.990453 0.240647 0.494880
0.022362 0.363359 0.488272
0.103007 0.364377 0.489284
0.238428 0.366085 0.490984
0.373850 0.367794 0.492684
0.509272 0.369502 0.494384
0.644693 0.371211 0.496084
0.780115 0.372919 0.497784
0.915537 0.374628 0.499484
0.996181 0.375645 0.500496
0.028091 0.498357 0.493888
0.108735 0.499375 0.494900
0.244157 0.501083 0.496600
0.379578 0.502792 0.498300
0.515000 0.504500 0.500000
0.650422 0.506208 0.501700
0.785843 0.507917 0.503400
0.921265 0.509625 0.505100
1.000000 0.510643 0.506112
0.033819 0.633355 0.499504
0.114463 0.634372 0.500516
0.249885 0.636081 0.502216
0.385307 0.637789 0.503916
0.520728 0.639498 0.505616
0.656150 0.641206 0.507316
0.816942 0.654464 0.509796
0.955072 0.656207 0.511530
1.000000 0.656876 0.512196
0.039547 0.768353 0.505120
0.120192 0.769370 0.506132
0.255613 0.771079 0.507832
0.391035 0.772787 0.509532
0.526457 0.774496 0.511232
0.661878 0.776204 0.512932
0.797300 0.777913 0.514632
0.960857 0.792555 0.517202
1.000000 0.793224 0.517868
0.045275 0.903351 0.510736
0.125920 0.904368 0.511748
0.261342 0.906076 0.513448
0.396763 0.907785 0.515148
0.532185 0.909493 0.516848
0.667607 0.911202 0.518548
0.803028 0.912910 0.520248
0.938450 0.914619 0.521948
1.000000 0.915636 0.522960
0.049064 0.992628 0.514450
0.129708 0.993646 0.515462
0.265130 0.995354 0.517162
0.400552 0.997063 0.518862
0.535973 0.998771 0.520562
0.671395 1.000000 0.522262
0.806817 1.000000 0.523962
0.942238 1.000000 0.525662
1.000000 1.000000 0.526674
0.007677 0.004638 0.598461
0.088321 0.005655 0.599474
0.223743 0.007364 0.601174
0.359165 0.009072 0.602874
0.494587 0.010780 0.604573
0.630008 0.012489 0.606273
0.765430 0.014197 0.607973
0.900852 0.015906 0.609673
0.981496 0.016923 0.610686
0.011465 0.093915 0.602175
0.092110 0.094933 0.603188
0.227531 0.096641 0.604888
0.362953 0.098350 0.606588
0.498375 0.100058 0.608288
0.633797 0.101767 0.609987
0.769218 0.103475 0.611687
0.904640 0.105184 0.613387
0.985284 0.106201 0.614400
0.017194 0.228913 0.607791
0.097838 0.229931 0.608804
0.233260 0.231639 0.610504
0.368681 0.233347 0.612204
0.504103 0.235056 0.613904
0.639525 0.236764 0.615603
0.774947 0.238473 0.617303
0.910368 0.240181 0.619003
0.991013 0.241199 0.620016
0.022922 0.363911 0.613407
0.103566 0.364928 0.614420
0.238988 0.366637 0.616120
0.374410 0.368345 0.617820
0.509831 0.370054 0.619519
0.645253 0.371762 0.621219
0.780675 0.373471 0.622919
0.916097 0.375179 0.624619
0.996741 0.376197 0.625632
0.028650 0.498909 0.619023
0.109295 0.499926 0.620036
0.244716 0.501635 0.621736
0.380138 0.503343 0.623436
0.515560 0.505052 0.625135
0.650981 0.506760 0.626835
0.786403 0.508468 0.628535
0.921825 0.510177 0.630235
1.000000 0.511194 0.631248
0.034379 0.633906 0.624639
0.115023 0.634924 0.625652
0.250445 0.636632 0.627352
0.385866 0.638341 0.629052
0.521288 0.640049 0.630751
0.656710 0.641758 0.632451
0.792131 0.643466 0.634151
0.927553 0.645175 0.635851
1.000000 0.646192 0.636864
0.040107 0.768904 0.630255
0.120751 0.769922 0.631268
0.256173 0.771630 0.632968
0.391595 0.773339 0.634668
0.527016 0.775047 0.636367
0.662438 0.776756 0.638067
0.797860 0.778464 0.639767
0.961417 0.793106 0.642337
1.000000 0.793775 0.643003
0.045835 0.903902 0.635871
0.126480 0.904919 0.636884
0.261901 0.906628 0.638584
0.397323 0.908336 0.640284
0.532745 0.910045 0.641983
0.668166 0.911753 0.643683
0.803588 0.913462 0.645383
0.939010 0.915170 0.647083
1.000000 0.930123 0.648675
0.049623 0.993180 0.639585
0.130268 0.994197 0.640598
0.265690 0.995906 0.642298
0.401111 0.997614 0.643998
0.536533 0.999323 0.645697
0.671955 1.000000 0.647397
0.807376 1.000000 0.649097
0.942798 1.000000 0.650797
1.000000 1.000000 0.651810
0.008237 0.005189 0.723597
0.088881 0.006207 0.724609
0.224303 0.007915 0.726309
0.359725 0.009624 0.728009
0.495146 0.011332 0.729709
0.630568 0.013040 0.731409
0.765990 0.014749 0.733109
0.901411 0.016457 0.734809
0.982056 0.017475 0.735821
0.012025 0.094467 0.727311
0.092669 0.095484 0.728323
0.228091 0.097193 0.730023
0.363513 0.098901 0.731723
0.498935 0.100610 0.733423
0.634356 0.102318 0.735123
0.769778 0.104027 0.736823
0.905200 0.105735 0.738523
0.985844 0.106753 0.739535
0.017753 0.229465 0.732927
0.098398 0.230482 0.733939
0.233819 0.232191 0.735639
0.369241 0.233899 0.737339
0.504663 0.235607 0.739039
0.640085 0.237316 0.740739
0.775506 0.239024 0.742439
0.910928 0.240733 0.744139
0.991572 0.241750 0.745151
0.023482 0.364462 0.738543
0.104126 0.365480 0.739555
0.239548 0.367188 0.741255
0.374969 0.368897 0.742955
0.510391 0.370605 0.744655
0.645813 0.372314 0.746355
0.781235 0.374022 0.748055
0.916656 0.375731 0.749755
0.997301 0.376748 0.750767
0.029210 0.499460 0.744159
0.109854 0.500478 0.745171
0.245276 0.502186 0.746871
0.380698 0.503895 0.748571
0.516120 0.505603 0.750271
0.651541 0.507312 0.751971
0.786963 0.509020 0.753671
0.922385 0.510728 0.755371
1.000000 0.511746 0.756383
0.034938 0.634458 0.749775
0.115583 0.635475 0.750787
0.251004 0.637184 0.752487
0.386426 0.638892 0.754187
0.521848 0.640601 0.755887
0.657270 0.642309 0.757587
0.792691 0.644018 0.759287
0.928113 0.645726 0.760987
1.000000 0.646744 0.761999
0.040667 0.769456 0.755391
0.121311 0.770473 0.756403
0.256733 0.772182 0.758103
0.392154 0.773890 0.759803
0.527576 0.775599 0.761503
0.662998 0.777307 0.763203
0.798420 0.779016 0.764903
0.933841 0.780724 0.766603
1.000000 0.781741 0.767615
0.046395 0.904454 0.761007
0.127039 0.905471 0.762019
0.262461 0.907179 0.763719
0.397883 0.908888 0.765419
0.533304 0.910596 0.767119
0.668726 0.912305 0.768819
0.804148 0.914013 0.770519
0.939570 0.915722 0.772219
1.000000 0.930675 0.773811
0.050183 0.993731 0.764721
0.130828 0.994749 0.765733
0.266249 0.996457 0.767433
0.401671 0.998166 0.769133
0.537093 0.999874 0.770833
0.672514 1.000000 0.772533
0.807936 1.000000 0.774233
0.943358 1.000000 0.775933
1.000000 1.000000 0.776945
0.008797 0.005741 0.848732
0.089441 0.006758 0.849745
0.224863 0.008467 0.851445
0.360284 0.010175 0.853145
0.495706 0.011884 0.854844
0.631128 0.013592 0.856544
0.766549 0.015300 0.858244
0.901971 0.017009 0.859944
0.982616 0.018026 0.860957
0.012585 0.095018 0.852446
0.093229 0.096036 0.853459
0.228651 0.097744 0.855159
0.364073 0.099453 0.856859
0.499494 0.101161 0.858558
0.634916 0.102870 0.860258
0.770338 0.104578 0.861958
0.905759 0.106287 0.863658
0.986404 0.107304 0.864671
0.018313 0.230016 0.858062
0.098958 0.231034 0.859075
0.234379 0.232742 0.860775
0.369801 0.234451 0.862475
0.505223 0.236159 0.864174
0.640644 0.237867 0.865874
0.776066 0.239576 0.867574
0.911488 0.241284 0.869274
0.992132 0.242302 0.870287
0.024041 0.365014 0.863678
0.104686 0.366031 0.864691
0.240108 0.367740 0.866391
0.375529 0.369448 0.868091
0.510951 0.371157 0.869790
0.646373 0.372865 0.871490
0.781794 0.374574 0.873190
0.917216 0.376282 0.874890
0.997860 0.377300 0.875903
0.029770 0.500012 0.869294
0.110414 0.501029 0.870307
0.245836 0.502738 0.872007
0.381258 0.504446 0.873707
0.516679 0.506155 0.875406
0.652101 0.507863 0.877106
0.787523 0.509571 0.878806
0.922944 0.511280 0.880506
1.000000 0.512297 0.881519
0.035498 0.635010 0.874910
0.116142 0.636027 0.875923
0.251564 0.637735 0.877623
0.386986 0.639444 0.879323
0.522408 0.641152 0.881022
0.657829 0.642861 0.882722
0.793251 0.644569 0.884422
0.928673 0.646278 0.886122
1.000000 0.647295 0.887135
0.041226 0.770007 0.880526
0.121871 0.771025 0.881539
0.257292 0.772733 0.883239
0.392714 0.774442 0.884939
0.528136 0.776150 0.886638
0.663558 0.777859 0.888338
0.798979 0.779567 0.890038
0.934401 0.781276 0.891738
1.000000 0.782293 0.892751
0.046955 0.905005 0.886142
0.127599 0.906023 0.887155
0.263021 0.907731 0.888855
0.398443 0.909439 0.890555
0.533864 0.911148 0.892254
0.669286 0.912856 0.893954
0.804708 0.914565 0.895654
0.940129 0.916273 0.897354
1.000000 0.917291 0.898367
0.050743 0.994283 0.889856
0.131387 0.995300 0.890869
0.266809 0.997009 0.892569
0.402231 0.998717 0.894269
0.537652 1.000000 0.895968
0.673074 1.000000 0.897668
0.808496 1.000000 0.899368
0.943918 1.000000 0.901068
1.000000 1.000000 0.902081
0.009235 0.006172 0.946651
0.089879 0.007190 0.947664
0.225301 0.008898 0.949364
0.360722 0.010607 0.951064
0.496144 0.012315 0.952764
0.631566 0.014024 0.954464
0.766987 0.015732 0.956164
0.902409 0.017440 0.957864
0.983054 0.018458 0.958876
0.013023 0.095450 0.950366
0.093667 0.096467 0.951378
0.229089 0.098176 0.953078
0.364511 0.099884 0.954778
0.499932 0.101593 0.956478
0.635354 0.103301 0.958178
0.770776 0.105010 0.959878
0.906197 0.106718 0.961578
0.986842 0.107736 0.962590
0.018751 0.230448 0.955982
0.099396 0.231465 0.956994
0.234817 0.233174 0.958694
0.370239 0.234882 0.960394
0.505661 0.236591 0.962094
0.641082 0.238299 0.963794
0.776504 0.240008 0.965494
0.911926 0.241716 0.967194
0.992570 0.242733 0.968206
0.024479 0.365446 0.961598
0.105124 0.366463 0.962610
0.240546 0.368171 0.964310
0.375967 0.369880 0.966010
0.511389 0.371588 0.967710
0.646811 0.373297 0.969410
0.782232 0.375005 0.971110
0.917654 0.376714 0.972810
0.998298 0.377731 0.973822
0.030208 0.500443 0.967213
0.110852 0.501461 0.968226
0.246274 0.503169 0.969926
0.381696 0.504878 0.971626
0.517117 0.506586 0.973326
0.652539 0.508295 0.975026
0.787961 0.510003 0.976726
0.923382 0.511712 0.978426
1.000000 0.512729 0.979438
0.035936 0.635441 0.972829
0.116580 0.636459 0.973842
0.252002 0.638167 0.975542
0.387424 0.639875 0.977242
0.522846 0.641584 0.978942
0.658267 0.643292 0.980642
0.793689 0.645001 0.982342
0.929111 0.646709 0.984042
1.000000 0.647727 0.985054
0.041664 0.770439 0.978445
0.122309 0.771456 0.979458
0.257730 0.773165 0.981158
0.393152 0.774873 0.982858
0.528574 0.776582 0.984558
0.663996 0.778290 0.986258
0.799417 0.779999 0.987958
0.934839 0.781707 0.989658
1.000000 0.782725 0.990670
0.047393 0.905437 0.984061
0.128037 0.906454 0.985074
0.263459 0.908163 0.986774
0.398881 0.909871 0.988474
0.534302 0.911579 0.990174
0.669724 0.913288 0.991874
0.805146 0.914996 0.993574
0.940567 0.916705 0.995274
1.000000 0.917722 0.996286
0.051181 0.994714 0.987776
0.131825 0.995732 0.988788
0.267247 0.997440 0.990488
0.402669 0.999149 0.992188
0.538091 1.000000 0.993888
0.673512 1.000000 0.995588
0.808934 1.000000 0.997288
0.944356 1.000000 0.998988
1.000000 1.000000 1.000000
