library/cube/Brand_Luxe_001.cube
# CINEGRADE LAB — Premium Cinematic LUT
# Title: Brand Luxe
# Category: Commercial Luxury
# Description: Polished, professional, product-ready aesthetic for commercial work
# Mood: Clean, premium, sharp
# Variant: 2
# Generated: 2026-05-21T16:12:41.446890
TITLE "Brand Luxe"
LUT_3D_SIZE 5
0.005000 0.002000 0.000000
0.221066 0.004726 0.002712
0.491909 0.008143 0.006112
0.762753 0.011560 0.009512
0.978819 0.014286 0.012224
0.014517 0.226275 0.009330
0.230583 0.229001 0.012042
0.521207 0.239849 0.015986
0.797468 0.243335 0.019454
0.988640 0.245747 0.021853
0.025973 0.496271 0.020562
0.242039 0.498997 0.023274
0.512883 0.502414 0.026674
0.809039 0.516030 0.030798
1.000000 0.518442 0.033198
0.037430 0.766267 0.031794
0.253496 0.768992 0.034506
0.524339 0.772409 0.037906
0.795183 0.775826 0.041306
1.000000 0.778552 0.044018
0.046946 0.990542 0.041124
0.263013 0.993268 0.043836
0.533856 0.996685 0.047236
0.804699 1.000000 0.050636
1.000000 1.000000 0.053349
0.005998 0.002983 0.223055
0.222064 0.005709 0.225767
0.492907 0.009126 0.229167
0.763751 0.012543 0.232567
0.979817 0.015269 0.235279
0.015514 0.227259 0.232385
0.231580 0.229984 0.235097
0.502424 0.233401 0.238497
0.773267 0.236818 0.241897
0.989333 0.239544 0.244609
0.026971 0.497254 0.243617
0.243037 0.499980 0.246329
0.513880 0.503397 0.249729
0.810037 0.517013 0.253853
1.000000 0.519425 0.256252
0.038428 0.767250 0.254849
0.254494 0.769976 0.257561
0.525337 0.773393 0.260961
0.796181 0.776809 0.264361
1.000000 0.792121 0.267597
0.047944 0.991525 0.264179
0.264010 0.994251 0.266891
0.534854 0.997668 0.270291
0.805697 1.000000 0.273691
1.000000 1.000000 0.276403
0.007117 0.004086 0.473326
0.223183 0.006812 0.476038
0.494027 0.010229 0.479438
0.764870 0.013646 0.482838
0.980936 0.016372 0.485550
0.016634 0.228362 0.482656
0.232700 0.231087 0.485368
0.503543 0.234504 0.488768
0.774387 0.237921 0.492168
0.990453 0.240647 0.494880
0.028091 0.498357 0.493888
0.244157 0.501083 0.496600
0.515000 0.504500 0.500000
0.785843 0.507917 0.503400
1.000000 0.510643 0.506112
0.039547 0.768353 0.505120
0.255613 0.771079 0.507832
0.526457 0.774496 0.511232
0.797300 0.777913 0.514632
1.000000 0.793224 0.517868
0.049064 0.992628 0.514450
0.265130 0.995354 0.517162
0.535973 0.998771 0.520562
0.806817 1.000000 0.523962
1.000000 1.000000 0.526674
0.008237 0.005189 0.723597
0.224303 0.007915 0.726309
0.495146 0.011332 0.729709
0.765990 0.014749 0.733109
0.982056 0.017475 0.735821
0.017753 0.229465 0.732927
0.233819 0.232191 0.735639
0.504663 0.235607 0.739039
0.775506 0.239024 0.742439
0.991572 0.241750 0.745151
0.029210 0.499460 0.744159
0.245276 0.502186 0.746871
0.516120 0.505603 0.750271
0.786963 0.509020 0.753671
1.000000 0.511746 0.756383
0.040667 0.769456 0.755391
0.256733 0.772182 0.758103
0.527576 0.775599 0.761503
0.798420 0.779016 0.764903
1.000000 0.781741 0.767615
0.050183 0.993731 0.764721
0.266249 0.996457 0.767433
0.537093 0.999874 0.770833
0.807936 1.000000 0.774233
1.000000 1.000000 0.776945
0.009235 0.006172 0.946651
0.225301 0.008898 0.949364
0.496144 0.012315 0.952764
0.766987 0.015732 0.956164
0.983054 0.018458 0.958876
0.018751 0.230448 0.955982
0.234817 0.233174 0.958694
0.505661 0.236591 0.962094
0.776504 0.240008 0.965494
0.992570 0.242733 0.968206
0.030208 0.500443 0.967213
0.246274 0.503169 0.969926
0.517117 0.506586 0.973326
0.787961 0.510003 0.976726
1.000000 0.512729 0.979438
0.041664 0.770439 0.978445
0.257730 0.773165 0.981158
0.528574 0.776582 0.984558
0.799417 0.779999 0.987958
1.000000 0.782725 0.990670
0.051181 0.994714 0.987776
0.267247 0.997440 0.990488
0.538091 1.000000 0.993888
0.808934 1.000000 0.997288
1.000000 1.000000 1.000000
