library/cube/Brand_Luxe_001.cube
# CINEGRADE LAB — Premium Cinematic LUT
# Title: Brand Luxe
# Category: Commercial Luxury
# Description: Polished, professional, product-ready aesthetic for commercial work
# Mood: Clean, premium, sharp
# Variant: 2
# Generated: 2026-05-21T16:12:41.446890
TITLE "Brand Luxe"
LUT_3D_SIZE 33
0.005000 0.002000 0.000000
0.005000 0.002000 0.000000
0.017934 0.002163 0.000162
0.051789 0.002590 0.000587
0.085644 0.003017 0.001012
0.119500 0.003445 0.001437
0.153355 0.003872 0.001862
0.187211 0.004299 0.002287
0.221066 0.004726 0.002712
0.254922 0.005153 0.003137
0.288777 0.005580 0.003562
0.322632 0.006007 0.003987
0.356488 0.006434 0.004412
0.390343 0.006861 0.004837
0.424199 0.007289 0.005262
0.458054 0.007716 0.005687
0.491909 0.008143 0.006112
0.525765 0.008570 0.006537
0.559620 0.008997 0.006962
0.593476 0.009424 0.007387
0.627331 0.009851 0.007812
0.661187 0.010278 0.008237
0.695042 0.010706 0.008662
0.728897 0.011133 0.009087
0.762753 0.011560 0.009512
0.796608 0.011987 0.009937
0.830464 0.012414 0.010362
0.864319 0.012841 0.010787
0.898175 0.013268 0.011212
0.932030 0.013695 0.011637
0.965885 0.014122 0.012062
0.978819 0.014286 0.012224
0.978819 0.014286 0.012224
0.005000 0.002000 0.000000
0.005000 0.002000 0.000000
0.028140 0.007232 0.000493
0.062673 0.007668 0.000927
0.097205 0.008103 0.001360
0.131738 0.008539 0.001794
0.153355 0.003872 0.001862
0.187211 0.004299 0.002287
0.221066 0.004726 0.002712
0.254922 0.005153 0.003137
0.288777 0.005580 0.003562
0.322632 0.006007 0.003987
0.356488 0.006434 0.004412
0.390343 0.006861 0.004837
0.424199 0.007289 0.005262
0.458054 0.007716 0.005687
0.491909 0.008143 0.006112
0.525765 0.008570 0.006537
0.559620 0.008997 0.006962
0.593476 0.009424 0.007387
0.627331 0.009851 0.007812
0.661187 0.010278 0.008237
0.695042 0.010706 0.008662
0.728897 0.011133 0.009087
0.762753 0.011560 0.009512
0.796608 0.011987 0.009937
0.830464 0.012414 0.010362
0.864319 0.012841 0.010787
0.898175 0.013268 0.011212
0.932030 0.013695 0.011637
0.965885 0.014122 0.012062
0.978819 0.014286 0.012224
0.978819 0.014286 0.012224
0.005924 0.023779 0.000906
0.005924 0.023779 0.000906
0.018858 0.023942 0.001068
0.063606 0.029664 0.001842
0.098139 0.030100 0.002276
0.132671 0.030536 0.002709
0.167204 0.030971 0.003143
0.201736 0.031407 0.003576
0.236269 0.031843 0.004009
0.270801 0.032278 0.004443
0.305334 0.032714 0.004876
0.339866 0.033150 0.005310
0.357412 0.028213 0.005318
0.391267 0.028640 0.005743
0.425123 0.029067 0.006168
0.458978 0.029495 0.006593
0.492834 0.029922 0.007018
0.526689 0.030349 0.007443
0.560544 0.030776 0.007868
0.594400 0.031203 0.008293
0.628255 0.031630 0.008718
0.662111 0.032057 0.009143
0.695966 0.032484 0.009568
0.729822 0.032911 0.009993
0.763677 0.033339 0.010418
0.797532 0.033766 0.010843
0.831388 0.034193 0.011268
0.865243 0.034620 0.011693
0.899099 0.035047 0.012118
0.932954 0.035474 0.012543
0.966810 0.035901 0.012968
0.979743 0.036064 0.013131
0.979743 0.036064 0.013131
0.007356 0.057528 0.002310
0.007356 0.057528 0.002310
0.020290 0.057691 0.002472
0.054145 0.058119 0.002897
0.088001 0.058546 0.003322
0.134118 0.064623 0.004127
0.168650 0.065058 0.004561
0.203183 0.065494 0.004994
0.237715 0.065930 0.005428
0.272248 0.066365 0.005861
0.306780 0.066801 0.006295
0.341313 0.067236 0.006728
0.375845 0.067672 0.007162
0.410378 0.068108 0.007595
0.444910 0.068543 0.008028
0.479443 0.068979 0.008462
0.513975 0.069415 0.008895
0.528121 0.064098 0.008847
0.561977 0.064525 0.009272
0.595832 0.064952 0.009697
0.629687 0.065380 0.010122
0.663543 0.065807 0.010547
0.697398 0.066234 0.010972
0.731254 0.066661 0.011397
0.765109 0.067088 0.011822
0.798965 0.067515 0.012247
0.832820 0.067942 0.012672
0.866675 0.068369 0.013097
0.900531 0.068796 0.013522
0.934386 0.069224 0.013947
0.968242 0.069651 0.014372
0.981175 0.069814 0.014535
0.981175 0.069814 0.014535
0.008788 0.091278 0.003714
0.008788 0.091278 0.003714
0.021722 0.091441 0.003876
0.055577 0.091868 0.004301
0.089433 0.092295 0.004726
0.123288 0.092722 0.005151
0.170096 0.099145 0.005979
0.204629 0.099581 0.006412
0.239162 0.100016 0.006846
0.273694 0.100452 0.007279
0.308227 0.100888 0.007713
0.342759 0.101323 0.008146
0.377292 0.101759 0.008580
0.411824 0.102195 0.009013
0.446357 0.102630 0.009447
0.480889 0.103066 0.009880
0.515422 0.103502 0.010314
0.549954 0.103937 0.010747
0.584487 0.104373 0.011180
0.619019 0.104809 0.011614
0.653552 0.105244 0.012047
0.688084 0.105680 0.012481
0.722617 0.106116 0.012914
0.732686 0.100410 0.012801
0.766541 0.100837 0.013226
0.800397 0.101265 0.013651
0.834252 0.101692 0.014076
0.868107 0.102119 0.014501
0.901963 0.102546 0.014926
0.935818 0.102973 0.015351
0.969674 0.103400 0.015776
0.982607 0.103563 0.015939
0.982607 0.103563 0.015939
0.010220 0.125027 0.005118
0.010220 0.125027 0.005118
0.023154 0.125190 0.005280
0.057009 0.125617 0.005705
0.090865 0.126045 0.006130
0.124720 0.126472 0.006555
0.158576 0.126899 0.006980
0.206075 0.133668 0.007830
0.240608 0.134103 0.008264
0.275140 0.134539 0.008697
0.309673 0.134975 0.009131
0.344206 0.135410 0.009564
0.378738 0.135846 0.009998
0.413271 0.136282 0.010431
0.447803 0.136717 0.010865
0.482336 0.137153 0.011298
0.516868 0.137589 0.011732
0.551401 0.138024 0.012165
0.585933 0.138460 0.012599
0.620466 0.138896 0.013032
0.654998 0.139331 0.013466
0.689531 0.139767 0.013899
0.724063 0.140203 0.014333
0.758596 0.140638 0.014766
0.793128 0.141074 0.015199
0.827661 0.141510 0.015633
0.862194 0.141945 0.016066
0.896726 0.142381 0.016500
0.903395 0.136295 0.016330
0.937250 0.136722 0.016755
0.971106 0.137150 0.017180
0.984039 0.137313 0.017343
0.984039 0.137313 0.017343
0.011652 0.158777 0.006522
0.011652 0.158777 0.006522
0.024586 0.158940 0.006684
0.058441 0.159367 0.007109
0.092297 0.159794 0.007534
0.126152 0.160221 0.007959
0.160008 0.160648 0.008384
0.193863 0.161075 0.008809
0.227719 0.161502 0.009234
0.276587 0.168626 0.010115
0.311119 0.169062 0.010549
0.345652 0.169497 0.010982
0.380184 0.169933 0.011416
0.414717 0.170369 0.011849
0.449250 0.170804 0.012283
0.483782 0.171240 0.012716
0.518315 0.171676 0.013150
0.552847 0.172111 0.013583
0.587380 0.172547 0.014017
0.621912 0.172983 0.014450
0.656445 0.173418 0.014884
0.690977 0.173854 0.015317
0.725510 0.174290 0.015751
0.760042 0.174725 0.016184
0.794575 0.175161 0.016618
0.829107 0.175597 0.017051
0.863640 0.176032 0.017485
0.898172 0.176468 0.017918
0.932705 0.176904 0.018351
0.967238 0.177339 0.018785
0.985748 0.177573 0.019017
0.985748 0.177573 0.019017
0.985748 0.177573 0.019017
0.013085 0.192526 0.007926
0.013085 0.192526 0.007926
0.026018 0.192689 0.008088
0.059873 0.193116 0.008513
0.093729 0.193543 0.008938
0.127584 0.193971 0.009363
0.161440 0.194398 0.009788
0.195295 0.194825 0.010213
0.229151 0.195252 0.010638
0.263006 0.195679 0.011063
0.312566 0.203149 0.011967
0.347098 0.203584 0.012400
0.381631 0.204020 0.012834
0.416163 0.204456 0.013267
0.450696 0.204891 0.013701
0.485228 0.205327 0.014134
0.519761 0.205763 0.014568
0.554294 0.206198 0.015001
0.588826 0.206634 0.015435
0.623359 0.207070 0.015868
0.657891 0.207505 0.016302
0.692424 0.207941 0.016735
0.726956 0.208377 0.017169
0.761489 0.208812 0.017602
0.796021 0.209248 0.018036
0.830554 0.209683 0.018469
0.865086 0.210119 0.018903
0.899619 0.210555 0.019336
0.934151 0.210990 0.019770
0.968684 0.211426 0.020203
0.987194 0.211660 0.020435
0.987194 0.211660 0.020435
0.987194 0.211660 0.020435
0.014517 0.226275 0.009330
0.014517 0.226275 0.009330
0.027450 0.226439 0.009492
0.061306 0.226866 0.009917
0.095161 0.227293 0.010342
0.129016 0.227720 0.010767
0.162872 0.228147 0.011192
0.196727 0.228574 0.011617
0.230583 0.229001 0.012042
0.264438 0.229428 0.012467
0.298294 0.229856 0.012892
0.332149 0.230283 0.013317
0.383077 0.238107 0.014252
0.417610 0.238543 0.014685
0.452142 0.238978 0.015119
0.486675 0.239414 0.015552
0.521207 0.239849 0.015986
0.555740 0.240285 0.016419
0.590272 0.240721 0.016853
0.624805 0.241156 0.017286
0.659338 0.241592 0.017720
0.693870 0.242028 0.018153
0.728403 0.242463 0.018587
0.762935 0.242899 0.019020
0.797468 0.243335 0.019454
0.832000 0.243770 0.019887
0.866533 0.244206 0.020321
0.901065 0.244642 0.020754
0.935598 0.245077 0.021188
0.970130 0.245513 0.021621
0.988640 0.245747 0.021853
0.988640 0.245747 0.021853
0.988640 0.245747 0.021853
0.015949 0.260025 0.010734
0.015949 0.260025 0.010734
0.028882 0.260188 0.010896
0.062738 0.260615 0.011321
0.096593 0.261042 0.011746
0.130448 0.261469 0.012171
0.164304 0.261897 0.012596
0.198159 0.262324 0.013021
0.232015 0.262751 0.013446
0.265870 0.263178 0.013871
0.299726 0.263605 0.014296
0.333581 0.264032 0.014721
0.367436 0.264459 0.015146
0.419056 0.272629 0.016103
0.453589 0.273065 0.016537
0.488121 0.273501 0.016970
0.522654 0.273936 0.017404
0.557186 0.274372 0.017837
0.591719 0.274808 0.018271
0.626251 0.275243 0.018704
0.660784 0.275679 0.019138
0.695316 0.276115 0.019571
0.729849 0.276550 0.020005
0.764382 0.276986 0.020438
0.798914 0.277422 0.020872
0.833447 0.277857 0.021305
0.867979 0.278293 0.021739
0.902512 0.278729 0.022172
0.937044 0.279164 0.022606
0.971577 0.279600 0.023039
0.990087 0.279834 0.023271
0.990087 0.279834 0.023271
0.990087 0.279834 0.023271
0.017381 0.293774 0.012138
0.017381 0.293774 0.012138
0.030314 0.293938 0.012300
0.064170 0.294365 0.012725
0.098025 0.294792 0.013150
0.131881 0.295219 0.013575
0.165736 0.295646 0.014000
0.199591 0.296073 0.014425
0.233447 0.296500 0.014850
0.267302 0.296927 0.015275
0.301158 0.297354 0.015700
0.335013 0.297782 0.016125
0.368869 0.298209 0.016550
0.402724 0.298636 0.016975
0.455035 0.307152 0.017955
0.489568 0.307588 0.018388
0.524100 0.308023 0.018822
0.558633 0.308459 0.019255
0.593165 0.308895 0.019689
0.627698 0.309330 0.020122
0.662230 0.309766 0.020556
0.696763 0.310202 0.020989
0.731295 0.310637 0.021423
0.765828 0.311073 0.021856
0.800360 0.311509 0.022290
0.834893 0.311944 0.022723
0.869426 0.312380 0.023157
0.903958 0.312816 0.023590
0.938491 0.313251 0.024024
0.973023 0.313687 0.024457
0.991533 0.313920 0.024690
0.991533 0.313920 0.024690
0.991533 0.313920 0.024690
0.018813 0.327524 0.013542
0.018813 0.327524 0.013542
0.031746 0.327687 0.013704
0.065602 0.328114 0.014129
0.099457 0.328541 0.014554
0.133313 0.328968 0.014979
0.167168 0.329395 0.015404
0.201024 0.329823 0.015829
0.234879 0.330250 0.016254
0.268734 0.330677 0.016679
0.302590 0.331104 0.017104
0.336445 0.331531 0.017529
0.370301 0.331958 0.017954
0.404156 0.332385 0.018379
0.438011 0.332812 0.018804
0.471867 0.333240 0.019229
0.525547 0.342110 0.020240
0.560079 0.342546 0.020673
0.594612 0.342982 0.021107
0.629144 0.343417 0.021540
0.663677 0.343853 0.021974
0.698209 0.344289 0.022407
0.732742 0.344724 0.022841
0.767274 0.345160 0.023274
0.801807 0.345596 0.023708
0.836339 0.346031 0.024141
0.870872 0.346467 0.024575
0.905404 0.346903 0.025008
0.939937 0.347338 0.025442
0.974470 0.347774 0.025875
0.992980 0.348007 0.026108
0.992980 0.348007 0.026108
0.992980 0.348007 0.026108
0.020245 0.361273 0.014946
0.020245 0.361273 0.014946
0.033178 0.361436 0.015108
0.067034 0.361864 0.015533
0.100889 0.362291 0.015958
0.134745 0.362718 0.016383
0.168600 0.363145 0.016808
0.202456 0.363572 0.017233
0.236311 0.363999 0.017658
0.270166 0.364426 0.018083
0.304022 0.364853 0.018508
0.337877 0.365281 0.018933
0.371733 0.365708 0.019358
0.405588 0.366135 0.019783
0.439444 0.366562 0.020208
0.473299 0.366989 0.020633
0.507154 0.367416 0.021058
0.561526 0.376633 0.022091
0.596058 0.377069 0.022525
0.630591 0.377504 0.022958
0.665123 0.377940 0.023392
0.699656 0.378376 0.023825
0.734188 0.378811 0.024259
0.768721 0.379247 0.024692
0.803253 0.379683 0.025126
0.837786 0.380118 0.025559
0.872318 0.380554 0.025993
0.906851 0.380990 0.026426
0.941383 0.381425 0.026860
0.975916 0.381861 0.027293
0.994426 0.382094 0.027526
0.994426 0.382094 0.027526
0.994426 0.382094 0.027526
0.021677 0.395023 0.016350
0.021677 0.395023 0.016350
0.034611 0.395186 0.016512
0.068466 0.395613 0.016937
0.102321 0.396040 0.017362
0.136177 0.396467 0.017787
0.170032 0.396894 0.018212
0.203888 0.397321 0.018637
0.237743 0.397749 0.019062
0.271599 0.398176 0.019487
0.305454 0.398603 0.019912
0.339309 0.399030 0.020337
0.373165 0.399457 0.020762
0.407020 0.399884 0.021187
0.440876 0.400311 0.021612
0.474731 0.400738 0.022037
0.508586 0.401166 0.022462
0.542442 0.401593 0.022887
0.576297 0.402020 0.023312
0.632037 0.411591 0.024376
0.666570 0.412027 0.024810
0.701102 0.412462 0.025243
0.735635 0.412898 0.025677
0.770167 0.413334 0.026110
0.804700 0.413769 0.026544
0.839232 0.414205 0.026977
0.873765 0.414641 0.027411
0.908297 0.415076 0.027844
0.942830 0.415512 0.028278
0.977362 0.415948 0.028711
0.995872 0.416181 0.028944
0.995872 0.416181 0.028944
0.995872 0.416181 0.028944
0.023109 0.428772 0.017754
0.023109 0.428772 0.017754
0.036043 0.428935 0.017916
0.069898 0.429362 0.018341
0.103753 0.429790 0.018766
0.137609 0.430217 0.019191
0.171464 0.430644 0.019616
0.205320 0.431071 0.020041
0.239175 0.431498 0.020466
0.273031 0.431925 0.020891
0.306886 0.432352 0.021316
0.340741 0.432779 0.021741
0.374597 0.433207 0.022166
0.408452 0.433634 0.022591
0.442308 0.434061 0.023016
0.476163 0.434488 0.023441
0.510019 0.434915 0.023866
0.543874 0.435342 0.024291
0.577729 0.435769 0.024716
0.611585 0.436196 0.025141
0.668016 0.446114 0.026228
0.702548 0.446549 0.026661
0.737081 0.446985 0.027095
0.771614 0.447421 0.027528
0.806146 0.447856 0.027962
0.840679 0.448292 0.028395
0.875211 0.448728 0.028829
0.909744 0.449163 0.029262
0.944276 0.449599 0.029696
0.978809 0.450035 0.030129
0.997319 0.450268 0.030362
0.997319 0.450268 0.030362
0.997319 0.450268 0.030362
0.024541 0.462522 0.019158
0.024541 0.462522 0.019158
0.037475 0.462685 0.019320
0.071330 0.463112 0.019745
0.105186 0.463539 0.020170
0.139041 0.463966 0.020595
0.172896 0.464393 0.021020
0.206752 0.464820 0.021445
0.240607 0.465247 0.021870
0.274463 0.465675 0.022295
0.308318 0.466102 0.022720
0.342174 0.466529 0.023145
0.376029 0.466956 0.023570
0.409884 0.467383 0.023995
0.443740 0.467810 0.024420
0.477595 0.468237 0.024845
0.511451 0.468664 0.025270
0.545306 0.469092 0.025695
0.579162 0.469519 0.026120
0.613017 0.469946 0.026545
0.646872 0.470373 0.026970
0.703995 0.480636 0.028079
0.738527 0.481072 0.028513
0.773060 0.481508 0.028946
0.807592 0.481943 0.029380
0.842125 0.482379 0.029813
0.876658 0.482815 0.030247
0.911190 0.483250 0.030680
0.945723 0.483686 0.031114
0.980255 0.484122 0.031547
0.998765 0.484355 0.031780
0.998765 0.484355 0.031780
0.998765 0.484355 0.031780
0.025973 0.496271 0.020562
0.025973 0.496271 0.020562
0.038907 0.496434 0.020724
0.072762 0.496861 0.021149
0.106618 0.497288 0.021574
0.140473 0.497716 0.021999
0.174328 0.498143 0.022424
0.208184 0.498570 0.022849
0.242039 0.498997 0.023274
0.275895 0.499424 0.023699
0.309750 0.499851 0.024124
0.343606 0.500278 0.024549
0.377461 0.500705 0.024974
0.411316 0.501133 0.025399
0.445172 0.501560 0.025824
0.479027 0.501987 0.026249
0.512883 0.502414 0.026674
0.546738 0.502841 0.027099
0.580594 0.503268 0.027524
0.614449 0.503695 0.027949
0.648304 0.504122 0.028374
0.682160 0.504549 0.028799
0.716015 0.504977 0.029224
0.774506 0.515595 0.030364
0.809039 0.516030 0.030798
0.843571 0.516466 0.031231
0.878104 0.516902 0.031665
0.912636 0.517337 0.032098
0.947169 0.517773 0.032532
0.981702 0.518209 0.032965
1.000000 0.518442 0.033198
1.000000 0.518442 0.033198
1.000000 0.518442 0.033198
0.027405 0.530021 0.021966
0.027405 0.530021 0.021966
0.040339 0.530184 0.022128
0.074194 0.530611 0.022553
0.108050 0.531038 0.022978
0.141905 0.531465 0.023403
0.175761 0.531892 0.023828
0.209616 0.532319 0.024253
0.243471 0.532746 0.024678
0.277327 0.533173 0.025103
0.311182 0.533601 0.025528
0.345038 0.534028 0.025953
0.378893 0.534455 0.026378
0.412749 0.534882 0.026803
0.446604 0.535309 0.027228
0.480459 0.535736 0.027653
0.514315 0.536163 0.028078
0.548170 0.536590 0.028503
0.582026 0.537018 0.028928
0.615881 0.537445 0.029353
0.649737 0.537872 0.029778
0.683592 0.538299 0.030203
0.717447 0.538726 0.030628
0.751303 0.539153 0.031053
0.810485 0.550117 0.032216
0.845018 0.550553 0.032649
0.879550 0.550989 0.033083
0.914083 0.551424 0.033516
0.948615 0.551860 0.033950
0.983148 0.552296 0.034383
1.000000 0.552529 0.034616
1.000000 0.552529 0.034616
1.000000 0.552529 0.034616
0.028837 0.563770 0.023370
0.028837 0.563770 0.023370
0.041771 0.563933 0.023532
0.075626 0.564360 0.023957
0.109482 0.564787 0.024382
0.143337 0.565214 0.024807
0.177193 0.565642 0.025232
0.211048 0.566069 0.025657
0.244903 0.566496 0.026082
0.278759 0.566923 0.026507
0.312614 0.567350 0.026932
0.346470 0.567777 0.027357
0.380325 0.568204 0.027782
0.414181 0.568631 0.028207
0.448036 0.569059 0.028632
0.481891 0.569486 0.029057
0.515747 0.569913 0.029482
0.549602 0.570340 0.029907
0.583458 0.570767 0.030332
0.617313 0.571194 0.030757
0.651169 0.571621 0.031182
0.685024 0.572048 0.031607
0.718879 0.572475 0.032032
0.752735 0.572903 0.032457
0.786590 0.573330 0.032882
0.846464 0.584640 0.034067
0.880997 0.585075 0.034501
0.915529 0.585511 0.034934
0.950062 0.585947 0.035368
0.984594 0.586382 0.035801
1.000000 0.586616 0.036034
1.000000 0.586616 0.036034
1.000000 0.586616 0.036034
0.030269 0.597519 0.024774
0.030269 0.597519 0.024774
0.043203 0.597683 0.024936
0.077058 0.598110 0.025361
0.110914 0.598537 0.025786
0.144769 0.598964 0.026211
0.178625 0.599391 0.026636
0.212480 0.599818 0.027061
0.246336 0.600245 0.027486
0.280191 0.600672 0.027911
0.314046 0.601100 0.028336
0.347902 0.601527 0.028761
0.381757 0.601954 0.029186
0.415613 0.602381 0.029611
0.449468 0.602808 0.030036
0.483324 0.603235 0.030461
0.517179 0.603662 0.030886
0.551034 0.604089 0.031311
0.584890 0.604516 0.031736
0.618745 0.604944 0.032161
0.652601 0.605371 0.032586
0.686456 0.605798 0.033011
0.720312 0.606225 0.033436
0.754167 0.606652 0.033861
0.788022 0.607079 0.034286
0.821878 0.607506 0.034711
0.855733 0.607933 0.035136
0.916976 0.619598 0.036353
0.951508 0.620034 0.036786
0.986041 0.620469 0.037219
1.000000 0.620703 0.037452
1.000000 0.620703 0.037452
1.000000 0.620703 0.037452
0.031702 0.631269 0.026178
0.031702 0.631269 0.026178
0.044635 0.631432 0.026340
0.078491 0.631859 0.026765
0.112346 0.632286 0.027190
0.146201 0.632713 0.027615
0.180057 0.633140 0.028040
0.213912 0.633568 0.028465
0.247768 0.633995 0.028890
0.281623 0.634422 0.029315
0.315478 0.634849 0.029740
0.349334 0.635276 0.030165
0.383189 0.635703 0.030590
0.417045 0.636130 0.031015
0.450900 0.636557 0.031440
0.484756 0.636985 0.031865
0.518611 0.637412 0.032290
0.552466 0.637839 0.032715
0.586322 0.638266 0.033140
0.620177 0.638693 0.033565
0.654033 0.639120 0.033990
0.687888 0.639547 0.034415
0.721744 0.639974 0.034840
0.755599 0.640401 0.035265
0.789454 0.640829 0.035690
0.823310 0.641256 0.036115
0.857165 0.641683 0.036540
0.891021 0.642110 0.036965
0.952955 0.654121 0.038204
0.987487 0.654556 0.038638
1.000000 0.654790 0.038870
1.000000 0.654790 0.038870
1.000000 0.654790 0.038870
0.033134 0.665018 0.027582
0.033134 0.665018 0.027582
0.046067 0.665181 0.027744
0.079923 0.665609 0.028169
0.113778 0.666036 0.028594
0.147633 0.666463 0.029019
0.181489 0.666890 0.029444
0.215344 0.667317 0.029869
0.249200 0.667744 0.030294
0.283055 0.668171 0.030719
0.316911 0.668598 0.031144
0.350766 0.669026 0.031569
0.384621 0.669453 0.031994
0.418477 0.669880 0.032419
0.452332 0.670307 0.032844
0.486188 0.670734 0.033269
0.520043 0.671161 0.033694
0.553899 0.671588 0.034119
0.587754 0.672015 0.034544
0.621609 0.672442 0.034969
0.655465 0.672870 0.035394
0.689320 0.673297 0.035819
0.723176 0.673724 0.036244
0.757031 0.674151 0.036669
0.790887 0.674578 0.037094
0.824742 0.675005 0.037519
0.858597 0.675432 0.037944
0.892453 0.675859 0.038369
0.926308 0.676287 0.038794
0.960164 0.676714 0.039219
1.000000 0.688877 0.040288
1.000000 0.688877 0.040288
1.000000 0.688877 0.040288
0.034566 0.698768 0.028986
0.034566 0.698768 0.028986
0.047499 0.698931 0.029148
0.081355 0.699358 0.029573
0.115210 0.699785 0.029998
0.149066 0.700212 0.030423
0.182921 0.700639 0.030848
0.216776 0.701066 0.031273
0.250632 0.701494 0.031698
0.284487 0.701921 0.032123
0.318343 0.702348 0.032548
0.352198 0.702775 0.032973
0.386054 0.703202 0.033398
0.419909 0.703629 0.033823
0.453764 0.704056 0.034248
0.487620 0.704483 0.034673
0.521475 0.704911 0.035098
0.555331 0.705338 0.035523
0.589186 0.705765 0.035948
0.623041 0.706192 0.036373
0.656897 0.706619 0.036798
0.690752 0.707046 0.037223
0.724608 0.707473 0.037648
0.758463 0.707900 0.038073
0.792319 0.708327 0.038498
0.826174 0.708755 0.038923
0.860029 0.709182 0.039348
0.893885 0.709609 0.039773
0.927740 0.710036 0.040198
0.961596 0.710463 0.040623
0.995451 0.710890 0.041048
1.000000 0.722964 0.041706
1.000000 0.722964 0.041706
0.035998 0.732517 0.030390
0.035998 0.732517 0.030390
0.048931 0.732680 0.030552
0.082787 0.733107 0.030977
0.116642 0.733535 0.031402
0.150498 0.733962 0.031827
0.184353 0.734389 0.032252
0.218208 0.734816 0.032677
0.252064 0.735243 0.033102
0.285919 0.735670 0.033527
0.319775 0.736097 0.033952
0.353630 0.736524 0.034377
0.387486 0.736952 0.034802
0.421341 0.737379 0.035227
0.455196 0.737806 0.035652
0.489052 0.738233 0.036077
0.522907 0.738660 0.036502
0.556763 0.739087 0.036927
0.590618 0.739514 0.037352
0.624474 0.739941 0.037777
0.658329 0.740368 0.038202
0.692184 0.740796 0.038627
0.726040 0.741223 0.039052
0.759895 0.741650 0.039477
0.793751 0.742077 0.039902
0.827606 0.742504 0.040327
0.861462 0.742931 0.040752
0.895317 0.743358 0.041177
0.929172 0.743785 0.041602
0.963028 0.744213 0.042027
0.996883 0.744640 0.042452
1.000000 0.744803 0.042614
1.000000 0.757051 0.043124
0.037430 0.766267 0.031794
0.037430 0.766267 0.031794
0.050363 0.766430 0.031956
0.084219 0.766857 0.032381
0.118074 0.767284 0.032806
0.151930 0.767711 0.033231
0.185785 0.768138 0.033656
0.219641 0.768565 0.034081
0.253496 0.768992 0.034506
0.287351 0.769420 0.034931
0.321207 0.769847 0.035356
0.355062 0.770274 0.035781
0.388918 0.770701 0.036206
0.422773 0.771128 0.036631
0.456629 0.771555 0.037056
0.490484 0.771982 0.037481
0.524339 0.772409 0.037906
0.558195 0.772837 0.038331
0.592050 0.773264 0.038756
0.625906 0.773691 0.039181
0.659761 0.774118 0.039606
0.693616 0.774545 0.040031
0.727472 0.774972 0.040456
0.761327 0.775399 0.040881
0.795183 0.775826 0.041306
0.829038 0.776253 0.041731
0.862894 0.776681 0.042156
0.896749 0.777108 0.042581
0.930604 0.777535 0.043006
0.964460 0.777962 0.043431
0.998315 0.778389 0.043856
1.000000 0.778552 0.044018
1.000000 0.778552 0.044018
0.038862 0.800016 0.033198
0.038862 0.800016 0.033198
0.051795 0.800179 0.033360
0.085651 0.800606 0.033785
0.119506 0.801033 0.034210
0.153362 0.801461 0.034635
0.187217 0.801888 0.035060
0.221073 0.802315 0.035485
0.254928 0.802742 0.035910
0.288783 0.803169 0.036335
0.322639 0.803596 0.036760
0.356494 0.804023 0.037185
0.390350 0.804450 0.037610
0.424205 0.804878 0.038035
0.458061 0.805305 0.038460
0.491916 0.805732 0.038885
0.525771 0.806159 0.039310
0.559627 0.806586 0.039735
0.593482 0.807013 0.040160
0.627338 0.807440 0.040585
0.661193 0.807867 0.041010
0.695049 0.808294 0.041435
0.728904 0.808722 0.041860
0.762759 0.809149 0.042285
0.796615 0.809576 0.042710
0.830470 0.810003 0.043135
0.864326 0.810430 0.043560
0.898181 0.810857 0.043985
0.932037 0.811284 0.044410
0.965892 0.811711 0.044835
0.999747 0.812139 0.045260
1.000000 0.812302 0.045422
1.000000 0.812302 0.045422
0.040294 0.833766 0.034602
0.040294 0.833766 0.034602
0.053228 0.833929 0.034764
0.087083 0.834356 0.035189
0.120938 0.834783 0.035614
0.154794 0.835210 0.036039
0.188649 0.835637 0.036464
0.222505 0.836064 0.036889
0.256360 0.836491 0.037314
0.290216 0.836919 0.037739
0.324071 0.837346 0.038164
0.357926 0.837773 0.038589
0.391782 0.838200 0.039014
0.425637 0.838627 0.039439
0.459493 0.839054 0.039864
0.493348 0.839481 0.040289
0.527204 0.839908 0.040714
0.561059 0.840335 0.041139
0.594914 0.840763 0.041564
0.628770 0.841190 0.041989
