library/cube/Bright_Start_000.cube
# CINEGRADE LAB — Premium Cinematic LUT
# Title: Bright Start
# Category: Clean Creator Economy
# Description: Bright, clean, approachable, modern aesthetic for content creators
# Mood: Fresh, bright, friendly
# Variant: 1
# Generated: 2026-05-21T16:12:37.455713
TITLE "Bright Start"
LUT_3D_SIZE 9
0.120163 0.122922 0.151547
0.211508 0.125496 0.154121
0.308814 0.128237 0.156862
0.409902 0.131086 0.159711
0.513804 0.134013 0.162638
0.619965 0.137004 0.165629
0.728019 0.140048 0.168673
0.837708 0.143139 0.171764
0.917389 0.145384 0.174009
0.129018 0.222565 0.160402
0.220362 0.225139 0.162975
0.317669 0.227880 0.165717
0.418756 0.230728 0.168565
0.522658 0.233656 0.171492
0.628819 0.236647 0.174483
0.736873 0.239691 0.177528
0.846562 0.242781 0.180618
0.926244 0.245026 0.182863
0.138332 0.327382 0.169716
0.229676 0.329955 0.172289
0.326983 0.332697 0.175031
0.428070 0.335545 0.177879
0.531972 0.338472 0.180806
0.638133 0.341463 0.183797
0.746187 0.344508 0.186842
0.855876 0.347598 0.189932
0.935558 0.349843 0.192177
0.147934 0.435445 0.179318
0.239279 0.438018 0.181892
0.336585 0.440760 0.184634
0.437673 0.443608 0.187482
0.541575 0.446535 0.190409
0.647736 0.449526 0.193400
0.755790 0.452571 0.196444
0.865479 0.455661 0.199535
0.945160 0.457906 0.201780
0.157750 0.545909 0.189134
0.249095 0.548482 0.191708
0.346401 0.551224 0.194449
0.447489 0.554072 0.197297
0.551391 0.556999 0.200225
0.657552 0.559990 0.203216
0.765606 0.563035 0.206260
0.875295 0.566125 0.209351
0.954976 0.568370 0.211596
0.167737 0.658290 0.199121
0.259081 0.660863 0.201694
0.356388 0.663605 0.204436
0.457475 0.666453 0.207284
0.561377 0.669380 0.210211
0.667538 0.672371 0.213202
0.775592 0.675416 0.216246
0.885281 0.678506 0.219337
0.964963 0.680751 0.221582
0.177865 0.772272 0.209249
0.269210 0.774845 0.211823
0.366516 0.777587 0.214564
0.467603 0.780435 0.217412
0.571506 0.783362 0.220340
0.677666 0.786353 0.223331
0.785721 0.789397 0.226375
0.895410 0.792488 0.229465
0.975091 0.794733 0.231710
0.188116 0.887631 0.219500
0.279460 0.890204 0.222074
0.376767 0.892946 0.224815
0.477854 0.895794 0.227663
0.581757 0.898721 0.230591
0.687917 0.901712 0.233582
0.795972 0.904757 0.236626
0.905660 0.907847 0.239716
0.985342 0.910092 0.241961
0.195455 0.970220 0.226839
0.286799 0.972793 0.229413
0.384106 0.975535 0.232154
0.485193 0.978383 0.235002
0.589095 0.981310 0.237930
0.695256 0.984301 0.240921
0.803311 0.987346 0.243965
0.912999 0.990436 0.247055
0.992681 0.992681 0.249300
0.121029 0.123788 0.240320
0.212373 0.126361 0.242894
0.309680 0.129103 0.245636
0.410767 0.131951 0.248484
0.514669 0.134878 0.251411
0.620830 0.137869 0.254402
0.728884 0.140914 0.257446
0.838573 0.144004 0.260537
0.918255 0.146249 0.262782
0.129883 0.223431 0.249175
0.221228 0.226004 0.251748
0.318534 0.228746 0.254490
0.419621 0.231594 0.257338
0.523524 0.234521 0.260265
0.629684 0.237512 0.263256
0.737739 0.240556 0.266301
0.847428 0.243647 0.269391
0.927109 0.245892 0.271636
0.139197 0.328247 0.258489
0.230542 0.330821 0.261062
0.327848 0.333562 0.263804
0.428936 0.336410 0.266652
0.532838 0.339338 0.269579
0.638999 0.342329 0.272570
0.747053 0.345373 0.275615
0.856742 0.348463 0.278705
0.936423 0.350708 0.280950
0.148800 0.436310 0.268091
0.240144 0.438884 0.270665
0.337451 0.441625 0.273407
0.438538 0.444473 0.276255
0.542440 0.447401 0.279182
0.648601 0.450392 0.282173
0.756655 0.453436 0.285217
0.866344 0.456526 0.288308
0.946026 0.458771 0.290553
0.158616 0.546774 0.277907
0.249960 0.549348 0.280481
0.347267 0.552089 0.283222
0.448354 0.554937 0.286071
0.552256 0.557865 0.288998
0.658417 0.560856 0.291989
0.766471 0.563900 0.295033
0.876160 0.566990 0.298124
0.955842 0.569235 0.300369
0.168602 0.659155 0.287894
0.259946 0.661729 0.290467
0.357253 0.664470 0.293209
0.458340 0.667318 0.296057
0.562243 0.670246 0.298984
0.668403 0.673237 0.301975
0.776458 0.676281 0.305019
0.886146 0.679372 0.308110
0.965828 0.681616 0.310355
0.178731 0.773137 0.298022
0.270075 0.775711 0.300596
0.367382 0.778452 0.303337
0.468469 0.781300 0.306185
0.572371 0.784228 0.309113
0.678532 0.787219 0.312104
0.786586 0.790263 0.315148
0.896275 0.793353 0.318238
0.975957 0.795598 0.320483
0.188982 0.888496 0.308273
0.280326 0.891070 0.310847
0.377633 0.893811 0.313588
0.478720 0.896659 0.316436
0.582622 0.899587 0.319364
0.688783 0.902578 0.322355
0.796837 0.905622 0.325399
0.906526 0.908713 0.328489
0.986208 0.910957 0.330734
0.196321 0.971085 0.315612
0.287665 0.973659 0.318186
0.384971 0.976401 0.320927
0.486059 0.979249 0.323775
0.589961 0.982176 0.326703
0.696122 0.985167 0.329694
0.804176 0.988211 0.332738
0.913865 0.991302 0.335828
0.993547 0.993547 0.338073
0.121945 0.124704 0.334241
0.213289 0.127277 0.336814
0.310596 0.130019 0.339556
0.411683 0.132867 0.342404
0.515585 0.135794 0.345331
0.621746 0.138785 0.348322
0.729800 0.141829 0.351366
0.839489 0.144920 0.354457
0.919171 0.147165 0.356702
0.130799 0.224346 0.343095
0.222143 0.226920 0.345669
0.319450 0.229661 0.348410
0.420537 0.232509 0.351258
0.524439 0.235437 0.354185
0.630600 0.238428 0.357176
0.738654 0.241472 0.360221
0.848343 0.244562 0.363311
0.928025 0.246807 0.365556
0.140113 0.329163 0.352409
0.231457 0.331736 0.354983
0.328764 0.334478 0.357724
0.429851 0.337326 0.360572
0.533753 0.340253 0.363500
0.639914 0.343244 0.366491
0.747969 0.346289 0.369535
0.857657 0.349379 0.372625
0.937339 0.351624 0.374870
0.149716 0.437226 0.362012
0.241060 0.439799 0.364585
0.338367 0.442541 0.367327
0.439454 0.445389 0.370175
0.543356 0.448316 0.373102
0.649517 0.451307 0.376093
0.757571 0.454352 0.379137
0.867260 0.457442 0.382228
0.946942 0.459687 0.384473
0.159532 0.547690 0.371828
0.250876 0.550264 0.374401
0.348182 0.553005 0.377143
0.449270 0.555853 0.379991
0.553172 0.558780 0.382918
0.659333 0.561771 0.385909
0.767387 0.564816 0.388953
0.877076 0.567906 0.392044
0.956758 0.570151 0.394289
0.169518 0.660071 0.381814
0.260862 0.662645 0.384387
0.358169 0.665386 0.387129
0.459256 0.668234 0.389977
0.563158 0.671161 0.392904
0.669319 0.674152 0.395895
0.777373 0.677197 0.398940
0.887062 0.680287 0.402030
0.966744 0.682532 0.404275
0.179646 0.774053 0.391942
0.270991 0.776626 0.394516
0.368297 0.779368 0.397257
0.469385 0.782216 0.400106
0.573287 0.785143 0.403033
0.679448 0.788134 0.406024
0.787502 0.791179 0.409068
0.897191 0.794269 0.412159
0.976872 0.796514 0.414404
0.189897 0.889412 0.402193
0.281242 0.891986 0.404767
0.378548 0.894727 0.407508
0.479635 0.897575 0.410356
0.583538 0.900502 0.413284
0.689698 0.903493 0.416275
0.797753 0.906538 0.419319
0.907442 0.909628 0.422409
0.987123 0.911873 0.424654
0.197236 0.972001 0.409532
0.288581 0.974575 0.412106
0.385887 0.977316 0.414847
0.486974 0.980164 0.417695
0.590877 0.983092 0.420623
0.697037 0.986083 0.423614
0.805092 0.989127 0.426658
0.914781 0.992217 0.429748
0.994462 0.994462 0.431993
0.122893 0.125652 0.431565
0.214238 0.128226 0.434139
0.311544 0.130968 0.436880
0.412632 0.133816 0.439728
0.516534 0.136743 0.442656
0.622695 0.139734 0.445647
0.730749 0.142778 0.448691
0.840438 0.145869 0.451781
0.920119 0.148114 0.454026
0.131748 0.225295 0.440419
0.223092 0.227869 0.442993
0.320399 0.230610 0.445734
0.421486 0.233458 0.448583
0.525388 0.236386 0.451510
0.631549 0.239377 0.454501
0.739603 0.242421 0.457545
0.849292 0.245511 0.460636
0.928974 0.247756 0.462881
0.141062 0.330112 0.449734
0.232406 0.332685 0.452307
0.329713 0.335427 0.455049
0.430800 0.338275 0.457897
0.534702 0.341202 0.460824
0.640863 0.344193 0.463815
0.748917 0.347238 0.466859
0.858606 0.350328 0.469950
0.938288 0.352573 0.472195
0.150664 0.438175 0.459336
0.242009 0.440748 0.461910
0.339315 0.443490 0.464651
0.440403 0.446338 0.467499
0.544305 0.449265 0.470427
0.650466 0.452256 0.473418
0.758520 0.455301 0.476462
0.868209 0.458391 0.479552
0.947890 0.460636 0.481797
0.160480 0.548639 0.469152
0.251825 0.551212 0.471726
0.349131 0.553954 0.474467
0.450219 0.556802 0.477315
0.554121 0.559729 0.480242
0.660282 0.562720 0.483233
0.768336 0.565765 0.486278
0.878025 0.568855 0.489368
0.957706 0.571100 0.491613
0.170467 0.661020 0.479138
0.261811 0.663593 0.481712
0.359118 0.666335 0.484453
0.460205 0.669183 0.487301
0.564107 0.672110 0.490229
0.670268 0.675101 0.493220
0.778322 0.678146 0.496264
0.888011 0.681236 0.499354
0.967693 0.683481 0.501599
0.180595 0.775002 0.489267
0.271940 0.777575 0.491840
0.369246 0.780317 0.494582
0.470333 0.783165 0.497430
0.574236 0.786092 0.500357
0.680396 0.789083 0.503348
0.788451 0.792127 0.506393
0.898140 0.795218 0.509483
0.977821 0.797463 0.511728
0.190846 0.890361 0.499518
0.282190 0.892934 0.502091
0.379497 0.895676 0.504833
0.480584 0.898524 0.507681
0.584487 0.901451 0.510608
0.690647 0.904442 0.513599
0.798702 0.907487 0.516644
0.908390 0.910577 0.519734
0.988072 0.912822 0.521979
0.198185 0.972950 0.506857
0.289529 0.975524 0.509430
0.386836 0.978265 0.512172
0.487923 0.981113 0.515020
0.591826 0.984040 0.517947
0.697986 0.987031 0.520938
0.806041 0.990076 0.523982
0.915729 0.993166 0.527073
0.995411 0.995411 0.529318
0.123867 0.126626 0.531468
0.215212 0.129200 0.534042
0.312518 0.131942 0.536783
0.413606 0.134790 0.539631
0.517508 0.137717 0.542559
0.623669 0.140708 0.545550
0.731723 0.143752 0.548594
0.841412 0.146843 0.551684
0.921093 0.149088 0.553929
0.132722 0.226269 0.540323
0.224066 0.228843 0.542896
0.321373 0.231584 0.545638
0.422460 0.234432 0.548486
0.526362 0.237360 0.551413
0.632523 0.240351 0.554404
0.740577 0.243395 0.557448
0.850266 0.246485 0.560539
0.929948 0.248730 0.562784
0.142036 0.331086 0.549637
0.233380 0.333659 0.552210
0.330687 0.336401 0.554952
0.431774 0.339249 0.557800
0.535676 0.342176 0.560727
0.641837 0.345167 0.563718
0.749891 0.348212 0.566762
0.859580 0.351302 0.569853
0.939262 0.353547 0.572098
0.151638 0.439149 0.559239
0.242983 0.441722 0.561813
0.340289 0.444464 0.564554
0.441377 0.447312 0.567402
0.545279 0.450239 0.570330
0.651440 0.453230 0.573321
0.759494 0.456275 0.576365
0.869183 0.459365 0.579455
0.948864 0.461610 0.581700
0.161454 0.549613 0.569055
0.252799 0.552186 0.571629
0.350105 0.554928 0.574370
0.451193 0.557776 0.577218
0.555095 0.560703 0.580146
0.661256 0.563694 0.583137
0.769310 0.566739 0.586181
0.878999 0.569829 0.589271
0.958680 0.572074 0.591516
0.171441 0.661994 0.579042
0.262785 0.664567 0.581615
0.360092 0.667309 0.584357
0.461179 0.670157 0.587205
0.565081 0.673084 0.590132
0.671242 0.676075 0.593123
0.779296 0.679120 0.596167
0.888985 0.682210 0.599258
0.968667 0.684455 0.601503
0.181569 0.775976 0.589170
0.272914 0.778549 0.591744
0.370220 0.781291 0.594485
0.471307 0.784139 0.597333
0.575210 0.787066 0.600261
0.681370 0.790057 0.603251
0.789425 0.793101 0.606296
0.899114 0.796192 0.609386
0.978795 0.798437 0.611631
0.191820 0.891335 0.599421
0.283164 0.893908 0.601994
0.380471 0.896650 0.604736
0.481558 0.899498 0.607584
0.585461 0.902425 0.610511
0.691621 0.905416 0.613502
0.799676 0.908461 0.616547
0.909364 0.911551 0.619637
0.989046 0.913796 0.621882
0.199159 0.973924 0.606760
0.290503 0.976498 0.609333
0.387810 0.979239 0.612075
0.488897 0.982087 0.614923
0.592800 0.985014 0.617850
0.698960 0.988005 0.620841
0.807015 0.991050 0.623886
0.916703 0.994140 0.626976
0.996385 0.996385 0.629221
0.124862 0.127621 0.633460
0.216206 0.130194 0.636034
0.313513 0.132936 0.638775
0.414600 0.135784 0.641623
0.518502 0.138711 0.644551
0.624663 0.141702 0.647542
0.732717 0.144747 0.650586
0.842406 0.147837 0.653676
0.922088 0.150082 0.655921
0.133716 0.227263 0.642315
0.225060 0.229837 0.644888
0.322367 0.232579 0.647630
0.423454 0.235427 0.650478
0.527357 0.238354 0.653405
0.633517 0.241345 0.656396
0.741572 0.244389 0.659440
0.851261 0.247480 0.662531
0.930942 0.249725 0.664776
0.143030 0.332080 0.651629
0.234375 0.334654 0.654202
0.331681 0.337395 0.656944
0.432768 0.340243 0.659792
0.536671 0.343171 0.662719
0.642831 0.346162 0.665710
0.750886 0.349206 0.668755
0.860575 0.352296 0.671845
0.940256 0.354541 0.674090
0.152633 0.440143 0.661231
0.243977 0.442717 0.663805
0.341284 0.445458 0.666546
0.442371 0.448306 0.669394
0.546273 0.451234 0.672322
0.652434 0.454225 0.675313
0.760488 0.457269 0.678357
0.870177 0.460359 0.681447
0.949859 0.462604 0.683692
0.162449 0.550607 0.671047
0.253793 0.553181 0.673621
0.351100 0.555922 0.676362
0.452187 0.558770 0.679210
0.556089 0.561698 0.682138
0.662250 0.564689 0.685129
0.770304 0.567733 0.688173
0.879993 0.570823 0.691263
0.959675 0.573068 0.693508
0.172435 0.662988 0.681034
0.263779 0.665562 0.683607
0.361086 0.668303 0.686349
0.462173 0.671151 0.689197
0.566075 0.674079 0.692124
0.672236 0.677070 0.695115
0.780291 0.680114 0.698159
0.889979 0.683204 0.701250
0.969661 0.685449 0.703495
0.182564 0.776970 0.691162
0.273908 0.779544 0.693736
0.371215 0.782285 0.696477
0.472302 0.785133 0.699325
0.576204 0.788061 0.702253
0.682365 0.791052 0.705244
0.790419 0.794096 0.708288
0.900108 0.797186 0.711378
0.979790 0.799431 0.713623
0.192815 0.892329 0.701413
0.284159 0.894903 0.703987
0.381465 0.897644 0.706728
0.482553 0.900492 0.709576
0.586455 0.903420 0.712503
0.692616 0.906411 0.715494
0.800670 0.909455 0.718539
0.910359 0.912545 0.721629
0.990041 0.914790 0.723874
0.200153 0.974918 0.708752
0.291498 0.977492 0.711325
0.388804 0.980233 0.714067
0.489892 0.983081 0.716915
0.593794 0.986009 0.719842
0.699955 0.989000 0.722833
0.808009 0.992044 0.725878
0.917698 0.995135 0.728968
0.997379 0.997379 0.731213
0.125873 0.128632 0.737214
0.217218 0.131206 0.739788
0.314524 0.133947 0.742529
0.415612 0.136795 0.745377
0.519514 0.139723 0.748305
0.625675 0.142714 0.751296
0.733729 0.145758 0.754340
0.843418 0.148849 0.757430
0.923099 0.151093 0.759675
0.134728 0.228275 0.746069
0.226072 0.230849 0.748642
0.323379 0.233590 0.751384
0.424466 0.236438 0.754232
0.528368 0.239366 0.757159
0.634529 0.242356 0.760150
0.742583 0.245401 0.763194
0.852272 0.248491 0.766285
0.931954 0.250736 0.768530
0.144042 0.333092 0.755383
0.235386 0.335665 0.757956
0.332693 0.338407 0.760698
0.433780 0.341255 0.763546
0.537682 0.344182 0.766473
0.643843 0.347173 0.769464
0.751897 0.350217 0.772509
0.861586 0.353308 0.775599
0.941268 0.355553 0.777844
0.153644 0.441155 0.764985
0.244989 0.443728 0.767559
0.342295 0.446470 0.770300
0.443383 0.449318 0.773148
0.547285 0.452245 0.776076
0.653446 0.455236 0.779067
0.761500 0.458280 0.782111
0.871189 0.461371 0.785201
0.950870 0.463616 0.787446
0.163460 0.551619 0.774801
0.254805 0.554192 0.777375
0.352111 0.556934 0.780116
0.453198 0.559782 0.782964
0.557101 0.562709 0.785892
0.663262 0.565700 0.788883
0.771316 0.568745 0.791927
0.881005 0.571835 0.795017
0.960686 0.574080 0.797262
0.173447 0.664000 0.784788
0.264791 0.666573 0.787361
0.362098 0.669315 0.790103
0.463185 0.672163 0.792951
0.567087 0.675090 0.795878
0.673248 0.678081 0.798869
0.781302 0.681126 0.801913
0.890991 0.684216 0.805004
0.970673 0.686461 0.807249
0.183575 0.777982 0.794916
0.274919 0.780555 0.797490
0.372226 0.783297 0.800231
0.473313 0.786145 0.803079
0.577216 0.789072 0.806007
0.683376 0.792063 0.808998
0.791431 0.795107 0.812042
0.901119 0.798198 0.815132
0.980801 0.800443 0.817377
0.193826 0.893341 0.805167
0.285170 0.895914 0.807741
0.382477 0.898656 0.810482
0.483564 0.901504 0.813330
0.587466 0.904431 0.816257
0.693627 0.907422 0.819248
0.801682 0.910467 0.822293
0.911370 0.913557 0.825383
0.991052 0.915802 0.827628
0.201165 0.975930 0.812506
0.292509 0.978503 0.815079
0.389816 0.981245 0.817821
0.490903 0.984093 0.820669
0.594805 0.987020 0.823596
0.700966 0.990011 0.826587
0.809021 0.993056 0.829632
0.918709 0.996146 0.832722
0.998391 0.998391 0.834967
0.126900 0.129659 0.842496
0.218244 0.132232 0.845069
0.315551 0.134974 0.847811
0.416638 0.137822 0.850659
0.520540 0.140749 0.853586
0.626701 0.143740 0.856577
0.734755 0.146785 0.859622
0.844444 0.149875 0.862712
0.924126 0.152120 0.864957
0.135754 0.229301 0.851350
0.227098 0.231875 0.853924
0.324405 0.234617 0.856665
0.425492 0.237465 0.859513
0.529395 0.240392 0.862441
0.635555 0.243383 0.865432
0.743610 0.246427 0.868476
0.853298 0.249518 0.871566
0.932980 0.251763 0.873811
0.145068 0.334118 0.860664
0.236413 0.336692 0.863238
0.333719 0.339433 0.865979
0.434806 0.342281 0.868827
0.538709 0.345209 0.871755
0.644869 0.348200 0.874746
0.752924 0.351244 0.877790
0.862613 0.354334 0.880880
0.942294 0.356579 0.883125
0.154671 0.442181 0.870267
0.246015 0.444755 0.872840
0.343322 0.447496 0.875582
0.444409 0.450344 0.878430
0.548311 0.453272 0.881357
0.654472 0.456263 0.884348
0.762526 0.459307 0.887393
0.872215 0.462397 0.890483
0.951897 0.464642 0.892728
0.164487 0.552645 0.880083
0.255831 0.555219 0.882656
0.353138 0.557960 0.885398
0.454225 0.560808 0.888246
0.558127 0.563736 0.891173
0.664288 0.566727 0.894164
0.772342 0.569771 0.897209
0.882031 0.572861 0.900299
0.961713 0.575106 0.902544
0.174473 0.665026 0.890069
0.265817 0.667600 0.892643
0.363124 0.670341 0.895384
0.464211 0.673189 0.898232
0.568113 0.676117 0.901160
0.674274 0.679108 0.904150
0.782329 0.682152 0.907195
0.892017 0.685242 0.910285
0.971699 0.687487 0.912530
0.184602 0.779008 0.900198
0.275946 0.781582 0.902771
0.373252 0.784323 0.905513
0.474340 0.787171 0.908361
0.578242 0.790099 0.911288
0.684403 0.793090 0.914279
0.792457 0.796134 0.917323
0.902146 0.799224 0.920414
0.981828 0.801469 0.922659
0.194853 0.894367 0.910448
0.286197 0.896941 0.913022
0.383503 0.899682 0.915764
0.484591 0.902530 0.918612
0.588493 0.905458 0.921539
0.694654 0.908449 0.924530
0.802708 0.911493 0.927574
0.912397 0.914583 0.930665
0.992079 0.916828 0.932910
0.202191 0.976956 0.917787
0.293536 0.979530 0.920361
0.390842 0.982271 0.923103
0.491930 0.985119 0.925951
0.595832 0.988047 0.928878
0.701993 0.991038 0.931869
0.810047 0.994082 0.934913
0.919736 0.997172 0.938004
0.999417 0.999417 0.940249
0.127482 0.130241 0.902247
0.218827 0.132815 0.904821
0.316133 0.135556 0.907562
0.417220 0.138404 0.910410
0.521123 0.141332 0.913338
0.627284 0.144323 0.916329
0.735338 0.147367 0.919373
0.845027 0.150458 0.922463
0.924708 0.152702 0.924708
0.136337 0.229884 0.911102
0.227681 0.232458 0.913675
0.324988 0.235199 0.916417
0.426075 0.238047 0.919265
0.529977 0.240974 0.922192
0.636138 0.243965 0.925183
0.744192 0.247010 0.928227
0.853881 0.250100 0.931318
0.933563 0.252345 0.933563
0.145651 0.334701 0.920416
0.236995 0.337274 0.922989
0.334302 0.340016 0.925731
0.435389 0.342864 0.928579
0.539291 0.345791 0.931506
0.645452 0.348782 0.934497
0.753506 0.351826 0.937541
0.863195 0.354917 0.940632
0.942877 0.357162 0.942877
0.155253 0.442764 0.930018
0.246598 0.445337 0.932592
0.343904 0.448079 0.935333
0.444992 0.450927 0.938181
0.548894 0.453854 0.941109
0.655055 0.456845 0.944100
0.763109 0.459889 0.947144
0.872798 0.462980 0.950234
0.952479 0.465225 0.952479
0.165069 0.553228 0.939834
0.256414 0.555801 0.942408
0.353720 0.558543 0.945149
0.454807 0.561391 0.947997
0.558710 0.564318 0.950925
0.664871 0.567309 0.953916
0.772925 0.570354 0.956960
0.882614 0.573444 0.960050
0.962295 0.575689 0.962295
0.175056 0.665609 0.949820
0.266400 0.668182 0.952394
0.363707 0.670924 0.955136
0.464794 0.673772 0.957984
0.568696 0.676699 0.960911
0.674857 0.679690 0.963902
0.782911 0.682735 0.966946
0.892600 0.685825 0.970037
0.972282 0.688070 0.972282
0.185184 0.779591 0.959949
0.276528 0.782164 0.962523
0.373835 0.784906 0.965264
0.474922 0.787754 0.968112
0.578825 0.790681 0.971039
0.684985 0.793672 0.974030
0.793040 0.796716 0.977075
0.902728 0.799807 0.980165
0.982410 0.802052 0.982410
0.195435 0.894950 0.970200
0.286779 0.897523 0.972773
0.384086 0.900265 0.975515
0.485173 0.903113 0.978363
0.589075 0.906040 0.981290
0.695236 0.909031 0.984281
0.803291 0.912076 0.987326
0.912979 0.915166 0.990416
0.992661 0.917411 0.992661
0.202774 0.977539 0.977539
0.294118 0.980112 0.980112
0.391425 0.982854 0.982854
0.492512 0.985702 0.985702
0.596414 0.988629 0.988629
0.702575 0.991620 0.991620
0.810629 0.994665 0.994665
0.920318 0.997755 0.997755
1.000000 1.000000 1.000000
