library/cube/Bright_Start_000.cube
# CINEGRADE LAB — Premium Cinematic LUT
# Title: Bright Start
# Category: Clean Creator Economy
# Description: Bright, clean, approachable, modern aesthetic for content creators
# Mood: Fresh, bright, friendly
# Variant: 1
# Generated: 2026-05-21T16:12:37.455713
TITLE "Bright Start"
LUT_3D_SIZE 33
0.120163 0.122922 0.151547
0.142201 0.123543 0.152168
0.164843 0.124181 0.152806
0.187971 0.124833 0.153458
0.211508 0.125496 0.154121
0.235398 0.126169 0.154794
0.259600 0.126851 0.155476
0.284080 0.127541 0.156166
0.308814 0.128237 0.156862
0.333780 0.128941 0.157566
0.358960 0.129650 0.158275
0.384338 0.130365 0.158990
0.409902 0.131086 0.159711
0.435640 0.131811 0.160436
0.461542 0.132540 0.161165
0.487599 0.133275 0.161900
0.513804 0.134013 0.162638
0.540149 0.134755 0.163380
0.566628 0.135501 0.164126
0.593235 0.136251 0.164876
0.619965 0.137004 0.165629
0.646812 0.137760 0.166385
0.673773 0.138520 0.167145
0.700843 0.139283 0.167908
0.728019 0.140048 0.168673
0.755296 0.140817 0.169442
0.782672 0.141588 0.170213
0.810144 0.142362 0.170987
0.837708 0.143139 0.171764
0.865362 0.143918 0.172543
0.893103 0.144699 0.173324
0.917389 0.145384 0.174009
0.917389 0.145384 0.174009
0.122315 0.147135 0.153699
0.144352 0.147755 0.154320
0.166994 0.148393 0.154958
0.190122 0.149045 0.155609
0.213659 0.149708 0.156272
0.237549 0.150381 0.156946
0.261751 0.151063 0.157627
0.286232 0.151753 0.158317
0.310966 0.152450 0.159014
0.335932 0.153153 0.159717
0.361111 0.153862 0.160427
0.386489 0.154577 0.161142
0.412053 0.155298 0.161862
0.437791 0.156023 0.162587
0.463693 0.156753 0.163317
0.489751 0.157487 0.164051
0.515955 0.158225 0.164789
0.542300 0.158967 0.165532
0.568779 0.159713 0.166278
0.595386 0.160463 0.167027
0.622116 0.161216 0.167780
0.648964 0.161972 0.168537
0.675925 0.162732 0.169296
0.702995 0.163495 0.170059
0.730170 0.164260 0.170825
0.757448 0.165029 0.171593
0.784824 0.165800 0.172365
0.812295 0.166574 0.173139
0.839859 0.167351 0.173915
0.867513 0.168130 0.174694
0.895254 0.168911 0.175476
0.919541 0.169596 0.176160
0.919541 0.169596 0.176160
0.124514 0.171877 0.155898
0.146551 0.172498 0.156518
0.169193 0.173136 0.157156
0.192321 0.173787 0.157808
0.215858 0.174450 0.158471
0.239748 0.175123 0.159144
0.263950 0.175805 0.159826
0.288431 0.176495 0.160516
0.313164 0.177192 0.161213
0.338130 0.177895 0.161916
0.363310 0.178605 0.162625
0.388688 0.179320 0.163340
0.414252 0.180040 0.164061
0.439990 0.180765 0.164786
0.465892 0.181495 0.165516
0.491949 0.182229 0.166250
0.518154 0.182967 0.166988
0.544499 0.183709 0.167730
0.570978 0.184456 0.168476
0.597585 0.185205 0.169226
0.624315 0.185958 0.169979
0.651162 0.186715 0.170735
0.678123 0.187474 0.171495
0.705193 0.188237 0.172258
0.732369 0.189003 0.173023
0.759647 0.189771 0.173792
0.787022 0.190542 0.174563
0.814494 0.191316 0.175337
0.842058 0.192093 0.176114
0.869712 0.192872 0.176893
0.897453 0.193654 0.177674
0.921740 0.194338 0.178359
0.921740 0.194338 0.178359
0.126750 0.197043 0.158134
0.148787 0.197664 0.158755
0.171429 0.198302 0.159393
0.194557 0.198954 0.160044
0.218094 0.199617 0.160707
0.241984 0.200290 0.161381
0.266186 0.200972 0.162062
0.290667 0.201662 0.162752
0.315401 0.202358 0.163449
0.340367 0.203062 0.164152
0.365546 0.203771 0.164862
0.390924 0.204486 0.165577
0.416488 0.205206 0.166297
0.442226 0.205932 0.167022
0.468128 0.206661 0.167752
0.494185 0.207396 0.168486
0.520390 0.208134 0.169224
0.546735 0.208876 0.169967
0.573214 0.209622 0.170713
0.599821 0.210372 0.171462
0.626551 0.211125 0.172215
0.653399 0.211881 0.172972
0.680360 0.212641 0.173731
0.707430 0.213404 0.174494
0.734605 0.214169 0.175260
0.761883 0.214938 0.176028
0.789259 0.215709 0.176799
0.816730 0.216483 0.177573
0.844294 0.217260 0.178350
0.871948 0.218039 0.179129
0.899689 0.218820 0.179911
0.923976 0.219505 0.180595
0.923976 0.219505 0.180595
0.129018 0.222565 0.160402
0.151055 0.223186 0.161023
0.173697 0.223824 0.161661
0.196825 0.224476 0.162312
0.220362 0.225139 0.162975
0.244252 0.225812 0.163648
0.268454 0.226494 0.164330
0.292935 0.227183 0.165020
0.317669 0.227880 0.165717
0.342634 0.228584 0.166420
0.367814 0.229293 0.167130
0.393192 0.230008 0.167845
0.418756 0.230728 0.168565
0.444494 0.231453 0.169290
0.470396 0.232183 0.170020
0.496453 0.232917 0.170754
0.522658 0.233656 0.171492
0.549003 0.234398 0.172234
0.575482 0.235144 0.172980
0.602089 0.235893 0.173730
0.628819 0.236647 0.174483
0.655667 0.237403 0.175240
0.682628 0.238163 0.175999
0.709698 0.238925 0.176762
0.736873 0.239691 0.177528
0.764151 0.240459 0.178296
0.791527 0.241231 0.179067
0.818998 0.242005 0.179841
0.846562 0.242781 0.180618
0.874216 0.243560 0.181397
0.901957 0.244342 0.182179
0.926244 0.245026 0.182863
0.926244 0.245026 0.182863
0.131313 0.248393 0.162697
0.153350 0.249014 0.163318
0.175992 0.249652 0.163956
0.199120 0.250303 0.164607
0.222657 0.250966 0.165270
0.246547 0.251639 0.165943
0.270749 0.252321 0.166625
0.295230 0.253011 0.167315
0.319964 0.253708 0.168012
0.344929 0.254411 0.168715
0.370109 0.255121 0.169425
0.395487 0.255836 0.170140
0.421051 0.256556 0.170860
0.446789 0.257281 0.171585
0.472691 0.258011 0.172315
0.498748 0.258745 0.173049
0.524953 0.259483 0.173787
0.551298 0.260225 0.174530
0.577777 0.260971 0.175276
0.604384 0.261721 0.176025
0.631114 0.262474 0.176778
0.657962 0.263231 0.177535
0.684923 0.263990 0.178294
0.711993 0.264753 0.179057
0.739168 0.265519 0.179823
0.766446 0.266287 0.180591
0.793822 0.267058 0.181362
0.821293 0.267832 0.182136
0.848857 0.268609 0.182913
0.876511 0.269388 0.183692
0.904252 0.270170 0.184474
0.928539 0.270854 0.185158
0.928539 0.270854 0.185158
0.133632 0.274490 0.165016
0.155669 0.275110 0.165637
0.178311 0.275748 0.166275
0.201439 0.276400 0.166926
0.224976 0.277063 0.167589
0.248866 0.277736 0.168262
0.273068 0.278418 0.168944
0.297549 0.279108 0.169634
0.322283 0.279805 0.170331
0.347248 0.280508 0.171034
0.372428 0.281217 0.171744
0.397806 0.281932 0.172459
0.423370 0.282653 0.173179
0.449108 0.283378 0.173904
0.475010 0.284108 0.174634
0.501067 0.284842 0.175368
0.527272 0.285580 0.176106
0.553617 0.286322 0.176849
0.580096 0.287068 0.177595
0.606703 0.287818 0.178344
0.633433 0.288571 0.179097
0.660281 0.289327 0.179854
0.687242 0.290087 0.180613
0.714312 0.290850 0.181376
0.741487 0.291615 0.182142
0.768765 0.292384 0.182910
0.796141 0.293155 0.183681
0.823612 0.293929 0.184455
0.851176 0.294706 0.185232
0.878830 0.295485 0.186011
0.906571 0.296266 0.186793
0.930858 0.296951 0.187477
0.930858 0.296951 0.187477
0.135972 0.300827 0.167356
0.158009 0.301448 0.167977
0.180651 0.302086 0.168615
0.203780 0.302737 0.169267
0.227316 0.303400 0.169930
0.251207 0.304073 0.170603
0.275408 0.304755 0.171285
0.299889 0.305445 0.171974
0.324623 0.306142 0.172671
0.349589 0.306845 0.173375
0.374768 0.307555 0.174084
0.400147 0.308270 0.174799
0.425710 0.308990 0.175519
0.451448 0.309715 0.176244
0.477350 0.310445 0.176974
0.503408 0.311179 0.177708
0.529613 0.311917 0.178447
0.555958 0.312660 0.179189
0.582437 0.313406 0.179935
0.609044 0.314155 0.180685
0.635773 0.314908 0.181438
0.662621 0.315665 0.182194
0.689582 0.316424 0.182954
0.716652 0.317187 0.183716
0.743828 0.317953 0.184482
0.771105 0.318721 0.185250
0.798481 0.319492 0.186022
0.825953 0.320266 0.186796
0.853517 0.321043 0.187572
0.881170 0.321822 0.188351
0.908911 0.322604 0.189133
0.933198 0.323288 0.189817
0.933198 0.323288 0.189817
0.138332 0.327382 0.169716
0.160369 0.328003 0.170337
0.183011 0.328641 0.170975
0.206139 0.329292 0.171626
0.229676 0.329955 0.172289
0.253566 0.330628 0.172962
0.277768 0.331310 0.173644
0.302249 0.332000 0.174334
0.326983 0.332697 0.175031
0.351948 0.333400 0.175734
0.377128 0.334110 0.176444
0.402506 0.334825 0.177159
0.428070 0.335545 0.177879
0.453808 0.336270 0.178604
0.479710 0.337000 0.179334
0.505767 0.337734 0.180068
0.531972 0.338472 0.180806
0.558317 0.339214 0.181549
0.584796 0.339961 0.182295
0.611403 0.340710 0.183044
0.638133 0.341463 0.183797
0.664981 0.342220 0.184554
0.691942 0.342979 0.185313
0.719012 0.343742 0.186076
0.746187 0.344508 0.186842
0.773465 0.345276 0.187610
0.800841 0.346047 0.188381
0.828312 0.346821 0.189155
0.855876 0.347598 0.189932
0.883530 0.348377 0.190711
0.911271 0.349159 0.191493
0.935558 0.349843 0.192177
0.935558 0.349843 0.192177
0.140709 0.354136 0.172093
0.162746 0.354756 0.172714
0.185388 0.355394 0.173352
0.208517 0.356046 0.174004
0.232054 0.356709 0.174667
0.255944 0.357382 0.175340
0.280145 0.358064 0.176022
0.304626 0.358754 0.176711
0.329360 0.359451 0.177408
0.354326 0.360154 0.178112
0.379505 0.360863 0.178821
0.404884 0.361578 0.179536
0.430447 0.362299 0.180256
0.456185 0.363024 0.180981
0.482087 0.363754 0.181711
0.508145 0.364488 0.182445
0.534350 0.365226 0.183184
0.560695 0.365968 0.183926
0.587174 0.366714 0.184672
0.613781 0.367464 0.185422
0.640510 0.368217 0.186175
0.667358 0.368973 0.186931
0.694319 0.369733 0.187691
0.721389 0.370496 0.188453
0.748565 0.371261 0.189219
0.775842 0.372030 0.189988
0.803218 0.372801 0.190759
0.830690 0.373575 0.191533
0.858254 0.374352 0.192309
0.885907 0.375131 0.193089
0.913648 0.375912 0.193870
0.937935 0.376597 0.194554
0.937935 0.376597 0.194554
0.143103 0.381073 0.174487
0.165140 0.381693 0.175108
0.187782 0.382331 0.175746
0.210910 0.382983 0.176397
0.234447 0.383646 0.177060
0.258337 0.384319 0.177733
0.282539 0.385001 0.178415
0.307020 0.385691 0.179105
0.331754 0.386388 0.179802
0.356720 0.387091 0.180505
0.381899 0.387800 0.181215
0.407277 0.388515 0.181930
0.432841 0.389236 0.182650
0.458579 0.389961 0.183375
0.484481 0.390691 0.184105
0.510538 0.391425 0.184839
0.536743 0.392163 0.185577
0.563088 0.392905 0.186320
0.589567 0.393651 0.187066
0.616174 0.394401 0.187815
0.642904 0.395154 0.188568
0.669752 0.395910 0.189325
0.696713 0.396670 0.190084
0.723783 0.397433 0.190847
0.750958 0.398198 0.191613
0.778236 0.398967 0.192381
0.805612 0.399738 0.193152
0.833083 0.400512 0.193926
0.860647 0.401289 0.194703
0.888301 0.402068 0.195482
0.916042 0.402849 0.196264
0.940329 0.403534 0.196948
0.940329 0.403534 0.196948
0.145512 0.408179 0.176896
0.167549 0.408800 0.177516
0.190191 0.409438 0.178154
0.213319 0.410090 0.178806
0.236856 0.410753 0.179469
0.260746 0.411426 0.180142
0.284948 0.412108 0.180824
0.309429 0.412798 0.181514
0.334163 0.413494 0.182211
0.359128 0.414198 0.182914
0.384308 0.414907 0.183623
0.409686 0.415622 0.184338
0.435250 0.416343 0.185059
0.460988 0.417068 0.185784
0.486890 0.417797 0.186514
0.512947 0.418532 0.187248
0.539152 0.419270 0.187986
0.565497 0.420012 0.188728
0.591976 0.420758 0.189474
0.618583 0.421508 0.190224
0.645313 0.422261 0.190977
0.672160 0.423017 0.191733
0.699121 0.423777 0.192493
0.726192 0.424540 0.193256
0.753367 0.425305 0.194021
0.780645 0.426074 0.194790
0.808021 0.426845 0.195561
0.835492 0.427619 0.196335
0.863056 0.428396 0.197112
0.890710 0.429175 0.197891
0.918451 0.429956 0.198672
0.942738 0.430641 0.199357
0.942738 0.430641 0.199357
0.147934 0.435445 0.179318
0.169972 0.436066 0.179939
0.192614 0.436704 0.180577
0.215742 0.437355 0.181229
0.239279 0.438018 0.181892
0.263169 0.438691 0.182565
0.287371 0.439373 0.183247
0.311851 0.440063 0.183937
0.336585 0.440760 0.184634
0.361551 0.441463 0.185337
0.386731 0.442173 0.186046
0.412109 0.442888 0.186761
0.437673 0.443608 0.187482
0.463411 0.444333 0.188207
0.489313 0.445063 0.188936
0.515370 0.445797 0.189671
0.541575 0.446535 0.190409
0.567920 0.447277 0.191151
0.594399 0.448023 0.191897
0.621006 0.448773 0.192647
0.647736 0.449526 0.193400
0.674583 0.450283 0.194156
0.701544 0.451042 0.194916
0.728614 0.451805 0.195679
0.755790 0.452571 0.196444
0.783067 0.453339 0.197213
0.810443 0.454110 0.197984
0.837915 0.454884 0.198758
0.865479 0.455661 0.199535
0.893133 0.456440 0.200314
0.920874 0.457222 0.201095
0.945160 0.457906 0.201780
0.945160 0.457906 0.201780
0.150370 0.462859 0.181754
0.172408 0.463479 0.182375
0.195050 0.464117 0.183013
0.218178 0.464769 0.183665
0.241715 0.465432 0.184328
0.265605 0.466105 0.185001
0.289807 0.466787 0.185683
0.314287 0.467477 0.186373
0.339021 0.468174 0.187070
0.363987 0.468877 0.187773
0.389167 0.469586 0.188482
0.414545 0.470301 0.189197
0.440109 0.471022 0.189918
0.465847 0.471747 0.190643
0.491749 0.472477 0.191372
0.517806 0.473211 0.192107
0.544011 0.473949 0.192845
0.570356 0.474691 0.193587
0.596835 0.475437 0.194333
0.623442 0.476187 0.195083
0.650172 0.476940 0.195836
0.677019 0.477696 0.196592
0.703980 0.478456 0.197352
0.731050 0.479219 0.198115
0.758226 0.479984 0.198880
0.785503 0.480753 0.199649
0.812879 0.481524 0.200420
0.840351 0.482298 0.201194
0.867915 0.483075 0.201971
0.895569 0.483854 0.202750
0.923310 0.484635 0.203531
0.947596 0.485320 0.204216
0.947596 0.485320 0.204216
0.152819 0.490412 0.184203
0.174856 0.491033 0.184824
0.197498 0.491671 0.185462
0.220626 0.492323 0.186113
0.244163 0.492986 0.186776
0.268053 0.493659 0.187450
0.292255 0.494341 0.188131
0.316736 0.495030 0.188821
0.341470 0.495727 0.189518
0.366436 0.496431 0.190221
0.391615 0.497140 0.190931
0.416993 0.497855 0.191646
0.442557 0.498575 0.192366
0.468295 0.499300 0.193091
0.494197 0.500030 0.193821
0.520255 0.500764 0.194555
0.546459 0.501503 0.195293
0.572804 0.502245 0.196036
0.599283 0.502991 0.196782
0.625890 0.503741 0.197531
0.652620 0.504494 0.198284
0.679468 0.505250 0.199041
0.706429 0.506010 0.199800
0.733499 0.506772 0.200563
0.760674 0.507538 0.201329
0.787952 0.508306 0.202097
0.815328 0.509078 0.202868
0.842799 0.509852 0.203642
0.870363 0.510628 0.204419
0.898017 0.511407 0.205198
0.925758 0.512189 0.205980
0.950045 0.512873 0.206664
0.950045 0.512873 0.206664
0.155279 0.518098 0.186663
0.177316 0.518719 0.187284
0.199958 0.519357 0.187922
0.223086 0.520008 0.188573
0.246623 0.520671 0.189237
0.270514 0.521345 0.189910
0.294715 0.522026 0.190592
0.319196 0.522716 0.191281
0.343930 0.523413 0.191978
0.368896 0.524116 0.192682
0.394075 0.524826 0.193391
0.419453 0.525541 0.194106
0.445017 0.526261 0.194826
0.470755 0.526986 0.195551
0.496657 0.527716 0.196281
0.522715 0.528450 0.197015
0.548920 0.529188 0.197754
0.575265 0.529931 0.198496
0.601744 0.530677 0.199242
0.628351 0.531426 0.199991
0.655080 0.532179 0.200745
0.681928 0.532936 0.201501
0.708889 0.533695 0.202261
0.735959 0.534458 0.203023
0.763135 0.535224 0.203789
0.790412 0.535992 0.204557
0.817788 0.536763 0.205329
0.845259 0.537537 0.206103
0.872823 0.538314 0.206879
0.900477 0.539093 0.207658
0.928218 0.539875 0.208440
0.952505 0.540559 0.209124
0.952505 0.540559 0.209124
0.157750 0.545909 0.189134
0.179788 0.546530 0.189755
0.202429 0.547168 0.190393
0.225558 0.547819 0.191045
0.249095 0.548482 0.191708
0.272985 0.549155 0.192381
0.297186 0.549837 0.193063
0.321667 0.550527 0.193753
0.346401 0.551224 0.194449
0.371367 0.551927 0.195153
0.396547 0.552637 0.195862
0.421925 0.553352 0.196577
0.447489 0.554072 0.197297
0.473226 0.554797 0.198023
0.499129 0.555527 0.198752
0.525186 0.556261 0.199487
0.551391 0.556999 0.200225
0.577736 0.557742 0.200967
0.604215 0.558488 0.201713
0.630822 0.559237 0.202463
0.657552 0.559990 0.203216
0.684399 0.560747 0.203972
0.711360 0.561506 0.204732
0.738430 0.562269 0.205495
0.765606 0.563035 0.206260
0.792883 0.563803 0.207029
0.820259 0.564574 0.207800
0.847731 0.565348 0.208574
0.875295 0.566125 0.209351
0.902949 0.566904 0.210130
0.930690 0.567686 0.210911
0.954976 0.568370 0.211596
0.954976 0.568370 0.211596
0.160232 0.573839 0.191616
0.182270 0.574460 0.192237
0.204911 0.575098 0.192875
0.228040 0.575749 0.193527
0.251577 0.576412 0.194190
0.275467 0.577085 0.194863
0.299668 0.577767 0.195545
0.324149 0.578457 0.196234
0.348883 0.579154 0.196931
0.373849 0.579857 0.197635
0.399028 0.580567 0.198344
0.424407 0.581282 0.199059
0.449970 0.582002 0.199779
0.475708 0.582727 0.200505
0.501610 0.583457 0.201234
0.527668 0.584191 0.201968
0.553873 0.584929 0.202707
0.580218 0.585672 0.203449
0.606697 0.586418 0.204195
0.633304 0.587167 0.204945
0.660033 0.587920 0.205698
0.686881 0.588677 0.206454
0.713842 0.589436 0.207214
0.740912 0.590199 0.207976
0.768088 0.590965 0.208742
0.795365 0.591733 0.209511
0.822741 0.592504 0.210282
0.850213 0.593278 0.211056
0.877777 0.594055 0.211832
0.905430 0.594834 0.212612
0.933172 0.595616 0.213393
0.957458 0.596300 0.214077
0.957458 0.596300 0.214077
0.162724 0.601882 0.194108
0.184761 0.602503 0.194729
0.207403 0.603141 0.195367
0.230532 0.603793 0.196019
0.254069 0.604456 0.196682
0.277959 0.605129 0.197355
0.302160 0.605811 0.198037
0.326641 0.606500 0.198726
0.351375 0.607197 0.199423
0.376341 0.607901 0.200127
0.401520 0.608610 0.200836
0.426899 0.609325 0.201551
0.452462 0.610045 0.202271
0.478200 0.610770 0.202996
0.504102 0.611500 0.203726
0.530160 0.612234 0.204460
0.556365 0.612973 0.205199
0.582710 0.613715 0.205941
0.609189 0.614461 0.206687
0.635796 0.615211 0.207437
0.662525 0.615964 0.208190
0.689373 0.616720 0.208946
0.716334 0.617480 0.209706
0.743404 0.618242 0.210468
0.770580 0.619008 0.211234
0.797857 0.619777 0.212003
0.825233 0.620548 0.212774
0.852705 0.621322 0.213548
0.880269 0.622098 0.214324
0.907922 0.622878 0.215104
0.935663 0.623659 0.215885
0.959950 0.624343 0.216569
0.959950 0.624343 0.216569
0.165226 0.630034 0.196610
0.187263 0.630655 0.197231
0.209905 0.631293 0.197869
0.233033 0.631945 0.198520
0.256570 0.632608 0.199183
0.280460 0.633281 0.199856
0.304662 0.633963 0.200538
0.329143 0.634652 0.201228
0.353877 0.635349 0.201925
0.378842 0.636053 0.202628
0.404022 0.636762 0.203338
0.429400 0.637477 0.204053
0.454964 0.638197 0.204773
0.480702 0.638922 0.205498
0.506604 0.639652 0.206228
0.532661 0.640386 0.206962
0.558866 0.641125 0.207700
0.585211 0.641867 0.208443
0.611690 0.642613 0.209189
0.638297 0.643362 0.209938
0.665027 0.644116 0.210691
0.691875 0.644872 0.211448
0.718836 0.645632 0.212207
0.745906 0.646394 0.212970
0.773081 0.647160 0.213736
0.800359 0.647928 0.214504
0.827735 0.648700 0.215275
0.855206 0.649474 0.216049
0.882770 0.650250 0.216826
0.910424 0.651029 0.217605
0.938165 0.651811 0.218387
0.962452 0.652495 0.219071
0.962452 0.652495 0.219071
0.167737 0.658290 0.199121
0.189774 0.658911 0.199742
0.212416 0.659549 0.200379
0.235544 0.660200 0.201031
0.259081 0.660863 0.201694
0.282971 0.661536 0.202367
0.307173 0.662218 0.203049
0.331654 0.662908 0.203739
0.356388 0.663605 0.204436
0.381353 0.664308 0.205139
0.406533 0.665018 0.205849
0.431911 0.665733 0.206564
0.457475 0.666453 0.207284
0.483213 0.667178 0.208009
0.509115 0.667908 0.208739
0.535172 0.668642 0.209473
0.561377 0.669380 0.210211
0.587722 0.670123 0.210953
0.614201 0.670869 0.211699
0.640808 0.671618 0.212449
0.667538 0.672371 0.213202
0.694385 0.673128 0.213959
0.721346 0.673887 0.214718
0.748417 0.674650 0.215481
0.775592 0.675416 0.216246
0.802870 0.676184 0.217015
0.830246 0.676955 0.217786
0.857717 0.677729 0.218560
0.885281 0.678506 0.219337
0.912935 0.679285 0.220116
0.940676 0.680067 0.220898
0.964963 0.680751 0.221582
0.964963 0.680751 0.221582
0.170256 0.686645 0.201640
0.192294 0.687266 0.202261
0.214935 0.687904 0.202899
0.238064 0.688556 0.203551
0.261601 0.689219 0.204214
0.285491 0.689892 0.204887
0.309692 0.690574 0.205569
0.334173 0.691263 0.206259
0.358907 0.691960 0.206955
0.383873 0.692664 0.207659
0.409053 0.693373 0.208368
0.434431 0.694088 0.209083
0.459994 0.694808 0.209803
0.485732 0.695533 0.210529
0.511635 0.696263 0.211258
0.537692 0.696997 0.211993
0.563897 0.697736 0.212731
0.590242 0.698478 0.213473
0.616721 0.699224 0.214219
0.643328 0.699974 0.214969
0.670058 0.700727 0.215722
0.696905 0.701483 0.216478
0.723866 0.702243 0.217238
0.750936 0.703005 0.218000
0.778112 0.703771 0.218766
0.805389 0.704539 0.219535
0.832765 0.705311 0.220306
0.860237 0.706085 0.221080
0.887801 0.706861 0.221857
0.915455 0.707640 0.222636
0.943196 0.708422 0.223417
0.967482 0.709106 0.224101
0.967482 0.709106 0.224101
0.172785 0.715096 0.204169
0.194822 0.715717 0.204789
0.217464 0.716355 0.205427
0.240592 0.717007 0.206079
0.264129 0.717670 0.206742
0.288019 0.718343 0.207415
0.312221 0.719025 0.208097
0.336701 0.719714 0.208787
0.361435 0.720411 0.209484
0.386401 0.721115 0.210187
0.411581 0.721824 0.210896
0.436959 0.722539 0.211611
0.462523 0.723259 0.212332
0.488261 0.723985 0.213057
0.514163 0.724714 0.213787
0.540220 0.725448 0.214521
0.566425 0.726187 0.215259
0.592770 0.726929 0.216001
0.619249 0.727675 0.216747
0.645856 0.728425 0.217497
0.672586 0.729178 0.218250
0.699433 0.729934 0.219006
0.726394 0.730694 0.219766
0.753464 0.731456 0.220529
0.780640 0.732222 0.221294
0.807917 0.732991 0.222063
0.835293 0.733762 0.222834
0.862765 0.734536 0.223608
0.890329 0.735312 0.224385
0.917983 0.736092 0.225164
0.945724 0.736873 0.225945
0.970011 0.737557 0.226630
0.970011 0.737557 0.226630
0.175321 0.743640 0.206705
0.197358 0.744260 0.207326
0.220000 0.744898 0.207964
0.243128 0.745550 0.208615
0.266665 0.746213 0.209278
0.290555 0.746886 0.209952
0.314757 0.747568 0.210633
0.339238 0.748258 0.211323
0.363972 0.748955 0.212020
0.388938 0.749658 0.212723
0.414117 0.750367 0.213433
0.439495 0.751082 0.214148
0.465059 0.751803 0.214868
0.490797 0.752528 0.215593
0.516699 0.753258 0.216323
0.542757 0.753992 0.217057
0.568961 0.754730 0.217795
0.595306 0.755472 0.218538
0.621785 0.756218 0.219284
0.648392 0.756968 0.220033
0.675122 0.757721 0.220786
0.701970 0.758477 0.221543
0.728931 0.759237 0.222302
0.756001 0.760000 0.223065
0.783176 0.760765 0.223831
0.810454 0.761534 0.224599
0.837830 0.762305 0.225371
0.865301 0.763079 0.226144
0.892865 0.763856 0.226921
0.920519 0.764635 0.227700
0.948260 0.765416 0.228482
0.972547 0.766101 0.229166
0.972547 0.766101 0.229166
0.177865 0.772272 0.209249
0.199902 0.772893 0.209870
0.222544 0.773530 0.210508
0.245673 0.774182 0.211160
0.269210 0.774845 0.211823
0.293100 0.775518 0.212496
0.317301 0.776200 0.213178
0.341782 0.776890 0.213867
0.366516 0.777587 0.214564
0.391482 0.778290 0.215268
0.416661 0.779000 0.215977
0.442040 0.779715 0.216692
0.467603 0.780435 0.217412
0.493341 0.781160 0.218137
0.519243 0.781890 0.218867
0.545301 0.782624 0.219601
0.571506 0.783362 0.220340
0.597851 0.784104 0.221082
0.624330 0.784850 0.221828
0.650937 0.785600 0.222578
0.677666 0.786353 0.223331
0.704514 0.787110 0.224087
0.731475 0.787869 0.224847
0.758545 0.788632 0.225609
0.785721 0.789397 0.226375
0.812998 0.790166 0.227143
0.840374 0.790937 0.227915
0.867846 0.791711 0.228689
0.895410 0.792488 0.229465
0.923063 0.793267 0.230244
0.950804 0.794049 0.231026
0.975091 0.794733 0.231710
0.975091 0.794733 0.231710
0.180417 0.800990 0.211801
0.202454 0.801611 0.212422
0.225096 0.802248 0.213060
0.248224 0.802900 0.213711
0.271761 0.803563 0.214375
0.295652 0.804236 0.215048
0.319853 0.804918 0.215730
0.344334 0.805608 0.216419
0.369068 0.806305 0.217116
0.394034 0.807008 0.217820
0.419213 0.807718 0.218529
0.444591 0.808433 0.219244
0.470155 0.809153 0.219964
0.495893 0.809878 0.220689
0.521795 0.810608 0.221419
0.547853 0.811342 0.222153
0.574058 0.812080 0.222892
0.600403 0.812822 0.223634
0.626882 0.813568 0.224380
0.653489 0.814318 0.225129
0.680218 0.815071 0.225883
0.707066 0.815827 0.226639
0.734027 0.816587 0.227399
0.761097 0.817350 0.228161
0.788273 0.818115 0.228927
0.815550 0.818884 0.229695
0.842926 0.819655 0.230467
0.870397 0.820429 0.231241
0.897961 0.821206 0.232017
0.925615 0.821985 0.232796
0.953356 0.822767 0.233578
0.977643 0.823451 0.234262
0.977643 0.823451 0.234262
0.182976 0.829791 0.214360
0.205014 0.830411 0.214981
0.227655 0.831049 0.215619
0.250784 0.831701 0.216271
0.274321 0.832364 0.216934
0.298211 0.833037 0.217607
0.322412 0.833719 0.218289
0.346893 0.834409 0.218979
0.371627 0.835106 0.219675
0.396593 0.835809 0.220379
0.421773 0.836518 0.221088
0.447151 0.837233 0.221803
0.472715 0.837954 0.222523
0.498452 0.838679 0.223249
0.524355 0.839409 0.223978
0.550412 0.840143 0.224713
0.576617 0.840881 0.225451
0.602962 0.841623 0.226193
0.629441 0.842369 0.226939
