library/cube/Bright_Start_000.cube
# CINEGRADE LAB — Premium Cinematic LUT
# Title: Bright Start
# Category: Clean Creator Economy
# Description: Bright, clean, approachable, modern aesthetic for content creators
# Mood: Fresh, bright, friendly
# Variant: 1
# Generated: 2026-05-21T16:12:37.455713
TITLE "Bright Start"
LUT_3D_SIZE 5
0.120163 0.122922 0.151547
0.308814 0.128237 0.156862
0.513804 0.134013 0.162638
0.728019 0.140048 0.168673
0.917389 0.145384 0.174009
0.138332 0.327382 0.169716
0.326983 0.332697 0.175031
0.531972 0.338472 0.180806
0.746187 0.344508 0.186842
0.935558 0.349843 0.192177
0.157750 0.545909 0.189134
0.346401 0.551224 0.194449
0.551391 0.556999 0.200225
0.765606 0.563035 0.206260
0.954976 0.568370 0.211596
0.177865 0.772272 0.209249
0.366516 0.777587 0.214564
0.571506 0.783362 0.220340
0.785721 0.789397 0.226375
0.975091 0.794733 0.231710
0.195455 0.970220 0.226839
0.384106 0.975535 0.232154
0.589095 0.981310 0.237930
0.803311 0.987346 0.243965
0.992681 0.992681 0.249300
0.121945 0.124704 0.334241
0.310596 0.130019 0.339556
0.515585 0.135794 0.345331
0.729800 0.141829 0.351366
0.919171 0.147165 0.356702
0.140113 0.329163 0.352409
0.328764 0.334478 0.357724
0.533753 0.340253 0.363500
0.747969 0.346289 0.369535
0.937339 0.351624 0.374870
0.159532 0.547690 0.371828
0.348182 0.553005 0.377143
0.553172 0.558780 0.382918
0.767387 0.564816 0.388953
0.956758 0.570151 0.394289
0.179646 0.774053 0.391942
0.368297 0.779368 0.397257
0.573287 0.785143 0.403033
0.787502 0.791179 0.409068
0.976872 0.796514 0.414404
0.197236 0.972001 0.409532
0.385887 0.977316 0.414847
0.590877 0.983092 0.420623
0.805092 0.989127 0.426658
0.994462 0.994462 0.431993
0.123867 0.126626 0.531468
0.312518 0.131942 0.536783
0.517508 0.137717 0.542559
0.731723 0.143752 0.548594
0.921093 0.149088 0.553929
0.142036 0.331086 0.549637
0.330687 0.336401 0.554952
0.535676 0.342176 0.560727
0.749891 0.348212 0.566762
0.939262 0.353547 0.572098
0.161454 0.549613 0.569055
0.350105 0.554928 0.574370
0.555095 0.560703 0.580146
0.769310 0.566739 0.586181
0.958680 0.572074 0.591516
0.181569 0.775976 0.589170
0.370220 0.781291 0.594485
0.575210 0.787066 0.600261
0.789425 0.793101 0.606296
0.978795 0.798437 0.611631
0.199159 0.973924 0.606760
0.387810 0.979239 0.612075
0.592800 0.985014 0.617850
0.807015 0.991050 0.623886
0.996385 0.996385 0.629221
0.125873 0.128632 0.737214
0.314524 0.133947 0.742529
0.519514 0.139723 0.748305
0.733729 0.145758 0.754340
0.923099 0.151093 0.759675
0.144042 0.333092 0.755383
0.332693 0.338407 0.760698
0.537682 0.344182 0.766473
0.751897 0.350217 0.772509
0.941268 0.355553 0.777844
0.163460 0.551619 0.774801
0.352111 0.556934 0.780116
0.557101 0.562709 0.785892
0.771316 0.568745 0.791927
0.960686 0.574080 0.797262
0.183575 0.777982 0.794916
0.372226 0.783297 0.800231
0.577216 0.789072 0.806007
0.791431 0.795107 0.812042
0.980801 0.800443 0.817377
0.201165 0.975930 0.812506
0.389816 0.981245 0.817821
0.594805 0.987020 0.823596
0.809021 0.993056 0.829632
0.998391 0.998391 0.834967
0.127482 0.130241 0.902247
0.316133 0.135556 0.907562
0.521123 0.141332 0.913338
0.735338 0.147367 0.919373
0.924708 0.152702 0.924708
0.145651 0.334701 0.920416
0.334302 0.340016 0.925731
0.539291 0.345791 0.931506
0.753506 0.351826 0.937541
0.942877 0.357162 0.942877
0.165069 0.553228 0.939834
0.353720 0.558543 0.945149
0.558710 0.564318 0.950925
0.772925 0.570354 0.956960
0.962295 0.575689 0.962295
0.185184 0.779591 0.959949
0.373835 0.784906 0.965264
0.578825 0.790681 0.971039
0.793040 0.796716 0.977075
0.982410 0.802052 0.982410
0.202774 0.977539 0.977539
0.391425 0.982854 0.982854
0.596414 0.988629 0.988629
0.810629 0.994665 0.994665
1.000000 1.000000 1.000000
