library/cube/Bypass_Hard_004.cube
# CINEGRADE LAB — Premium Cinematic LUT
# Title: Bypass Hard
# Category: Bleach Bypass
# Description: Silver retention, high contrast, desaturated bleach bypass film process
# Mood: Gritty, stark, intense
# Variant: 5
# Generated: 2026-05-21T16:12:57.614412
TITLE "Bypass Hard"
LUT_3D_SIZE 9
0.000000 0.000000 0.000000
0.000001 0.000000 0.000000
0.112764 0.015097 0.012591
0.222403 0.029748 0.024794
0.329476 0.044028 0.036675
0.435033 0.058080 0.048353
0.539549 0.071969 0.059882
0.633032 0.084364 0.070158
0.633916 0.084407 0.070158
0.000013 0.000000 0.000000
0.000022 0.000000 0.000000
0.113366 0.015127 0.012591
0.223542 0.029804 0.024794
0.331113 0.044109 0.036675
0.437135 0.058184 0.048353
0.542087 0.072093 0.059882
0.635930 0.084504 0.070158
0.636750 0.084543 0.070158
0.056653 0.157732 0.042356
0.056747 0.157814 0.042356
0.170705 0.173047 0.054947
0.281451 0.187825 0.067150
0.389551 0.202225 0.079031
0.496069 0.216391 0.090709
0.601485 0.230386 0.102239
0.695720 0.242877 0.112514
0.696539 0.242974 0.112514
0.112078 0.311130 0.083408
0.112243 0.311273 0.083408
0.226755 0.326589 0.095999
0.338013 0.341444 0.108202
0.446588 0.355918 0.120083
0.553546 0.370151 0.131761
0.659370 0.384211 0.143291
0.753947 0.396759 0.153566
0.754752 0.396894 0.153566
0.166498 0.460900 0.123376
0.166720 0.461086 0.123376
0.281729 0.476462 0.135967
0.393443 0.491374 0.148170
0.502436 0.505898 0.160051
0.609779 0.520178 0.171729
0.715959 0.534279 0.183259
0.810827 0.546864 0.193534
0.811604 0.547019 0.193534
0.220377 0.608441 0.162661
0.220641 0.608652 0.162661
0.336091 0.624067 0.175252
0.448205 0.639014 0.187455
0.557563 0.653568 0.199336
0.665238 0.667874 0.211014
0.771721 0.681997 0.222544
0.866833 0.694598 0.232819
0.867568 0.694755 0.232819
0.273893 0.754350 0.201448
0.274189 0.754567 0.201448
0.390022 0.770002 0.214039
0.502483 0.784963 0.226242
0.612151 0.799528 0.238123
0.720106 0.813840 0.249800
0.826838 0.827965 0.261330
0.921658 0.840562 0.271606
0.922284 0.840704 0.271606
0.321918 0.884591 0.236016
0.322228 0.884795 0.236016
0.438386 0.900227 0.248607
0.551134 0.915180 0.260810
0.661056 0.929733 0.272691
0.769234 0.944029 0.284369
0.876161 0.958134 0.295898
0.968249 0.970707 0.306174
0.968622 0.970816 0.306174
0.322926 0.885218 0.236016
0.323208 0.885371 0.236016
0.439605 0.900761 0.248607
0.552560 0.915671 0.260810
0.662656 0.930178 0.272691
0.770980 0.944428 0.284369
0.878026 0.958484 0.295898
0.969356 0.971006 0.306174
0.969607 0.971059 0.306174
0.000000 0.000000 0.000000
0.000002 0.000000 0.000000
0.112826 0.015100 0.012591
0.222521 0.029754 0.024794
0.329645 0.044037 0.036675
0.435251 0.058091 0.048353
0.539814 0.071982 0.059882
0.633334 0.084379 0.070158
0.634212 0.084422 0.070158
0.000015 0.000000 0.000000
0.000025 0.000000 0.000000
0.113425 0.015130 0.012591
0.223653 0.029810 0.024794
0.331273 0.044117 0.036675
0.437340 0.058194 0.048353
0.542333 0.072105 0.059882
0.636211 0.084518 0.070158
0.637024 0.084556 0.070158
0.056685 0.157760 0.042356
0.056779 0.157841 0.042356
0.170788 0.173076 0.054947
0.281581 0.187855 0.067150
0.389725 0.202257 0.079031
0.496283 0.216423 0.090709
0.601735 0.230419 0.102239
0.696000 0.242911 0.112514
0.696813 0.243006 0.112514
0.112134 0.311179 0.083408
0.112299 0.311321 0.083408
0.226857 0.326637 0.095999
0.338157 0.341493 0.108202
0.446770 0.355966 0.120083
0.553763 0.370199 0.131761
0.659620 0.384258 0.143291
0.754223 0.396806 0.153566
0.755020 0.396939 0.153566
0.166574 0.460964 0.123376
0.166794 0.461148 0.123376
0.281844 0.476523 0.135967
0.393595 0.491433 0.148170
0.502622 0.505956 0.160051
0.609996 0.520235 0.171729
0.716204 0.534335 0.183259
0.811094 0.546918 0.193534
0.811862 0.547069 0.193534
0.220467 0.608514 0.162661
0.220730 0.608721 0.162661
0.336215 0.624135 0.175252
0.448363 0.639079 0.187455
0.557749 0.653631 0.199336
0.665450 0.667934 0.211014
0.771956 0.682055 0.222544
0.867086 0.694653 0.232819
0.867812 0.694806 0.232819
0.273994 0.754425 0.201448
0.274288 0.754638 0.201448
0.390152 0.770070 0.214039
0.502641 0.785028 0.226242
0.612333 0.799589 0.238123
0.720309 0.813897 0.249800
0.827060 0.828018 0.261330
0.921874 0.840612 0.271606
0.922490 0.840749 0.271606
0.322024 0.884662 0.236016
0.322331 0.884861 0.236016
0.438515 0.900289 0.248607
0.551286 0.915238 0.260810
0.661227 0.929786 0.272691
0.769422 0.944077 0.284369
0.876363 0.958178 0.295898
0.968380 0.970746 0.306174
0.968740 0.970849 0.306174
0.323023 0.885271 0.236016
0.323301 0.885420 0.236016
0.439721 0.900805 0.248607
0.552693 0.915711 0.260810
0.662805 0.930214 0.272691
0.771142 0.944458 0.284369
0.878198 0.958509 0.295898
0.969445 0.971026 0.306174
0.969683 0.971073 0.306174
0.005663 0.005123 0.124516
0.005674 0.005126 0.124516
0.118567 0.020233 0.137107
0.228326 0.034892 0.149310
0.335512 0.049180 0.161191
0.441174 0.063240 0.172869
0.545790 0.077136 0.184399
0.639356 0.089537 0.194674
0.640235 0.089582 0.194674
0.005710 0.005133 0.124516
0.005729 0.005136 0.124516
0.119193 0.020272 0.137107
0.229481 0.034957 0.149310
0.337156 0.049269 0.161191
0.443275 0.063350 0.172869
0.548317 0.077266 0.184399
0.642236 0.089682 0.194674
0.643050 0.089722 0.194674
0.062436 0.162931 0.166873
0.062539 0.163014 0.166873
0.176606 0.178252 0.179463
0.287452 0.193035 0.191667
0.395646 0.207440 0.203547
0.502251 0.221610 0.215225
0.607747 0.235609 0.226755
0.702048 0.248103 0.237031
0.702860 0.248199 0.237031
0.117935 0.316379 0.207925
0.118106 0.316521 0.207925
0.232717 0.331840 0.220516
0.344066 0.346698 0.232719
0.452723 0.361173 0.244600
0.559757 0.375408 0.256277
0.665652 0.389469 0.267807
0.760286 0.402017 0.278083
0.761082 0.402150 0.278083
0.172417 0.466186 0.247893
0.172642 0.466369 0.247893
0.287739 0.481745 0.260483
0.399534 0.496656 0.272687
0.508599 0.511180 0.284567
0.616009 0.525459 0.296245
0.722249 0.539559 0.307775
0.817167 0.552141 0.318051
0.817932 0.552291 0.318051
0.226346 0.613750 0.287178
0.226613 0.613955 0.287178
0.342139 0.629369 0.299768
0.454324 0.644312 0.311972
0.563744 0.658864 0.323852
0.671476 0.673166 0.335530
0.778009 0.687285 0.347060
0.873161 0.699881 0.357336
0.873882 0.700031 0.357336
0.279902 0.759669 0.325964
0.280198 0.759879 0.325964
0.396098 0.775309 0.338555
0.508619 0.790265 0.350758
0.618339 0.804824 0.362639
0.726340 0.819130 0.374317
0.833113 0.833248 0.385847
0.927650 0.845839 0.396122
0.928239 0.845972 0.396122
0.327953 0.889906 0.360532
0.328262 0.890101 0.360532
0.444476 0.905526 0.373123
0.557274 0.920471 0.385326
0.667238 0.935016 0.397207
0.775452 0.949304 0.408885
0.882410 0.963400 0.420415
0.974011 0.975964 0.430690
0.974339 0.976061 0.430690
0.328957 0.890502 0.360532
0.329236 0.890646 0.360532
0.445680 0.906028 0.373123
0.558675 0.920929 0.385326
0.668804 0.935428 0.397207
0.777156 0.949668 0.408885
0.884225 0.963714 0.420415
0.974966 0.976227 0.430690
0.975169 0.976269 0.430690
0.011157 0.010090 0.245199
0.011178 0.010097 0.245199
0.124139 0.025209 0.257790
0.233962 0.039874 0.269993
0.341207 0.054168 0.281874
0.446925 0.068233 0.293552
0.551594 0.082133 0.305082
0.645205 0.094539 0.315357
0.646084 0.094586 0.315357
0.011236 0.010111 0.245199
0.011263 0.010116 0.245199
0.124791 0.025257 0.257790
0.235137 0.039947 0.269993
0.342867 0.054264 0.281874
0.449037 0.068350 0.293552
0.554127 0.082270 0.305082
0.648086 0.094690 0.315357
0.648900 0.094732 0.315357
0.068017 0.167945 0.287556
0.068127 0.168029 0.287556
0.182251 0.183271 0.300146
0.293151 0.198058 0.312350
0.401394 0.212466 0.324230
0.508044 0.226639 0.335908
0.613583 0.240641 0.347438
0.707920 0.253137 0.357714
0.708731 0.253233 0.357714
0.123564 0.321422 0.328608
0.123741 0.321564 0.328608
0.238403 0.336885 0.341199
0.349800 0.351745 0.353402
0.458501 0.366222 0.365283
0.565576 0.380459 0.376960
0.671508 0.394521 0.388490
0.766173 0.407070 0.398766
0.766966 0.407202 0.398766
0.178086 0.471250 0.368576
0.178317 0.471431 0.368576
0.293460 0.486809 0.381166
0.405296 0.501721 0.393370
0.514400 0.516245 0.405250
0.621845 0.530524 0.416928
0.728118 0.544623 0.428458
0.823061 0.557205 0.438734
0.823822 0.557354 0.438734
0.232049 0.618828 0.407861
0.232320 0.619031 0.407861
0.347887 0.634444 0.420451
0.460109 0.649387 0.432655
0.569561 0.663937 0.444535
0.677323 0.678238 0.456213
0.783883 0.692356 0.467743
0.879056 0.704950 0.478019
0.879773 0.705097 0.478019
0.285634 0.764754 0.446647
0.285932 0.764961 0.446647
0.401867 0.780389 0.459238
0.514419 0.795343 0.471441
0.624167 0.809899 0.483322
0.732193 0.824203 0.495000
0.838987 0.838318 0.506530
0.933241 0.850905 0.516805
0.933803 0.851034 0.516805
0.333705 0.894990 0.481215
0.334015 0.895181 0.481215
0.450258 0.910602 0.493806
0.563082 0.925545 0.506009
0.673068 0.940086 0.517890
0.781302 0.954369 0.529568
0.888276 0.968461 0.541098
0.979455 0.981021 0.551373
0.979751 0.981113 0.551373
0.334712 0.895572 0.481215
0.334993 0.895712 0.481215
0.451461 0.911090 0.493806
0.564476 0.925987 0.506009
0.674623 0.940482 0.517890
0.782990 0.954717 0.529568
0.890070 0.968759 0.541098
0.980300 0.981266 0.551373
0.980469 0.981302 0.551373
0.016513 0.014929 0.362694
0.016543 0.014938 0.362694
0.129571 0.030056 0.375285
0.239457 0.044727 0.387488
0.346761 0.059026 0.399369
0.452534 0.073095 0.411047
0.557254 0.087001 0.422577
0.650909 0.099410 0.432852
0.651790 0.099459 0.432852
0.016621 0.014958 0.362694
0.016657 0.014967 0.362694
0.130247 0.030113 0.375285
0.240651 0.044808 0.387488
0.348435 0.059129 0.399369
0.454655 0.073220 0.411047
0.559793 0.087144 0.422577
0.653792 0.099567 0.432852
0.654606 0.099610 0.432852
0.073456 0.172828 0.405051
0.073573 0.172914 0.405051
0.187754 0.188160 0.417641
0.298707 0.202950 0.429845
0.406998 0.217362 0.441725
0.513693 0.231537 0.453403
0.619274 0.245542 0.464933
0.713646 0.258040 0.475209
0.714456 0.258137 0.475209
0.129049 0.326333 0.446103
0.129233 0.326476 0.446103
0.243946 0.341799 0.458694
0.355389 0.356661 0.470897
0.464134 0.371140 0.482778
0.571248 0.385378 0.494455
0.677217 0.399441 0.505985
0.771912 0.411991 0.516261
0.772703 0.412122 0.516261
0.183611 0.476181 0.486071
0.183847 0.476362 0.486071
0.299035 0.491740 0.498661
0.410913 0.506653 0.510865
0.520055 0.521177 0.522745
0.627534 0.535456 0.534423
0.733838 0.549556 0.545953
0.828807 0.562137 0.556229
0.829565 0.562283 0.556229
0.237608 0.623773 0.525356
0.237882 0.623974 0.525356
0.353489 0.639387 0.537946
0.465746 0.654329 0.550149
0.575232 0.668878 0.562030
0.683023 0.683177 0.573708
0.789609 0.697293 0.585238
0.884802 0.709886 0.595514
0.885514 0.710030 0.595514
0.291219 0.769705 0.564142
0.291520 0.769909 0.564142
0.407489 0.785336 0.576733
0.520071 0.800287 0.588936
0.629846 0.814841 0.600817
0.737896 0.829142 0.612495
0.844712 0.843254 0.624024
0.938675 0.855838 0.634300
0.939210 0.855962 0.634300
0.339310 0.899941 0.598710
0.339621 0.900127 0.598710
0.455893 0.915546 0.611301
0.568741 0.930484 0.623504
0.678749 0.945021 0.635385
0.787002 0.959301 0.647063
0.893992 0.973389 0.658593
0.984742 0.985943 0.668868
0.985006 0.986030 0.668868
0.340320 0.900508 0.598710
0.340601 0.900643 0.598710
0.457093 0.916018 0.611301
0.570128 0.930911 0.623504
0.680292 0.945401 0.635385
0.788672 0.959632 0.647063
0.895763 0.973668 0.658593
0.985476 0.986170 0.668868
0.985611 0.986201 0.668868
0.021783 0.019686 0.478182
0.021822 0.019698 0.478182
0.134917 0.034822 0.490773
0.244865 0.049498 0.502976
0.352226 0.063802 0.514857
0.458054 0.077877 0.526534
0.562826 0.091786 0.538064
0.656525 0.104200 0.548340
0.657405 0.104250 0.548340
0.021920 0.019725 0.478182
0.021964 0.019736 0.478182
0.135616 0.034887 0.490773
0.246077 0.049587 0.502976
0.353914 0.063913 0.514857
0.460184 0.078008 0.526534
0.565368 0.091935 0.538064
0.659407 0.104363 0.548340
0.660221 0.104407 0.548340
0.078808 0.177630 0.520538
0.078932 0.177717 0.520538
0.193169 0.192967 0.533129
0.304173 0.207760 0.545332
0.412512 0.222175 0.557213
0.519252 0.236353 0.568891
0.624874 0.250360 0.580420
0.719281 0.262860 0.590696
0.720089 0.262957 0.590696
0.134447 0.331162 0.561590
0.134636 0.331305 0.561590
0.249400 0.346630 0.574181
0.360889 0.361494 0.586384
0.469676 0.375975 0.598265
0.576829 0.390214 0.609943
0.682834 0.404278 0.621473
0.777559 0.416829 0.631748
0.778347 0.416959 0.631748
0.189047 0.481030 0.601558
0.189287 0.481210 0.601558
0.304521 0.496589 0.614149
0.416439 0.511502 0.626352
0.525618 0.526026 0.638233
0.633131 0.540305 0.649911
0.739466 0.554405 0.661440
0.834460 0.566985 0.671716
0.835213 0.567129 0.671716
0.243076 0.628635 0.640843
0.243354 0.628834 0.640843
0.359000 0.644245 0.653434
0.471292 0.659187 0.665637
0.580809 0.673734 0.677518
0.688629 0.688033 0.689196
0.795240 0.702147 0.700725
0.890454 0.714737 0.711001
0.891161 0.714878 0.711001
0.296713 0.774573 0.679630
0.297016 0.774774 0.679630
0.413019 0.790198 0.692221
0.525631 0.805147 0.704424
0.635432 0.819699 0.716305
0.743505 0.833996 0.727982
0.850341 0.848105 0.739512
0.944005 0.860686 0.749788
0.944513 0.860806 0.749788
0.344822 0.904807 0.714198
0.345134 0.904989 0.714198
0.461434 0.920404 0.726789
0.574307 0.935339 0.738992
0.684336 0.949872 0.750873
0.792607 0.964148 0.762550
0.899612 0.978231 0.774080
0.989923 0.990781 0.784356
0.990155 0.990863 0.784356
0.345835 0.905359 0.714198
0.346116 0.905490 0.714198
0.462631 0.920861 0.726789
0.575686 0.935750 0.738992
0.685866 0.950235 0.750873
0.794260 0.964461 0.762550
0.901361 0.978493 0.774080
0.990546 0.990990 0.784356
0.990647 0.991015 0.784356
0.026992 0.024385 0.592205
0.027040 0.024400 0.592205
0.140201 0.039530 0.604795
0.250210 0.054211 0.616999
0.357629 0.068520 0.628879
0.463511 0.082599 0.640557
0.568333 0.096513 0.652087
0.662075 0.108930 0.662363
0.662955 0.108982 0.662363
0.027158 0.024433 0.592205
0.027210 0.024446 0.592205
0.140922 0.039603 0.604795
0.251440 0.054307 0.616999
0.359330 0.068638 0.628879
0.465649 0.082736 0.640557
0.570879 0.096668 0.652087
0.664957 0.109098 0.662363
0.665770 0.109144 0.662363
0.084097 0.182372 0.634561
0.084228 0.182461 0.634561
0.198520 0.197714 0.647152
0.309575 0.212511 0.659355
0.417962 0.226928 0.671236
0.524745 0.241109 0.682913
0.630408 0.255118 0.694443
0.724849 0.267620 0.704719
0.725655 0.267718 0.704719
0.139780 0.335931 0.675613
0.139975 0.336074 0.675613
0.254788 0.351402 0.688204
0.366324 0.366268 0.700407
0.475152 0.380749 0.712288
0.582344 0.394990 0.723966
0.688385 0.409055 0.735495
0.783139 0.421606 0.745771
0.783923 0.421735 0.745771
0.194419 0.485819 0.715581
0.194663 0.485997 0.715581
0.309941 0.501377 0.728172
0.421899 0.516290 0.740375
0.531115 0.530815 0.752256
0.638661 0.545094 0.763934
0.745026 0.559192 0.775463
0.840044 0.571772 0.785739
0.840793 0.571914 0.785739
0.248479 0.633435 0.754866
0.248760 0.633632 0.754866
0.364444 0.649043 0.767457
0.476772 0.663983 0.779660
0.586320 0.678530 0.791541
0.694167 0.692826 0.803218
0.800804 0.706939 0.814748
0.896037 0.719527 0.825024
0.896738 0.719664 0.825024
0.302142 0.779379 0.793653
0.302446 0.779576 0.793653
0.418482 0.794999 0.806243
0.531123 0.809945 0.818446
0.640950 0.824494 0.830327
0.749046 0.838789 0.842005
0.855901 0.852895 0.853535
0.949255 0.865471 0.863811
0.949736 0.865588 0.863811
0.350268 0.909611 0.828221
0.350581 0.909789 0.828221
0.466908 0.925200 0.840811
0.579805 0.940131 0.853015
0.689854 0.954661 0.864895
0.798142 0.968932 0.876573
0.905162 0.983010 0.888103
0.995023 0.995555 0.898379
0.995222 0.995632 0.898379
0.351283 0.910149 0.828221
0.351564 0.910275 0.828221
0.468101 0.925642 0.840811
0.581175 0.940526 0.853015
0.691371 0.955007 0.864895
0.799777 0.969228 0.876573
0.906888 0.983255 0.888103
0.995534 0.995746 0.898379
0.995599 0.995766 0.898379
0.031642 0.028576 0.693826
0.031697 0.028593 0.693826
0.144923 0.043728 0.706417
0.254992 0.058414 0.718620
0.362467 0.072727 0.730501
0.468401 0.086811 0.742179
0.573273 0.100729 0.753708
0.667056 0.113149 0.763984
0.667936 0.113203 0.763984
0.031832 0.028631 0.693826
0.031891 0.028646 0.693826
0.145663 0.043807 0.706417
0.256237 0.058516 0.718620
0.364177 0.072851 0.730501
0.470545 0.086953 0.742179
0.575819 0.100888 0.753708
0.669935 0.113322 0.763984
0.670746 0.113369 0.763984
0.088820 0.186603 0.736182
0.088956 0.186693 0.736182
0.203303 0.201949 0.748773
0.314408 0.216749 0.760976
0.422841 0.231169 0.772857
0.529667 0.245352 0.784535
0.635369 0.259364 0.796065
0.729842 0.271867 0.806340
0.730646 0.271965 0.806340
0.144545 0.340187 0.777234
0.144744 0.340330 0.777234
0.259606 0.355660 0.789825
0.371186 0.370527 0.802028
0.480055 0.385010 0.813909
0.587284 0.399252 0.825587
0.693359 0.413317 0.837117
0.788141 0.425869 0.847392
0.788922 0.425997 0.847392
0.199218 0.490093 0.817202
0.199466 0.490271 0.817202
0.314787 0.505651 0.829793
0.426784 0.520564 0.841996
0.536035 0.535088 0.853877
0.643614 0.549367 0.865555
0.750008 0.563465 0.877085
0.845049 0.576043 0.887360
0.845794 0.576183 0.887360
0.253307 0.637721 0.856487
0.253590 0.637915 0.856487
0.369312 0.653326 0.869078
0.481673 0.668264 0.881281
0.591251 0.682809 0.893162
0.699126 0.697104 0.904840
0.805786 0.711214 0.916370
0.901038 0.723800 0.926645
0.901734 0.723934 0.926645
0.306993 0.783669 0.895274
0.307298 0.783863 0.895274
0.423366 0.799283 0.907865
0.536035 0.814227 0.920068
0.645887 0.828773 0.931949
0.754005 0.843065 0.943626
0.860879 0.857167 0.955156
0.953940 0.869740 0.965432
0.954394 0.869852 0.965432
0.355135 0.913898 0.929842
0.355447 0.914072 0.929842
0.471801 0.929479 0.942433
0.584721 0.944407 0.954636
0.694790 0.958932 0.966517
0.803095 0.973198 0.978195
0.910128 0.987272 0.989724
0.999560 0.999812 1.000000
0.999728 0.999884 1.000000
0.356149 0.914421 0.929842
0.356430 0.914542 0.929842
0.472989 0.929905 0.942433
0.586081 0.944785 0.954636
0.696291 0.959261 0.966517
0.804710 0.973477 0.978195
0.911830 0.987499 0.989724
0.999965 0.999985 1.000000
0.999998 0.999999 1.000000
0.031660 0.028582 0.693826
0.031716 0.028599 0.693826
0.144999 0.043736 0.706417
0.255121 0.058425 0.718620
0.362645 0.072740 0.730501
0.468625 0.086826 0.742179
0.573539 0.100746 0.753708
0.667357 0.113168 0.763984
0.668230 0.113221 0.763984
0.031852 0.028636 0.693826
0.031911 0.028652 0.693826
0.145736 0.043815 0.706417
0.256358 0.058526 0.718620
0.364344 0.072863 0.730501
0.470753 0.086967 0.742179
0.576066 0.100903 0.753708
0.670213 0.113338 0.763984
0.671017 0.113385 0.763984
0.088866 0.186634 0.736182
0.089003 0.186722 0.736182
0.203397 0.201980 0.748773
0.314545 0.216781 0.760976
0.423018 0.231201 0.772857
0.529881 0.245385 0.784535
0.635617 0.259397 0.796065
0.730118 0.271901 0.806340
0.730914 0.271997 0.806340
0.144613 0.340237 0.777234
0.144811 0.340378 0.777234
0.259716 0.355707 0.789825
0.371334 0.370574 0.802028
0.480238 0.385057 0.813909
0.587500 0.399298 0.825587
0.693604 0.413362 0.837117
0.788409 0.425913 0.847392
0.789182 0.426038 0.847392
0.199303 0.490154 0.817202
0.199549 0.490329 0.817202
0.314907 0.505708 0.829793
0.426939 0.520620 0.841996
0.536220 0.535143 0.853877
0.643826 0.549420 0.865555
0.750245 0.563516 0.877085
0.845305 0.576092 0.887360
0.846040 0.576229 0.887360
0.253404 0.637788 0.856487
0.253685 0.637979 0.856487
0.369440 0.653387 0.869078
0.481830 0.668323 0.881281
0.591433 0.682866 0.893162
0.699331 0.697158 0.904840
0.806011 0.711265 0.916370
0.901278 0.723847 0.926645
0.901963 0.723977 0.926645
0.307097 0.783737 0.895274
0.307401 0.783926 0.895274
0.423496 0.799343 0.907865
0.536189 0.814283 0.920068
0.646062 0.828825 0.931949
0.754197 0.843113 0.943626
0.861087 0.857211 0.955156
0.954098 0.869780 0.965432
0.954540 0.869886 0.965432
0.355242 0.913959 0.929842
0.355552 0.914127 0.929842
0.471928 0.929530 0.942433
0.584867 0.944453 0.954636
0.694952 0.958973 0.966517
0.803270 0.973235 0.978195
0.910314 0.987304 0.989724
0.999622 0.999839 1.000000
0.999776 0.999904 1.000000
0.356246 0.914464 0.929842
0.356523 0.914580 0.929842
0.473100 0.929938 0.942433
0.586207 0.944813 0.954636
0.696430 0.959284 0.966517
0.804857 0.973495 0.978195
0.911984 0.987511 0.989724
0.999980 0.999992 1.000000
1.000000 1.000000 1.000000
