library/cube/Bypass_Hard_004.cube
# CINEGRADE LAB — Premium Cinematic LUT
# Title: Bypass Hard
# Category: Bleach Bypass
# Description: Silver retention, high contrast, desaturated bleach bypass film process
# Mood: Gritty, stark, intense
# Variant: 5
# Generated: 2026-05-21T16:12:57.614412
TITLE "Bypass Hard"
LUT_3D_SIZE 33
0.000000 0.000000 0.000000
0.000000 0.000000 0.000000
0.000000 0.000000 0.000000
0.000001 0.000000 0.000000
0.000001 0.000000 0.000000
0.026666 0.003573 0.002981
0.056066 0.007510 0.006265
0.084659 0.011337 0.009456
0.112764 0.015097 0.012591
0.140524 0.018810 0.015684
0.168019 0.022484 0.018746
0.195300 0.026129 0.021781
0.222403 0.029748 0.024794
0.249353 0.033345 0.027788
0.276172 0.036923 0.030765
0.302876 0.040483 0.033727
0.329476 0.044028 0.036675
0.355983 0.047559 0.039611
0.382407 0.051078 0.042535
0.408755 0.054585 0.045449
0.435033 0.058080 0.048353
0.461246 0.061566 0.051247
0.487401 0.065042 0.054134
0.513501 0.068510 0.057012
0.539549 0.071969 0.059882
0.565550 0.075421 0.062746
0.591506 0.078865 0.065602
0.617420 0.082302 0.068452
0.633032 0.084364 0.070158
0.633255 0.084375 0.070158
0.633476 0.084386 0.070158
0.633697 0.084397 0.070158
0.633916 0.084407 0.070158
0.000001 0.000000 0.000000
0.000001 0.000000 0.000000
0.000002 0.000000 0.000000
0.000003 0.000000 0.000000
0.000004 0.000000 0.000000
0.026705 0.003575 0.002981
0.056144 0.007514 0.006265
0.084774 0.011343 0.009456
0.112916 0.015105 0.012591
0.140712 0.018819 0.015684
0.168242 0.022496 0.018746
0.195557 0.026142 0.021781
0.222693 0.029763 0.024794
0.249677 0.033361 0.027788
0.276528 0.036940 0.030765
0.303263 0.040503 0.033727
0.329895 0.044049 0.036675
0.356433 0.047582 0.039611
0.382887 0.051102 0.042535
0.409264 0.054610 0.045449
0.435572 0.058107 0.048353
0.461814 0.061594 0.051247
0.487997 0.065072 0.054134
0.514125 0.068541 0.057012
0.540201 0.072001 0.059882
0.566229 0.075454 0.062746
0.592211 0.078899 0.065602
0.618152 0.082338 0.068452
0.633777 0.084400 0.070158
0.633996 0.084411 0.070158
0.634213 0.084422 0.070158
0.634430 0.084432 0.070158
0.634645 0.084443 0.070158
0.000003 0.000000 0.000000
0.000004 0.000000 0.000000
0.000005 0.000000 0.000000
0.000007 0.000000 0.000000
0.000008 0.000000 0.000000
0.026745 0.003576 0.002981
0.056222 0.007518 0.006265
0.084889 0.011349 0.009456
0.113067 0.015113 0.012591
0.140898 0.018828 0.015684
0.168462 0.022507 0.018746
0.195811 0.026155 0.021781
0.222980 0.029777 0.024794
0.249996 0.033377 0.027788
0.276879 0.036958 0.030765
0.303645 0.040522 0.033727
0.330307 0.044070 0.036675
0.356876 0.047604 0.039611
0.383359 0.051125 0.042535
0.409766 0.054635 0.045449
0.436102 0.058133 0.048353
0.462373 0.061622 0.051247
0.488583 0.065101 0.054134
0.514738 0.068571 0.057012
0.540841 0.072033 0.059882
0.566895 0.075487 0.062746
0.592904 0.078933 0.065602
0.618870 0.082373 0.068452
0.634508 0.084436 0.070158
0.634723 0.084446 0.070158
0.634937 0.084457 0.070158
0.635149 0.084467 0.070158
0.635360 0.084477 0.070158
0.000007 0.000000 0.000000
0.000009 0.000000 0.000000
0.000010 0.000000 0.000000
0.000012 0.000000 0.000000
0.000014 0.000000 0.000000
0.026785 0.003578 0.002981
0.056301 0.007521 0.006265
0.085004 0.011354 0.009456
0.113217 0.015120 0.012591
0.141082 0.018837 0.015684
0.168680 0.022517 0.018746
0.196061 0.026167 0.021781
0.223263 0.029791 0.024794
0.250310 0.033393 0.027788
0.277225 0.036975 0.030765
0.304021 0.040540 0.033727
0.330713 0.044090 0.036675
0.357311 0.047625 0.039611
0.383824 0.051148 0.042535
0.410259 0.054659 0.045449
0.436623 0.058159 0.048353
0.462922 0.061649 0.051247
0.489159 0.065129 0.054134
0.515341 0.068600 0.057012
0.541470 0.072063 0.059882
0.567550 0.075519 0.062746
0.593584 0.078966 0.065602
0.619574 0.082407 0.068452
0.635226 0.084471 0.070158
0.635437 0.084481 0.070158
0.635647 0.084491 0.070158
0.635855 0.084501 0.070158
0.636062 0.084510 0.070158
0.000013 0.000000 0.000000
0.000015 0.000000 0.000000
0.000017 0.000000 0.000000
0.000019 0.000000 0.000000
0.000022 0.000000 0.000000
0.026827 0.003580 0.002981
0.056379 0.007525 0.006265
0.085118 0.011360 0.009456
0.113366 0.015127 0.012591
0.141265 0.018846 0.015684
0.168895 0.022528 0.018746
0.196309 0.026179 0.021781
0.223542 0.029804 0.024794
0.250621 0.033408 0.027788
0.277565 0.036991 0.030765
0.304392 0.040558 0.033727
0.331113 0.044109 0.036675
0.357740 0.047646 0.039611
0.384281 0.051170 0.042535
0.410744 0.054683 0.045449
0.437135 0.058184 0.048353
0.463461 0.061675 0.051247
0.489725 0.065156 0.054134
0.515933 0.068629 0.057012
0.542087 0.072093 0.059882
0.568192 0.075549 0.062746
0.594251 0.078998 0.065602
0.620266 0.082440 0.068452
0.635930 0.084504 0.070158
0.636137 0.084514 0.070158
0.636343 0.084524 0.070158
0.636547 0.084533 0.070158
0.636750 0.084543 0.070158
0.013372 0.037292 0.010028
0.013379 0.037297 0.010028
0.013387 0.037302 0.010028
0.013394 0.037308 0.010028
0.013402 0.037313 0.010028
0.040246 0.040900 0.013009
0.069839 0.044852 0.016293
0.098617 0.048693 0.019484
0.126904 0.052467 0.022619
0.154841 0.056193 0.025712
0.182508 0.059881 0.028774
0.209958 0.063539 0.031809
0.237227 0.067171 0.034822
0.264340 0.070780 0.037816
0.291319 0.074370 0.040793
0.318180 0.077943 0.043755
0.344934 0.081500 0.046703
0.371594 0.085043 0.049639
0.398167 0.088573 0.052563
0.424662 0.092091 0.055477
0.451085 0.095598 0.058381
0.477441 0.099095 0.061275
0.503735 0.102582 0.064162
0.529972 0.106061 0.067040
0.556156 0.109530 0.069910
0.582290 0.112992 0.072774
0.608377 0.116446 0.075630
0.634420 0.119893 0.078480
0.650101 0.121962 0.080186
0.650308 0.121976 0.080186
0.650513 0.121990 0.080186
0.650718 0.122003 0.080186
0.650921 0.122016 0.080186
0.028126 0.078414 0.021076
0.028139 0.078425 0.021076
0.028152 0.078436 0.021076
0.028165 0.078447 0.021076
0.028179 0.078457 0.021076
0.055060 0.082051 0.024057
0.084694 0.086010 0.027341
0.113512 0.089859 0.030532
0.141836 0.093640 0.033667
0.169810 0.097372 0.036760
0.197514 0.101067 0.039822
0.225000 0.104731 0.042857
0.252304 0.108370 0.045870
0.279452 0.111986 0.048864
0.306465 0.115582 0.051841
0.333359 0.119162 0.054803
0.360147 0.122725 0.057751
0.386839 0.126274 0.060687
0.413444 0.129810 0.063611
0.439970 0.133334 0.066525
0.466423 0.136847 0.069429
0.492810 0.140350 0.072323
0.519134 0.143843 0.075210
0.545401 0.147327 0.078088
0.571613 0.150802 0.080958
0.597776 0.154270 0.083822
0.623890 0.157729 0.086678
0.649961 0.161182 0.089528
0.665658 0.163256 0.091234
0.665865 0.163273 0.091234
0.666071 0.163291 0.091234
0.666276 0.163308 0.091234
0.666479 0.163326 0.091234
0.042499 0.118412 0.031812
0.042518 0.118428 0.031812
0.042537 0.118444 0.031812
0.042555 0.118459 0.031812
0.042574 0.118475 0.031812
0.069492 0.122075 0.034793
0.099166 0.126041 0.038077
0.128022 0.129896 0.041268
0.156383 0.133683 0.044403
0.184394 0.137422 0.047496
0.212133 0.141124 0.050557
0.239654 0.144794 0.053593
0.266992 0.148438 0.056606
0.294174 0.152060 0.059600
0.321220 0.155663 0.062577
0.348146 0.159248 0.065538
0.374966 0.162817 0.068487
0.401689 0.166372 0.071422
0.428325 0.169914 0.074347
0.454881 0.173443 0.077260
0.481365 0.176962 0.080164
0.507780 0.180470 0.083059
0.534134 0.183968 0.085945
0.560429 0.187457 0.088824
0.586669 0.190938 0.091694
0.612859 0.194410 0.094557
0.639001 0.197875 0.097414
0.665098 0.201332 0.100264
0.680811 0.203411 0.101970
0.681018 0.203432 0.101970
0.681224 0.203453 0.101970
0.681428 0.203474 0.101970
0.681632 0.203495 0.101970
0.056653 0.157732 0.042356
0.056676 0.157753 0.042356
0.056700 0.157773 0.042356
0.056724 0.157794 0.042356
0.056747 0.157814 0.042356
0.083701 0.161420 0.045337
0.113414 0.165392 0.048621
0.142307 0.169253 0.051813
0.170705 0.173047 0.054947
0.198750 0.176792 0.058040
0.226525 0.180499 0.061102
0.254079 0.184175 0.064137
0.281451 0.187825 0.067150
0.308665 0.191452 0.070144
0.335743 0.195060 0.073121
0.362701 0.198651 0.076083
0.389551 0.202225 0.079031
0.416305 0.205785 0.081967
0.442971 0.209332 0.084891
0.469557 0.212867 0.087805
0.496069 0.216391 0.090709
0.522513 0.219904 0.093604
0.548894 0.223407 0.096490
0.575217 0.226901 0.099368
0.601485 0.230386 0.102239
0.627701 0.233864 0.105102
0.653869 0.237333 0.107958
0.679991 0.240795 0.110808
0.695720 0.242877 0.112514
0.695926 0.242902 0.112514
0.696132 0.242926 0.112514
0.696336 0.242950 0.112514
0.696539 0.242974 0.112514
0.070655 0.196572 0.052763
0.070683 0.196597 0.052763
0.070712 0.196622 0.052763
0.070740 0.196646 0.052763
0.070768 0.196671 0.052763
0.097757 0.200283 0.055744
0.127508 0.204261 0.059028
0.156437 0.208127 0.062219
0.184870 0.211926 0.065354
0.212950 0.215677 0.068447
0.240758 0.219389 0.071508
0.268346 0.223071 0.074544
0.295749 0.226726 0.077557
0.322996 0.230359 0.080551
0.350105 0.233972 0.083528
0.377093 0.237567 0.086489
0.403974 0.241147 0.089438
0.430757 0.244712 0.092373
0.457452 0.248264 0.095298
0.484066 0.251803 0.098211
0.510607 0.255331 0.101115
0.537078 0.258849 0.104010
0.563487 0.262357 0.106896
0.589836 0.265855 0.109775
0.616130 0.269345 0.112645
0.642372 0.272827 0.115508
0.668565 0.276300 0.118365
0.694712 0.279766 0.121215
0.710455 0.281853 0.122921
0.710661 0.281880 0.122921
0.710866 0.281907 0.122921
0.711070 0.281934 0.122921
0.711272 0.281961 0.122921
0.084545 0.235041 0.063062
0.084578 0.235070 0.063062
0.084611 0.235099 0.063062
0.084643 0.235128 0.063062
0.084676 0.235156 0.063062
0.111699 0.238774 0.066043
0.141486 0.242757 0.069327
0.170451 0.246629 0.072518
0.198918 0.250433 0.075652
0.227032 0.254189 0.078746
0.254873 0.257906 0.081807
0.282492 0.261592 0.084843
0.309928 0.265253 0.087856
0.337205 0.268890 0.090850
0.364344 0.272508 0.093826
0.391363 0.276108 0.096788
0.418272 0.279692 0.099736
0.445084 0.283262 0.102672
0.471807 0.286818 0.105597
0.498449 0.290362 0.108510
0.525017 0.293895 0.111414
0.551515 0.297417 0.114309
0.577950 0.300929 0.117195
0.604324 0.304431 0.120073
0.630644 0.307925 0.122944
0.656910 0.311410 0.125807
0.683128 0.314888 0.128664
0.709299 0.318358 0.131514
0.725056 0.320447 0.133220
0.725261 0.320478 0.133220
0.725465 0.320507 0.133220
0.725668 0.320537 0.133220
0.725870 0.320566 0.133220
0.098347 0.273211 0.073272
0.098384 0.273244 0.073272
0.098421 0.273276 0.073272
0.098458 0.273309 0.073272
0.098496 0.273341 0.073272
0.125552 0.276963 0.076253
0.155375 0.280951 0.079537
0.184374 0.284828 0.082729
0.212875 0.288638 0.085863
0.241021 0.292398 0.088957
0.268893 0.296120 0.092018
0.296544 0.299811 0.095053
0.324010 0.303476 0.098066
0.351317 0.307118 0.101060
0.378486 0.310740 0.104037
0.405533 0.314345 0.106999
0.432471 0.317933 0.109947
0.459311 0.321507 0.112883
0.486061 0.325067 0.115807
0.512730 0.328615 0.118721
0.539324 0.332152 0.121625
0.565848 0.335678 0.124520
0.592308 0.339193 0.127406
0.618708 0.342700 0.130284
0.645051 0.346197 0.133155
0.671342 0.349686 0.136018
0.697583 0.353167 0.138874
0.723777 0.356641 0.141724
0.739547 0.358733 0.143430
0.739752 0.358766 0.143430
0.739955 0.358798 0.143430
0.740157 0.358829 0.143430
0.740357 0.358861 0.143430
0.112078 0.311130 0.083408
0.112120 0.311166 0.083408
0.112161 0.311202 0.083408
0.112202 0.311238 0.083408
0.112243 0.311273 0.083408
0.139332 0.314901 0.086389
0.169189 0.318894 0.089674
0.198222 0.322775 0.092865
0.226755 0.326589 0.095999
0.254933 0.330354 0.099093
0.282837 0.334080 0.102154
0.310518 0.337775 0.105189
0.338013 0.341444 0.108202
0.365350 0.345091 0.111196
0.392547 0.348717 0.114173
0.419622 0.352325 0.117135
0.446588 0.355918 0.120083
0.473455 0.359495 0.123019
0.500232 0.363059 0.125943
0.526926 0.366611 0.128857
0.553546 0.370151 0.131761
0.580095 0.373681 0.134656
0.606579 0.377200 0.137542
0.633003 0.380710 0.140420
0.659370 0.384211 0.143291
0.685684 0.387703 0.146154
0.711948 0.391187 0.149011
0.738164 0.394664 0.151860
0.753947 0.396759 0.153566
0.754150 0.396793 0.153566
0.754352 0.396827 0.153566
0.754553 0.396861 0.153566
0.754752 0.396894 0.153566
0.125751 0.348834 0.093480
0.125796 0.348874 0.093480
0.125841 0.348913 0.093480
0.125886 0.348952 0.093480
0.125931 0.348990 0.093480
0.153051 0.352622 0.096461
0.182943 0.356619 0.099745
0.212008 0.360505 0.102936
0.240573 0.364323 0.106071
0.268782 0.368091 0.109164
0.296715 0.371822 0.112226
0.324426 0.375521 0.115261
0.351950 0.379194 0.118274
0.379315 0.382844 0.121268
0.406540 0.386474 0.124245
0.433642 0.390086 0.127207
0.460634 0.393682 0.130155
0.487527 0.397263 0.133091
0.514330 0.400831 0.136015
0.541050 0.404386 0.138929
0.567694 0.407929 0.141833
0.594267 0.411462 0.144727
0.620775 0.414984 0.147614
0.647222 0.418497 0.150492
0.673612 0.422001 0.153362
0.699948 0.425496 0.156226
0.726234 0.428984 0.159082
0.752472 0.432463 0.161932
0.768266 0.434561 0.163638
0.768468 0.434597 0.163638
0.768669 0.434632 0.163638
0.768868 0.434668 0.163638
0.769065 0.434702 0.163638
0.139374 0.386351 0.103495
0.139423 0.386393 0.103495
0.139472 0.386435 0.103495
0.139520 0.386477 0.103495
0.139569 0.386518 0.103495
0.166720 0.390153 0.106476
0.196644 0.394155 0.109760
0.225741 0.398045 0.112951
0.254337 0.401866 0.116085
0.282575 0.405639 0.119179
0.310538 0.409373 0.122240
0.338278 0.413076 0.125276
0.365830 0.416752 0.128289
0.393222 0.420406 0.131282
0.420474 0.424039 0.134259
0.447602 0.427654 0.137221
0.474620 0.431254 0.140169
0.501538 0.434838 0.143105
0.528366 0.438409 0.146029
0.555110 0.441967 0.148943
0.581777 0.445513 0.151847
0.608374 0.449049 0.154742
0.634905 0.452574 0.157628
0.661374 0.456089 0.160506
0.687786 0.459596 0.163377
0.714144 0.463094 0.166240
0.740451 0.466584 0.169097
0.766709 0.470065 0.171947
0.782515 0.472165 0.173653
0.782715 0.472203 0.173653
0.782914 0.472240 0.173653
0.783112 0.472276 0.173653
0.783308 0.472313 0.173653
0.152955 0.423701 0.113458
0.153007 0.423745 0.113458
0.153059 0.423790 0.113458
0.153111 0.423834 0.113458
0.153163 0.423878 0.113458
0.180344 0.427517 0.116439
0.210300 0.431522 0.119723
0.239428 0.435415 0.122915
0.268053 0.439240 0.126049
0.296321 0.443016 0.129143
0.324312 0.446754 0.132204
0.352079 0.450460 0.135239
0.379659 0.454140 0.138252
0.407077 0.457796 0.141246
0.434355 0.461433 0.144223
0.461509 0.465051 0.147185
0.488552 0.468653 0.150133
0.515495 0.472240 0.153069
0.542346 0.475814 0.155993
0.569113 0.479374 0.158907
0.595804 0.482924 0.161811
0.622423 0.486462 0.164706
0.648976 0.489989 0.167592
0.675467 0.493507 0.170470
0.701900 0.497016 0.173341
0.728278 0.500517 0.176204
0.754605 0.504009 0.179060
0.780883 0.507493 0.181910
0.796700 0.509594 0.183616
0.796899 0.509633 0.183616
0.797096 0.509671 0.183616
0.797291 0.509709 0.183616
0.797485 0.509746 0.183616
0.166498 0.460900 0.123376
0.166554 0.460948 0.123376
0.166609 0.460994 0.123376
0.166664 0.461041 0.123376
0.166720 0.461086 0.123376
0.193929 0.464729 0.126357
0.223917 0.468737 0.129641
0.253074 0.472634 0.132833
0.281729 0.476462 0.135967
0.310024 0.480241 0.139061
0.338043 0.483982 0.142122
0.365837 0.487691 0.145157
0.393443 0.491374 0.148170
0.420887 0.495033 0.151164
0.448190 0.498672 0.154141
0.475369 0.502293 0.157103
0.502436 0.505898 0.160051
0.529402 0.509487 0.162987
0.556276 0.513063 0.165911
0.583066 0.516626 0.168825
0.609779 0.520178 0.171729
0.636420 0.523718 0.174624
0.662994 0.527248 0.177510
0.689506 0.530768 0.180388
0.715959 0.534279 0.183259
0.742357 0.537781 0.186122
0.768703 0.541275 0.188978
0.795000 0.544761 0.191828
0.810827 0.546864 0.193534
0.811024 0.546904 0.193534
0.811219 0.546943 0.193534
0.811412 0.546981 0.193534
0.811604 0.547019 0.193534
0.180009 0.497964 0.133252
0.180068 0.498013 0.133252
0.180126 0.498062 0.133252
0.180184 0.498110 0.133252
0.180242 0.498158 0.133252
0.207480 0.501803 0.136233
0.237498 0.505815 0.139517
0.266684 0.509714 0.142709
0.295367 0.513545 0.145843
0.323690 0.517327 0.148937
0.351735 0.521071 0.151998
0.379555 0.524782 0.155033
0.407186 0.528467 0.158046
0.434655 0.532129 0.161040
0.461983 0.535771 0.164017
0.489185 0.539394 0.166979
0.516275 0.543001 0.169927
0.543264 0.546593 0.172863
0.570161 0.550171 0.175787
0.596973 0.553736 0.178701
0.623707 0.557289 0.181605
0.650368 0.560832 0.184500
0.676963 0.564364 0.187386
0.703494 0.567886 0.190264
0.729967 0.571398 0.193135
0.756384 0.574902 0.195998
0.782749 0.578398 0.198854
0.809064 0.581885 0.201704
0.824901 0.583989 0.203410
0.825095 0.584029 0.203410
0.825288 0.584069 0.203410
0.825479 0.584108 0.203410
0.825669 0.584146 0.203410
0.193490 0.534903 0.143090
0.193552 0.534954 0.143090
0.193613 0.535004 0.143090
0.193674 0.535054 0.143090
0.193735 0.535103 0.143090
0.221000 0.538751 0.146071
0.251047 0.542765 0.149355
0.280261 0.546668 0.152546
0.308971 0.550501 0.155681
0.337321 0.554286 0.158774
0.365392 0.558031 0.161836
0.393237 0.561745 0.164871
0.420893 0.565433 0.167884
0.448386 0.569097 0.170878
0.475737 0.572740 0.173855
0.502962 0.576366 0.176817
0.530074 0.579974 0.179765
0.557085 0.583568 0.182700
0.584003 0.587148 0.185625
0.610836 0.590715 0.188539
0.637590 0.594270 0.191443
0.664272 0.597814 0.194337
0.690886 0.601347 0.197224
0.717437 0.604871 0.200102
0.743928 0.608385 0.202972
0.770363 0.611890 0.205836
0.796746 0.615387 0.208692
0.823079 0.618875 0.211542
0.838925 0.620980 0.213248
0.839117 0.621021 0.213248
0.839307 0.621061 0.213248
0.839495 0.621100 0.213248
0.839682 0.621138 0.213248
0.206945 0.571726 0.152892
0.207010 0.571778 0.152892
0.207074 0.571830 0.152892
0.207137 0.571881 0.152892
0.207201 0.571932 0.152892
0.234492 0.575582 0.155873
0.264567 0.579599 0.159157
0.293809 0.583503 0.162348
0.322545 0.587339 0.165483
0.350920 0.591126 0.168576
0.379016 0.594873 0.171638
0.406886 0.598590 0.174673
0.434565 0.602279 0.177686
0.462081 0.605945 0.180680
0.489455 0.609590 0.183657
0.516702 0.613217 0.186619
0.543836 0.616827 0.189567
0.570868 0.620423 0.192503
0.597806 0.624004 0.195427
0.624659 0.627573 0.198341
0.651434 0.631129 0.201245
0.678134 0.634674 0.204139
0.704767 0.638209 0.207026
0.731336 0.641733 0.209904
0.757845 0.645248 0.212774
0.784298 0.648755 0.215638
0.810697 0.652252 0.218494
0.837046 0.655742 0.221344
0.852901 0.657847 0.223050
0.853090 0.657888 0.223050
0.853278 0.657928 0.223050
0.853464 0.657967 0.223050
0.853648 0.658005 0.223050
0.220377 0.608441 0.162661
0.220443 0.608495 0.162661
0.220510 0.608548 0.162661
0.220576 0.608600 0.162661
0.220641 0.608652 0.162661
0.247958 0.612304 0.165642
0.278061 0.616323 0.168926
0.307329 0.620230 0.172118
0.336091 0.624067 0.175252
0.364491 0.627856 0.178345
0.392611 0.631605 0.181407
0.420503 0.635323 0.184442
0.448205 0.639014 0.187455
0.475744 0.642681 0.190449
0.503139 0.646328 0.193426
0.530408 0.649956 0.196388
0.557563 0.653568 0.199336
0.584615 0.657165 0.202272
0.611573 0.660747 0.205196
0.638445 0.664317 0.208110
0.665238 0.667874 0.211014
0.691958 0.671420 0.213909
0.718608 0.674956 0.216795
0.745194 0.678481 0.219673
0.771721 0.681997 0.222544
0.798190 0.685504 0.225407
0.824605 0.689002 0.228263
0.850970 0.692493 0.231113
0.866833 0.694598 0.232819
0.867019 0.694639 0.232819
0.867204 0.694678 0.232819
0.867387 0.694717 0.232819
0.867568 0.694755 0.232819
0.233785 0.645056 0.172400
0.233854 0.645111 0.172400
0.233923 0.645164 0.172400
0.233991 0.645217 0.172400
0.234059 0.645270 0.172400
0.261400 0.648924 0.175380
0.291530 0.652945 0.178665
0.320823 0.656853 0.181856
0.349610 0.660692 0.184990
0.378033 0.664482 0.188084
0.406177 0.668233 0.191145
0.434092 0.671952 0.194180
0.461816 0.675644 0.197194
0.489376 0.679313 0.200187
0.516792 0.682961 0.203164
0.544081 0.686590 0.206126
0.571256 0.690203 0.209074
0.598327 0.693800 0.212010
0.625305 0.697384 0.214934
0.652196 0.700954 0.217848
0.679006 0.704512 0.220752
0.705743 0.708059 0.223647
0.732411 0.711595 0.226533
0.759014 0.715121 0.229411
0.785556 0.718638 0.232282
0.812041 0.722145 0.235145
0.838472 0.725644 0.238002
0.864852 0.729134 0.240851
0.880722 0.731240 0.242558
0.880905 0.731280 0.242558
0.881087 0.731319 0.242558
0.881267 0.731357 0.242558
0.881445 0.731394 0.242558
0.247174 0.681576 0.182109
0.247245 0.681631 0.182109
0.247315 0.681685 0.182109
0.247385 0.681739 0.182109
0.247455 0.681792 0.182109
0.274821 0.685447 0.185090
0.304976 0.689469 0.188374
0.334294 0.693379 0.191565
0.363104 0.697220 0.194700
0.391551 0.701011 0.197793
0.419716 0.704763 0.200855
0.447653 0.708483 0.203890
0.475398 0.712176 0.206903
0.502979 0.715845 0.209897
0.530415 0.719494 0.212874
0.557724 0.723125 0.215836
0.584918 0.726738 0.218784
0.612008 0.730336 0.221720
0.639003 0.733920 0.224644
0.665912 0.737491 0.227558
0.692740 0.741049 0.230462
0.719493 0.744597 0.233356
0.746177 0.748133 0.236243
0.772796 0.751659 0.239121
0.799353 0.755176 0.241991
0.825853 0.758683 0.244855
0.852299 0.762182 0.247711
0.878692 0.765672 0.250561
0.894570 0.767778 0.252267
0.894750 0.767817 0.252267
0.894928 0.767855 0.252267
0.895105 0.767893 0.252267
0.895280 0.767929 0.252267
0.260543 0.718006 0.191791
0.260616 0.718061 0.191791
0.260688 0.718116 0.191791
0.260760 0.718170 0.191791
0.260832 0.718223 0.191791
0.288220 0.721879 0.194772
0.318400 0.725903 0.198056
0.347742 0.729813 0.201248
0.376574 0.733655 0.204382
0.405043 0.737447 0.207476
0.433230 0.741200 0.210537
0.461188 0.744920 0.213572
0.488954 0.748614 0.216585
0.516554 0.752284 0.219579
0.544010 0.755934 0.222556
0.571337 0.759564 0.225518
0.598549 0.763178 0.228466
0.625657 0.766777 0.231402
0.652670 0.770361 0.234326
0.679595 0.773932 0.237240
0.706439 0.777491 0.240144
0.733209 0.781038 0.243039
0.759908 0.784574 0.245925
0.786542 0.788100 0.248803
0.813114 0.791617 0.251674
0.839628 0.795124 0.254537
0.866087 0.798622 0.257393
0.892494 0.802112 0.260243
0.908377 0.804217 0.261949
0.908554 0.804255 0.261949
0.908729 0.804292 0.261949
0.908902 0.804329 0.261949
0.909074 0.804364 0.261949
0.273893 0.754350 0.201448
0.273968 0.754405 0.201448
0.274042 0.754460 0.201448
0.274116 0.754514 0.201448
0.274189 0.754567 0.201448
0.301599 0.758224 0.204429
0.331803 0.762248 0.207713
0.361168 0.766160 0.210904
0.390022 0.770002 0.214039
0.418512 0.773794 0.217132
0.446720 0.777548 0.220194
0.474698 0.781269 0.223229
0.502483 0.784963 0.226242
0.530102 0.788633 0.229236
0.557576 0.792283 0.232213
0.584922 0.795914 0.235174
0.612151 0.799528 0.238123
0.639276 0.803126 0.241058
0.666305 0.806710 0.243983
0.693246 0.810281 0.246896
0.720106 0.813840 0.249800
0.746891 0.817387 0.252695
0.773605 0.820923 0.255582
0.800253 0.824449 0.258460
0.826838 0.827965 0.261330
0.853366 0.831471 0.264193
0.879838 0.834969 0.267050
0.906257 0.838459 0.269900
0.921658 0.840562 0.271606
0.921817 0.840599 0.271606
0.921975 0.840635 0.271606
0.922130 0.840670 0.271606
0.922284 0.840704 0.271606
0.287227 0.790611 0.211080
0.287303 0.790667 0.211080
0.287378 0.790721 0.211080
0.287453 0.790775 0.211080
0.287528 0.790828 0.211080
0.314960 0.794486 0.214061
0.345186 0.798510 0.217345
0.374573 0.802422 0.220537
0.403449 0.806264 0.223671
0.431959 0.810057 0.226764
0.460187 0.813811 0.229826
0.488184 0.817532 0.232861
0.515987 0.821226 0.235874
0.543625 0.824897 0.238868
0.571116 0.828546 0.241845
0.598479 0.832177 0.244807
0.625725 0.835790 0.247755
0.652866 0.839389 0.250691
0.679910 0.842972 0.253615
0.706867 0.846543 0.256529
0.733741 0.850101 0.259433
0.760540 0.853647 0.262328
0.787268 0.857183 0.265214
0.813929 0.860708 0.268092
0.840528 0.864223 0.270962
0.867068 0.867729 0.273826
0.893552 0.871226 0.276682
0.919582 0.874714 0.279532
0.934714 0.876817 0.281238
0.934858 0.876852 0.281238
0.935000 0.876886 0.281238
0.935139 0.876920 0.281238
0.935277 0.876952 0.281238
0.300543 0.826794 0.220689
0.300620 0.826849 0.220689
0.300697 0.826903 0.220689
0.300773 0.826956 0.220689
0.300849 0.827009 0.220689
0.328302 0.830667 0.223670
0.358550 0.834691 0.226954
0.387958 0.838603 0.230146
0.416854 0.842446 0.233280
0.445384 0.846239 0.236374
0.473630 0.849992 0.239435
0.501646 0.853713 0.242470
0.529467 0.857407 0.245483
0.557122 0.861077 0.248477
0.584630 0.864726 0.251454
0.612009 0.868356 0.254416
0.639270 0.871969 0.257364
0.666427 0.875567 0.260300
0.693486 0.879150 0.263224
0.720457 0.882720 0.266138
