library/cube/Bypass_Hard_004.cube
# CINEGRADE LAB — Premium Cinematic LUT
# Title: Bypass Hard
# Category: Bleach Bypass
# Description: Silver retention, high contrast, desaturated bleach bypass film process
# Mood: Gritty, stark, intense
# Variant: 5
# Generated: 2026-05-21T16:12:57.614412
TITLE "Bypass Hard"
LUT_3D_SIZE 5
0.000000 0.000000 0.000000
0.112764 0.015097 0.012591
0.329476 0.044028 0.036675
0.539549 0.071969 0.059882
0.633916 0.084407 0.070158
0.056653 0.157732 0.042356
0.170705 0.173047 0.054947
0.389551 0.202225 0.079031
0.601485 0.230386 0.102239
0.696539 0.242974 0.112514
0.166498 0.460900 0.123376
0.281729 0.476462 0.135967
0.502436 0.505898 0.160051
0.715959 0.534279 0.183259
0.811604 0.547019 0.193534
0.273893 0.754350 0.201448
0.390022 0.770002 0.214039
0.612151 0.799528 0.238123
0.826838 0.827965 0.261330
0.922284 0.840704 0.271606
0.322926 0.885218 0.236016
0.439605 0.900761 0.248607
0.662656 0.930178 0.272691
0.878026 0.958484 0.295898
0.969607 0.971059 0.306174
0.005663 0.005123 0.124516
0.118567 0.020233 0.137107
0.335512 0.049180 0.161191
0.545790 0.077136 0.184399
0.640235 0.089582 0.194674
0.062436 0.162931 0.166873
0.176606 0.178252 0.179463
0.395646 0.207440 0.203547
0.607747 0.235609 0.226755
0.702860 0.248199 0.237031
0.172417 0.466186 0.247893
0.287739 0.481745 0.260483
0.508599 0.511180 0.284567
0.722249 0.539559 0.307775
0.817932 0.552291 0.318051
0.279902 0.759669 0.325964
0.396098 0.775309 0.338555
0.618339 0.804824 0.362639
0.833113 0.833248 0.385847
0.928239 0.845972 0.396122
0.328957 0.890502 0.360532
0.445680 0.906028 0.373123
0.668804 0.935428 0.397207
0.884225 0.963714 0.420415
0.975169 0.976269 0.430690
0.016513 0.014929 0.362694
0.129571 0.030056 0.375285
0.346761 0.059026 0.399369
0.557254 0.087001 0.422577
0.651790 0.099459 0.432852
0.073456 0.172828 0.405051
0.187754 0.188160 0.417641
0.406998 0.217362 0.441725
0.619274 0.245542 0.464933
0.714456 0.258137 0.475209
0.183611 0.476181 0.486071
0.299035 0.491740 0.498661
0.520055 0.521177 0.522745
0.733838 0.549556 0.545953
0.829565 0.562283 0.556229
0.291219 0.769705 0.564142
0.407489 0.785336 0.576733
0.629846 0.814841 0.600817
0.844712 0.843254 0.624024
0.939210 0.855962 0.634300
0.340320 0.900508 0.598710
0.457093 0.916018 0.611301
0.680292 0.945401 0.635385
0.895763 0.973668 0.658593
0.985611 0.986201 0.668868
0.026992 0.024385 0.592205
0.140201 0.039530 0.604795
0.357629 0.068520 0.628879
0.568333 0.096513 0.652087
0.662955 0.108982 0.662363
0.084097 0.182372 0.634561
0.198520 0.197714 0.647152
0.417962 0.226928 0.671236
0.630408 0.255118 0.694443
0.725655 0.267718 0.704719
0.194419 0.485819 0.715581
0.309941 0.501377 0.728172
0.531115 0.530815 0.752256
0.745026 0.559192 0.775463
0.840793 0.571914 0.785739
0.302142 0.779379 0.793653
0.418482 0.794999 0.806243
0.640950 0.824494 0.830327
0.855901 0.852895 0.853535
0.949736 0.865588 0.863811
0.351283 0.910149 0.828221
0.468101 0.925642 0.840811
0.691371 0.955007 0.864895
0.906888 0.983255 0.888103
0.995599 0.995766 0.898379
0.031660 0.028582 0.693826
0.144999 0.043736 0.706417
0.362645 0.072740 0.730501
0.573539 0.100746 0.753708
0.668230 0.113221 0.763984
0.088866 0.186634 0.736182
0.203397 0.201980 0.748773
0.423018 0.231201 0.772857
0.635617 0.259397 0.796065
0.730914 0.271997 0.806340
0.199303 0.490154 0.817202
0.314907 0.505708 0.829793
0.536220 0.535143 0.853877
0.750245 0.563516 0.877085
0.846040 0.576229 0.887360
0.307097 0.783737 0.895274
0.423496 0.799343 0.907865
0.646062 0.828825 0.931949
0.861087 0.857211 0.955156
0.954540 0.869886 0.965432
0.356246 0.914464 0.929842
0.473100 0.929938 0.942433
0.696430 0.959284 0.966517
0.911984 0.987511 0.989724
1.000000 1.000000 1.000000
