library/cube/Champagne_Dusk_004.cube
# CINEGRADE LAB — Premium Cinematic LUT
# Title: Champagne Dusk
# Category: Luxury Editorial
# Description: Rich blacks, soft contrast, warm skin tones for high-end editorial photography
# Mood: Sophisticated, elegant, polished
# Variant: 5
# Generated: 2026-05-21T16:12:11.587444
TITLE "Champagne Dusk"
LUT_3D_SIZE 9
0.000000 0.000000 0.000000
0.051307 0.001580 0.001580
0.168270 0.005183 0.005181
0.289657 0.008923 0.008919
0.413611 0.012744 0.012736
0.539414 0.016622 0.016610
0.666675 0.020546 0.020529
0.795151 0.024509 0.024485
0.897641 0.027673 0.027641
0.005634 0.058130 0.005613
0.056962 0.059716 0.007194
0.173966 0.063324 0.010797
0.295408 0.067071 0.014537
0.419432 0.070899 0.018356
0.545320 0.074785 0.022233
0.672681 0.078717 0.026156
0.801271 0.082689 0.030116
0.903258 0.085843 0.033258
0.018082 0.186395 0.017999
0.069441 0.187988 0.019581
0.186509 0.191607 0.023187
0.308030 0.195364 0.026930
0.432148 0.199203 0.030753
0.558145 0.203102 0.034635
0.685630 0.207048 0.038562
0.814361 0.211035 0.042528
0.915649 0.214178 0.045649
0.030856 0.317581 0.030668
0.082256 0.319187 0.032253
0.199410 0.322819 0.035862
0.321033 0.326591 0.039610
0.445270 0.330445 0.043438
0.571400 0.334360 0.047324
0.699035 0.338324 0.051257
0.827930 0.342328 0.055229
0.928324 0.345457 0.058324
0.043836 0.450469 0.043503
0.095288 0.452089 0.045090
0.212551 0.455739 0.048704
0.334300 0.459529 0.052457
0.458679 0.463403 0.056291
0.584967 0.467338 0.060183
0.712776 0.471323 0.064123
0.841861 0.475349 0.068103
0.941165 0.478461 0.071165
0.056980 0.584595 0.056458
0.108493 0.586234 0.058049
0.225887 0.589905 0.061669
0.347786 0.593717 0.065428
0.472331 0.597614 0.069268
0.598802 0.601573 0.073168
0.726810 0.605583 0.077116
0.856109 0.609635 0.081104
0.954129 0.612728 0.084129
0.070262 0.719718 0.069511
0.121847 0.721379 0.071106
0.239396 0.725074 0.074732
0.361468 0.728913 0.078498
0.486203 0.732836 0.082347
0.612881 0.736824 0.086255
0.741112 0.740862 0.090212
0.870651 0.744944 0.094209
0.967191 0.748014 0.097191
0.083669 0.855689 0.082647
0.135336 0.857376 0.084247
0.253062 0.861100 0.087881
0.375331 0.864968 0.091655
0.500280 0.868923 0.095512
0.627190 0.872941 0.099430
0.755668 0.877013 0.103397
0.885472 0.881129 0.107405
0.980337 0.884173 0.110337
0.094353 0.963018 0.093018
0.146101 0.964612 0.094612
0.264014 0.968242 0.098242
0.386491 0.972013 0.102013
0.511666 0.975867 0.105867
0.638818 0.979782 0.109782
0.767555 0.983746 0.113746
0.897634 0.987751 0.117751
0.990614 0.990614 0.120614
0.000309 0.000309 0.028919
0.051617 0.001889 0.030499
0.168584 0.005493 0.034100
0.289975 0.009233 0.037838
0.413935 0.013054 0.041655
0.539745 0.016933 0.045529
0.667016 0.020858 0.049449
0.795502 0.024822 0.053405
0.897950 0.027985 0.056561
0.005947 0.058441 0.034532
0.057278 0.060027 0.036113
0.174287 0.063636 0.039717
0.295736 0.067383 0.043457
0.419769 0.071211 0.047276
0.545666 0.075098 0.051154
0.673039 0.079032 0.055077
0.801642 0.083005 0.059038
0.903567 0.086157 0.062177
0.018400 0.186708 0.046918
0.069763 0.188302 0.048501
0.186838 0.191921 0.052107
0.308368 0.195680 0.055851
0.432497 0.199520 0.059674
0.558506 0.203419 0.063556
0.686006 0.207366 0.067484
0.814752 0.211354 0.071450
0.915958 0.214495 0.074568
0.031178 0.317898 0.059588
0.082584 0.319504 0.061173
0.199747 0.323137 0.064783
0.321382 0.326910 0.068531
0.445632 0.330766 0.072359
0.571777 0.334682 0.076246
0.699428 0.338647 0.080180
0.828341 0.342653 0.084152
0.928634 0.345779 0.087244
0.044164 0.450790 0.072423
0.095621 0.452412 0.074011
0.212896 0.456062 0.077626
0.334659 0.459854 0.081379
0.459054 0.463729 0.085213
0.585360 0.467666 0.089106
0.713187 0.471652 0.093047
0.842293 0.475680 0.097027
0.941476 0.478789 0.100086
0.057312 0.584922 0.085379
0.108832 0.586563 0.086971
0.226241 0.590235 0.090591
0.348156 0.594049 0.094350
0.472719 0.597947 0.098192
0.599210 0.601908 0.102092
0.727239 0.605919 0.106041
0.856561 0.609973 0.110029
0.954440 0.613062 0.113050
0.070599 0.720052 0.098433
0.122192 0.721714 0.100028
0.239757 0.725411 0.103655
0.361848 0.729251 0.107422
0.486604 0.733177 0.111271
0.613304 0.737166 0.115181
0.741559 0.741206 0.119138
0.871123 0.745291 0.123136
0.967503 0.748357 0.126113
0.084011 0.856031 0.111570
0.135687 0.857719 0.113170
0.253432 0.861445 0.116805
0.375722 0.865315 0.120580
0.500694 0.869272 0.124438
0.627628 0.873293 0.128357
0.756133 0.877366 0.132324
0.885965 0.881485 0.136333
0.980650 0.884525 0.139260
0.094697 0.963328 0.121938
0.146454 0.964922 0.123532
0.264389 0.968553 0.127163
0.386889 0.972325 0.130935
0.512089 0.976180 0.134790
0.639267 0.980095 0.138706
0.768034 0.984060 0.142670
0.898143 0.988066 0.146676
0.990923 0.990923 0.149533
0.001506 0.001505 0.140982
0.052816 0.003086 0.142561
0.169786 0.006690 0.146163
0.291182 0.010431 0.149901
0.415148 0.014253 0.153719
0.540966 0.018132 0.157593
0.668245 0.022058 0.161512
0.796742 0.026022 0.165470
0.899147 0.029184 0.168623
0.007149 0.059639 0.146595
0.058482 0.061225 0.148176
0.175497 0.064835 0.151780
0.296953 0.068583 0.155520
0.420994 0.072412 0.159340
0.546902 0.076299 0.163218
0.674286 0.080234 0.167141
0.802902 0.084207 0.171103
0.904764 0.087358 0.174240
0.019606 0.187908 0.158982
0.070973 0.189503 0.160565
0.188056 0.193123 0.164171
0.309595 0.196883 0.167915
0.433735 0.200724 0.171739
0.559757 0.204624 0.175621
0.687271 0.208572 0.179549
0.816032 0.212561 0.183516
0.917155 0.215700 0.186632
0.032389 0.319102 0.171652
0.083799 0.320709 0.173237
0.200973 0.324344 0.176847
0.322619 0.328118 0.180595
0.446882 0.331975 0.184424
0.573043 0.335892 0.188312
0.700711 0.339858 0.192246
0.829642 0.343865 0.196219
0.929831 0.346989 0.199308
0.045379 0.451999 0.184488
0.096843 0.453622 0.186076
0.214130 0.457274 0.189691
0.335907 0.461067 0.193444
0.460317 0.464943 0.197279
0.586641 0.468881 0.201173
0.714487 0.472869 0.205114
0.843613 0.476898 0.209095
0.942674 0.480005 0.212151
0.058532 0.586137 0.197444
0.110059 0.587779 0.199036
0.227483 0.591452 0.202657
0.349414 0.595268 0.206417
0.473996 0.599168 0.210259
0.600506 0.603130 0.214160
0.728557 0.607143 0.218109
0.857902 0.611199 0.222099
0.955639 0.614285 0.225115
0.071824 0.721273 0.210499
0.123425 0.722937 0.212094
0.241007 0.726636 0.215722
0.363117 0.730478 0.219490
0.487894 0.734405 0.223339
0.614616 0.738396 0.227250
0.742895 0.742439 0.231208
0.872485 0.746525 0.235207
0.968702 0.749587 0.238179
0.085242 0.857260 0.223636
0.136926 0.858950 0.225237
0.254690 0.862678 0.228872
0.377002 0.866550 0.232648
0.501997 0.870509 0.236507
0.628956 0.874532 0.240427
0.757488 0.878608 0.244396
0.887347 0.882728 0.248405
0.981850 0.885764 0.251327
0.095929 0.964525 0.234002
0.147695 0.966119 0.235596
0.265651 0.969751 0.239228
0.388175 0.973523 0.243000
0.513400 0.977379 0.246856
0.640606 0.981296 0.250772
0.769401 0.985261 0.254738
0.899541 0.989268 0.258745
0.992119 0.992119 0.261595
0.002789 0.002787 0.261094
0.054101 0.004369 0.262674
0.171074 0.007973 0.266276
0.292475 0.011715 0.270014
0.416448 0.015537 0.273832
0.542274 0.019417 0.277707
0.669563 0.023343 0.281626
0.798070 0.027308 0.285584
0.900429 0.030469 0.288736
0.008436 0.060923 0.266708
0.059772 0.062510 0.268289
0.176793 0.066120 0.271893
0.298256 0.069869 0.275634
0.422307 0.073698 0.279454
0.548224 0.077587 0.283332
0.675621 0.081522 0.287256
0.804251 0.085496 0.291218
0.906046 0.088646 0.294353
0.020898 0.189195 0.279095
0.072269 0.190791 0.280678
0.189360 0.194412 0.284285
0.310909 0.198172 0.288029
0.435061 0.202014 0.291853
0.561095 0.205915 0.295736
0.688623 0.209864 0.299665
0.817401 0.213854 0.303632
0.918438 0.216991 0.306745
0.033686 0.320393 0.291766
0.085101 0.322001 0.293351
0.202285 0.325636 0.296962
0.323944 0.329411 0.300710
0.448220 0.333269 0.304540
0.574396 0.337188 0.308428
0.702081 0.341155 0.312363
0.831030 0.345163 0.316336
0.931114 0.348285 0.319422
0.046681 0.453294 0.304602
0.098150 0.454918 0.306190
0.215450 0.458571 0.309806
0.337242 0.462366 0.313560
0.461668 0.466243 0.317395
0.588009 0.470183 0.321290
0.715875 0.474172 0.325232
0.845022 0.478203 0.329213
0.943958 0.481307 0.332265
0.059839 0.587438 0.317559
0.111373 0.589081 0.319151
0.228811 0.592756 0.322773
0.350760 0.596573 0.326533
0.475359 0.600475 0.330376
0.601890 0.604439 0.334278
0.729962 0.608454 0.338228
0.859331 0.612511 0.342218
0.956923 0.615594 0.345231
0.073136 0.722581 0.330615
0.124745 0.724247 0.332211
0.242344 0.727947 0.335839
0.364473 0.731791 0.339607
0.489270 0.735720 0.343458
0.616015 0.739713 0.347369
0.744318 0.743757 0.351328
0.873935 0.747846 0.355328
0.969988 0.750904 0.358295
0.086558 0.858576 0.343753
0.138252 0.860268 0.345354
0.256035 0.863998 0.348990
0.378368 0.867872 0.352767
0.503387 0.871833 0.356627
0.630371 0.875858 0.360547
0.758929 0.879936 0.364517
0.888818 0.884058 0.368528
0.983136 0.887090 0.371444
0.097246 0.965808 0.354116
0.149023 0.967403 0.355710
0.267001 0.971035 0.359342
0.389548 0.974808 0.363116
0.514799 0.978665 0.366972
0.642032 0.982582 0.370890
0.770856 0.986549 0.374856
0.901026 0.990557 0.378864
0.993401 0.993401 0.381708
0.004119 0.004117 0.385600
0.055433 0.005699 0.387180
0.172410 0.009304 0.390782
0.293816 0.013046 0.394521
0.417796 0.016868 0.398339
0.543630 0.020749 0.402214
0.670929 0.024676 0.406134
0.799448 0.028642 0.410092
0.901758 0.031801 0.413243
0.009771 0.062254 0.391214
0.061110 0.063841 0.392796
0.178137 0.067452 0.396400
0.299608 0.071202 0.400141
0.423667 0.075032 0.403961
0.549596 0.078921 0.407840
0.677004 0.082857 0.411764
0.805648 0.086832 0.415726
0.907375 0.089980 0.418860
0.022238 0.190529 0.403602
0.073612 0.192125 0.405185
0.190712 0.195747 0.408792
0.312271 0.199508 0.412536
0.436434 0.203351 0.416361
0.562481 0.207253 0.420244
0.690024 0.211204 0.424173
0.818818 0.215194 0.428141
0.919768 0.218329 0.431252
0.035030 0.321730 0.416273
0.086450 0.323339 0.417858
0.203645 0.326976 0.421469
0.325316 0.330752 0.425218
0.449606 0.334611 0.429048
0.575797 0.338531 0.432937
0.703499 0.342499 0.436872
0.832468 0.346509 0.440847
0.932445 0.349628 0.443929
0.048030 0.454637 0.429110
0.099505 0.456262 0.430698
0.216818 0.459916 0.434314
0.338625 0.463712 0.438069
0.463067 0.467591 0.441905
0.589426 0.471532 0.445800
0.717312 0.475522 0.449743
0.846480 0.479555 0.453725
0.945289 0.482656 0.456773
0.061193 0.588787 0.442068
0.112734 0.590431 0.443660
0.230187 0.594107 0.447282
0.352153 0.597926 0.451043
0.476771 0.601829 0.454887
0.603322 0.605795 0.458790
0.731417 0.609811 0.462740
0.860810 0.613871 0.466731
0.958255 0.616950 0.469739
0.074495 0.723937 0.455124
0.126112 0.725603 0.456720
0.243729 0.729306 0.460349
0.365877 0.733151 0.464118
0.490695 0.737082 0.467969
0.617463 0.741077 0.471881
0.745791 0.745123 0.475841
0.875433 0.749214 0.479842
0.971320 0.752268 0.482804
0.087922 0.859940 0.468263
0.139625 0.861633 0.469865
0.257428 0.865365 0.473502
0.379783 0.869241 0.477279
0.504825 0.873204 0.481140
0.631834 0.877231 0.485061
0.760420 0.881311 0.489032
0.890337 0.885436 0.493043
0.984470 0.888463 0.495954
0.098612 0.967138 0.478623
0.150398 0.968733 0.480217
0.268398 0.972366 0.483850
0.390969 0.976140 0.487624
0.516246 0.979997 0.491482
0.643506 0.983916 0.495400
0.772360 0.987883 0.499367
0.902561 0.991892 0.503376
0.994730 0.994730 0.506214
0.005483 0.005479 0.513209
0.056799 0.007062 0.514789
0.173780 0.010667 0.518391
0.295192 0.014410 0.522130
0.419179 0.018233 0.525948
0.545021 0.022114 0.529823
0.672330 0.026042 0.533744
0.800860 0.030008 0.537702
0.903121 0.033167 0.540851
0.011140 0.063618 0.518823
0.062482 0.065206 0.520405
0.179515 0.068818 0.524009
0.300994 0.072568 0.527750
0.425062 0.076399 0.531571
0.551002 0.080289 0.535450
0.678422 0.084225 0.539374
0.807080 0.088202 0.543337
0.908738 0.091348 0.546469
0.023611 0.191896 0.531211
0.074990 0.193493 0.532794
0.192098 0.197116 0.536402
0.313667 0.200878 0.540146
0.437842 0.204721 0.543972
0.563902 0.208625 0.547855
0.691460 0.212576 0.551785
0.820270 0.216568 0.555753
0.921131 0.219701 0.558861
0.036408 0.323101 0.543882
0.087833 0.324711 0.545468
0.205038 0.328349 0.549080
0.326722 0.332126 0.552829
0.451027 0.335986 0.556660
0.577234 0.339907 0.560549
0.704953 0.343877 0.564485
0.833940 0.347888 0.568460
0.933808 0.351005 0.571539
0.049413 0.456013 0.556720
0.100894 0.457639 0.558309
0.218220 0.461295 0.561925
0.340041 0.465091 0.565681
0.464500 0.468972 0.569517
0.590878 0.472914 0.573413
0.718783 0.476906 0.577356
0.847973 0.480941 0.581339
0.946653 0.484038 0.584383
0.062580 0.590168 0.569679
0.114128 0.591814 0.571271
0.231597 0.595492 0.574894
0.353580 0.599312 0.578656
0.478218 0.603217 0.582500
0.604789 0.607184 0.586403
0.732906 0.611203 0.590355
0.862323 0.615264 0.594347
0.959619 0.618339 0.597350
0.075887 0.725326 0.582735
0.127512 0.726994 0.584332
0.245147 0.730698 0.587962
0.367315 0.734545 0.591732
0.492155 0.738478 0.595584
0.618946 0.742475 0.599496
0.747298 0.746523 0.603457
0.876967 0.750615 0.607459
0.972685 0.753665 0.610416
0.089320 0.861337 0.595876
0.141032 0.863031 0.597478
0.258855 0.866765 0.601115
0.381232 0.870643 0.604894
0.506298 0.874608 0.608755
0.633333 0.878638 0.612678
0.761945 0.882720 0.616649
0.891891 0.886847 0.620662
0.985836 0.889870 0.623567
0.100010 0.968502 0.606232
0.151807 0.970096 0.607827
0.269828 0.973730 0.611461
0.392424 0.977505 0.615236
0.517727 0.981363 0.619094
0.645015 0.985282 0.623013
0.773899 0.989250 0.626981
0.904131 0.993260 0.630991
0.996092 0.996092 0.633822
0.006874 0.006868 0.643235
0.058192 0.008451 0.644815
0.175177 0.012057 0.648418
0.296594 0.015800 0.652156
0.420588 0.019624 0.655975
0.546439 0.023506 0.659850
0.673758 0.027434 0.663771
0.802300 0.031401 0.667730
0.904509 0.034558 0.670878
0.012535 0.065008 0.648850
0.063880 0.066597 0.650431
0.180920 0.070209 0.654036
0.302406 0.073960 0.657777
0.426484 0.077792 0.661599
0.552435 0.081682 0.665478
0.679868 0.085620 0.669403
0.808540 0.089597 0.673366
0.910126 0.092741 0.676495
0.025010 0.193289 0.661238
0.076393 0.194887 0.662821
0.193510 0.198511 0.666429
0.315090 0.202273 0.670174
0.439276 0.206118 0.674000
0.565351 0.210023 0.677884
0.692924 0.213975 0.681814
0.821750 0.217968 0.685783
0.922519 0.221098 0.688888
0.037812 0.324498 0.673910
0.089242 0.326109 0.675496
0.206459 0.329748 0.679108
0.328155 0.333526 0.682858
0.452475 0.337388 0.686689
0.578697 0.341310 0.690579
0.706434 0.345281 0.694515
0.835441 0.349293 0.698491
0.935197 0.352407 0.701566
0.050822 0.457415 0.686748
0.102309 0.459042 0.688337
0.219648 0.462699 0.691954
0.341485 0.466497 0.695710
0.465961 0.470379 0.699547
0.592357 0.474323 0.703444
0.720282 0.478317 0.707388
0.849494 0.482352 0.711371
0.948042 0.485446 0.714411
0.063994 0.591576 0.699708
0.115549 0.593223 0.701301
0.233034 0.596903 0.704924
0.355034 0.600724 0.708686
0.479691 0.604631 0.712531
0.606284 0.608600 0.716435
0.734423 0.612620 0.720388
0.863864 0.616683 0.724380
0.961010 0.619755 0.727379
0.077306 0.726741 0.712765
0.128939 0.728410 0.714362
0.246592 0.732116 0.717993
0.368780 0.735965 0.721763
0.493641 0.739900 0.725616
0.620456 0.743899 0.729529
0.748833 0.747949 0.733491
0.878529 0.752043 0.737494
0.974077 0.755089 0.740446
0.090744 0.862760 0.725906
0.142465 0.864456 0.727509
0.260308 0.868192 0.731147
0.382707 0.872072 0.734926
0.507798 0.876039 0.738788
0.634858 0.880071 0.742712
0.763498 0.884155 0.746684
0.893473 0.888285 0.750698
0.987228 0.891303 0.753597
0.101435 0.969891 0.736260
0.153242 0.971486 0.737855
0.271286 0.975120 0.741489
0.393905 0.978896 0.745265
0.519235 0.982754 0.749124
0.646552 0.986675 0.753044
0.775465 0.990644 0.757013
0.905729 0.994654 0.761024
0.997479 0.997479 0.763849
0.008286 0.008278 0.775250
0.059606 0.009861 0.776831
0.176596 0.013467 0.780433
0.298019 0.017211 0.784172
0.422020 0.021036 0.787991
0.547880 0.024918 0.791867
0.675209 0.028847 0.795788
0.803764 0.032815 0.799747
0.905918 0.035971 0.802894
0.013951 0.066420 0.780866
0.065300 0.068009 0.782447
0.182346 0.071622 0.786052
0.303841 0.075374 0.789794
0.427929 0.079206 0.793616
0.553891 0.083097 0.797495
0.681337 0.087036 0.801421
0.810023 0.091014 0.805384
0.911536 0.094156 0.808511
0.026432 0.194704 0.793254
0.077819 0.196302 0.794838
0.194944 0.199927 0.798446
0.316535 0.203690 0.802191
0.440734 0.207536 0.806017
0.566822 0.211442 0.809902
0.694410 0.215395 0.813833
0.823254 0.219389 0.817802
0.923929 0.222517 0.820905
0.039238 0.325917 0.805927
0.090673 0.327529 0.807513
0.207901 0.331168 0.811125
0.329611 0.334948 0.814876
0.453945 0.338811 0.818707
0.580184 0.342734 0.822597
0.707938 0.346706 0.826535
0.836964 0.350720 0.830511
0.936608 0.353831 0.833583
0.052252 0.458838 0.818765
0.103746 0.460466 0.820355
0.221099 0.464125 0.823972
0.342951 0.467924 0.827729
0.467444 0.471808 0.831566
0.593858 0.475753 0.835464
0.721804 0.479748 0.839408
0.851037 0.483785 0.843393
0.949453 0.486877 0.846429
0.065430 0.593006 0.831726
0.116992 0.594654 0.833319
0.234493 0.598335 0.836943
0.356511 0.602158 0.840706
0.481187 0.606067 0.844551
0.607801 0.610037 0.848456
0.735963 0.614059 0.852409
0.865428 0.618124 0.856403
0.962422 0.621192 0.859397
0.078747 0.728177 0.844784
0.130388 0.729848 0.846382
0.248059 0.733556 0.850013
0.370267 0.737407 0.853784
0.495150 0.741344 0.857637
0.621988 0.745344 0.861551
0.750391 0.749396 0.865514
0.880114 0.753492 0.869518
0.975489 0.756535 0.872464
0.092190 0.864205 0.857926
0.143920 0.865903 0.859529
0.261784 0.869641 0.863168
0.384205 0.873523 0.866948
0.509320 0.877492 0.870811
0.636406 0.881526 0.874735
0.765074 0.885612 0.878709
0.895079 0.889744 0.882724
0.988642 0.892758 0.885617
0.102882 0.971301 0.868276
0.154699 0.972896 0.869872
0.272765 0.976531 0.873507
0.395410 0.980308 0.877283
0.520766 0.984167 0.881143
0.648111 0.988088 0.885064
0.777054 0.992058 0.889034
0.907350 0.996070 0.893045
0.998889 0.998889 0.895864
0.009400 0.009390 0.879387
0.060723 0.010974 0.880967
0.177718 0.014581 0.884570
0.299147 0.018325 0.888309
0.423156 0.022150 0.892128
0.549025 0.026034 0.896004
0.676365 0.029963 0.899926
0.804931 0.033932 0.903885
0.907030 0.037086 0.907030
0.015070 0.067534 0.885002
0.066422 0.069124 0.886584
0.183476 0.072738 0.890189
0.304979 0.076490 0.893931
0.429077 0.080323 0.897753
0.555051 0.084215 0.901633
0.682510 0.088154 0.905559
0.811211 0.092133 0.909523
0.912648 0.095274 0.912648
0.027556 0.195821 0.897391
0.078947 0.197420 0.898975
0.196082 0.201046 0.902583
0.317683 0.204810 0.906329
0.441895 0.208657 0.910156
0.567997 0.212563 0.914041
0.695601 0.216518 0.917972
0.824462 0.220513 0.921942
0.925042 0.223639 0.925042
0.040367 0.327038 0.910064
0.091807 0.328651 0.911651
0.209047 0.332292 0.915263
0.330769 0.336072 0.919014
0.455118 0.339936 0.922846
0.581374 0.343861 0.926737
0.709147 0.347835 0.930675
0.838193 0.351849 0.934652
0.937721 0.354958 0.937721
0.053386 0.459965 0.922904
0.104886 0.461594 0.924493
0.222252 0.465254 0.928111
0.344120 0.469055 0.931868
0.468630 0.472939 0.935707
0.595064 0.476886 0.939604
0.723030 0.480883 0.943550
0.852286 0.484922 0.947535
0.950567 0.488009 0.950567
0.066568 0.594139 0.935864
0.118138 0.595788 0.937458
0.235654 0.599470 0.941082
0.357691 0.603295 0.944846
0.482387 0.607205 0.948692
0.609022 0.611178 0.952598
0.737207 0.615201 0.956552
0.866697 0.619268 0.960546
0.963536 0.622332 0.963536
0.079890 0.729317 0.948924
0.131540 0.730990 0.950522
0.249229 0.734699 0.954153
0.371457 0.738552 0.957925
0.496363 0.742490 0.961780
0.623225 0.746493 0.965695
0.751653 0.750547 0.969658
0.881403 0.754645 0.973663
0.976604 0.757683 0.976604
0.093338 0.865353 0.962067
0.145078 0.867052 0.963670
0.262962 0.870792 0.967310
0.385406 0.874676 0.971090
0.510546 0.878648 0.974955
0.637659 0.882684 0.978880
0.766355 0.886772 0.982854
0.896389 0.890906 0.986870
0.989757 0.893915 0.989757
0.104032 0.972413 0.972413
0.155859 0.974009 0.974009
0.273948 0.977645 0.977645
0.396617 0.981422 0.981422
0.522000 0.985283 0.985283
0.649374 0.989204 0.989204
0.778347 0.993175 0.993175
0.908675 0.997188 0.997188
1.000000 1.000000 1.000000
