library/cube/Champagne_Dusk_004.cube
# CINEGRADE LAB — Premium Cinematic LUT
# Title: Champagne Dusk
# Category: Luxury Editorial
# Description: Rich blacks, soft contrast, warm skin tones for high-end editorial photography
# Mood: Sophisticated, elegant, polished
# Variant: 5
# Generated: 2026-05-21T16:12:11.587444
TITLE "Champagne Dusk"
LUT_3D_SIZE 33
0.000000 0.000000 0.000000
0.000000 0.000000 0.000000
0.000000 0.000000 0.000000
0.023490 0.000724 0.000723
0.051307 0.001580 0.001580
0.079901 0.002461 0.002460
0.109003 0.003357 0.003356
0.138484 0.004266 0.004264
0.168270 0.005183 0.005181
0.198312 0.006109 0.006106
0.228573 0.007041 0.007038
0.259029 0.007980 0.007976
0.289657 0.008923 0.008919
0.320442 0.009872 0.009867
0.351369 0.010825 0.010819
0.382429 0.011783 0.011776
0.413611 0.012744 0.012736
0.444907 0.013708 0.013699
0.476310 0.014676 0.014666
0.507814 0.015648 0.015637
0.539414 0.016622 0.016610
0.571104 0.017599 0.017586
0.602880 0.018579 0.018564
0.634738 0.019561 0.019545
0.666675 0.020546 0.020529
0.698688 0.021534 0.021514
0.730773 0.022523 0.022502
0.762928 0.023515 0.023493
0.795151 0.024509 0.024485
0.827364 0.025503 0.025477
0.859502 0.026494 0.026467
0.891672 0.027487 0.027457
0.897641 0.027673 0.027641
0.000001 0.000000 0.000000
0.000002 0.000001 0.000000
0.000004 0.000001 0.000000
0.023495 0.000725 0.000724
0.051312 0.001582 0.001580
0.079909 0.002463 0.002461
0.109012 0.003359 0.003357
0.138495 0.004268 0.004265
0.168284 0.005186 0.005182
0.198328 0.006112 0.006107
0.228592 0.007044 0.007039
0.259051 0.007983 0.007977
0.289682 0.008927 0.008920
0.320470 0.009876 0.009868
0.351402 0.010830 0.010821
0.382466 0.011787 0.011777
0.413652 0.012749 0.012737
0.444952 0.013714 0.013701
0.476360 0.014682 0.014668
0.507869 0.015654 0.015639
0.539473 0.016629 0.016612
0.571168 0.017606 0.017588
0.602950 0.018586 0.018567
0.634814 0.019569 0.019548
0.666757 0.020555 0.020532
0.698776 0.021542 0.021518
0.730868 0.022532 0.022506
0.763030 0.023525 0.023496
0.795259 0.024519 0.024489
0.827461 0.025513 0.025481
0.859556 0.026503 0.026469
0.891681 0.027495 0.027458
0.897642 0.027681 0.027642
0.000006 0.000002 0.000000
0.000007 0.000002 0.000000
0.000009 0.000003 0.000001
0.023502 0.000727 0.000724
0.051322 0.001584 0.001581
0.079920 0.002465 0.002461
0.109025 0.003362 0.003357
0.138511 0.004271 0.004265
0.168302 0.005189 0.005183
0.198349 0.006116 0.006108
0.228617 0.007049 0.007040
0.259079 0.007988 0.007978
0.289714 0.008932 0.008921
0.320506 0.009881 0.009870
0.351441 0.010835 0.010822
0.382509 0.011793 0.011779
0.413700 0.012755 0.012739
0.445005 0.013721 0.013703
0.476418 0.014689 0.014671
0.507932 0.015662 0.015641
0.539542 0.016637 0.016615
0.571243 0.017614 0.017591
0.603030 0.018595 0.018570
0.634901 0.019578 0.019551
0.666850 0.020564 0.020535
0.698876 0.021552 0.021521
0.730974 0.022543 0.022510
0.763143 0.023536 0.023501
0.795380 0.024530 0.024493
0.827569 0.025524 0.025485
0.859617 0.026513 0.026472
0.891692 0.027503 0.027459
0.897643 0.027689 0.027643
0.002620 0.027014 0.002609
0.002623 0.027015 0.002609
0.002626 0.027016 0.002609
0.026120 0.027740 0.003332
0.053942 0.028597 0.004189
0.082542 0.029479 0.005070
0.111651 0.030377 0.005966
0.141139 0.031286 0.006874
0.170934 0.032204 0.007792
0.200984 0.033131 0.008717
0.231255 0.034064 0.009649
0.261720 0.035004 0.010587
0.292360 0.035949 0.011531
0.323156 0.036899 0.012479
0.354096 0.037853 0.013432
0.385169 0.038812 0.014389
0.416364 0.039774 0.015350
0.447674 0.040740 0.016314
0.479093 0.041709 0.017281
0.510612 0.042682 0.018252
0.542228 0.043658 0.019226
0.573935 0.044636 0.020202
0.605729 0.045617 0.021181
0.637606 0.046601 0.022163
0.669562 0.047588 0.023147
0.701594 0.048576 0.024134
0.733700 0.049568 0.025122
0.765877 0.050561 0.026113
0.798121 0.051557 0.027106
0.830296 0.052550 0.028097
0.862292 0.053538 0.029083
0.894311 0.054527 0.030069
0.900252 0.054713 0.030252
0.005634 0.058130 0.005613
0.005637 0.058132 0.005613
0.005641 0.058133 0.005614
0.029137 0.058858 0.006337
0.056962 0.059716 0.007194
0.085565 0.060598 0.008075
0.114676 0.061496 0.008971
0.144168 0.062405 0.009879
0.173966 0.063324 0.010797
0.204020 0.064252 0.011723
0.234295 0.065186 0.012655
0.264764 0.066126 0.013593
0.295408 0.067071 0.014537
0.326209 0.068022 0.015485
0.357154 0.068977 0.016438
0.388231 0.069936 0.017396
0.419432 0.070899 0.018356
0.450748 0.071865 0.019321
0.482172 0.072835 0.020289
0.513698 0.073808 0.021260
0.545320 0.074785 0.022233
0.577033 0.075764 0.023210
0.608833 0.076746 0.024190
0.640717 0.077730 0.025171
0.672681 0.078717 0.026156
0.704721 0.079707 0.027143
0.736834 0.080699 0.028132
0.769018 0.081693 0.029123
0.801271 0.082689 0.030116
0.833430 0.083683 0.031107
0.865369 0.084670 0.032091
0.897328 0.085657 0.033075
0.903258 0.085843 0.033258
0.008701 0.089768 0.008668
0.008705 0.089769 0.008668
0.008709 0.089771 0.008669
0.032208 0.090496 0.009392
0.060035 0.091355 0.010249
0.088642 0.092238 0.011130
0.117756 0.093136 0.012027
0.147252 0.094046 0.012935
0.177053 0.094966 0.013853
0.207111 0.095893 0.014779
0.237390 0.096828 0.015711
0.267864 0.097769 0.016650
0.298513 0.098715 0.017594
0.329318 0.099666 0.018542
0.360269 0.100621 0.019495
0.391352 0.101581 0.020453
0.422558 0.102545 0.021414
0.453880 0.103512 0.022379
0.485310 0.104483 0.023347
0.516842 0.105457 0.024318
0.548471 0.106434 0.025292
0.580191 0.107414 0.026269
0.611998 0.108396 0.027248
0.643890 0.109382 0.028231
0.675861 0.110369 0.029215
0.707908 0.111360 0.030202
0.740030 0.112352 0.031192
0.772222 0.113347 0.032183
0.804484 0.114345 0.033177
0.836624 0.115338 0.034167
0.868502 0.116324 0.035149
0.900397 0.117310 0.036131
0.906314 0.117496 0.036314
0.011803 0.121742 0.011756
0.011808 0.121744 0.011756
0.011813 0.121746 0.011756
0.035314 0.122472 0.012480
0.063145 0.123331 0.013337
0.091754 0.124214 0.014218
0.120873 0.125113 0.015115
0.150372 0.126024 0.016024
0.180178 0.126944 0.016942
0.210240 0.127873 0.017867
0.240524 0.128808 0.018800
0.271003 0.129749 0.019739
0.301656 0.130696 0.020683
0.332467 0.131648 0.021632
0.363423 0.132604 0.022585
0.394512 0.133564 0.023543
0.425724 0.134529 0.024504
0.457053 0.135497 0.025469
0.488489 0.136468 0.026437
0.520028 0.137443 0.027409
0.551663 0.138421 0.028383
0.583391 0.139401 0.029360
0.615206 0.140385 0.030340
0.647105 0.141371 0.031323
0.679084 0.142360 0.032308
0.711140 0.143351 0.033295
0.743270 0.144344 0.034285
0.775471 0.145340 0.035277
0.807741 0.146338 0.036271
0.839863 0.147332 0.037260
0.871673 0.148316 0.038240
0.903499 0.149301 0.039220
0.909403 0.149487 0.039403
0.014931 0.153968 0.014868
0.014937 0.153970 0.014868
0.014944 0.153973 0.014868
0.038448 0.154699 0.015592
0.066282 0.155559 0.016450
0.094895 0.156443 0.017331
0.124017 0.157342 0.018228
0.153521 0.158254 0.019136
0.183331 0.159175 0.020055
0.213398 0.160104 0.020981
0.243687 0.161040 0.021914
0.274171 0.161982 0.022852
0.304830 0.162929 0.023797
0.335647 0.163882 0.024746
0.366609 0.164839 0.025700
0.397704 0.165800 0.026657
0.428923 0.166765 0.027619
0.460257 0.167734 0.028584
0.491701 0.168706 0.029553
0.523247 0.169682 0.030524
0.554890 0.170660 0.031499
0.586625 0.171642 0.032477
0.618448 0.172626 0.033457
0.650355 0.173613 0.034440
0.682342 0.174603 0.035425
0.714406 0.175595 0.036413
0.746545 0.176589 0.037403
0.778756 0.177586 0.038395
0.811035 0.178585 0.039389
0.843136 0.179579 0.040378
0.874875 0.180561 0.041356
0.906626 0.181544 0.042334
0.912516 0.181731 0.042516
0.018082 0.186395 0.017999
0.018089 0.186398 0.017999
0.018096 0.186401 0.018000
0.041604 0.187128 0.018724
0.069441 0.187988 0.019581
0.098059 0.188873 0.020463
0.127186 0.189773 0.021360
0.156694 0.190685 0.022269
0.186509 0.191607 0.023187
0.216581 0.192537 0.024113
0.246875 0.193473 0.025047
0.277365 0.194416 0.025986
0.308030 0.195364 0.026930
0.338853 0.196318 0.027880
0.369821 0.197275 0.028834
0.400922 0.198237 0.029792
0.432148 0.199203 0.030753
0.463490 0.200173 0.031719
0.494941 0.201146 0.032688
0.526494 0.202123 0.033660
0.558145 0.203102 0.034635
0.589888 0.204084 0.035613
0.621719 0.205070 0.036593
0.653634 0.206058 0.037576
0.685630 0.207048 0.038562
0.717704 0.208041 0.039550
0.749852 0.209037 0.040540
0.782072 0.210035 0.041533
0.814361 0.211035 0.042528
0.846439 0.212028 0.043516
0.878102 0.213009 0.044491
0.909774 0.213990 0.045467
0.915649 0.214178 0.045649
0.021252 0.218990 0.021147
0.021260 0.218994 0.021147
0.021268 0.218998 0.021148
0.044779 0.219725 0.021872
0.072621 0.220586 0.022730
0.101243 0.221472 0.023611
0.130374 0.222373 0.024509
0.159887 0.223285 0.025418
0.189708 0.224208 0.026336
0.219785 0.225138 0.027263
0.250085 0.226076 0.028196
0.280581 0.227019 0.029136
0.311252 0.227969 0.030080
0.342081 0.228923 0.031030
0.373056 0.229881 0.031984
0.404165 0.230844 0.032942
0.435397 0.231811 0.033905
0.466747 0.232782 0.034870
0.498205 0.233756 0.035839
0.529766 0.234733 0.036812
0.561425 0.235714 0.037787
0.593177 0.236697 0.038765
0.625017 0.237683 0.039746
0.656941 0.238672 0.040730
0.688946 0.239664 0.041716
0.721029 0.240658 0.042704
0.753186 0.241654 0.043695
0.785416 0.242653 0.044688
0.817715 0.243654 0.045683
0.849769 0.244648 0.046670
0.881351 0.245627 0.047643
0.912939 0.246607 0.048617
0.918798 0.246794 0.048798
0.024439 0.251730 0.024308
0.024447 0.251735 0.024309
0.024456 0.251739 0.024310
0.047971 0.252468 0.025034
0.075817 0.253330 0.025892
0.104444 0.254216 0.026774
0.133581 0.255117 0.027671
0.163099 0.256031 0.028581
0.192925 0.256954 0.029500
0.223009 0.257886 0.030426
0.253315 0.258824 0.031360
0.283817 0.259769 0.032300
0.314494 0.260719 0.033245
0.345330 0.261674 0.034195
0.376312 0.262633 0.035149
0.407428 0.263597 0.036108
0.438669 0.264565 0.037070
0.470026 0.265537 0.038036
0.501492 0.266512 0.039006
0.533062 0.267490 0.039978
0.564729 0.268471 0.040954
0.596489 0.269456 0.041932
0.628338 0.270443 0.042914
0.660272 0.271433 0.043897
0.692286 0.272426 0.044884
0.724379 0.273421 0.045873
0.756546 0.274418 0.046864
0.788786 0.275418 0.047857
0.821096 0.276421 0.048852
0.853124 0.277414 0.049839
0.884620 0.278392 0.050810
0.916119 0.279369 0.051780
0.921961 0.279557 0.051961
0.027640 0.284599 0.027483
0.027650 0.284604 0.027483
0.027659 0.284609 0.027484
0.051178 0.285338 0.028209
0.079030 0.286201 0.029067
0.107662 0.287088 0.029949
0.136803 0.287991 0.030847
0.166328 0.288905 0.031756
0.196160 0.289829 0.032675
0.226249 0.290762 0.033602
0.256562 0.291701 0.034536
0.287071 0.292646 0.035476
0.317755 0.293597 0.036421
0.348599 0.294553 0.037372
0.379588 0.295514 0.038326
0.410711 0.296479 0.039285
0.441960 0.297448 0.040248
0.473325 0.298420 0.041215
0.504800 0.299396 0.042184
0.536378 0.300376 0.043157
0.568054 0.301358 0.044133
0.599824 0.302344 0.045112
0.631682 0.303332 0.046094
0.663625 0.304323 0.047078
0.695650 0.305317 0.048065
0.727752 0.306313 0.049054
0.759930 0.307312 0.050045
0.792181 0.308313 0.051039
0.824501 0.309316 0.052035
0.856502 0.310310 0.053021
0.887908 0.311286 0.053989
0.919312 0.312261 0.054957
0.925137 0.312449 0.055137
0.030856 0.317581 0.030668
0.030866 0.317587 0.030669
0.030877 0.317593 0.030670
0.054400 0.318323 0.031395
0.082256 0.319187 0.032253
0.110894 0.320075 0.033135
0.140041 0.320978 0.034033
0.169572 0.321894 0.034943
0.199410 0.322819 0.035862
0.229506 0.323752 0.036790
0.259826 0.324692 0.037724
0.290341 0.325639 0.038664
0.321033 0.326591 0.039610
0.351884 0.327548 0.040560
0.382881 0.328510 0.041515
0.414013 0.329475 0.042474
0.445270 0.330445 0.043438
0.476643 0.331419 0.044404
0.508127 0.332396 0.045374
0.539714 0.333377 0.046348
0.571400 0.334360 0.047324
0.603179 0.335347 0.048303
0.635047 0.336337 0.049285
0.667000 0.337329 0.050270
0.699035 0.338324 0.051257
0.731148 0.339321 0.052247
0.763337 0.340321 0.053239
0.795598 0.341324 0.054233
0.827930 0.342328 0.055229
0.859902 0.343322 0.056214
0.891212 0.344295 0.057179
0.922518 0.345269 0.058144
0.928324 0.345457 0.058324
0.034084 0.350668 0.033864
0.034095 0.350674 0.033864
0.034106 0.350681 0.033865
0.057634 0.351412 0.034590
0.085496 0.352277 0.035449
0.114140 0.353165 0.036331
0.143293 0.354070 0.037230
0.172830 0.354987 0.038140
0.202675 0.355913 0.039059
0.232778 0.356847 0.039987
0.263105 0.357788 0.040922
0.293628 0.358736 0.041862
0.324328 0.359689 0.042808
0.355187 0.360647 0.043759
0.386192 0.361610 0.044714
0.417332 0.362577 0.045674
0.448597 0.363548 0.046637
0.479980 0.364523 0.047604
0.511473 0.365501 0.048575
0.543070 0.366483 0.049549
0.574765 0.367468 0.050525
0.606554 0.368455 0.051505
0.638432 0.369446 0.052487
0.670396 0.370440 0.053472
0.702441 0.371436 0.054460
0.734565 0.372435 0.055450
0.766765 0.373436 0.056442
0.799038 0.374440 0.057437
0.831381 0.375446 0.058434
0.863322 0.376439 0.059418
0.894532 0.377411 0.060380
0.925734 0.378382 0.061342
0.931521 0.378571 0.061521
0.037324 0.383849 0.037068
0.037336 0.383856 0.037069
0.037348 0.383864 0.037070
0.060881 0.384596 0.037796
0.088749 0.385462 0.038654
0.117398 0.386351 0.039537
0.146558 0.387257 0.040436
0.176102 0.388175 0.041346
0.205954 0.389102 0.042266
0.236065 0.390037 0.043194
0.266399 0.390980 0.044129
0.296930 0.391928 0.045069
0.327637 0.392882 0.046016
0.358505 0.393842 0.046967
0.389518 0.394806 0.047923
0.420667 0.395774 0.048883
0.451942 0.396746 0.049846
0.483334 0.397722 0.050814
0.514836 0.398702 0.051785
0.546443 0.399685 0.052759
0.578148 0.400671 0.053736
0.609947 0.401660 0.054716
0.641836 0.402652 0.055699
0.673811 0.403647 0.056684
0.705867 0.404644 0.057672
0.738002 0.405644 0.058663
0.770214 0.406647 0.059656
0.802498 0.407652 0.060651
0.834854 0.408659 0.061648
0.866763 0.409653 0.062631
0.897867 0.410622 0.063590
0.928961 0.411591 0.064549
0.934727 0.411780 0.064727
0.040575 0.417118 0.040281
0.040588 0.417126 0.040283
0.040601 0.417135 0.040284
0.064139 0.417868 0.041009
0.092013 0.418734 0.041868
0.120669 0.419625 0.042751
0.149836 0.420532 0.043650
0.179387 0.421451 0.044561
0.209246 0.422379 0.045481
0.239364 0.423316 0.046409
0.269707 0.424259 0.047344
0.300246 0.425209 0.048286
0.330962 0.426165 0.049232
0.361838 0.427125 0.050184
0.392860 0.428090 0.051140
0.424019 0.429060 0.052100
0.455303 0.430033 0.053064
0.486704 0.431010 0.054032
0.518217 0.431991 0.055004
0.549833 0.432976 0.055978
0.581549 0.433963 0.056956
0.613359 0.434953 0.057936
0.645259 0.435947 0.058919
0.677244 0.436943 0.059905
0.709312 0.437942 0.060894
0.741459 0.438943 0.061885
0.773683 0.439947 0.062878
0.805980 0.440954 0.063873
0.838347 0.441963 0.064871
0.870222 0.442956 0.065854
0.901216 0.443923 0.066809
0.932197 0.444890 0.067764
0.937942 0.445079 0.067942
0.043836 0.450469 0.043503
0.043850 0.450478 0.043504
0.043864 0.450487 0.043505
0.067408 0.451222 0.044231
0.095288 0.452089 0.045090
0.123951 0.452981 0.045974
0.153126 0.453889 0.046873
0.182684 0.454809 0.047784
0.212551 0.455739 0.048704
0.242677 0.456677 0.049633
0.273028 0.457621 0.050568
0.303575 0.458572 0.051510
0.334300 0.459529 0.052457
0.365185 0.460491 0.053409
0.396217 0.461457 0.054365
0.427385 0.462428 0.055326
0.458679 0.463403 0.056291
0.490091 0.464381 0.057259
0.521613 0.465364 0.058231
0.553241 0.466349 0.059205
0.584967 0.467338 0.060183
0.616788 0.468330 0.061164
0.648699 0.469325 0.062148
0.680697 0.470322 0.063134
0.712776 0.471323 0.064123
0.744935 0.472326 0.065115
0.777171 0.473331 0.066108
0.809480 0.474339 0.067104
0.841861 0.475349 0.068103
0.873701 0.476343 0.069084
0.904580 0.477307 0.070036
0.935443 0.478271 0.070988
0.941165 0.478461 0.071165
0.047108 0.483896 0.046731
0.047123 0.483906 0.046733
0.047138 0.483917 0.046734
0.070687 0.484652 0.047460
0.098574 0.485521 0.048320
0.127245 0.486414 0.049203
0.156427 0.487323 0.050103
0.185993 0.488244 0.051014
0.215868 0.489175 0.051935
0.246003 0.490114 0.052864
0.276362 0.491060 0.053800
0.306918 0.492013 0.054742
0.337652 0.492971 0.055689
0.368547 0.493934 0.056642
0.399589 0.494902 0.057598
0.430766 0.495874 0.058560
0.462070 0.496850 0.059525
0.493493 0.497830 0.060493
0.525026 0.498813 0.061465
0.556664 0.499800 0.062441
0.588402 0.500791 0.063419
0.620235 0.501784 0.064400
0.652157 0.502780 0.065385
0.684166 0.503779 0.066371
0.716258 0.504781 0.067361
0.748430 0.505786 0.068353
0.780678 0.506793 0.069347
0.813001 0.507802 0.070343
0.845395 0.508814 0.071342
0.877197 0.509808 0.072323
0.907956 0.510769 0.073271
0.938696 0.511731 0.074219
0.944396 0.511921 0.074396
0.050389 0.517395 0.049967
0.050405 0.517407 0.049968
0.050421 0.517418 0.049970
0.073976 0.518155 0.050696
0.101871 0.519025 0.051556
0.130549 0.519919 0.052440
0.159738 0.520830 0.053340
0.189313 0.521752 0.054252
0.219196 0.522684 0.055173
0.249340 0.523625 0.056102
0.279708 0.524572 0.057039
0.310274 0.525526 0.057981
0.341018 0.526485 0.058929
0.371922 0.527450 0.059881
0.402974 0.528419 0.060839
0.434162 0.529392 0.061800
0.465476 0.530370 0.062766
0.496909 0.531351 0.063735
0.528454 0.532336 0.064707
0.560104 0.533325 0.065683
0.591853 0.534317 0.066662
0.623697 0.535311 0.067644
0.655632 0.536309 0.068628
0.687654 0.537310 0.069616
0.719758 0.538313 0.070606
0.751943 0.539319 0.071598
0.784204 0.540328 0.072593
0.816540 0.541339 0.073590
0.848947 0.542352 0.074589
0.880711 0.543346 0.075569
0.911345 0.544305 0.076513
0.941958 0.545264 0.077457
0.947634 0.545455 0.077634
0.053680 0.550963 0.053209
0.053696 0.550975 0.053211
0.053713 0.550988 0.053213
0.077275 0.551725 0.053939
0.105177 0.552597 0.054799
0.133863 0.553493 0.055684
0.163061 0.554405 0.056584
0.192644 0.555328 0.057496
0.222536 0.556262 0.058418
0.252689 0.557204 0.059347
0.283067 0.558152 0.060284
0.313642 0.559108 0.061227
0.344396 0.560068 0.062175
0.375310 0.561034 0.063128
0.406373 0.562005 0.064086
0.437571 0.562980 0.065048
0.468897 0.563959 0.066014
0.500341 0.564942 0.066983
0.531897 0.565929 0.067956
0.563558 0.566919 0.068932
0.595320 0.567912 0.069912
0.627176 0.568908 0.070894
0.659124 0.569908 0.071879
0.691158 0.570910 0.072867
0.723275 0.571915 0.073857
0.755473 0.572923 0.074850
0.787748 0.573933 0.075846
0.820097 0.574945 0.076843
0.852519 0.575961 0.077843
0.884242 0.576954 0.078821
0.914747 0.577911 0.079762
0.945227 0.578867 0.080702
0.950878 0.579058 0.080878
0.056980 0.584595 0.056458
0.056997 0.584609 0.056460
0.057015 0.584622 0.056462
0.080583 0.585361 0.057188
0.108493 0.586234 0.058049
0.137187 0.587131 0.058934
0.166394 0.588045 0.059834
0.195986 0.588970 0.060747
0.225887 0.589905 0.061669
0.256049 0.590848 0.062599
0.286437 0.591798 0.063536
0.317022 0.592755 0.064479
0.347786 0.593717 0.065428
0.378711 0.594685 0.066381
0.409784 0.595657 0.067339
0.440994 0.596633 0.068302
0.472331 0.597614 0.069268
0.503787 0.598599 0.070238
0.535355 0.599587 0.071212
0.567028 0.600578 0.072188
0.598802 0.601573 0.073168
0.630671 0.602571 0.074151
0.662631 0.603572 0.075137
0.694679 0.604576 0.076125
0.726810 0.605583 0.077116
0.759021 0.606592 0.078109
0.791310 0.607604 0.079105
0.823673 0.608619 0.080103
0.856109 0.609635 0.081104
0.887790 0.610629 0.082081
0.918161 0.611583 0.083018
0.948504 0.612536 0.083954
0.954129 0.612728 0.084129
0.060288 0.618289 0.059713
0.060306 0.618304 0.059715
0.060325 0.618319 0.059717
0.083900 0.619059 0.060444
0.111818 0.619934 0.061305
0.140521 0.620832 0.062190
0.169737 0.621747 0.063091
0.199338 0.622674 0.064004
0.229249 0.623610 0.064926
0.259421 0.624555 0.065857
0.289818 0.625507 0.066794
0.320415 0.626465 0.067738
0.351189 0.627429 0.068687
0.382125 0.628398 0.069641
0.413209 0.629371 0.070599
0.444431 0.630349 0.071562
0.475779 0.631332 0.072529
0.507247 0.632318 0.073500
0.538827 0.633308 0.074474
0.570513 0.634301 0.075451
0.602300 0.635298 0.076431
0.634182 0.636297 0.077415
0.666155 0.637300 0.078401
0.698216 0.638306 0.079390
0.730361 0.639314 0.080381
0.762586 0.640325 0.081375
0.794889 0.641339 0.082371
0.827267 0.642355 0.083370
0.859718 0.643374 0.084371
0.891355 0.644367 0.085347
0.921587 0.645318 0.086280
0.951787 0.646268 0.087211
0.957386 0.646461 0.087386
0.063604 0.652043 0.062973
0.063624 0.652059 0.062975
0.063643 0.652075 0.062977
0.087226 0.652817 0.063705
0.115152 0.653692 0.064566
0.143864 0.654593 0.065452
0.173089 0.655509 0.066353
0.202700 0.656437 0.067266
0.232621 0.657375 0.068189
0.262803 0.658321 0.069120
0.293211 0.659275 0.070058
0.323818 0.660234 0.071002
0.354604 0.661200 0.071952
0.385551 0.662170 0.072906
0.416647 0.663146 0.073865
0.447880 0.664126 0.074829
0.479241 0.665110 0.075796
0.510721 0.666097 0.076767
0.542314 0.667089 0.077741
0.574012 0.668084 0.078719
0.605812 0.669082 0.079700
0.637708 0.670084 0.080684
0.669695 0.671088 0.081671
0.701769 0.672096 0.082660
0.733928 0.673106 0.083652
0.766168 0.674119 0.084647
0.798486 0.675134 0.085644
0.830879 0.676152 0.086643
0.863344 0.677173 0.087645
0.894937 0.678166 0.088619
0.925024 0.679114 0.089548
0.955077 0.680061 0.090475
0.960649 0.680254 0.090649
0.066929 0.685853 0.066239
0.066949 0.685870 0.066242
0.066970 0.685887 0.066244
0.090560 0.686631 0.066972
0.118495 0.687508 0.067833
0.147216 0.688410 0.068719
0.176451 0.689328 0.069621
0.206072 0.690257 0.070535
0.236003 0.691197 0.071458
0.266196 0.692145 0.072389
0.296615 0.693100 0.073328
0.327233 0.694061 0.074272
0.358030 0.695028 0.075222
0.388989 0.696001 0.076177
0.420097 0.696978 0.077137
0.451342 0.697959 0.078101
0.482715 0.698945 0.079069
0.514208 0.699935 0.080040
0.545814 0.700928 0.081015
0.577526 0.701925 0.081993
0.609339 0.702925 0.082975
0.641249 0.703928 0.083959
0.673250 0.704935 0.084947
0.705339 0.705944 0.085937
0.737512 0.706956 0.086929
0.769766 0.707971 0.087924
0.802099 0.708988 0.088922
0.834507 0.710008 0.089922
0.866989 0.711030 0.090924
0.898534 0.712024 0.091897
0.928473 0.712969 0.092821
0.958374 0.713912 0.093744
0.963917 0.714106 0.093917
0.070262 0.719718 0.069511
0.070283 0.719736 0.069513
0.070304 0.719755 0.069515
0.093902 0.720500 0.070244
0.121847 0.721379 0.071106
0.150578 0.722282 0.071992
0.179822 0.723202 0.072895
0.209453 0.724133 0.073809
0.239396 0.725074 0.074732
0.269600 0.726024 0.075664
0.300029 0.726981 0.076603
0.330659 0.727944 0.077548
0.361468 0.728913 0.078498
0.392439 0.729887 0.079454
0.423559 0.730866 0.080414
0.454817 0.731849 0.081378
0.486203 0.732836 0.082347
0.517709 0.733828 0.083319
0.549328 0.734823 0.084294
0.581054 0.735822 0.085273
0.612881 0.736824 0.086255
0.644804 0.737829 0.087240
0.676820 0.738837 0.088228
0.708924 0.739848 0.089219
0.741112 0.740862 0.090212
0.773381 0.741879 0.091208
0.805730 0.742898 0.092206
0.838154 0.743920 0.093206
0.870651 0.744944 0.094209
0.902148 0.745938 0.095181
0.931933 0.746879 0.096101
0.961677 0.747820 0.097019
0.967191 0.748014 0.097191
0.073602 0.753636 0.072787
0.073624 0.753655 0.072790
0.073646 0.753675 0.072792
0.097252 0.754422 0.073521
0.125207 0.755303 0.074384
0.153948 0.756208 0.075270
0.183203 0.757129 0.076173
0.212845 0.758062 0.077088
0.242798 0.759005 0.078012
0.273013 0.759956 0.078944
0.303455 0.760915 0.079883
0.334096 0.761880 0.080829
0.364917 0.762850 0.081780
0.395900 0.763826 0.082736
0.427033 0.764807 0.083697
0.458304 0.765792 0.084662
0.489704 0.766781 0.085630
0.521223 0.767775 0.086603
0.552856 0.768772 0.087579
0.584596 0.769772 0.088559
0.616437 0.770776 0.089541
0.648375 0.771783 0.090527
0.680405 0.772793 0.091515
0.712524 0.773806 0.092506
0.744728 0.774822 0.093500
0.777013 0.775841 0.094497
0.809377 0.776862 0.095495
0.841817 0.777886 0.096497
0.874330 0.778913 0.097500
0.905777 0.779907 0.098471
0.935404 0.780845 0.099385
0.964987 0.781781 0.100299
0.970470 0.781976 0.100470
0.076950 0.787604 0.076069
0.076973 0.787626 0.076072
0.076996 0.787647 0.076074
0.100611 0.788395 0.076803
0.128575 0.789278 0.077666
0.157326 0.790184 0.078554
0.186592 0.791107 0.079457
0.216245 0.792042 0.080372
0.246210 0.792987 0.081297
0.276437 0.793940 0.082229
0.306890 0.794900 0.083169
0.337544 0.795867 0.084115
0.368377 0.796840 0.085067
0.399374 0.797817 0.086023
0.430520 0.798800 0.086984
0.461804 0.799787 0.087950
0.493217 0.800778 0.088919
0.524750 0.801774 0.089892
0.556397 0.802773 0.090869
