library/cube/Champagne_Dusk_004.cube
# CINEGRADE LAB — Premium Cinematic LUT
# Title: Champagne Dusk
# Category: Luxury Editorial
# Description: Rich blacks, soft contrast, warm skin tones for high-end editorial photography
# Mood: Sophisticated, elegant, polished
# Variant: 5
# Generated: 2026-05-21T16:12:11.587444
TITLE "Champagne Dusk"
LUT_3D_SIZE 5
0.000000 0.000000 0.000000
0.168270 0.005183 0.005181
0.413611 0.012744 0.012736
0.666675 0.020546 0.020529
0.897641 0.027673 0.027641
0.018082 0.186395 0.017999
0.186509 0.191607 0.023187
0.432148 0.199203 0.030753
0.685630 0.207048 0.038562
0.915649 0.214178 0.045649
0.043836 0.450469 0.043503
0.212551 0.455739 0.048704
0.458679 0.463403 0.056291
0.712776 0.471323 0.064123
0.941165 0.478461 0.071165
0.070262 0.719718 0.069511
0.239396 0.725074 0.074732
0.486203 0.732836 0.082347
0.741112 0.740862 0.090212
0.967191 0.748014 0.097191
0.094353 0.963018 0.093018
0.264014 0.968242 0.098242
0.511666 0.975867 0.105867
0.767555 0.983746 0.113746
0.990614 0.990614 0.120614
0.001506 0.001505 0.140982
0.169786 0.006690 0.146163
0.415148 0.014253 0.153719
0.668245 0.022058 0.161512
0.899147 0.029184 0.168623
0.019606 0.187908 0.158982
0.188056 0.193123 0.164171
0.433735 0.200724 0.171739
0.687271 0.208572 0.179549
0.917155 0.215700 0.186632
0.045379 0.451999 0.184488
0.214130 0.457274 0.189691
0.460317 0.464943 0.197279
0.714487 0.472869 0.205114
0.942674 0.480005 0.212151
0.071824 0.721273 0.210499
0.241007 0.726636 0.215722
0.487894 0.734405 0.223339
0.742895 0.742439 0.231208
0.968702 0.749587 0.238179
0.095929 0.964525 0.234002
0.265651 0.969751 0.239228
0.513400 0.977379 0.246856
0.769401 0.985261 0.254738
0.992119 0.992119 0.261595
0.004119 0.004117 0.385600
0.172410 0.009304 0.390782
0.417796 0.016868 0.398339
0.670929 0.024676 0.406134
0.901758 0.031801 0.413243
0.022238 0.190529 0.403602
0.190712 0.195747 0.408792
0.436434 0.203351 0.416361
0.690024 0.211204 0.424173
0.919768 0.218329 0.431252
0.048030 0.454637 0.429110
0.216818 0.459916 0.434314
0.463067 0.467591 0.441905
0.717312 0.475522 0.449743
0.945289 0.482656 0.456773
0.074495 0.723937 0.455124
0.243729 0.729306 0.460349
0.490695 0.737082 0.467969
0.745791 0.745123 0.475841
0.971320 0.752268 0.482804
0.098612 0.967138 0.478623
0.268398 0.972366 0.483850
0.516246 0.979997 0.491482
0.772360 0.987883 0.499367
0.994730 0.994730 0.506214
0.006874 0.006868 0.643235
0.175177 0.012057 0.648418
0.420588 0.019624 0.655975
0.673758 0.027434 0.663771
0.904509 0.034558 0.670878
0.025010 0.193289 0.661238
0.193510 0.198511 0.666429
0.439276 0.206118 0.674000
0.692924 0.213975 0.681814
0.922519 0.221098 0.688888
0.050822 0.457415 0.686748
0.219648 0.462699 0.691954
0.465961 0.470379 0.699547
0.720282 0.478317 0.707388
0.948042 0.485446 0.714411
0.077306 0.726741 0.712765
0.246592 0.732116 0.717993
0.493641 0.739900 0.725616
0.748833 0.747949 0.733491
0.974077 0.755089 0.740446
0.101435 0.969891 0.736260
0.271286 0.975120 0.741489
0.519235 0.982754 0.749124
0.775465 0.990644 0.757013
0.997479 0.997479 0.763849
0.009400 0.009390 0.879387
0.177718 0.014581 0.884570
0.423156 0.022150 0.892128
0.676365 0.029963 0.899926
0.907030 0.037086 0.907030
0.027556 0.195821 0.897391
0.196082 0.201046 0.902583
0.441895 0.208657 0.910156
0.695601 0.216518 0.917972
0.925042 0.223639 0.925042
0.053386 0.459965 0.922904
0.222252 0.465254 0.928111
0.468630 0.472939 0.935707
0.723030 0.480883 0.943550
0.950567 0.488009 0.950567
0.079890 0.729317 0.948924
0.249229 0.734699 0.954153
0.496363 0.742490 0.961780
0.751653 0.750547 0.969658
0.976604 0.757683 0.976604
0.104032 0.972413 0.972413
0.273948 0.977645 0.977645
0.522000 0.985283 0.985283
0.778347 0.993175 0.993175
1.000000 1.000000 1.000000
