library/cube/Chrome_Dreams_004.cube
# CINEGRADE LAB — Premium Cinematic LUT
# Title: Chrome Dreams
# Category: Cyberpunk Cinema
# Description: Cyan/magenta split with high contrast for futuristic cyberpunk visuals
# Mood: Futuristic, neon, dystopian
# Variant: 5
# Generated: 2026-05-21T16:12:29.126863
TITLE "Chrome Dreams"
LUT_3D_SIZE 9
0.000000 0.034355 0.015505
0.000000 0.032115 0.014509
0.079811 0.025518 0.009141
0.252400 0.014568 0.000000
0.432688 0.003304 0.000000
0.620229 0.000000 0.000000
0.814592 0.000000 0.000000
1.000000 0.000000 0.000000
1.000000 0.000000 0.000000
0.000000 0.027151 0.012424
0.000000 0.025191 0.011653
0.088358 0.018526 0.006160
0.273212 0.007222 0.000000
0.464794 0.000000 0.000000
0.662692 0.000000 0.000000
0.866505 0.000000 0.000000
1.000000 0.000000 0.000000
1.000000 0.000000 0.000000
0.000000 0.126350 0.000000
0.000000 0.124272 0.000000
0.075553 0.117184 0.000000
0.271170 0.105210 0.000000
0.472616 0.093015 0.000000
0.679510 0.080616 0.000000
0.891484 0.068032 0.000000
1.000000 0.055741 0.000000
1.000000 0.053600 0.000000
0.000000 0.320512 0.000000
0.000000 0.317955 0.000000
0.043707 0.310122 0.000000
0.248696 0.297190 0.000000
0.458686 0.284076 0.000000
0.673327 0.270794 0.000000
0.890682 0.257443 0.000000
1.000000 0.244621 0.000000
1.000000 0.242110 0.000000
0.000000 0.510546 0.000000
0.000000 0.507502 0.000000
0.012329 0.498950 0.000000
0.225349 0.485113 0.000000
0.442611 0.471124 0.000000
0.663796 0.456996 0.000000
0.884104 0.442973 0.000000
1.000000 0.429696 0.000000
1.000000 0.426761 0.000000
0.000000 0.696416 0.000000
0.000000 0.692856 0.000000
0.000000 0.683586 0.000000
0.201326 0.668869 0.000000
0.424711 0.654021 0.000000
0.651364 0.639052 0.000000
0.872582 0.624408 0.000000
1.000000 0.610723 0.000000
1.000000 0.607283 0.000000
0.000000 0.876641 0.000000
0.000000 0.872701 0.000000
0.000000 0.862857 0.000000
0.177017 0.847407 0.000000
0.405477 0.831821 0.000000
0.636631 0.816108 0.000000
0.857042 0.800956 0.000000
1.000000 0.786964 0.000000
1.000000 0.782986 0.000000
0.000000 1.000000 0.000000
0.000000 1.000000 0.000000
0.000000 1.000000 0.000000
0.153123 1.000000 0.000000
0.385646 1.000000 0.000000
0.620397 0.986498 0.000000
0.838651 0.971260 0.000000
1.000000 0.957300 0.000000
1.000000 0.952924 0.000000
0.000000 1.000000 0.000000
0.000000 1.000000 0.000000
0.000000 1.000000 0.000000
0.164757 1.000000 0.000000
0.400715 0.988205 0.000000
0.638508 0.971634 0.000000
0.853865 0.956082 0.000000
1.000000 0.942097 0.000000
1.000000 0.937308 0.000000
0.000000 0.033585 0.015159
0.000000 0.031373 0.014187
0.080706 0.024768 0.008805
0.254608 0.013778 0.000000
0.436108 0.002480 0.000000
0.624763 0.000000 0.000000
0.820145 0.000000 0.000000
1.000000 0.000000 0.000000
1.000000 0.000000 0.000000
0.000000 0.026476 0.012155
0.000000 0.024544 0.011406
0.089183 0.017874 0.005902
0.275186 0.006539 0.000000
0.467822 0.000000 0.000000
0.666684 0.000000 0.000000
0.871373 0.000000 0.000000
1.000000 0.000000 0.000000
1.000000 0.000000 0.000000
0.000000 0.125635 0.000000
0.000000 0.123584 0.000000
0.076342 0.116495 0.000000
0.272954 0.104497 0.000000
0.475309 0.092282 0.000000
0.683029 0.079867 0.000000
0.895747 0.067270 0.000000
1.000000 0.055001 0.000000
1.000000 0.052899 0.000000
0.000000 0.319635 0.000000
0.000000 0.317104 0.000000
0.044490 0.309273 0.000000
0.250334 0.296323 0.000000
0.461099 0.283193 0.000000
0.676438 0.269900 0.000000
0.894176 0.256553 0.000000
1.000000 0.243757 0.000000
1.000000 0.241281 0.000000
0.000000 0.509504 0.000000
0.000000 0.506484 0.000000
0.013113 0.497935 0.000000
0.226859 0.484084 0.000000
0.444775 0.470083 0.000000
0.666543 0.455945 0.000000
0.887017 0.441933 0.000000
1.000000 0.428689 0.000000
1.000000 0.425785 0.000000
0.000000 0.695200 0.000000
0.000000 0.691661 0.000000
0.000000 0.682393 0.000000
0.202730 0.667662 0.000000
0.426659 0.652803 0.000000
0.653794 0.637825 0.000000
0.874988 0.623196 0.000000
1.000000 0.609547 0.000000
1.000000 0.606129 0.000000
0.000000 0.875300 0.000000
0.000000 0.871369 0.000000
0.000000 0.861517 0.000000
0.178329 0.846047 0.000000
0.407238 0.830443 0.000000
0.638788 0.814713 0.000000
0.859027 0.799570 0.000000
1.000000 0.785611 0.000000
1.000000 0.781639 0.000000
0.000000 1.000000 0.000000
0.000000 1.000000 0.000000
0.000000 1.000000 0.000000
0.154321 1.000000 0.000000
0.387221 1.000000 0.000000
0.622306 0.985064 0.000000
0.840294 0.969792 0.000000
1.000000 0.955827 0.000000
1.000000 0.951411 0.000000
0.000000 1.000000 0.000000
0.000000 1.000000 0.000000
0.000000 1.000000 0.000000
0.165907 1.000000 0.000000
0.402178 0.986684 0.000000
0.640251 0.970051 0.000000
0.855291 0.954469 0.000000
1.000000 0.940485 0.000000
1.000000 0.935653 0.000000
0.000000 0.030652 0.143025
0.000000 0.028477 0.141555
0.079438 0.021872 0.135672
0.254644 0.010852 0.125389
0.437347 0.000000 0.114817
0.627107 0.000000 0.103978
0.823500 0.000000 0.092891
1.000000 0.000000 0.081670
1.000000 0.000000 0.079992
0.000000 0.023666 0.138476
0.000000 0.021769 0.137336
0.087870 0.015101 0.131440
0.275011 0.003740 0.120865
0.468692 0.000000 0.110046
0.668508 0.000000 0.099002
0.874064 0.000000 0.087753
1.000000 0.000000 0.076570
1.000000 0.000000 0.075349
0.000000 0.122806 0.114223
0.000000 0.120788 0.113475
0.075011 0.113703 0.107671
0.272609 0.101685 0.096946
0.475862 0.089454 0.086019
0.684397 0.077026 0.074906
0.897751 0.064425 0.063632
1.000000 0.052177 0.052724
1.000000 0.050116 0.052016
0.000000 0.316659 0.072466
0.000000 0.314158 0.072165
0.043166 0.306332 0.066550
0.249854 0.293367 0.055805
0.461384 0.280225 0.044896
0.677411 0.266922 0.033840
0.895511 0.253580 0.022759
1.000000 0.240812 0.012269
1.000000 0.238371 0.012124
0.000000 0.506373 0.032691
0.000000 0.503379 0.032824
0.011799 0.494834 0.027420
0.226260 0.480970 0.016712
0.444818 0.466958 0.005875
0.667159 0.452811 0.000000
0.887776 0.438811 0.000000
1.000000 0.425600 0.000000
1.000000 0.422723 0.000000
0.000000 0.691899 0.000000
0.000000 0.688380 0.000000
0.000000 0.679114 0.000000
0.202027 0.664370 0.000000
0.426489 0.649498 0.000000
0.654095 0.634509 0.000000
0.875247 0.619894 0.000000
1.000000 0.606282 0.000000
1.000000 0.602881 0.000000
0.000000 0.871869 0.000000
0.000000 0.867945 0.000000
0.000000 0.858085 0.000000
0.177531 0.842593 0.000000
0.406879 0.826968 0.000000
0.638814 0.811217 0.000000
0.858866 0.796082 0.000000
1.000000 0.782152 0.000000
1.000000 0.778181 0.000000
0.000000 1.000000 0.000000
0.000000 1.000000 0.000000
0.000000 1.000000 0.000000
0.153407 1.000000 0.000000
0.386674 0.997586 0.000000
0.622081 0.981502 0.000000
0.839793 0.966193 0.000000
1.000000 0.952219 0.000000
1.000000 0.947757 0.000000
0.000000 1.000000 0.000000
0.000000 1.000000 0.000000
0.000000 1.000000 0.000000
0.164935 0.999493 0.000000
0.401508 0.983023 0.000000
0.639853 0.966324 0.000000
0.854567 0.950707 0.000000
1.000000 0.936719 0.000000
1.000000 0.931837 0.000000
0.000000 0.025721 0.389368
0.000000 0.023592 0.386951
0.076170 0.016994 0.380146
0.252670 0.005950 0.368973
0.436565 0.000000 0.357576
0.627420 0.000000 0.345976
0.824814 0.000000 0.334192
1.000000 0.000000 0.322348
1.000000 0.000000 0.320156
0.000000 0.018882 0.381876
0.000000 0.017025 0.379994
0.084578 0.010365 0.373382
0.272847 0.000000 0.362125
0.467562 0.000000 0.350686
0.668322 0.000000 0.339084
0.874735 0.000000 0.327337
1.000000 0.000000 0.315738
1.000000 0.000000 0.314188
0.000000 0.118021 0.355385
0.000000 0.116040 0.354090
0.071717 0.108963 0.347769
0.270289 0.096930 0.336560
0.474430 0.084686 0.325208
0.683769 0.072249 0.313730
0.897698 0.059648 0.302156
1.000000 0.047422 0.291024
1.000000 0.045403 0.290165
0.000000 0.311739 0.312063
0.000000 0.309271 0.311402
0.039890 0.301453 0.305458
0.247411 0.288475 0.294420
0.459693 0.275322 0.283273
0.676397 0.262011 0.272035
0.894837 0.248677 0.260842
1.000000 0.235937 0.250312
1.000000 0.233531 0.250185
0.000000 0.501305 0.271343
0.000000 0.498338 0.271295
0.008538 0.489799 0.265743
0.223702 0.475922 0.254922
0.442891 0.461900 0.244026
0.665795 0.447744 0.233070
0.886535 0.433756 0.222355
1.000000 0.420577 0.212527
1.000000 0.417726 0.213104
0.000000 0.686663 0.233155
0.000000 0.683164 0.233702
0.000000 0.673899 0.228559
0.199367 0.659140 0.218001
0.424350 0.644256 0.207398
0.652417 0.629255 0.196763
0.873507 0.614652 0.186614
1.000000 0.601073 0.177580
1.000000 0.597687 0.178833
0.000000 0.866498 0.197676
0.000000 0.862580 0.198771
0.000000 0.852709 0.194023
0.174774 0.837193 0.183744
0.404549 0.821544 0.173450
0.636859 0.805770 0.163152
0.856708 0.790638 0.153621
1.000000 0.776735 0.145449
1.000000 0.772761 0.147338
0.000000 1.000000 0.165585
0.000000 1.000000 0.167037
0.000000 1.000000 0.162547
0.150530 1.000000 0.152454
0.384153 0.992114 0.142392
0.619872 0.975959 0.132368
0.837296 0.960610 0.123433
1.000000 0.946623 0.116138
1.000000 0.942110 0.118593
0.000000 1.000000 0.171074
0.000000 1.000000 0.173029
0.000000 1.000000 0.168929
0.161988 0.993913 0.159140
0.398855 0.977371 0.149392
0.637461 0.960602 0.139689
0.851844 0.944943 0.131366
1.000000 0.930946 0.124969
1.000000 0.926010 0.127891
0.000000 0.020812 0.635042
0.000000 0.018727 0.631720
0.072906 0.012136 0.624035
0.250681 0.001069 0.612014
0.435752 0.000000 0.599834
0.627686 0.000000 0.587514
0.826065 0.000000 0.575074
1.000000 0.000000 0.562648
1.000000 0.000000 0.559979
0.000000 0.014116 0.624747
0.000000 0.012299 0.622163
0.081288 0.005647 0.614877
0.270668 0.000000 0.602978
0.466401 0.000000 0.590958
0.668090 0.000000 0.578837
0.875345 0.000000 0.566631
1.000000 0.000000 0.554655
1.000000 0.000000 0.552813
0.000000 0.113252 0.596152
0.000000 0.111307 0.594350
0.068423 0.104238 0.587549
0.267953 0.092189 0.575895
0.472968 0.079933 0.564157
0.683097 0.067486 0.552351
0.897577 0.054887 0.540514
1.000000 0.042683 0.529195
1.000000 0.040705 0.528219
0.000000 0.306833 0.551393
0.000000 0.304397 0.550411
0.036613 0.296586 0.544174
0.244952 0.283595 0.532878
0.457974 0.270431 0.521531
0.675343 0.257112 0.510147
0.894099 0.243785 0.498877
1.000000 0.231075 0.488343
1.000000 0.228703 0.488267
0.000000 0.496248 0.509851
0.000000 0.493308 0.509659
0.005274 0.484773 0.503993
0.221129 0.470884 0.493094
0.440936 0.456850 0.482174
0.664391 0.442685 0.471245
0.885234 0.428708 0.460629
1.000000 0.415563 0.450970
1.000000 0.412736 0.451757
0.000000 0.681434 0.471429
0.000000 0.677954 0.472001
0.000000 0.668689 0.466915
0.196691 0.653917 0.456449
0.422185 0.639018 0.445989
0.650703 0.624004 0.435546
0.871715 0.609413 0.425662
1.000000 0.595868 0.416960
1.000000 0.592495 0.418573
0.000000 0.861128 0.436265
0.000000 0.857215 0.437547
0.000000 0.847332 0.433018
0.172003 0.831792 0.422993
0.402196 0.816119 0.413001
0.634872 0.800320 0.403049
0.854507 0.785191 0.393938
1.000000 0.771315 0.386253
1.000000 0.767335 0.388640
0.000000 1.000000 0.404957
0.000000 1.000000 0.406758
0.000000 1.000000 0.402647
0.147642 1.000000 0.392966
0.381614 0.986622 0.383360
0.617639 0.970396 0.373834
0.834768 0.955006 0.365465
1.000000 0.941006 0.358802
1.000000 0.936441 0.361885
0.000000 1.000000 0.411785
0.000000 1.000000 0.414227
0.000000 1.000000 0.410645
0.159033 0.988310 0.401404
0.396187 0.971697 0.392242
0.635052 0.954857 0.383161
0.849101 0.939157 0.375525
1.000000 0.925151 0.369877
1.000000 0.920159 0.373531
0.000000 0.015924 0.880068
0.000000 0.013881 0.875883
0.069643 0.007298 0.867361
0.248677 0.000000 0.854534
0.434906 0.000000 0.841611
0.627903 0.000000 0.828613
0.827252 0.000000 0.815556
1.000000 0.000000 0.802589
1.000000 0.000000 0.799481
0.000000 0.009368 0.867111
0.000000 0.007591 0.863865
0.077999 0.000945 0.855944
0.268473 0.000000 0.843442
0.465210 0.000000 0.830882
0.667812 0.000000 0.818280
0.875896 0.000000 0.805653
1.000000 0.000000 0.793340
1.000000 0.000000 0.791243
0.000000 0.108499 0.836545
0.000000 0.106589 0.834273
0.065129 0.099527 0.827032
0.265603 0.087463 0.814971
0.471476 0.075194 0.802884
0.682382 0.062737 0.790787
0.897387 0.050140 0.778725
1.000000 0.037959 0.767254
1.000000 0.036021 0.766198
0.000000 0.301941 0.790476
0.000000 0.299535 0.789208
0.033333 0.291731 0.782717
0.242477 0.278726 0.771200
0.456226 0.265552 0.759687
0.674247 0.252224 0.748193
0.893296 0.238905 0.736881
1.000000 0.226224 0.726378
1.000000 0.223885 0.726387
0.000000 0.491202 0.748234
0.000000 0.488286 0.747932
0.002007 0.479756 0.742188
0.218539 0.465854 0.731246
0.438954 0.451809 0.720335
0.662949 0.437634 0.709468
0.883874 0.423669 0.698984
1.000000 0.410556 0.689528
1.000000 0.407753 0.690557
0.000000 0.676212 0.709694
0.000000 0.672750 0.710324
0.000000 0.663485 0.705328
0.194000 0.648697 0.694988
0.419995 0.633785 0.684703
0.648953 0.618757 0.674483
0.869871 0.604178 0.664895
1.000000 0.590666 0.656558
1.000000 0.587305 0.658559
0.000000 0.855760 0.674956
0.000000 0.851850 0.676456
0.000000 0.841955 0.672178
0.169217 0.826389 0.662438
0.399819 0.810691 0.652777
0.632854 0.794867 0.643203
0.852263 0.779741 0.634540
1.000000 0.765891 0.627369
1.000000 0.761904 0.630282
0.000000 1.000000 0.644538
0.000000 1.000000 0.646717
0.000000 1.000000 0.643014
0.144745 0.997163 0.633775
0.379057 0.981110 0.624652
0.615383 0.964813 0.615650
0.832210 0.949382 0.607873
1.000000 0.935368 0.601867
1.000000 0.930752 0.605604
0.000000 1.000000 0.652802
0.000000 1.000000 0.655758
0.000000 0.999137 0.652720
0.156068 0.982686 0.644052
0.393505 0.966001 0.635501
0.632625 0.949089 0.627067
0.846339 0.933349 0.620139
1.000000 0.919333 0.615262
1.000000 0.914284 0.619666
0.000000 0.011274 1.000000
0.000000 0.009261 1.000000
0.066577 0.002673 1.000000
0.246841 0.000000 1.000000
0.434204 0.000000 1.000000
0.628240 0.000000 1.000000
0.828536 0.000000 1.000000
1.000000 0.000000 1.000000
1.000000 0.000000 1.000000
0.000000 0.004819 1.000000
0.000000 0.003071 1.000000
0.074873 0.000000 1.000000
0.266419 0.000000 1.000000
0.464137 0.000000 1.000000
0.667633 0.000000 1.000000
0.876527 0.000000 1.000000
1.000000 0.000000 1.000000
1.000000 0.000000 1.000000
0.000000 0.103915 1.000000
0.000000 0.102034 1.000000
0.061976 0.094973 1.000000
0.263374 0.082889 1.000000
0.470087 0.070603 1.000000
0.681754 0.058133 1.000000
0.897258 0.045534 1.000000
1.000000 0.033375 0.997880
1.000000 0.031473 0.996897
0.000000 0.297197 1.000000
0.000000 0.294818 1.000000
0.030180 0.287016 1.000000
0.240112 0.273995 1.000000
0.454573 0.260808 0.990466
0.673232 0.247468 0.979006
0.892550 0.234157 0.967768
1.000000 0.221504 0.957381
1.000000 0.219196 0.957529
0.000000 0.486290 0.979130
0.000000 0.483397 0.978882
0.000000 0.474869 0.973193
0.216055 0.460952 0.962312
0.437064 0.446894 0.951485
0.661588 0.432709 0.940723
0.882575 0.418756 0.930386
1.000000 0.405677 0.921114
1.000000 0.402898 0.922331
0.000000 0.671116 0.940902
0.000000 0.667671 0.941654
0.000000 0.658405 0.936781
0.191413 0.643602 0.926567
0.417899 0.628676 0.916426
0.647291 0.613636 0.906367
0.868101 0.599070 0.896976
1.000000 0.585594 0.888868
1.000000 0.582247 0.891084
0.000000 0.850512 0.906679
0.000000 0.846605 0.908355
0.000000 0.836699 0.904251
0.166543 0.821110 0.894684
0.397549 0.805389 0.885205
0.630937 0.789544 0.875820
0.850115 0.774424 0.867378
1.000000 0.760604 0.860454
1.000000 0.756615 0.863578
0.000000 1.000000 0.876873
0.000000 1.000000 0.879266
0.000000 1.000000 0.875769
0.141976 0.991841 0.866728
0.376627 0.975720 0.857803
0.613252 0.959358 0.848996
0.829780 0.943892 0.841438
1.000000 0.929874 0.835670
1.000000 0.925213 0.839593
0.000000 1.000000 0.885863
0.000000 1.000000 0.889033
0.000000 0.993716 0.886193
0.153254 0.977198 0.877708
0.390977 0.960449 0.869331
0.630358 0.943474 0.861060
0.843744 0.927702 0.854312
1.000000 0.913687 0.849634
1.000000 0.908592 0.854174
0.000000 0.007830 1.000000
0.000000 0.005767 1.000000
0.064545 0.000000 1.000000
0.245952 0.000000 1.000000
0.434366 0.000000 1.000000
0.629365 0.000000 1.000000
0.830539 0.000000 1.000000
1.000000 0.000000 1.000000
1.000000 0.000000 1.000000
0.000000 0.001224 1.000000
0.000000 0.000000 1.000000
0.072564 0.000000 1.000000
0.265112 0.000000 1.000000
0.463748 0.000000 1.000000
0.668080 0.000000 1.000000
0.877732 0.000000 1.000000
1.000000 0.000000 1.000000
1.000000 0.000000 1.000000
0.000000 0.100091 1.000000
0.000000 0.098190 1.000000
0.059478 0.091090 1.000000
0.261750 0.078949 1.000000
0.469259 0.066616 1.000000
0.681647 0.054106 1.000000
0.897604 0.041486 1.000000
1.000000 0.029333 1.000000
1.000000 0.027457 1.000000
0.000000 0.293075 1.000000
0.000000 0.290692 1.000000
0.027581 0.282869 1.000000
0.238269 0.269813 1.000000
0.453415 0.256598 1.000000
0.672692 0.243239 1.000000
0.892252 0.229931 1.000000
1.000000 0.217309 1.000000
1.000000 0.215037 1.000000
0.000000 0.481920 1.000000
0.000000 0.479037 1.000000
0.000000 0.470503 1.000000
0.214066 0.456569 1.000000
0.435662 0.442502 1.000000
0.660711 0.428313 1.000000
0.881753 0.414384 1.000000
1.000000 0.401356 1.000000
1.000000 0.398620 1.000000
0.000000 0.666539 1.000000
0.000000 0.663114 1.000000
0.000000 0.653855 1.000000
0.189351 0.639050 1.000000
0.416337 0.624128 1.000000
0.646175 0.609097 1.000000
0.866888 0.594571 1.000000
1.000000 0.581161 1.000000
1.000000 0.577861 1.000000
0.000000 0.845810 1.000000
0.000000 0.841926 1.000000
0.000000 0.832031 1.000000
0.164472 0.816446 1.000000
0.395905 0.800734 1.000000
0.629676 0.784901 1.000000
0.848649 0.769826 1.000000
1.000000 0.756078 1.000000
1.000000 0.752132 1.000000
0.000000 1.000000 1.000000
0.000000 1.000000 1.000000
0.000000 1.000000 1.000000
0.139935 0.987237 1.000000
0.374963 0.971093 1.000000
0.611930 0.954711 1.000000
0.828201 0.939261 1.000000
1.000000 0.925291 1.000000
1.000000 0.920640 1.000000
0.000000 1.000000 1.000000
0.000000 0.999656 1.000000
0.000000 0.989119 1.000000
0.151330 0.972586 1.000000
0.389388 0.955826 1.000000
0.629083 0.938845 1.000000
0.842201 0.923098 1.000000
1.000000 0.909146 1.000000
1.000000 0.904066 1.000000
0.000000 0.007120 1.000000
0.000000 0.005086 1.000000
0.065384 0.000000 1.000000
0.247987 0.000000 1.000000
0.437500 0.000000 1.000000
0.633506 0.000000 1.000000
0.835597 0.000000 1.000000
1.000000 0.000000 1.000000
1.000000 0.000000 1.000000
0.000000 0.000610 1.000000
0.000000 0.000000 1.000000
0.073339 0.000000 1.000000
0.266928 0.000000 1.000000
0.466514 0.000000 1.000000
0.671711 0.000000 1.000000
0.882145 0.000000 1.000000
1.000000 0.000000 1.000000
1.000000 0.000000 1.000000
0.000000 0.099436 1.000000
0.000000 0.097563 1.000000
0.060224 0.090463 1.000000
0.263391 0.078303 1.000000
0.471713 0.065953 1.000000
0.684836 0.053431 1.000000
0.901245 0.040813 1.000000
1.000000 0.028683 1.000000
1.000000 0.026844 1.000000
0.000000 0.292257 1.000000
0.000000 0.289900 1.000000
0.028327 0.282080 1.000000
0.239778 0.269009 1.000000
0.455612 0.255782 1.000000
0.675505 0.242414 1.000000
0.895293 0.229116 1.000000
1.000000 0.216526 1.000000
1.000000 0.214287 1.000000
0.000000 0.480933 1.000000
0.000000 0.478073 1.000000
0.000000 0.469542 1.000000
0.215463 0.455595 1.000000
0.437634 0.441518 1.000000
0.663194 0.427322 1.000000
0.884264 0.413408 1.000000
1.000000 0.400418 1.000000
1.000000 0.397708 1.000000
0.000000 0.665370 1.000000
0.000000 0.661963 1.000000
0.000000 0.652705 1.000000
0.190659 0.637887 1.000000
0.418120 0.622954 1.000000
0.648377 0.607914 1.000000
0.868956 0.593405 1.000000
1.000000 0.580035 1.000000
1.000000 0.576751 1.000000
0.000000 0.844489 1.000000
0.000000 0.840610 1.000000
0.000000 0.830706 1.000000
0.165709 0.815100 1.000000
0.397533 0.799369 1.000000
0.631647 0.783517 1.000000
0.850373 0.768452 1.000000
1.000000 0.754738 1.000000
1.000000 0.750792 1.000000
0.000000 1.000000 1.000000
0.000000 1.000000 1.000000
0.000000 1.000000 1.000000
0.141101 0.985827 1.000000
0.376458 0.969620 1.000000
0.613718 0.953177 1.000000
0.829683 0.937696 1.000000
1.000000 0.923725 1.000000
1.000000 0.919032 1.000000
0.000000 1.000000 1.000000
0.000000 0.998210 1.000000
0.000000 0.987618 1.000000
0.152468 0.971022 1.000000
0.390806 0.954201 1.000000
0.630761 0.937160 1.000000
0.843555 0.921383 1.000000
1.000000 0.907435 1.000000
1.000000 0.902310 1.000000
