library/cube/Chrome_Grain_003.cube
# CINEGRADE LAB — Premium Cinematic LUT
# Title: Chrome Grain
# Category: Bleach Bypass
# Description: Silver retention, high contrast, desaturated bleach bypass film process
# Mood: Gritty, stark, intense
# Variant: 4
# Generated: 2026-05-21T16:12:57.158836
TITLE "Chrome Grain"
LUT_3D_SIZE 5
0.000000 0.000000 0.000000
0.116202 0.014154 0.011828
0.339520 0.041276 0.034452
0.555998 0.067471 0.056253
0.653241 0.079132 0.065906
0.053508 0.159000 0.039789
0.171023 0.173368 0.051617
0.396528 0.200734 0.074241
0.614909 0.227145 0.096042
0.712848 0.238955 0.105695
0.157260 0.464604 0.115899
0.275969 0.479219 0.127727
0.503372 0.506838 0.150351
0.723374 0.533467 0.172152
0.821907 0.545429 0.181805
0.258703 0.760411 0.189239
0.378327 0.775115 0.201067
0.607186 0.802821 0.223691
0.828380 0.829504 0.245492
0.926501 0.841466 0.255145
0.305031 0.892331 0.221712
0.425227 0.906923 0.233540
0.655040 0.934518 0.256164
0.876943 0.961067 0.277965
0.971287 0.972864 0.287618
0.005348 0.004803 0.127846
0.121693 0.018968 0.139674
0.345250 0.046107 0.162299
0.561937 0.072315 0.184100
0.659259 0.083983 0.193752
0.058971 0.163877 0.167636
0.176606 0.178252 0.179463
0.402309 0.205626 0.202088
0.620861 0.232044 0.223889
0.718860 0.243856 0.233542
0.162850 0.469568 0.243745
0.281654 0.484180 0.255573
0.509215 0.511797 0.278197
0.729347 0.538423 0.299998
0.827917 0.550378 0.309651
0.264379 0.765409 0.317085
0.384073 0.780100 0.328913
0.613048 0.807795 0.351537
0.834331 0.834464 0.373338
0.932140 0.846410 0.382991
0.310729 0.897292 0.349558
0.430971 0.911867 0.361386
0.660861 0.939445 0.384011
0.882816 0.965974 0.405812
0.976544 0.977750 0.415464
0.015596 0.013996 0.372394
0.132096 0.028178 0.384222
0.355902 0.055336 0.406846
0.572809 0.081563 0.428647
0.670221 0.093242 0.438300
0.069379 0.173160 0.412184
0.187144 0.187544 0.424011
0.413055 0.214931 0.446636
0.631786 0.241359 0.468437
0.729854 0.253175 0.478090
0.173425 0.478947 0.488293
0.292331 0.493558 0.500121
0.520055 0.521177 0.522745
0.740323 0.547802 0.544546
0.838938 0.559751 0.554199
0.275070 0.774828 0.561633
0.394839 0.789508 0.573461
0.623933 0.817194 0.596085
0.845309 0.843850 0.617886
0.942514 0.855781 0.627539
0.321464 0.906680 0.594106
0.441756 0.921238 0.605934
0.671724 0.948798 0.628558
0.893731 0.975308 0.650359
0.986408 0.987063 0.660012
0.025493 0.022861 0.608043
0.142146 0.037059 0.619871
0.366195 0.064237 0.642495
0.583316 0.090481 0.664296
0.680815 0.102171 0.673949
0.079430 0.182111 0.647832
0.197321 0.196505 0.659660
0.423434 0.223903 0.682284
0.642339 0.250340 0.704085
0.740471 0.262160 0.713738
0.183633 0.487991 0.723942
0.302639 0.502600 0.735769
0.530521 0.530219 0.758394
0.750920 0.556842 0.780195
0.849576 0.568786 0.789848
0.285387 0.783907 0.797282
0.405228 0.798576 0.809109
0.634436 0.826250 0.831734
0.855901 0.852895 0.853535
0.952467 0.864809 0.863188
0.331820 0.915724 0.829755
0.452160 0.930265 0.841583
0.682200 0.957808 0.864207
0.904256 0.984298 0.886008
0.995843 0.996031 0.895661
0.029902 0.026795 0.712382
0.146687 0.041003 0.724210
0.370960 0.068194 0.746834
0.588275 0.094449 0.768635
0.685845 0.106144 0.778288
0.083935 0.186110 0.752171
0.201936 0.200508 0.763999
0.428233 0.227912 0.786623
0.647294 0.254354 0.808424
0.745478 0.266174 0.818077
0.188247 0.492064 0.828281
0.307338 0.506668 0.840109
0.535362 0.534284 0.862733
0.755879 0.560901 0.884534
0.854563 0.572836 0.894187
0.290069 0.788001 0.901621
0.409971 0.802656 0.913449
0.639280 0.830318 0.936073
0.860822 0.856947 0.957874
0.957015 0.868844 0.967527
0.336509 0.919776 0.934094
0.456888 0.934298 0.945922
0.686990 0.961820 0.968546
0.909085 0.988290 0.990347
1.000000 1.000000 1.000000
