library/cube/Chrome_Dreams_004.cube
# CINEGRADE LAB — Premium Cinematic LUT
# Title: Chrome Dreams
# Category: Cyberpunk Cinema
# Description: Cyan/magenta split with high contrast for futuristic cyberpunk visuals
# Mood: Futuristic, neon, dystopian
# Variant: 5
# Generated: 2026-05-21T16:12:29.126863
TITLE "Chrome Dreams"
LUT_3D_SIZE 33
0.000000 0.034355 0.015505
0.000000 0.033787 0.015250
0.000000 0.033224 0.014999
0.000000 0.032667 0.014752
0.000000 0.032115 0.014509
0.000000 0.031568 0.014271
0.000000 0.030869 0.013880
0.037920 0.028204 0.011522
0.079811 0.025518 0.009141
0.122212 0.022811 0.006739
0.165115 0.020083 0.004315
0.208513 0.017335 0.001870
0.252400 0.014568 0.000000
0.296768 0.011780 0.000000
0.341610 0.008973 0.000000
0.386919 0.006148 0.000000
0.432688 0.003304 0.000000
0.478910 0.000441 0.000000
0.525579 0.000000 0.000000
0.572688 0.000000 0.000000
0.620229 0.000000 0.000000
0.668197 0.000000 0.000000
0.716584 0.000000 0.000000
0.765385 0.000000 0.000000
0.814592 0.000000 0.000000
0.864199 0.000000 0.000000
0.914140 0.000000 0.000000
0.964021 0.000000 0.000000
1.000000 0.000000 0.000000
1.000000 0.000000 0.000000
1.000000 0.000000 0.000000
1.000000 0.000000 0.000000
1.000000 0.000000 0.000000
0.000000 0.032465 0.014663
0.000000 0.031915 0.014422
0.000000 0.031370 0.014185
0.000000 0.030830 0.013953
0.000000 0.030295 0.013725
0.000000 0.029766 0.013500
0.000000 0.029081 0.013120
0.039277 0.026390 0.010732
0.082013 0.023678 0.008322
0.125243 0.020946 0.005891
0.168959 0.018194 0.003439
0.213155 0.015423 0.000967
0.257823 0.012632 0.000000
0.302957 0.009822 0.000000
0.348549 0.006995 0.000000
0.394594 0.004148 0.000000
0.441083 0.001285 0.000000
0.488010 0.000000 0.000000
0.535369 0.000000 0.000000
0.583152 0.000000 0.000000
0.631354 0.000000 0.000000
0.679968 0.000000 0.000000
0.728987 0.000000 0.000000
0.778404 0.000000 0.000000
0.828214 0.000000 0.000000
0.878410 0.000000 0.000000
0.928745 0.000000 0.000000
0.979035 0.000000 0.000000
1.000000 0.000000 0.000000
1.000000 0.000000 0.000000
1.000000 0.000000 0.000000
1.000000 0.000000 0.000000
1.000000 0.000000 0.000000
0.000000 0.030635 0.013869
0.000000 0.030102 0.013643
0.000000 0.029575 0.013420
0.000000 0.029052 0.013202
0.000000 0.028535 0.012987
0.000000 0.028023 0.012777
0.000000 0.027353 0.012407
0.040617 0.024636 0.009990
0.084171 0.021900 0.007552
0.128204 0.019144 0.005094
0.172707 0.016369 0.002616
0.217674 0.013575 0.000117
0.263098 0.010763 0.000000
0.308972 0.007932 0.000000
0.355290 0.005085 0.000000
0.402044 0.002219 0.000000
0.449229 0.000000 0.000000
0.496837 0.000000 0.000000
0.544861 0.000000 0.000000
0.593296 0.000000 0.000000
0.642135 0.000000 0.000000
0.691371 0.000000 0.000000
0.740999 0.000000 0.000000
0.791011 0.000000 0.000000
0.841401 0.000000 0.000000
0.892164 0.000000 0.000000
0.942799 0.000000 0.000000
0.993457 0.000000 0.000000
1.000000 0.000000 0.000000
1.000000 0.000000 0.000000
1.000000 0.000000 0.000000
1.000000 0.000000 0.000000
1.000000 0.000000 0.000000
0.000000 0.028864 0.013123
0.000000 0.028348 0.012910
0.000000 0.027838 0.012702
0.000000 0.027334 0.012497
0.000000 0.026834 0.012297
0.000000 0.026339 0.012101
0.000000 0.025683 0.011742
0.041939 0.022942 0.009297
0.086286 0.020182 0.006832
0.131095 0.017404 0.004347
0.176359 0.014607 0.001843
0.222072 0.011792 0.000000
0.268226 0.008960 0.000000
0.314816 0.006110 0.000000
0.361835 0.003243 0.000000
0.409275 0.000359 0.000000
0.457131 0.000000 0.000000
0.505396 0.000000 0.000000
0.554063 0.000000 0.000000
0.603126 0.000000 0.000000
0.652579 0.000000 0.000000
0.702415 0.000000 0.000000
0.752629 0.000000 0.000000
0.803213 0.000000 0.000000
0.854162 0.000000 0.000000
0.905470 0.000000 0.000000
0.956303 0.000000 0.000000
1.000000 0.000000 0.000000
1.000000 0.000000 0.000000
1.000000 0.000000 0.000000
1.000000 0.000000 0.000000
1.000000 0.000000 0.000000
1.000000 0.000000 0.000000
0.000000 0.027151 0.012424
0.000000 0.026653 0.012225
0.000000 0.026161 0.012030
0.000000 0.025673 0.011840
0.000000 0.025191 0.011653
0.000000 0.024714 0.011470
0.000000 0.024072 0.011122
0.043245 0.021308 0.008650
0.088358 0.018526 0.006160
0.133918 0.015726 0.003650
0.179918 0.012908 0.001121
0.226351 0.010074 0.000000
0.273212 0.007222 0.000000
0.320493 0.004353 0.000000
0.368188 0.001469 0.000000
0.416291 0.000000 0.000000
0.464794 0.000000 0.000000
0.513693 0.000000 0.000000
0.562979 0.000000 0.000000
0.612648 0.000000 0.000000
0.662692 0.000000 0.000000
0.713106 0.000000 0.000000
0.763884 0.000000 0.000000
0.815019 0.000000 0.000000
0.866505 0.000000 0.000000
0.918203 0.000000 0.000000
0.969259 0.000000 0.000000
1.000000 0.000000 0.000000
1.000000 0.000000 0.000000
1.000000 0.000000 0.000000
1.000000 0.000000 0.000000
1.000000 0.000000 0.000000
1.000000 0.000000 0.000000
0.000000 0.025497 0.011771
0.000000 0.025017 0.011586
0.000000 0.024541 0.011405
0.000000 0.024071 0.011228
0.000000 0.023606 0.011055
0.000000 0.023146 0.010886
0.000000 0.022518 0.010547
0.044536 0.019733 0.008051
0.090389 0.016930 0.005535
0.136675 0.014109 0.003001
0.183386 0.011272 0.000450
0.230516 0.008419 0.000000
0.278058 0.005549 0.000000
0.326006 0.002663 0.000000
0.374354 0.000000 0.000000
0.423096 0.000000 0.000000
0.472224 0.000000 0.000000
0.521733 0.000000 0.000000
0.571616 0.000000 0.000000
0.621868 0.000000 0.000000
0.672482 0.000000 0.000000
0.723452 0.000000 0.000000
0.774772 0.000000 0.000000
0.826437 0.000000 0.000000
0.878440 0.000000 0.000000
0.930347 0.000000 0.000000
0.981672 0.000000 0.000000
1.000000 0.000000 0.000000
1.000000 0.000000 0.000000
1.000000 0.000000 0.000000
1.000000 0.000000 0.000000
1.000000 0.000000 0.000000
1.000000 0.000000 0.000000
0.000000 0.027712 0.010411
0.000000 0.027245 0.010240
0.000000 0.026783 0.010073
0.000000 0.026327 0.009910
0.000000 0.025875 0.009751
0.000000 0.025429 0.009596
0.000000 0.024811 0.009269
0.045063 0.022002 0.006749
0.091633 0.019175 0.004210
0.138620 0.016333 0.001655
0.186018 0.013473 0.000000
0.233821 0.010599 0.000000
0.282022 0.007708 0.000000
0.330615 0.004803 0.000000
0.379593 0.001882 0.000000
0.428951 0.000000 0.000000
0.478682 0.000000 0.000000
0.528780 0.000000 0.000000
0.579239 0.000000 0.000000
0.630052 0.000000 0.000000
0.681215 0.000000 0.000000
0.732720 0.000000 0.000000
0.784563 0.000000 0.000000
0.836737 0.000000 0.000000
0.889236 0.000000 0.000000
0.941256 0.000000 0.000000
0.992811 0.000000 0.000000
1.000000 0.000000 0.000000
1.000000 0.000000 0.000000
1.000000 0.000000 0.000000
1.000000 0.000000 0.000000
1.000000 0.000000 0.000000
1.000000 0.000000 0.000000
0.000000 0.077162 0.000000
0.000000 0.076665 0.000000
0.000000 0.076173 0.000000
0.000000 0.075686 0.000000
0.000000 0.075204 0.000000
0.000000 0.074727 0.000000
0.000000 0.074077 0.000000
0.036310 0.071200 0.000000
0.083580 0.068308 0.000000
0.131254 0.065400 0.000000
0.179325 0.062477 0.000000
0.227785 0.059539 0.000000
0.276630 0.056585 0.000000
0.325853 0.053617 0.000000
0.375448 0.050635 0.000000
0.425408 0.047639 0.000000
0.475728 0.044630 0.000000
0.526401 0.041607 0.000000
0.577422 0.038571 0.000000
0.628785 0.035522 0.000000
0.680484 0.032461 0.000000
0.732512 0.029388 0.000000
0.784865 0.026302 0.000000
0.837537 0.023205 0.000000
0.890521 0.020097 0.000000
0.942560 0.017042 0.000000
0.994313 0.014007 0.000000
1.000000 0.010969 0.000000
1.000000 0.007943 0.000000
1.000000 0.007418 0.000000
1.000000 0.006901 0.000000
1.000000 0.006392 0.000000
1.000000 0.005890 0.000000
0.000000 0.126350 0.000000
0.000000 0.125823 0.000000
0.000000 0.125301 0.000000
0.000000 0.124784 0.000000
0.000000 0.124272 0.000000
0.000000 0.123765 0.000000
0.000000 0.123082 0.000000
0.027606 0.120140 0.000000
0.075553 0.117184 0.000000
0.123889 0.114212 0.000000
0.172608 0.111226 0.000000
0.221704 0.108225 0.000000
0.271170 0.105210 0.000000
0.321000 0.102181 0.000000
0.371188 0.099139 0.000000
0.421729 0.096083 0.000000
0.472616 0.093015 0.000000
0.523843 0.089933 0.000000
0.575406 0.086840 0.000000
0.627296 0.083734 0.000000
0.679510 0.080616 0.000000
0.732042 0.077487 0.000000
0.784885 0.074346 0.000000
0.838034 0.071195 0.000000
0.891484 0.068032 0.000000
0.943437 0.064952 0.000000
0.995349 0.061878 0.000000
1.000000 0.058803 0.000000
1.000000 0.055741 0.000000
1.000000 0.055194 0.000000
1.000000 0.054656 0.000000
1.000000 0.054124 0.000000
1.000000 0.053600 0.000000
0.000000 0.175279 0.000000
0.000000 0.174722 0.000000
0.000000 0.174169 0.000000
0.000000 0.173622 0.000000
0.000000 0.173080 0.000000
0.000000 0.172543 0.000000
0.000000 0.171827 0.000000
0.018950 0.168822 0.000000
0.067551 0.165803 0.000000
0.116527 0.162768 0.000000
0.165871 0.159720 0.000000
0.215579 0.156658 0.000000
0.265643 0.153583 0.000000
0.316059 0.150494 0.000000
0.366819 0.147393 0.000000
0.417919 0.144279 0.000000
0.469351 0.141152 0.000000
0.521112 0.138014 0.000000
0.573194 0.134863 0.000000
0.625593 0.131701 0.000000
0.678302 0.128528 0.000000
0.731316 0.125344 0.000000
0.784629 0.122149 0.000000
0.838237 0.118943 0.000000
0.891964 0.115736 0.000000
0.943893 0.112626 0.000000
0.995926 0.109516 0.000000
1.000000 0.106405 0.000000
1.000000 0.103309 0.000000
1.000000 0.102741 0.000000
1.000000 0.102180 0.000000
1.000000 0.101626 0.000000
1.000000 0.101079 0.000000
0.000000 0.223948 0.000000
0.000000 0.223361 0.000000
0.000000 0.222779 0.000000
0.000000 0.222202 0.000000
0.000000 0.221630 0.000000
0.000000 0.221063 0.000000
0.000000 0.220315 0.000000
0.010345 0.217247 0.000000
0.059575 0.214165 0.000000
0.109168 0.211070 0.000000
0.159115 0.207961 0.000000
0.209413 0.204839 0.000000
0.260054 0.201704 0.000000
0.311033 0.198557 0.000000
0.362344 0.195397 0.000000
0.413981 0.192225 0.000000
0.465938 0.189042 0.000000
0.518211 0.185847 0.000000
0.570793 0.182641 0.000000
0.623679 0.179423 0.000000
0.676864 0.176195 0.000000
0.730341 0.172957 0.000000
0.784106 0.169708 0.000000
0.838152 0.166450 0.000000
0.891902 0.163211 0.000000
0.943936 0.160065 0.000000
0.996051 0.156920 0.000000
1.000000 0.153775 0.000000
1.000000 0.150646 0.000000
1.000000 0.150056 0.000000
1.000000 0.149472 0.000000
1.000000 0.148895 0.000000
1.000000 0.148325 0.000000
0.000000 0.272359 0.000000
0.000000 0.271742 0.000000
0.000000 0.271130 0.000000
0.000000 0.270523 0.000000
0.000000 0.269921 0.000000
0.000000 0.269324 0.000000
0.000000 0.268543 0.000000
0.001789 0.265414 0.000000
0.051627 0.262272 0.000000
0.101814 0.259116 0.000000
0.152342 0.255948 0.000000
0.203208 0.252767 0.000000
0.254404 0.249573 0.000000
0.305925 0.246368 0.000000
0.357765 0.243151 0.000000
0.409919 0.239923 0.000000
0.462382 0.236683 0.000000
0.515147 0.233433 0.000000
0.568209 0.230171 0.000000
0.621563 0.226900 0.000000
0.675203 0.223618 0.000000
0.729125 0.220326 0.000000
0.783322 0.217024 0.000000
0.837789 0.213713 0.000000
0.891472 0.210447 0.000000
0.943574 0.207267 0.000000
0.995732 0.204088 0.000000
1.000000 0.200911 0.000000
1.000000 0.197751 0.000000
1.000000 0.197137 0.000000
1.000000 0.196530 0.000000
1.000000 0.195930 0.000000
1.000000 0.195336 0.000000
0.000000 0.320512 0.000000
0.000000 0.319865 0.000000
0.000000 0.319224 0.000000
0.000000 0.318587 0.000000
0.000000 0.317955 0.000000
0.000000 0.317327 0.000000
0.000000 0.316514 0.000000
0.000000 0.313325 0.000000
0.043707 0.310122 0.000000
0.094466 0.306907 0.000000
0.145554 0.303680 0.000000
0.196966 0.300441 0.000000
0.248696 0.297190 0.000000
0.300739 0.293928 0.000000
0.353088 0.290655 0.000000
0.405739 0.287370 0.000000
0.458686 0.284076 0.000000
0.511924 0.280770 0.000000
0.565447 0.277455 0.000000
0.619249 0.274129 0.000000
0.673327 0.270794 0.000000
0.727674 0.267449 0.000000
0.782285 0.264095 0.000000
0.837155 0.260732 0.000000
0.890682 0.257443 0.000000
0.942814 0.254230 0.000000
0.994980 0.251019 0.000000
1.000000 0.247811 0.000000
1.000000 0.244621 0.000000
1.000000 0.243984 0.000000
1.000000 0.243353 0.000000
1.000000 0.242728 0.000000
1.000000 0.242110 0.000000
0.000000 0.368408 0.000000
0.000000 0.367731 0.000000
0.000000 0.367059 0.000000
0.000000 0.366392 0.000000
0.000000 0.365730 0.000000
0.000000 0.365072 0.000000
0.000000 0.364227 0.000000
0.000000 0.360977 0.000000
0.035816 0.357716 0.000000
0.087126 0.354443 0.000000
0.138752 0.351158 0.000000
0.190690 0.347861 0.000000
0.242934 0.344554 0.000000
0.295478 0.341236 0.000000
0.348316 0.337907 0.000000
0.401444 0.334567 0.000000
0.454856 0.331218 0.000000
0.508547 0.327858 0.000000
0.562512 0.324489 0.000000
0.616745 0.321110 0.000000
0.671241 0.317722 0.000000
0.725995 0.314325 0.000000
0.781003 0.310919 0.000000
0.836258 0.307505 0.000000
0.889540 0.304196 0.000000
0.941666 0.300951 0.000000
0.993804 0.297710 0.000000
1.000000 0.294473 0.000000
1.000000 0.291254 0.000000
1.000000 0.290592 0.000000
1.000000 0.289936 0.000000
1.000000 0.289286 0.000000
1.000000 0.288643 0.000000
0.000000 0.416046 0.000000
0.000000 0.415339 0.000000
0.000000 0.414637 0.000000
0.000000 0.413939 0.000000
0.000000 0.413247 0.000000
0.000000 0.412559 0.000000
0.000000 0.411680 0.000000
0.000000 0.408372 0.000000
0.027955 0.405053 0.000000
0.079795 0.401722 0.000000
0.131939 0.398380 0.000000
0.184383 0.395027 0.000000
0.237120 0.391663 0.000000
0.290145 0.388290 0.000000
0.343453 0.384905 0.000000
0.397039 0.381511 0.000000
0.450897 0.378108 0.000000
0.505023 0.374694 0.000000
0.559411 0.371272 0.000000
0.614056 0.367840 0.000000
0.668953 0.364400 0.000000
0.724097 0.360951 0.000000
0.779483 0.357493 0.000000
0.835107 0.354028 0.000000
0.888057 0.350704 0.000000
0.940140 0.347429 0.000000
0.992214 0.344158 0.000000
1.000000 0.340893 0.000000
1.000000 0.337646 0.000000
1.000000 0.336959 0.000000
1.000000 0.336277 0.000000
1.000000 0.335602 0.000000
1.000000 0.334932 0.000000
0.000000 0.463425 0.000000
0.000000 0.462688 0.000000
0.000000 0.461955 0.000000
0.000000 0.461228 0.000000
0.000000 0.460504 0.000000
0.000000 0.459785 0.000000
0.000000 0.458874 0.000000
0.000000 0.455508 0.000000
0.020126 0.452131 0.000000
0.072475 0.448743 0.000000
0.125117 0.445345 0.000000
0.178046 0.441936 0.000000
0.231257 0.438517 0.000000
0.284745 0.435088 0.000000
0.338503 0.431649 0.000000
0.392528 0.428201 0.000000
0.446814 0.424744 0.000000
0.501356 0.421277 0.000000
0.556149 0.417802 0.000000
0.611188 0.414318 0.000000
0.666469 0.410825 0.000000
0.721986 0.407325 0.000000
0.777734 0.403816 0.000000
0.833710 0.400299 0.000000
0.886241 0.396964 0.000000
0.938247 0.393660 0.000000
0.990223 0.390361 0.000000
1.000000 0.387068 0.000000
1.000000 0.383795 0.000000
1.000000 0.383081 0.000000
1.000000 0.382372 0.000000
1.000000 0.381670 0.000000
1.000000 0.380973 0.000000
0.000000 0.510546 0.000000
0.000000 0.509778 0.000000
0.000000 0.509015 0.000000
0.000000 0.508256 0.000000
0.000000 0.507502 0.000000
0.000000 0.506752 0.000000
0.000000 0.505807 0.000000
0.000000 0.502384 0.000000
0.012329 0.498950 0.000000
0.065168 0.495506 0.000000
0.118288 0.492052 0.000000
0.171684 0.488587 0.000000
0.225349 0.485113 0.000000
0.279279 0.481630 0.000000
0.333470 0.478137 0.000000
0.387915 0.474635 0.000000
0.442611 0.471124 0.000000
0.497552 0.467604 0.000000
0.552733 0.464076 0.000000
0.608149 0.460540 0.000000
0.663796 0.456996 0.000000
0.719669 0.453443 0.000000
0.775763 0.449883 0.000000
0.832074 0.446316 0.000000
0.884104 0.442973 0.000000
0.935999 0.439640 0.000000
0.987842 0.436314 0.000000
1.000000 0.432994 0.000000
1.000000 0.429696 0.000000
1.000000 0.428954 0.000000
1.000000 0.428218 0.000000
1.000000 0.427487 0.000000
1.000000 0.426761 0.000000
0.000000 0.557408 0.000000
0.000000 0.556609 0.000000
0.000000 0.555814 0.000000
0.000000 0.555024 0.000000
0.000000 0.554238 0.000000
0.000000 0.553456 0.000000
0.000000 0.552478 0.000000
0.000000 0.548998 0.000000
0.004566 0.545507 0.000000
0.057876 0.542007 0.000000
0.111455 0.538497 0.000000
0.165297 0.534978 0.000000
0.219398 0.531449 0.000000
0.273754 0.527911 0.000000
0.328358 0.524365 0.000000
0.383206 0.520809 0.000000
0.438294 0.517245 0.000000
0.493616 0.513673 0.000000
0.549168 0.510092 0.000000
0.604945 0.506504 0.000000
0.660942 0.502907 0.000000
0.717155 0.499303 0.000000
0.773579 0.495692 0.000000
0.829844 0.492093 0.000000
0.881658 0.488726 0.000000
0.933408 0.485366 0.000000
0.985085 0.482013 0.000000
1.000000 0.478667 0.000000
1.000000 0.475344 0.000000
1.000000 0.474573 0.000000
1.000000 0.473808 0.000000
1.000000 0.473048 0.000000
1.000000 0.472292 0.000000
0.000000 0.604008 0.000000
0.000000 0.603177 0.000000
0.000000 0.602350 0.000000
0.000000 0.601528 0.000000
0.000000 0.600710 0.000000
0.000000 0.599896 0.000000
0.000000 0.598884 0.000000
0.000000 0.595347 0.000000
0.000000 0.591801 0.000000
0.050600 0.588245 0.000000
0.104618 0.584680 0.000000
0.158890 0.581106 0.000000
0.213409 0.577523 0.000000
0.268171 0.573931 0.000000
0.323171 0.570330 0.000000
0.378405 0.566721 0.000000
0.433868 0.563104 0.000000
0.489555 0.559479 0.000000
0.545461 0.555846 0.000000
0.601582 0.552205 0.000000
0.657913 0.548557 0.000000
0.714451 0.544901 0.000000
0.771190 0.541239 0.000000
0.827257 0.537614 0.000000
0.878913 0.534220 0.000000
0.930485 0.530833 0.000000
0.981965 0.527454 0.000000
1.000000 0.524083 0.000000
1.000000 0.520735 0.000000
1.000000 0.519934 0.000000
1.000000 0.519138 0.000000
1.000000 0.518347 0.000000
1.000000 0.517561 0.000000
0.000000 0.650345 0.000000
0.000000 0.649482 0.000000
0.000000 0.648623 0.000000
0.000000 0.647768 0.000000
0.000000 0.646917 0.000000
0.000000 0.646070 0.000000
0.000000 0.645023 0.000000
0.000000 0.641430 0.000000
0.000000 0.637828 0.000000
0.043342 0.634217 0.000000
0.097782 0.630597 0.000000
0.152464 0.626968 0.000000
0.207384 0.623330 0.000000
0.262535 0.619684 0.000000
0.317915 0.616030 0.000000
0.373517 0.612368 0.000000
0.429338 0.608697 0.000000
0.485373 0.605019 0.000000
0.541618 0.601333 0.000000
0.598068 0.597640 0.000000
0.654718 0.593940 0.000000
0.711565 0.590233 0.000000
0.768604 0.586518 0.000000
0.824417 0.582870 0.000000
0.875884 0.579449 0.000000
0.927247 0.576036 0.000000
0.978497 0.572631 0.000000
1.000000 0.569235 0.000000
1.000000 0.565863 0.000000
1.000000 0.565031 0.000000
1.000000 0.564203 0.000000
1.000000 0.563379 0.000000
1.000000 0.562560 0.000000
0.000000 0.696416 0.000000
0.000000 0.695521 0.000000
0.000000 0.694629 0.000000
0.000000 0.693740 0.000000
0.000000 0.692856 0.000000
0.000000 0.691976 0.000000
0.000000 0.690892 0.000000
0.000000 0.687244 0.000000
0.000000 0.683586 0.000000
0.036105 0.679920 0.000000
0.090949 0.676245 0.000000
0.146024 0.672561 0.000000
0.201326 0.668869 0.000000
0.256851 0.665169 0.000000
0.312593 0.661461 0.000000
0.368547 0.657744 0.000000
0.424711 0.654021 0.000000
0.481079 0.650289 0.000000
0.537646 0.646551 0.000000
0.594409 0.642805 0.000000
0.651364 0.639052 0.000000
0.708505 0.635292 0.000000
0.765830 0.631526 0.000000
0.821336 0.627856 0.000000
0.872582 0.624408 0.000000
0.923705 0.620969 0.000000
0.974695 0.617539 0.000000
1.000000 0.614119 0.000000
1.000000 0.610723 0.000000
1.000000 0.609857 0.000000
1.000000 0.608995 0.000000
1.000000 0.608137 0.000000
1.000000 0.607283 0.000000
0.000000 0.742220 0.000000
0.000000 0.741291 0.000000
0.000000 0.740365 0.000000
0.000000 0.739443 0.000000
0.000000 0.738524 0.000000
0.000000 0.737609 0.000000
0.000000 0.736489 0.000000
0.000000 0.732785 0.000000
0.000000 0.729072 0.000000
0.028890 0.725350 0.000000
0.084120 0.721619 0.000000
0.139572 0.717881 0.000000
0.195241 0.714134 0.000000
0.251121 0.710380 0.000000
0.307209 0.706617 0.000000
0.363501 0.702847 0.000000
0.419991 0.699070 0.000000
0.476676 0.695285 0.000000
0.533552 0.691493 0.000000
0.590614 0.687694 0.000000
0.647858 0.683888 0.000000
0.705281 0.680076 0.000000
0.762877 0.676256 0.000000
0.818029 0.672565 0.000000
0.869023 0.669091 0.000000
0.919876 0.665626 0.000000
0.970577 0.662172 0.000000
1.000000 0.658727 0.000000
1.000000 0.655307 0.000000
1.000000 0.654406 0.000000
1.000000 0.653509 0.000000
1.000000 0.652615 0.000000
1.000000 0.651724 0.000000
0.000000 0.787753 0.000000
0.000000 0.786789 0.000000
0.000000 0.785829 0.000000
0.000000 0.784871 0.000000
0.000000 0.783917 0.000000
0.000000 0.782967 0.000000
0.000000 0.781810 0.000000
0.000000 0.778049 0.000000
0.000000 0.774280 0.000000
0.021700 0.770503 0.000000
0.077300 0.766717 0.000000
0.133112 0.762923 0.000000
0.189130 0.759122 0.000000
0.245351 0.755312 0.000000
0.301770 0.751496 0.000000
0.358383 0.747671 0.000000
0.415185 0.743840 0.000000
0.472173 0.740001 0.000000
0.529343 0.736155 0.000000
0.586689 0.732302 0.000000
0.644210 0.728443 0.000000
0.701900 0.724576 0.000000
0.759755 0.720704 0.000000
0.814508 0.716993 0.000000
0.865222 0.713492 0.000000
0.915774 0.710002 0.000000
0.966158 0.706522 0.000000
1.000000 0.703052 0.000000
1.000000 0.699608 0.000000
1.000000 0.698670 0.000000
1.000000 0.697735 0.000000
1.000000 0.696804 0.000000
1.000000 0.695875 0.000000
0.000000 0.833012 0.000000
0.000000 0.832013 0.000000
0.000000 0.831016 0.000000
0.000000 0.830023 0.000000
0.000000 0.829032 0.000000
0.000000 0.828045 0.000000
0.000000 0.826849 0.000000
0.000000 0.823033 0.000000
0.000000 0.819207 0.000000
0.014537 0.815374 0.000000
0.070491 0.811533 0.000000
0.126646 0.807683 0.000000
0.182999 0.803827 0.000000
0.239545 0.799962 0.000000
0.296280 0.796090 0.000000
0.353199 0.792211 0.000000
0.410299 0.788324 0.000000
0.467576 0.784431 0.000000
0.525025 0.780530 0.000000
0.582643 0.776623 0.000000
0.640427 0.772709 0.000000
0.698371 0.768788 0.000000
0.756473 0.764861 0.000000
0.810788 0.761131 0.000000
0.861192 0.757604 0.000000
0.911417 0.754088 0.000000
0.961455 0.750582 0.000000
1.000000 0.747088 0.000000
1.000000 0.743619 0.000000
1.000000 0.742642 0.000000
1.000000 0.741668 0.000000
1.000000 0.740696 0.000000
1.000000 0.739727 0.000000
0.000000 0.876641 0.000000
0.000000 0.875653 0.000000
0.000000 0.874667 0.000000
0.000000 0.873683 0.000000
0.000000 0.872701 0.000000
0.000000 0.871720 0.000000
0.000000 0.870528 0.000000
0.000000 0.866697 0.000000
0.000000 0.862857 0.000000
0.007591 0.859007 0.000000
0.063876 0.855149 0.000000
0.120352 0.851282 0.000000
0.177017 0.847407 0.000000
0.233866 0.843523 0.000000
0.290895 0.839630 0.000000
0.348100 0.835730 0.000000
0.405477 0.831821 0.000000
0.463022 0.827905 0.000000
0.520732 0.823980 0.000000
0.578603 0.820048 0.000000
0.636631 0.816108 0.000000
0.694812 0.812161 0.000000
0.753143 0.808206 0.000000
0.806980 0.804484 0.000000
0.857042 0.800956 0.000000
0.906907 0.797438 0.000000
0.956568 0.793931 0.000000
1.000000 0.790435 0.000000
1.000000 0.786964 0.000000
1.000000 0.785968 0.000000
1.000000 0.784973 0.000000
1.000000 0.783979 0.000000
1.000000 0.782986 0.000000
0.000000 0.918654 0.000000
0.000000 0.917733 0.000000
0.000000 0.916811 0.000000
0.000000 0.915887 0.000000
0.000000 0.914963 0.000000
0.000000 0.914037 0.000000
0.000000 0.912896 0.000000
0.000000 0.909097 0.000000
0.000000 0.905287 0.000000
0.000853 0.901465 0.000000
0.057444 0.897633 0.000000
0.114218 0.893789 0.000000
0.171172 0.889935 0.000000
0.228302 0.886070 0.000000
0.285604 0.882194 0.000000
0.343073 0.878308 0.000000
0.400707 0.874412 0.000000
0.458502 0.870506 0.000000
0.516453 0.866590 0.000000
0.574558 0.862664 0.000000
0.632813 0.858728 0.000000
0.691213 0.854782 0.000000
0.749757 0.850828 0.000000
0.803081 0.847140 0.000000
0.852768 0.843637 0.000000
0.902242 0.840144 0.000000
0.951496 0.836659 0.000000
1.000000 0.833183 0.000000
1.000000 0.829731 0.000000
1.000000 0.828734 0.000000
1.000000 0.827737 0.000000
1.000000 0.826738 0.000000
1.000000 0.825737 0.000000
0.000000 0.961074 0.000000
0.000000 0.960201 0.000000
0.000000 0.959324 0.000000
0.000000 0.958443 0.000000
0.000000 0.957559 0.000000
0.000000 0.956670 0.000000
0.000000 0.955563 0.000000
0.000000 0.951780 0.000000
0.000000 0.947983 0.000000
0.000000 0.944173 0.000000
0.050927 0.940350 0.000000
0.107988 0.936513 0.000000
0.165220 0.932664 0.000000
0.222621 0.928802 0.000000
0.280185 0.924928 0.000000
0.337909 0.921041 0.000000
0.395790 0.917142 0.000000
0.453824 0.913231 0.000000
0.512008 0.909307 0.000000
