library/cube/Chrome_Grain_003.cube
# CINEGRADE LAB — Premium Cinematic LUT
# Title: Chrome Grain
# Category: Bleach Bypass
# Description: Silver retention, high contrast, desaturated bleach bypass film process
# Mood: Gritty, stark, intense
# Variant: 4
# Generated: 2026-05-21T16:12:57.158836
TITLE "Chrome Grain"
LUT_3D_SIZE 33
0.000000 0.000000 0.000000
0.000000 0.000000 0.000000
0.000000 0.000000 0.000000
0.000001 0.000000 0.000000
0.000001 0.000000 0.000000
0.027479 0.003349 0.002800
0.057776 0.007041 0.005885
0.087240 0.010629 0.008883
0.116202 0.014154 0.011828
0.144808 0.017634 0.014734
0.173142 0.021079 0.017610
0.201254 0.024496 0.020461
0.229183 0.027889 0.023291
0.256955 0.031261 0.026104
0.284592 0.034615 0.028900
0.312109 0.037953 0.031683
0.339520 0.041276 0.034452
0.366836 0.044587 0.037210
0.394065 0.047885 0.039957
0.421216 0.051173 0.042694
0.448295 0.054450 0.045422
0.475308 0.057718 0.048142
0.502260 0.060977 0.050853
0.529155 0.064228 0.053557
0.555998 0.067471 0.056253
0.582791 0.070707 0.058943
0.609538 0.073936 0.061626
0.636243 0.077158 0.064303
0.652330 0.079091 0.065906
0.652559 0.079101 0.065906
0.652788 0.079112 0.065906
0.653015 0.079122 0.065906
0.653241 0.079132 0.065906
0.000001 0.000000 0.000000
0.000001 0.000000 0.000000
0.000002 0.000000 0.000000
0.000003 0.000000 0.000000
0.000004 0.000000 0.000000
0.027519 0.003351 0.002800
0.057856 0.007044 0.005885
0.087358 0.010634 0.008883
0.116359 0.014161 0.011828
0.145002 0.017643 0.014734
0.173371 0.021090 0.017610
0.201519 0.024508 0.020461
0.229482 0.027902 0.023291
0.257288 0.031276 0.026104
0.284958 0.034632 0.028900
0.312508 0.037971 0.031683
0.339951 0.041296 0.034452
0.367299 0.044608 0.037210
0.394559 0.047908 0.039957
0.421741 0.051197 0.042694
0.448850 0.054476 0.045422
0.475893 0.057745 0.048142
0.502874 0.061005 0.050853
0.529798 0.064257 0.053557
0.556669 0.067501 0.056253
0.583490 0.070738 0.058943
0.610265 0.073968 0.061626
0.636996 0.077191 0.064303
0.653097 0.079125 0.065906
0.653323 0.079135 0.065906
0.653547 0.079145 0.065906
0.653770 0.079155 0.065906
0.653991 0.079165 0.065906
0.000003 0.000000 0.000000
0.000004 0.000000 0.000000
0.000005 0.000000 0.000000
0.000007 0.000000 0.000000
0.000008 0.000000 0.000000
0.027560 0.003353 0.002800
0.057936 0.007048 0.005885
0.087477 0.010639 0.008883
0.116514 0.014168 0.011828
0.145193 0.017651 0.014734
0.173598 0.021100 0.017610
0.201780 0.024520 0.020461
0.229777 0.027916 0.023291
0.257617 0.031291 0.026104
0.285320 0.034648 0.028900
0.312902 0.037989 0.031683
0.340376 0.041315 0.034452
0.367755 0.044629 0.037210
0.395046 0.047930 0.039957
0.422257 0.051220 0.042694
0.449396 0.054500 0.045422
0.476468 0.057771 0.048142
0.503477 0.061032 0.050853
0.530430 0.064285 0.053557
0.557328 0.067531 0.056253
0.584176 0.070769 0.058943
0.610978 0.074000 0.061626
0.637735 0.077224 0.064303
0.653850 0.079159 0.065906
0.654072 0.079169 0.065906
0.654292 0.079178 0.065906
0.654510 0.079188 0.065906
0.654728 0.079197 0.065906
0.000007 0.000000 0.000000
0.000009 0.000000 0.000000
0.000010 0.000000 0.000000
0.000012 0.000000 0.000000
0.000014 0.000000 0.000000
0.027601 0.003354 0.002800
0.058017 0.007051 0.005885
0.087595 0.010645 0.008883
0.116668 0.014175 0.011828
0.145383 0.017660 0.014734
0.173822 0.021110 0.017610
0.202038 0.024531 0.020461
0.230069 0.027929 0.023291
0.257941 0.031305 0.026104
0.285675 0.034664 0.028900
0.313289 0.038006 0.031683
0.340795 0.041334 0.034452
0.368203 0.044649 0.037210
0.395524 0.047951 0.039957
0.422765 0.051243 0.042694
0.449933 0.054524 0.045422
0.477033 0.057796 0.048142
0.504070 0.061059 0.050853
0.531050 0.064313 0.053557
0.557976 0.067560 0.056253
0.584850 0.070799 0.058943
0.611678 0.074031 0.061626
0.638461 0.077256 0.064303
0.654590 0.079191 0.065906
0.654807 0.079201 0.065906
0.655022 0.079210 0.065906
0.655237 0.079219 0.065906
0.655450 0.079229 0.065906
0.000013 0.000000 0.000000
0.000015 0.000000 0.000000
0.000017 0.000000 0.000000
0.000019 0.000000 0.000000
0.000022 0.000000 0.000000
0.027644 0.003356 0.002800
0.058097 0.007055 0.005885
0.087712 0.010650 0.008883
0.116821 0.014181 0.011828
0.145570 0.017668 0.014734
0.174043 0.021120 0.017610
0.202293 0.024543 0.020461
0.230356 0.027942 0.023291
0.258260 0.031320 0.026104
0.286026 0.034680 0.028900
0.313670 0.038023 0.031683
0.341206 0.041352 0.034452
0.368645 0.044668 0.037210
0.395995 0.047972 0.039957
0.423264 0.051265 0.042694
0.450460 0.054547 0.045422
0.477588 0.057820 0.048142
0.504653 0.061084 0.050853
0.531659 0.064340 0.053557
0.558611 0.067587 0.056253
0.585512 0.070828 0.058943
0.612365 0.074061 0.061626
0.639173 0.077287 0.064303
0.655315 0.079223 0.065906
0.655528 0.079232 0.065906
0.655739 0.079241 0.065906
0.655950 0.079250 0.065906
0.656159 0.079259 0.065906
0.012630 0.037592 0.009420
0.012637 0.037597 0.009420
0.012645 0.037602 0.009420
0.012652 0.037607 0.009420
0.012659 0.037613 0.009420
0.040321 0.040976 0.012220
0.070816 0.044681 0.015306
0.100471 0.048283 0.018303
0.129619 0.051821 0.021248
0.158407 0.055314 0.024154
0.186918 0.058773 0.027030
0.215204 0.062202 0.029881
0.243304 0.065607 0.032712
0.271243 0.068991 0.035524
0.299044 0.072357 0.038320
0.326723 0.075707 0.041103
0.354293 0.079042 0.043872
0.381765 0.082364 0.046630
0.409148 0.085674 0.049377
0.436450 0.088973 0.052114
0.463677 0.092261 0.054842
0.490836 0.095539 0.057562
0.517932 0.098809 0.060273
0.544969 0.102070 0.062977
0.571950 0.105323 0.065673
0.598880 0.108569 0.068363
0.625762 0.111807 0.071046
0.652598 0.115039 0.073724
0.668757 0.116979 0.075326
0.668969 0.116993 0.075326
0.669181 0.117006 0.075326
0.669391 0.117018 0.075326
0.669600 0.117031 0.075326
0.026565 0.079045 0.019799
0.026577 0.079055 0.019799
0.026590 0.079066 0.019799
0.026603 0.079077 0.019799
0.026615 0.079088 0.019799
0.054315 0.082458 0.022599
0.084852 0.086170 0.025684
0.114547 0.089779 0.028682
0.143734 0.093324 0.031626
0.172560 0.096824 0.034532
0.201108 0.100289 0.037408
0.229431 0.103725 0.040260
0.257566 0.107137 0.043090
0.285541 0.110527 0.045902
0.313377 0.113900 0.048699
0.341090 0.117256 0.051481
0.368693 0.120597 0.054251
0.396198 0.123925 0.057009
0.423613 0.127241 0.059756
0.450947 0.130546 0.062493
0.478206 0.133840 0.065221
0.505396 0.137124 0.067940
0.532522 0.140399 0.070652
0.559588 0.143666 0.073355
0.586599 0.146925 0.076052
0.613558 0.150176 0.078742
0.640468 0.153420 0.081425
0.667332 0.156657 0.084102
0.683507 0.158603 0.085705
0.683720 0.158620 0.085705
0.683931 0.158637 0.085705
0.684141 0.158654 0.085705
0.684350 0.158670 0.085705
0.040141 0.119363 0.029884
0.040158 0.119379 0.029884
0.040176 0.119395 0.029884
0.040194 0.119411 0.029884
0.040212 0.119427 0.029884
0.067949 0.122803 0.032684
0.098526 0.126522 0.035769
0.128260 0.130137 0.038767
0.157485 0.133689 0.041712
0.186348 0.137196 0.044617
0.214932 0.140666 0.047493
0.243291 0.144108 0.050345
0.271461 0.147526 0.053175
0.299470 0.150923 0.055988
0.327339 0.154301 0.058784
0.355085 0.157663 0.061566
0.382721 0.161010 0.064336
0.410257 0.164344 0.067094
0.437704 0.167665 0.069841
0.465069 0.170975 0.072578
0.492358 0.174275 0.075306
0.519578 0.177565 0.078025
0.546733 0.180845 0.080737
0.573829 0.184117 0.083440
0.600868 0.187381 0.086137
0.627855 0.190637 0.088827
0.654792 0.193886 0.091510
0.681684 0.197129 0.094187
0.697875 0.199078 0.095790
0.698087 0.199099 0.095790
0.698298 0.199120 0.095790
0.698507 0.199140 0.095790
0.698715 0.199160 0.095790
0.053508 0.159000 0.039789
0.053531 0.159020 0.039789
0.053553 0.159041 0.039789
0.053576 0.159062 0.039789
0.053598 0.159082 0.039789
0.081372 0.162464 0.042589
0.111989 0.166190 0.045675
0.141761 0.169811 0.048672
0.171023 0.173368 0.051617
0.199922 0.176881 0.054523
0.228541 0.180357 0.057399
0.256934 0.183805 0.060250
0.285138 0.187228 0.063080
0.313181 0.190630 0.065893
0.341083 0.194014 0.068689
0.368861 0.197381 0.071472
0.396528 0.200734 0.074241
0.424096 0.204073 0.076999
0.451573 0.207399 0.079746
0.478967 0.210714 0.082483
0.506286 0.214019 0.085211
0.533535 0.217314 0.087931
0.560719 0.220599 0.090642
0.587842 0.223876 0.093346
0.614909 0.227145 0.096042
0.641923 0.230406 0.098732
0.668887 0.233659 0.101415
0.695804 0.236906 0.104092
0.712010 0.238860 0.105695
0.712222 0.238884 0.105695
0.712432 0.238908 0.105695
0.712641 0.238931 0.105695
0.712848 0.238955 0.105695
0.066733 0.198151 0.049565
0.066760 0.198176 0.049565
0.066787 0.198202 0.049565
0.066814 0.198226 0.049565
0.066841 0.198251 0.049565
0.094651 0.201639 0.052365
0.125306 0.205370 0.055450
0.155115 0.208997 0.058448
0.184413 0.212560 0.061393
0.213347 0.216078 0.064299
0.242001 0.219560 0.067175
0.270427 0.223013 0.070026
0.298664 0.226441 0.072856
0.326739 0.229849 0.075669
0.354673 0.233237 0.078465
0.382482 0.236610 0.081248
0.410180 0.239967 0.084017
0.437778 0.243311 0.086775
0.465285 0.246642 0.089522
0.492708 0.249962 0.092259
0.520056 0.253271 0.094987
0.547333 0.256570 0.097707
0.574544 0.259860 0.100418
0.601694 0.263142 0.103122
0.628788 0.266415 0.105818
0.655828 0.269680 0.108508
0.682818 0.272938 0.111191
0.709760 0.276189 0.113868
0.725981 0.278146 0.115471
0.726191 0.278173 0.115471
0.726401 0.278200 0.115471
0.726609 0.278227 0.115471
0.726815 0.278253 0.115471
0.079852 0.236929 0.059240
0.079884 0.236959 0.059240
0.079915 0.236988 0.059240
0.079946 0.237017 0.059240
0.079978 0.237046 0.059240
0.107822 0.240439 0.062040
0.138515 0.244175 0.065125
0.168360 0.247807 0.068123
0.197693 0.251376 0.071067
0.226661 0.254898 0.073973
0.255348 0.258385 0.076849
0.283807 0.261843 0.079701
0.312076 0.265277 0.082531
0.340183 0.268689 0.085343
0.368147 0.272082 0.088140
0.395987 0.275459 0.090922
0.423715 0.278821 0.093692
0.451342 0.282169 0.096450
0.478877 0.285505 0.099197
0.506329 0.288829 0.101934
0.533704 0.292143 0.104662
0.561008 0.295446 0.107381
0.588246 0.298741 0.110093
0.615423 0.302026 0.112796
0.642542 0.305303 0.115493
0.669607 0.308572 0.118183
0.696622 0.311834 0.120866
0.723588 0.315089 0.123543
0.739823 0.317049 0.125146
0.740033 0.317079 0.125146
0.740241 0.317108 0.125146
0.740448 0.317138 0.125146
0.740653 0.317166 0.125146
0.092888 0.275406 0.068832
0.092924 0.275439 0.068832
0.092959 0.275472 0.068832
0.092995 0.275505 0.068832
0.093030 0.275537 0.068832
0.120909 0.278935 0.071632
0.151638 0.282677 0.074717
0.181518 0.286314 0.077715
0.210885 0.289887 0.080659
0.239886 0.293414 0.083565
0.268606 0.296906 0.086441
0.297097 0.300368 0.089292
0.325397 0.303806 0.092123
0.353534 0.307223 0.094935
0.381529 0.310621 0.097732
0.409398 0.314002 0.100514
0.437155 0.317368 0.103284
0.464810 0.320720 0.106042
0.492373 0.324060 0.108789
0.519852 0.327388 0.111526
0.547254 0.330706 0.114254
0.574585 0.334013 0.116973
0.601849 0.337311 0.119684
0.629051 0.340600 0.122388
0.656195 0.343881 0.125085
0.683284 0.347154 0.127774
0.710323 0.350419 0.130458
0.737313 0.353677 0.133135
0.753561 0.355641 0.134738
0.753769 0.355673 0.134738
0.753976 0.355705 0.134738
0.754182 0.355736 0.134738
0.754386 0.355767 0.134738
0.105858 0.313630 0.078353
0.105897 0.313667 0.078353
0.105937 0.313703 0.078353
0.105976 0.313739 0.078353
0.106015 0.313775 0.078353
0.133927 0.317178 0.081154
0.164691 0.320923 0.084239
0.194606 0.324565 0.087237
0.224006 0.328143 0.090181
0.253040 0.331674 0.093087
0.281791 0.335170 0.095963
0.310313 0.338637 0.098814
0.338644 0.342079 0.101645
0.366810 0.345500 0.104457
0.394834 0.348902 0.107254
0.422732 0.352287 0.110036
0.450516 0.355657 0.112805
0.478199 0.359013 0.115563
0.505789 0.362356 0.118310
0.533295 0.365688 0.121048
0.560723 0.369009 0.123776
0.588079 0.372320 0.126495
0.615368 0.375622 0.129206
0.642594 0.378914 0.131910
0.669762 0.382198 0.134606
0.696875 0.385474 0.137296
0.723937 0.388743 0.139980
0.750950 0.392004 0.142657
0.767211 0.393970 0.144259
0.767418 0.394004 0.144259
0.767623 0.394038 0.144259
0.767827 0.394072 0.144259
0.768029 0.394105 0.144259
0.118772 0.351637 0.087815
0.118815 0.351677 0.087815
0.118858 0.351717 0.087815
0.118901 0.351756 0.087815
0.118944 0.351794 0.087815
0.146888 0.355202 0.090615
0.177687 0.358952 0.093700
0.207635 0.362597 0.096698
0.237067 0.366179 0.099642
0.266132 0.369715 0.102548
0.294914 0.373215 0.105424
0.323467 0.376686 0.108275
0.351827 0.380131 0.111106
0.380022 0.383556 0.113918
0.408074 0.386961 0.116715
0.435999 0.390350 0.119497
0.463811 0.393724 0.122267
0.491521 0.397083 0.125024
0.519137 0.400430 0.127772
0.546668 0.403765 0.130509
0.574121 0.407090 0.133237
0.601502 0.410404 0.135956
0.628815 0.413708 0.138667
0.656065 0.417004 0.141371
0.683256 0.420291 0.144068
0.710392 0.423570 0.146757
0.737476 0.426841 0.149441
0.764511 0.430105 0.152118
0.780784 0.432074 0.153721
0.780989 0.432110 0.153721
0.781193 0.432145 0.153721
0.781395 0.432180 0.153721
0.781596 0.432215 0.153721
0.131640 0.389455 0.097222
0.131686 0.389498 0.097222
0.131733 0.389540 0.097222
0.131779 0.389582 0.097222
0.131825 0.389624 0.097222
0.159800 0.393035 0.100022
0.190633 0.396789 0.103108
0.220613 0.400438 0.106105
0.250077 0.404024 0.109050
0.279173 0.407564 0.111956
0.307985 0.411067 0.114832
0.336566 0.414541 0.117683
0.364955 0.417991 0.120514
0.393178 0.421418 0.123326
0.421258 0.424827 0.126122
0.449210 0.428219 0.128905
0.477048 0.431596 0.131674
0.504783 0.434959 0.134432
0.532425 0.438309 0.137179
0.559981 0.441647 0.139916
0.587458 0.444974 0.142644
0.614862 0.448291 0.145364
0.642199 0.451598 0.148075
0.669472 0.454897 0.150779
0.696685 0.458186 0.153475
0.723843 0.461468 0.156165
0.750949 0.464742 0.158848
0.778004 0.468008 0.161526
0.794289 0.469979 0.163128
0.794492 0.470016 0.163128
0.794694 0.470053 0.163128
0.794894 0.470090 0.163128
0.795093 0.470126 0.163128
0.144467 0.427105 0.106582
0.144517 0.427150 0.106582
0.144567 0.427195 0.106582
0.144616 0.427240 0.106582
0.144666 0.427284 0.106582
0.172671 0.430698 0.109382
0.203537 0.434456 0.112467
0.233548 0.438109 0.115465
0.263043 0.441698 0.118410
0.292168 0.445241 0.121316
0.321009 0.448748 0.124192
0.349619 0.452225 0.127043
0.378035 0.455678 0.129873
0.406286 0.459109 0.132686
0.434392 0.462521 0.135482
0.462370 0.465915 0.138265
0.490233 0.469295 0.141034
0.517993 0.472661 0.143792
0.545660 0.476013 0.146539
0.573240 0.479354 0.149276
0.600740 0.482684 0.152004
0.628167 0.486004 0.154724
0.655526 0.489313 0.157435
0.682821 0.492614 0.160139
0.710056 0.495906 0.162835
0.737235 0.499190 0.165525
0.764361 0.502466 0.168208
0.791437 0.505735 0.170885
0.807733 0.507707 0.172488
0.807934 0.507746 0.172488
0.808134 0.507784 0.172488
0.808332 0.507821 0.172488
0.808528 0.507858 0.172488
0.157260 0.464604 0.115899
0.157313 0.464651 0.115899
0.157365 0.464699 0.115899
0.157418 0.464745 0.115899
0.157470 0.464791 0.115899
0.185505 0.468209 0.118699
0.216403 0.471970 0.121784
0.246445 0.475627 0.124782
0.275969 0.479219 0.127727
0.305123 0.482765 0.130633
0.333992 0.486275 0.133508
0.362629 0.489755 0.136360
0.391073 0.493210 0.139190
0.419349 0.496644 0.142003
0.447481 0.500058 0.144799
0.475484 0.503456 0.147581
0.503372 0.506838 0.150351
0.531157 0.510206 0.153109
0.558846 0.513561 0.155856
0.586449 0.516904 0.158593
0.613973 0.520236 0.161321
0.641422 0.523558 0.164040
0.668802 0.526870 0.166752
0.696118 0.530173 0.169455
0.723374 0.533467 0.172152
0.750574 0.536753 0.174842
0.777719 0.540031 0.177525
0.804814 0.543301 0.180202
0.821121 0.545275 0.181805
0.821319 0.545314 0.181805
0.821517 0.545353 0.181805
0.821712 0.545392 0.181805
0.821907 0.545429 0.181805
0.170021 0.501965 0.125176
0.170077 0.502015 0.125176
0.170133 0.502064 0.125176
0.170188 0.502113 0.125176
0.170244 0.502160 0.125176
0.198307 0.505581 0.127977
0.229235 0.509346 0.131062
0.259307 0.513005 0.134060
0.288860 0.516600 0.137004
0.318042 0.520148 0.139910
0.346938 0.523661 0.142786
0.375602 0.527144 0.145637
0.404071 0.530601 0.148468
0.432373 0.534037 0.151280
0.460530 0.537454 0.154077
0.488557 0.540854 0.156859
0.516469 0.544239 0.159628
0.544277 0.547609 0.162386
0.571989 0.550966 0.165133
0.599615 0.554311 0.167871
0.627160 0.557645 0.170599
0.654630 0.560969 0.173318
0.682031 0.564283 0.176029
0.709368 0.567587 0.178733
0.736644 0.570883 0.181429
0.763862 0.574170 0.184119
0.791027 0.577450 0.186803
0.818141 0.580722 0.189480
0.834457 0.582697 0.191082
0.834653 0.582737 0.191082
0.834848 0.582776 0.191082
0.835041 0.582815 0.191082
0.835233 0.582853 0.191082
0.182755 0.539201 0.134418
0.182814 0.539252 0.134418
0.182872 0.539303 0.134418
0.182930 0.539353 0.134418
0.182988 0.539403 0.134418
0.211080 0.542826 0.137218
0.242038 0.546593 0.140303
0.272139 0.550255 0.143301
0.301719 0.553852 0.146246
0.330929 0.557403 0.149151
0.359851 0.560918 0.152027
0.388540 0.564403 0.154879
0.417035 0.567863 0.157709
0.445361 0.571301 0.160522
0.473542 0.574720 0.163318
0.501593 0.578122 0.166100
0.529528 0.581508 0.168870
0.557357 0.584880 0.171628
0.585092 0.588239 0.174375
0.612739 0.591586 0.177112
0.640304 0.594922 0.179840
0.667795 0.598247 0.182559
0.695217 0.601562 0.185271
0.722573 0.604868 0.187974
0.749867 0.608165 0.190671
0.777105 0.611454 0.193361
0.804287 0.614735 0.196044
0.831419 0.618008 0.198721
0.847744 0.619984 0.200324
0.847938 0.620024 0.200324
0.848130 0.620064 0.200324
0.848320 0.620103 0.200324
0.848509 0.620142 0.200324
0.195465 0.576320 0.143626
0.195526 0.576373 0.143626
0.195587 0.576425 0.143626
0.195647 0.576476 0.143626
0.195708 0.576527 0.143626
0.223826 0.579953 0.146426
0.254813 0.583722 0.149511
0.284942 0.587386 0.152509
0.314549 0.590986 0.155454
0.343785 0.594539 0.158360
0.372733 0.598056 0.161235
0.401447 0.601543 0.164087
0.429966 0.605005 0.166917
0.458316 0.608445 0.169730
0.486519 0.611865 0.172526
0.514593 0.615269 0.175308
0.542550 0.618657 0.178078
0.570401 0.622030 0.180836
0.598157 0.625391 0.183583
0.625824 0.628739 0.186320
0.653410 0.632076 0.189048
0.680921 0.635402 0.191767
0.708361 0.638719 0.194479
0.735736 0.642026 0.197182
0.763049 0.645324 0.199879
0.790303 0.648614 0.202569
0.817504 0.651896 0.205252
0.844652 0.655170 0.207929
0.860986 0.657146 0.209532
0.861177 0.657186 0.209532
0.861366 0.657226 0.209532
0.861554 0.657265 0.209532
0.861739 0.657304 0.209532
0.208151 0.613331 0.152803
0.208215 0.613384 0.152803
0.208278 0.613438 0.152803
0.208341 0.613490 0.152803
0.208403 0.613542 0.152803
0.236548 0.616970 0.155603
0.267563 0.620741 0.158688
0.297719 0.624407 0.161686
0.327352 0.628009 0.164631
0.356613 0.631564 0.167537
0.385586 0.635082 0.170413
0.414324 0.638571 0.173264
0.442866 0.642034 0.176094
0.471239 0.645476 0.178907
0.499465 0.648898 0.181703
0.527560 0.652303 0.184486
0.555538 0.655692 0.187255
0.583410 0.659066 0.190013
0.611186 0.662428 0.192760
0.638873 0.665777 0.195497
0.666478 0.669115 0.198225
0.694008 0.672443 0.200944
0.721466 0.675760 0.203656
0.748859 0.679068 0.206359
0.776189 0.682367 0.209056
0.803461 0.685657 0.211746
0.830678 0.688940 0.214429
0.857842 0.692214 0.217106
0.874184 0.694191 0.218709
0.874372 0.694231 0.218709
0.874558 0.694271 0.218709
0.874743 0.694310 0.218709
0.874925 0.694348 0.218709
0.220817 0.650240 0.161951
0.220883 0.650294 0.161951
0.220948 0.650349 0.161951
0.221013 0.650402 0.161951
0.221078 0.650455 0.161951
0.249247 0.653884 0.164751
0.280290 0.657657 0.167836
0.310472 0.661325 0.170834
0.340130 0.664928 0.173779
0.369416 0.668484 0.176685
0.398412 0.672004 0.179561
0.427173 0.675494 0.182412
0.455738 0.678958 0.185242
0.484133 0.682401 0.188055
0.512380 0.685824 0.190851
0.540496 0.689230 0.193634
0.568495 0.692620 0.196403
0.596387 0.695996 0.199161
0.624182 0.699358 0.201908
0.651888 0.702708 0.204645
0.679511 0.706047 0.207373
0.707059 0.709375 0.210093
0.734535 0.712693 0.212804
0.761944 0.716002 0.215508
0.789291 0.719301 0.218204
0.816579 0.722592 0.220894
0.843812 0.725874 0.223577
0.870991 0.729149 0.226254
0.887341 0.731126 0.227857
0.887525 0.731166 0.227857
0.887708 0.731205 0.227857
0.887890 0.731243 0.227857
0.888069 0.731280 0.227857
0.233463 0.687053 0.171072
0.233531 0.687108 0.171072
0.233598 0.687163 0.171072
0.233665 0.687217 0.171072
0.233732 0.687270 0.171072
0.261926 0.690701 0.173872
0.292995 0.694475 0.176957
0.323202 0.698144 0.179955
0.352885 0.701748 0.182900
0.382194 0.705306 0.185806
0.411213 0.708827 0.188682
0.439996 0.712318 0.191533
0.468583 0.715783 0.194363
0.496999 0.719227 0.197176
0.525267 0.722651 0.199972
0.553403 0.726057 0.202755
0.581421 0.729448 0.205524
0.609332 0.732824 0.208282
0.637145 0.736187 0.211029
0.664869 0.739538 0.213766
0.692511 0.742877 0.216494
0.720075 0.746205 0.219214
0.747568 0.749524 0.221925
0.774994 0.752832 0.224629
0.802356 0.756132 0.227325
0.829660 0.759423 0.230015
0.856907 0.762705 0.232698
0.884100 0.765980 0.235375
0.900457 0.767956 0.236978
0.900639 0.767995 0.236978
0.900818 0.768034 0.236978
0.900996 0.768071 0.236978
0.901172 0.768108 0.236978
0.246092 0.723775 0.180168
0.246161 0.723831 0.180168
0.246230 0.723886 0.180168
0.246299 0.723940 0.180168
0.246367 0.723994 0.180168
0.274585 0.727426 0.182968
0.305679 0.731201 0.186053
0.335910 0.734871 0.189051
0.365617 0.738476 0.191995
0.394948 0.742034 0.194901
0.423989 0.745556 0.197777
0.452794 0.749048 0.200628
0.481401 0.752514 0.203459
0.509838 0.755958 0.206271
0.538125 0.759382 0.209068
0.566281 0.762789 0.211850
0.594318 0.766180 0.214620
0.622247 0.769557 0.217377
0.650078 0.772920 0.220125
0.677819 0.776271 0.222862
0.705477 0.779610 0.225590
0.733058 0.782938 0.228309
0.760567 0.786257 0.231020
0.788008 0.789565 0.233724
0.815385 0.792865 0.236421
0.842703 0.796155 0.239110
0.869964 0.799438 0.241794
0.897172 0.802712 0.244471
0.913430 0.804687 0.246074
0.913601 0.804726 0.246074
0.913770 0.804763 0.246074
0.913937 0.804799 0.246074
0.914102 0.804835 0.246074
0.258703 0.760411 0.189239
0.258774 0.760467 0.189239
0.258844 0.760522 0.189239
0.258914 0.760576 0.189239
0.258984 0.760630 0.189239
0.287225 0.764063 0.192039
0.318344 0.767839 0.195124
0.348598 0.771509 0.198122
0.378327 0.775115 0.201067
0.407681 0.778674 0.203973
0.436743 0.782196 0.206848
0.465568 0.785688 0.209700
0.494195 0.789154 0.212530
0.522651 0.792599 0.215343
0.550958 0.796023 0.218139
0.579131 0.799430 0.220921
0.607186 0.802821 0.223691
0.635133 0.806198 0.226449
0.662981 0.809561 0.229196
0.690739 0.812912 0.231933
0.718412 0.816251 0.234661
0.746009 0.819579 0.237380
0.773532 0.822897 0.240092
0.800988 0.826205 0.242795
0.828380 0.829504 0.245492
0.855711 0.832794 0.248182
0.882985 0.836075 0.250865
0.910205 0.839349 0.253542
0.925887 0.841324 0.255145
0.926043 0.841361 0.255145
0.926198 0.841396 0.255145
0.926351 0.841432 0.255145
0.926501 0.841466 0.255145
0.271297 0.796964 0.198287
0.271370 0.797020 0.198287
0.271442 0.797075 0.198287
0.271513 0.797129 0.198287
0.271584 0.797182 0.198287
0.299847 0.800615 0.201088
0.330990 0.804392 0.204173
0.361266 0.808063 0.207171
0.391017 0.811669 0.210115
0.420391 0.815228 0.213021
0.449474 0.818750 0.215897
0.478319 0.822242 0.218748
0.506965 0.825708 0.221579
0.535440 0.829153 0.224391
0.563764 0.832577 0.227188
0.591955 0.835984 0.229970
0.620027 0.839375 0.232739
0.647990 0.842751 0.235497
0.675855 0.846114 0.238244
0.703628 0.849464 0.240982
0.731317 0.852802 0.243710
0.758928 0.856130 0.246429
0.786465 0.859447 0.249140
0.813935 0.862754 0.251844
0.841340 0.866053 0.254540
0.868684 0.869342 0.257230
0.895970 0.872623 0.259914
0.922651 0.875895 0.262591
0.938237 0.877869 0.264193
0.938378 0.877904 0.264193
0.938518 0.877939 0.264193
0.938655 0.877972 0.264193
0.938790 0.878004 0.264193
0.283876 0.833438 0.207314
0.283950 0.833493 0.207314
0.284023 0.833548 0.207314
0.284096 0.833601 0.207314
0.284168 0.833654 0.207314
0.312452 0.837087 0.210115
0.343617 0.840864 0.213200
0.373915 0.844535 0.216197
0.403687 0.848141 0.219142
0.433081 0.851699 0.222048
0.462183 0.855222 0.224924
0.491047 0.858713 0.227775
0.519712 0.862180 0.230606
0.548204 0.865623 0.233418
0.576546 0.869048 0.236214
0.604754 0.872454 0.238997
0.632841 0.875844 0.241766
0.660820 0.879220 0.244524
0.688700 0.882582 0.247271
