library/cube/Chrome_Dreams_004.cube
# CINEGRADE LAB — Premium Cinematic LUT
# Title: Chrome Dreams
# Category: Cyberpunk Cinema
# Description: Cyan/magenta split with high contrast for futuristic cyberpunk visuals
# Mood: Futuristic, neon, dystopian
# Variant: 5
# Generated: 2026-05-21T16:12:29.126863
TITLE "Chrome Dreams"
LUT_3D_SIZE 5
0.000000 0.034355 0.015505
0.079811 0.025518 0.009141
0.432688 0.003304 0.000000
0.814592 0.000000 0.000000
1.000000 0.000000 0.000000
0.000000 0.126350 0.000000
0.075553 0.117184 0.000000
0.472616 0.093015 0.000000
0.891484 0.068032 0.000000
1.000000 0.053600 0.000000
0.000000 0.510546 0.000000
0.012329 0.498950 0.000000
0.442611 0.471124 0.000000
0.884104 0.442973 0.000000
1.000000 0.426761 0.000000
0.000000 0.876641 0.000000
0.000000 0.862857 0.000000
0.405477 0.831821 0.000000
0.857042 0.800956 0.000000
1.000000 0.782986 0.000000
0.000000 1.000000 0.000000
0.000000 1.000000 0.000000
0.400715 0.988205 0.000000
0.853865 0.956082 0.000000
1.000000 0.937308 0.000000
0.000000 0.030652 0.143025
0.079438 0.021872 0.135672
0.437347 0.000000 0.114817
0.823500 0.000000 0.092891
1.000000 0.000000 0.079992
0.000000 0.122806 0.114223
0.075011 0.113703 0.107671
0.475862 0.089454 0.086019
0.897751 0.064425 0.063632
1.000000 0.050116 0.052016
0.000000 0.506373 0.032691
0.011799 0.494834 0.027420
0.444818 0.466958 0.005875
0.887776 0.438811 0.000000
1.000000 0.422723 0.000000
0.000000 0.871869 0.000000
0.000000 0.858085 0.000000
0.406879 0.826968 0.000000
0.858866 0.796082 0.000000
1.000000 0.778181 0.000000
0.000000 1.000000 0.000000
0.000000 1.000000 0.000000
0.401508 0.983023 0.000000
0.854567 0.950707 0.000000
1.000000 0.931837 0.000000
0.000000 0.020812 0.635042
0.072906 0.012136 0.624035
0.435752 0.000000 0.599834
0.826065 0.000000 0.575074
1.000000 0.000000 0.559979
0.000000 0.113252 0.596152
0.068423 0.104238 0.587549
0.472968 0.079933 0.564157
0.897577 0.054887 0.540514
1.000000 0.040705 0.528219
0.000000 0.496248 0.509851
0.005274 0.484773 0.503993
0.440936 0.456850 0.482174
0.885234 0.428708 0.460629
1.000000 0.412736 0.451757
0.000000 0.861128 0.436265
0.000000 0.847332 0.433018
0.402196 0.816119 0.413001
0.854507 0.785191 0.393938
1.000000 0.767335 0.388640
0.000000 1.000000 0.411785
0.000000 1.000000 0.410645
0.396187 0.971697 0.392242
0.849101 0.939157 0.375525
1.000000 0.920159 0.373531
0.000000 0.011274 1.000000
0.066577 0.002673 1.000000
0.434204 0.000000 1.000000
0.828536 0.000000 1.000000
1.000000 0.000000 1.000000
0.000000 0.103915 1.000000
0.061976 0.094973 1.000000
0.470087 0.070603 1.000000
0.897258 0.045534 1.000000
1.000000 0.031473 0.996897
0.000000 0.486290 0.979130
0.000000 0.474869 0.973193
0.437064 0.446894 0.951485
0.882575 0.418756 0.930386
1.000000 0.402898 0.922331
0.000000 0.850512 0.906679
0.000000 0.836699 0.904251
0.397549 0.805389 0.885205
0.850115 0.774424 0.867378
1.000000 0.756615 0.863578
0.000000 1.000000 0.885863
0.000000 0.993716 0.886193
0.390977 0.960449 0.869331
0.843744 0.927702 0.854312
1.000000 0.908592 0.854174
0.000000 0.007120 1.000000
0.065384 0.000000 1.000000
0.437500 0.000000 1.000000
0.835597 0.000000 1.000000
1.000000 0.000000 1.000000
0.000000 0.099436 1.000000
0.060224 0.090463 1.000000
0.471713 0.065953 1.000000
0.901245 0.040813 1.000000
1.000000 0.026844 1.000000
0.000000 0.480933 1.000000
0.000000 0.469542 1.000000
0.437634 0.441518 1.000000
0.884264 0.413408 1.000000
1.000000 0.397708 1.000000
0.000000 0.844489 1.000000
0.000000 0.830706 1.000000
0.397533 0.799369 1.000000
0.850373 0.768452 1.000000
1.000000 0.750792 1.000000
0.000000 1.000000 1.000000
0.000000 0.987618 1.000000
0.390806 0.954201 1.000000
0.843555 0.921383 1.000000
1.000000 0.902310 1.000000
