library/cube/Chrome_Grain_003.cube
# CINEGRADE LAB — Premium Cinematic LUT
# Title: Chrome Grain
# Category: Bleach Bypass
# Description: Silver retention, high contrast, desaturated bleach bypass film process
# Mood: Gritty, stark, intense
# Variant: 4
# Generated: 2026-05-21T16:12:57.158836
TITLE "Chrome Grain"
LUT_3D_SIZE 9
0.000000 0.000000 0.000000
0.000001 0.000000 0.000000
0.116202 0.014154 0.011828
0.229183 0.027889 0.023291
0.339520 0.041276 0.034452
0.448295 0.054450 0.045422
0.555998 0.067471 0.056253
0.652330 0.079091 0.065906
0.653241 0.079132 0.065906
0.000013 0.000000 0.000000
0.000022 0.000000 0.000000
0.116821 0.014181 0.011828
0.230356 0.027942 0.023291
0.341206 0.041352 0.034452
0.450460 0.054547 0.045422
0.558611 0.067587 0.056253
0.655315 0.079223 0.065906
0.656159 0.079259 0.065906
0.053508 0.159000 0.039789
0.053598 0.159082 0.039789
0.171023 0.173368 0.051617
0.285138 0.187228 0.063080
0.396528 0.200734 0.074241
0.506286 0.214019 0.085211
0.614909 0.227145 0.096042
0.712010 0.238860 0.105695
0.712848 0.238955 0.105695
0.105858 0.313630 0.078353
0.106015 0.313775 0.078353
0.224006 0.328143 0.090181
0.338644 0.342079 0.101645
0.450516 0.355657 0.112805
0.560723 0.369009 0.123776
0.669762 0.382198 0.134606
0.767211 0.393970 0.144259
0.768029 0.394105 0.144259
0.157260 0.464604 0.115899
0.157470 0.464791 0.115899
0.275969 0.479219 0.127727
0.391073 0.493210 0.139190
0.503372 0.506838 0.150351
0.613973 0.520236 0.161321
0.723374 0.533467 0.172152
0.821121 0.545275 0.181805
0.821907 0.545429 0.181805
0.208151 0.613331 0.152803
0.208403 0.613542 0.152803
0.327352 0.628009 0.164631
0.442866 0.642034 0.176094
0.555538 0.655692 0.187255
0.666478 0.669115 0.198225
0.776189 0.682367 0.209056
0.874184 0.694191 0.218709
0.874925 0.694348 0.218709
0.258703 0.760411 0.189239
0.258984 0.760630 0.189239
0.378327 0.775115 0.201067
0.494195 0.789154 0.212530
0.607186 0.802821 0.223691
0.718412 0.816251 0.234661
0.828380 0.829504 0.245492
0.925887 0.841324 0.255145
0.926501 0.841466 0.255145
0.304068 0.891699 0.221712
0.304364 0.891905 0.221712
0.424040 0.906385 0.233540
0.540205 0.920416 0.245003
0.653456 0.934071 0.256164
0.764913 0.947484 0.267134
0.875080 0.960716 0.277965
0.969957 0.972512 0.287618
0.970324 0.972620 0.287618
0.305031 0.892331 0.221712
0.305301 0.892485 0.221712
0.425227 0.906923 0.233540
0.541606 0.920910 0.245003
0.655040 0.934518 0.256164
0.766650 0.947884 0.267134
0.876943 0.961067 0.277965
0.971044 0.972811 0.287618
0.971287 0.972864 0.287618
0.000000 0.000000 0.000000
0.000002 0.000000 0.000000
0.116265 0.014157 0.011828
0.229304 0.027894 0.023291
0.339695 0.041284 0.034452
0.448520 0.054461 0.045422
0.556270 0.067483 0.056253
0.652641 0.079105 0.065906
0.653545 0.079145 0.065906
0.000015 0.000000 0.000000
0.000025 0.000000 0.000000
0.116882 0.014184 0.011828
0.230471 0.027947 0.023291
0.341370 0.041360 0.034452
0.450671 0.054557 0.045422
0.558865 0.067598 0.056253
0.655604 0.079235 0.065906
0.656441 0.079271 0.065906
0.053539 0.159028 0.039789
0.053629 0.159110 0.039789
0.171106 0.173397 0.051617
0.285270 0.187258 0.063080
0.396704 0.200765 0.074241
0.506504 0.214051 0.085211
0.615165 0.227177 0.096042
0.712297 0.238892 0.105695
0.713128 0.238986 0.105695
0.105912 0.313680 0.078353
0.106068 0.313823 0.078353
0.224107 0.328191 0.090181
0.338788 0.342127 0.101645
0.450700 0.355705 0.112805
0.560943 0.369057 0.123776
0.670016 0.382245 0.134606
0.767491 0.394017 0.144259
0.768302 0.394149 0.144259
0.157332 0.464668 0.115899
0.157541 0.464853 0.115899
0.276082 0.479280 0.127727
0.391224 0.493270 0.139190
0.503559 0.506897 0.150351
0.614191 0.520294 0.161321
0.723622 0.533522 0.172152
0.821390 0.545328 0.181805
0.822168 0.545480 0.181805
0.208237 0.613404 0.152803
0.208488 0.613612 0.152803
0.327474 0.628076 0.164631
0.443021 0.642100 0.176094
0.555724 0.655755 0.187255
0.666691 0.669176 0.198225
0.776426 0.682425 0.209056
0.874439 0.694245 0.218709
0.875171 0.694398 0.218709
0.258799 0.760487 0.189239
0.259078 0.760701 0.189239
0.378454 0.775183 0.201067
0.494350 0.789219 0.212530
0.607366 0.802883 0.223691
0.718615 0.816308 0.234661
0.828601 0.829557 0.245492
0.926099 0.841374 0.255145
0.926703 0.841511 0.255145
0.304170 0.891771 0.221712
0.304463 0.891971 0.221712
0.424166 0.906447 0.233540
0.540354 0.920474 0.245003
0.653626 0.934124 0.256164
0.765100 0.947532 0.267134
0.875282 0.960760 0.277965
0.970086 0.972550 0.287618
0.970440 0.972653 0.287618
0.305124 0.892385 0.221712
0.305390 0.892534 0.221712
0.425339 0.906968 0.233540
0.541738 0.920950 0.245003
0.655188 0.934554 0.256164
0.766811 0.947914 0.267134
0.877115 0.961092 0.277965
0.971130 0.972831 0.287618
0.971362 0.972878 0.287618
0.005348 0.004803 0.127846
0.005359 0.004806 0.127846
0.121693 0.018968 0.139674
0.234798 0.032711 0.151138
0.345250 0.046107 0.162299
0.454132 0.059288 0.173269
0.561937 0.072315 0.184100
0.658354 0.083941 0.193752
0.659259 0.083983 0.193752
0.005394 0.004813 0.127846
0.005412 0.004815 0.127846
0.122335 0.019005 0.139674
0.235984 0.032772 0.151138
0.346940 0.046190 0.162299
0.456293 0.059391 0.173269
0.564537 0.072437 0.184100
0.661318 0.084077 0.193752
0.662155 0.084115 0.193752
0.058971 0.163877 0.167636
0.059069 0.163960 0.167636
0.176606 0.178252 0.179463
0.290824 0.192116 0.190927
0.402309 0.205626 0.202088
0.512156 0.218915 0.213058
0.620861 0.232044 0.223889
0.718031 0.243762 0.233542
0.718860 0.243856 0.233542
0.111390 0.318558 0.206200
0.111553 0.318701 0.206200
0.229645 0.333072 0.218028
0.344376 0.347010 0.229491
0.456334 0.360590 0.240652
0.566619 0.373943 0.251622
0.675730 0.387133 0.262453
0.773238 0.398905 0.272106
0.774046 0.399036 0.272106
0.162850 0.469568 0.243745
0.163065 0.469752 0.243745
0.281654 0.484180 0.255573
0.396840 0.498171 0.267037
0.509215 0.511797 0.278197
0.619883 0.525194 0.289168
0.729347 0.538423 0.299998
0.827143 0.550229 0.309651
0.827917 0.550378 0.309651
0.213790 0.618318 0.280649
0.214045 0.618524 0.280649
0.333073 0.632988 0.292477
0.448659 0.647011 0.303941
0.561395 0.660665 0.315101
0.672394 0.674084 0.326072
0.782157 0.687332 0.336903
0.880192 0.699151 0.346555
0.880919 0.699300 0.346555
0.264379 0.765409 0.317085
0.264662 0.765620 0.317085
0.384073 0.780100 0.328913
0.500003 0.794134 0.340377
0.613048 0.807795 0.351537
0.724322 0.821218 0.362508
0.834331 0.834464 0.373338
0.931562 0.846277 0.382991
0.932140 0.846410 0.382991
0.309770 0.896692 0.349558
0.310065 0.896888 0.349558
0.429800 0.911362 0.361386
0.546014 0.925385 0.372850
0.659310 0.939031 0.384011
0.770804 0.952435 0.394981
0.881004 0.965658 0.405812
0.975409 0.977444 0.415464
0.975732 0.977542 0.415464
0.310729 0.897292 0.349558
0.310997 0.897437 0.349558
0.430971 0.911867 0.361386
0.547392 0.925845 0.372850
0.660861 0.939445 0.384011
0.772499 0.952800 0.394981
0.882816 0.965974 0.405812
0.976346 0.977708 0.415464
0.976544 0.977750 0.415464
0.010537 0.009460 0.251757
0.010558 0.009466 0.251757
0.126961 0.023634 0.263585
0.240130 0.037382 0.275048
0.350643 0.050782 0.286209
0.459583 0.063968 0.297179
0.567440 0.077000 0.308010
0.663903 0.088630 0.317663
0.664808 0.088674 0.317663
0.010613 0.009479 0.251757
0.010639 0.009484 0.251757
0.127626 0.023679 0.263585
0.241335 0.037451 0.275048
0.352347 0.050873 0.286209
0.461752 0.064078 0.297179
0.570044 0.077128 0.308010
0.666867 0.088772 0.317663
0.667703 0.088811 0.317663
0.064242 0.168580 0.291546
0.064347 0.168664 0.291546
0.181942 0.182959 0.303374
0.296215 0.196827 0.314838
0.407750 0.210340 0.325998
0.517644 0.223632 0.336968
0.626392 0.236763 0.347799
0.723598 0.248483 0.357452
0.724426 0.248577 0.357452
0.116707 0.323289 0.330111
0.116876 0.323432 0.330111
0.235020 0.337805 0.341938
0.349800 0.351745 0.353402
0.461802 0.365326 0.364563
0.572128 0.378681 0.375533
0.681278 0.391872 0.386364
0.778817 0.403644 0.396017
0.779623 0.403775 0.396017
0.168205 0.474320 0.367656
0.168425 0.474503 0.367656
0.287061 0.488931 0.379484
0.402290 0.502922 0.390947
0.514704 0.516549 0.402108
0.625408 0.529946 0.413078
0.734905 0.543175 0.423909
0.832728 0.554979 0.433562
0.833498 0.555127 0.433562
0.219178 0.623083 0.404560
0.219436 0.623287 0.404560
0.338506 0.637750 0.416388
0.454129 0.651772 0.427851
0.566899 0.665425 0.439012
0.677928 0.678843 0.449982
0.787719 0.692089 0.460813
0.885776 0.703906 0.470466
0.886498 0.704053 0.470466
0.269794 0.770180 0.440996
0.270078 0.770389 0.440996
0.389526 0.784867 0.452824
0.505487 0.798898 0.464287
0.618560 0.812557 0.475448
0.729860 0.825977 0.486418
0.839891 0.839220 0.497249
0.936850 0.851029 0.506902
0.937401 0.851158 0.506902
0.315204 0.901463 0.473469
0.315500 0.901655 0.473469
0.435264 0.916125 0.485297
0.551506 0.930145 0.496760
0.664825 0.943787 0.507921
0.776338 0.957187 0.518891
0.886555 0.970406 0.529722
0.980556 0.982187 0.539375
0.980848 0.982280 0.539375
0.316166 0.902049 0.473469
0.316434 0.902190 0.473469
0.436434 0.916616 0.485297
0.552876 0.930589 0.496760
0.666363 0.944184 0.507921
0.778017 0.957535 0.518891
0.888345 0.970704 0.529722
0.981386 0.982433 0.539375
0.981551 0.982469 0.539375
0.015596 0.013996 0.372394
0.015624 0.014004 0.372394
0.132096 0.028178 0.384222
0.245330 0.041931 0.395686
0.355902 0.055336 0.406846
0.464898 0.068527 0.417817
0.572809 0.081563 0.428647
0.669316 0.093197 0.438300
0.670221 0.093242 0.438300
0.015699 0.014023 0.372394
0.015734 0.014031 0.372394
0.132784 0.028231 0.384222
0.246552 0.042007 0.395686
0.357619 0.055434 0.406846
0.467075 0.068643 0.417817
0.575416 0.081697 0.428647
0.672279 0.093344 0.438300
0.673114 0.093385 0.438300
0.069379 0.173160 0.412184
0.069491 0.173246 0.412184
0.187144 0.187544 0.424011
0.301471 0.201415 0.435475
0.413055 0.214931 0.446636
0.522995 0.228225 0.457606
0.631786 0.241359 0.468437
0.729028 0.253080 0.478090
0.729854 0.253175 0.478090
0.121888 0.327896 0.450748
0.122063 0.328040 0.450748
0.240260 0.342415 0.462576
0.355087 0.356357 0.474039
0.467133 0.369939 0.485200
0.577500 0.383295 0.496170
0.686687 0.396487 0.507001
0.784257 0.408260 0.516654
0.785059 0.408390 0.516654
0.173425 0.478947 0.488293
0.173649 0.479129 0.488293
0.292331 0.493558 0.500121
0.407603 0.507550 0.511585
0.520055 0.521177 0.522745
0.630795 0.534574 0.533715
0.740323 0.547802 0.544546
0.838172 0.559606 0.554199
0.838938 0.559751 0.554199
0.224428 0.627724 0.525197
0.224690 0.627926 0.525197
0.343801 0.642388 0.537025
0.459460 0.656409 0.548489
0.572264 0.670060 0.559649
0.683322 0.683477 0.570619
0.793140 0.696721 0.581450
0.891218 0.708536 0.591103
0.891935 0.708680 0.591103
0.275070 0.774828 0.561633
0.275356 0.775033 0.561633
0.394839 0.789508 0.573461
0.510832 0.803538 0.584925
0.623933 0.817194 0.596085
0.735257 0.830611 0.607055
0.845309 0.843850 0.617886
0.941989 0.855656 0.627539
0.942514 0.855781 0.627539
0.320498 0.906109 0.594106
0.320795 0.906297 0.594106
0.440589 0.920763 0.605934
0.556857 0.934779 0.617398
0.670198 0.948417 0.628558
0.781731 0.961813 0.639529
0.891963 0.975028 0.650359
0.985553 0.986804 0.660012
0.985814 0.986892 0.660012
0.321464 0.906680 0.594106
0.321732 0.906816 0.594106
0.441756 0.921238 0.605934
0.558219 0.935208 0.617398
0.671724 0.948798 0.628558
0.783392 0.962145 0.639529
0.893731 0.975308 0.650359
0.986277 0.987032 0.660012
0.986408 0.987063 0.660012
0.020573 0.018456 0.490971
0.020610 0.018467 0.490971
0.137150 0.032646 0.502798
0.250447 0.046404 0.514262
0.361078 0.059814 0.525423
0.470130 0.073009 0.536393
0.578093 0.086050 0.547224
0.674645 0.097687 0.556877
0.675549 0.097734 0.556877
0.020704 0.018492 0.490971
0.020746 0.018502 0.490971
0.137860 0.032707 0.502798
0.251686 0.046488 0.514262
0.362807 0.059919 0.525423
0.472314 0.073132 0.536393
0.580702 0.086189 0.547224
0.677605 0.097840 0.556877
0.678440 0.097882 0.556877
0.074434 0.177663 0.530760
0.074552 0.177750 0.530760
0.192263 0.192052 0.542587
0.306642 0.205926 0.554051
0.418275 0.219445 0.565212
0.528260 0.232742 0.576182
0.637094 0.245878 0.587013
0.734370 0.257601 0.596666
0.735194 0.257696 0.596666
0.126986 0.332427 0.569324
0.127166 0.332570 0.569324
0.245415 0.346947 0.581152
0.360289 0.360891 0.592615
0.472379 0.374475 0.603776
0.582786 0.387832 0.614746
0.692009 0.401024 0.625577
0.789609 0.412798 0.635230
0.790409 0.412927 0.635230
0.178559 0.483497 0.606870
0.178788 0.483678 0.606870
0.297516 0.498108 0.618697
0.412829 0.512100 0.630161
0.525319 0.525727 0.641322
0.636094 0.539123 0.652292
0.745654 0.552351 0.663123
0.843528 0.564154 0.672776
0.844289 0.564297 0.672776
0.229593 0.632286 0.643774
0.229858 0.632486 0.643774
0.349009 0.646948 0.655601
0.464705 0.660967 0.667065
0.577541 0.674617 0.678226
0.688629 0.688033 0.689196
0.798472 0.701275 0.700027
0.896571 0.713087 0.709680
0.897282 0.713228 0.709680
0.280259 0.779396 0.680210
0.280548 0.779598 0.680210
0.400065 0.794071 0.692037
0.516089 0.808098 0.703501
0.629217 0.821751 0.714662
0.740564 0.835165 0.725632
0.850638 0.848402 0.736463
0.947030 0.860204 0.746116
0.947528 0.860324 0.746116
0.325706 0.910675 0.712683
0.326003 0.910859 0.712683
0.445827 0.925322 0.724510
0.562119 0.939334 0.735974
0.675482 0.952968 0.747135
0.787033 0.966359 0.758105
0.897281 0.979570 0.768936
0.990451 0.991341 0.778589
0.990681 0.991424 0.778589
0.326673 0.911231 0.712683
0.326942 0.911363 0.712683
0.446990 0.925781 0.724510
0.563473 0.939746 0.735974
0.676995 0.953332 0.747135
0.788676 0.966674 0.758105
0.899027 0.979832 0.768936
0.991067 0.991551 0.778589
0.991165 0.991576 0.778589
0.025493 0.022861 0.608043
0.025538 0.022875 0.608043
0.142146 0.037059 0.619871
0.255505 0.050823 0.631334
0.366195 0.064237 0.642495
0.475301 0.077437 0.653465
0.583316 0.090481 0.664296
0.679911 0.102122 0.673949
0.680815 0.102171 0.673949
0.025651 0.022906 0.608043
0.025701 0.022918 0.608043
0.142876 0.037127 0.619871
0.256760 0.050913 0.631334
0.367935 0.064348 0.642495
0.477492 0.077565 0.653465
0.585927 0.090626 0.664296
0.682869 0.102280 0.673949
0.683703 0.102323 0.673949
0.079430 0.182111 0.647832
0.079554 0.182199 0.647832
0.197321 0.196505 0.659660
0.311753 0.210382 0.671123
0.423434 0.223903 0.682284
0.533464 0.237202 0.693254
0.642339 0.250340 0.704085
0.739650 0.262065 0.713738
0.740471 0.262160 0.713738
0.132024 0.336901 0.686396
0.132209 0.337045 0.686396
0.250509 0.351423 0.698224
0.365430 0.365369 0.709688
0.477562 0.378954 0.720848
0.588008 0.392312 0.731818
0.697268 0.405505 0.742649
0.794898 0.417279 0.752302
0.795694 0.417407 0.752302
0.183633 0.487991 0.723942
0.183866 0.488170 0.723942
0.302639 0.502600 0.735769
0.417993 0.516592 0.747233
0.530521 0.530219 0.758394
0.641329 0.543616 0.769364
0.750920 0.556842 0.780195
0.848819 0.568644 0.789848
0.849576 0.568786 0.789848
0.234697 0.636792 0.760846
0.234964 0.636990 0.760846
0.354155 0.651450 0.772674
0.469886 0.665468 0.784137
0.582754 0.679117 0.795298
0.693871 0.692530 0.806268
0.803740 0.705770 0.817099
0.901859 0.717580 0.826752
0.902564 0.717718 0.826752
0.285387 0.783907 0.797282
0.285677 0.784105 0.797282
0.405228 0.798576 0.809109
0.521282 0.812600 0.820573
0.634436 0.826250 0.831734
0.745807 0.839661 0.842704
0.855901 0.852895 0.853535
0.951995 0.864693 0.863188
0.952467 0.864809 0.863188
0.330850 0.915183 0.829755
0.331148 0.915362 0.829755
0.451000 0.929822 0.841583
0.567317 0.943830 0.853046
0.680700 0.957460 0.864207
0.792270 0.970847 0.875177
0.902533 0.984053 0.886008
0.995271 0.995820 0.895661
0.995469 0.995896 0.895661
0.331820 0.915724 0.829755
0.332089 0.915852 0.829755
0.452160 0.930265 0.841583
0.568662 0.944226 0.853046
0.682200 0.957808 0.864207
0.793894 0.971144 0.875177
0.904256 0.984298 0.886008
0.995779 0.996011 0.895661
0.995843 0.996031 0.895661
0.029884 0.026790 0.712382
0.029937 0.026806 0.712382
0.146610 0.040995 0.724210
0.260031 0.054763 0.735673
0.370778 0.068182 0.746834
0.479938 0.081385 0.757804
0.588002 0.094433 0.768635
0.684641 0.106078 0.778288
0.685543 0.106128 0.778288
0.030066 0.026842 0.712382
0.030122 0.026856 0.712382
0.147359 0.041069 0.724210
0.261299 0.054859 0.735673
0.372526 0.068298 0.746834
0.482132 0.081519 0.757804
0.590613 0.094583 0.768635
0.687593 0.106239 0.778288
0.688425 0.106284 0.778288
0.083890 0.186080 0.752171
0.084021 0.186169 0.752171
0.201843 0.200477 0.763999
0.316325 0.214357 0.775462
0.428054 0.227880 0.786623
0.538127 0.241181 0.797593
0.647042 0.254322 0.808424
0.744387 0.266048 0.818077
0.745205 0.266143 0.818077
0.136524 0.340895 0.790735
0.136714 0.341038 0.790735
0.255063 0.355418 0.802563
0.370029 0.369365 0.814027
0.482203 0.382951 0.825187
0.592688 0.396310 0.836158
0.701983 0.409504 0.846988
0.799641 0.421278 0.856641
0.800433 0.421404 0.856641
0.188166 0.492002 0.828281
0.188402 0.492181 0.828281
0.307220 0.506611 0.840109
0.422614 0.520603 0.851572
0.535178 0.534229 0.862733
0.646019 0.547625 0.873703
0.755640 0.560851 0.884534
0.853563 0.572652 0.894187
0.854314 0.572791 0.894187
0.239258 0.640814 0.865185
0.239528 0.641010 0.865185
0.358757 0.655469 0.877013
0.474522 0.669486 0.888476
0.587421 0.683133 0.899637
0.698566 0.696544 0.910607
0.808459 0.709782 0.921438
0.906597 0.721590 0.931091
0.907297 0.721723 0.931091
0.289969 0.787933 0.901621
0.290261 0.788128 0.901621
0.409845 0.802597 0.913449
0.525927 0.816618 0.924912
0.639107 0.830265 0.936073
0.750501 0.843673 0.947043
0.860614 0.856903 0.957874
0.956426 0.868698 0.967527
0.956872 0.868809 0.967527
0.335447 0.919207 0.934094
0.335746 0.919381 0.934094
0.455624 0.933837 0.945922
0.571965 0.947841 0.957385
0.685369 0.961467 0.968546
0.796956 0.974850 0.979516
0.907233 0.988051 0.990347
0.999560 0.999812 1.000000
0.999728 0.999884 1.000000
0.336417 0.919733 0.934094
0.336686 0.919855 0.934094
0.456779 0.934264 0.945922
0.573300 0.948221 0.957385
0.686853 0.961797 0.968546
0.798560 0.975129 0.979516
0.908931 0.988277 0.990347
0.999965 0.999985 1.000000
0.999998 0.999999 1.000000
0.029902 0.026795 0.712382
0.029955 0.026811 0.712382
0.146687 0.041003 0.724210
0.260162 0.054773 0.735673
0.370960 0.068194 0.746834
0.480167 0.081399 0.757804
0.588275 0.094449 0.768635
0.684949 0.106095 0.778288
0.685845 0.106144 0.778288
0.030085 0.026847 0.712382
0.030142 0.026861 0.712382
0.147433 0.041077 0.724210
0.261423 0.054868 0.735673
0.372696 0.068309 0.746834
0.482345 0.081531 0.757804
0.590865 0.094597 0.768635
0.687878 0.106255 0.778288
0.688703 0.106298 0.778288
0.083935 0.186110 0.752171
0.084065 0.186198 0.752171
0.201936 0.200508 0.763999
0.316464 0.214388 0.775462
0.428233 0.227912 0.786623
0.538344 0.241214 0.797593
0.647294 0.254354 0.808424
0.744667 0.266081 0.818077
0.745478 0.266174 0.818077
0.136589 0.340944 0.790735
0.136778 0.341085 0.790735
0.255171 0.355465 0.802563
0.370177 0.369412 0.814027
0.482388 0.382997 0.825187
0.592905 0.396356 0.836158
0.702231 0.409549 0.846988
0.799913 0.421322 0.856641
0.800696 0.421446 0.856641
0.188247 0.492064 0.828281
0.188482 0.492239 0.828281
0.307338 0.506668 0.840109
0.422767 0.520659 0.851572
0.535362 0.534284 0.862733
0.646232 0.547677 0.873703
0.755879 0.560901 0.884534
0.853821 0.572700 0.894187
0.854563 0.572836 0.894187
0.239350 0.640882 0.865185
0.239618 0.641073 0.865185
0.358881 0.655530 0.877013
0.474677 0.669545 0.888476
0.587602 0.683189 0.899637
0.698770 0.696597 0.910607
0.808685 0.709832 0.921438
0.906838 0.721636 0.931091
0.907528 0.721766 0.931091
0.290069 0.788001 0.901621
0.290359 0.788191 0.901621
0.409971 0.802656 0.913449
0.526079 0.816674 0.924912
0.639280 0.830318 0.936073
0.750693 0.843721 0.947043
0.860822 0.856947 0.957874
0.956581 0.868737 0.967527
0.957015 0.868844 0.967527
0.335550 0.919268 0.934094
0.335845 0.919437 0.934094
0.455748 0.933888 0.945922
0.572108 0.947888 0.957385
0.685529 0.961509 0.968546
0.797130 0.974886 0.979516
0.907419 0.988082 0.990347
0.999622 0.999839 1.000000
0.999776 0.999904 1.000000
0.336509 0.919776 0.934094
0.336775 0.919893 0.934094
0.456888 0.934298 0.945922
0.573424 0.948249 0.957385
0.686990 0.961820 0.968546
0.798707 0.975147 0.979516
0.909085 0.988290 0.990347
0.999980 0.999992 1.000000
1.000000 1.000000 1.000000
