library/cube/CineStill_Night_001.cube
# CINEGRADE LAB — Premium Cinematic LUT
# Title: CineStill Night
# Category: CineStill 800T Emulation
# Description: Tungsten balance, halation glow, night film characteristics
# Mood: Nocturnal, glowing, cinematic
# Variant: 2
# Generated: 2026-05-21T16:12:53.869712
TITLE "CineStill Night"
LUT_3D_SIZE 33
0.072393 0.061280 0.048130
0.097794 0.062086 0.048871
0.123638 0.062906 0.049627
0.149820 0.063737 0.050394
0.176277 0.064576 0.051170
0.202967 0.065423 0.051954
0.229861 0.066276 0.052745
0.256936 0.067134 0.053541
0.284173 0.067998 0.054344
0.311559 0.068866 0.055151
0.339083 0.069739 0.055963
0.366733 0.070615 0.056779
0.394502 0.071495 0.057599
0.422383 0.072379 0.058423
0.450369 0.073266 0.059251
0.478455 0.074156 0.060083
0.506637 0.075050 0.060918
0.534910 0.075946 0.061756
0.563270 0.076844 0.062597
0.591714 0.077746 0.063442
0.620238 0.078650 0.064289
0.648840 0.079556 0.065139
0.677518 0.080465 0.065992
0.706248 0.081376 0.066846
0.735035 0.082288 0.067703
0.763883 0.083202 0.068563
0.792789 0.084119 0.069424
0.821750 0.085036 0.070288
0.850762 0.085956 0.071154
0.879825 0.086877 0.072021
0.891565 0.087254 0.072345
0.891736 0.087266 0.072304
0.891905 0.087279 0.072264
0.074981 0.087041 0.050475
0.100403 0.087851 0.051219
0.126268 0.088674 0.051977
0.152471 0.089509 0.052746
0.178949 0.090352 0.053525
0.205661 0.091202 0.054311
0.232576 0.092059 0.055104
0.259672 0.092921 0.055902
0.286931 0.093789 0.056707
0.314339 0.094661 0.057516
0.341884 0.095537 0.058330
0.369556 0.096417 0.059149
0.397348 0.097301 0.059972
0.425251 0.098189 0.060798
0.453260 0.099080 0.061628
0.481369 0.099974 0.062462
0.509573 0.100871 0.063299
0.537869 0.101771 0.064140
0.566253 0.102673 0.064983
0.594720 0.103579 0.065830
0.623269 0.104486 0.066680
0.651895 0.105397 0.067532
0.680598 0.106309 0.068387
0.709342 0.107223 0.069244
0.738139 0.108139 0.070103
0.766994 0.109056 0.070964
0.795905 0.109976 0.071827
0.824869 0.110897 0.072693
0.853882 0.111819 0.073560
0.882942 0.112743 0.074429
0.894678 0.113123 0.074754
0.894845 0.113138 0.074715
0.895010 0.113153 0.074677
0.077615 0.113259 0.052870
0.103058 0.114073 0.053616
0.128943 0.114900 0.054376
0.155167 0.115739 0.055148
0.181667 0.116586 0.055928
0.208400 0.117440 0.056717
0.235337 0.118300 0.057512
0.262455 0.119166 0.058313
0.289736 0.120037 0.059120
0.317166 0.120913 0.059931
0.344733 0.121793 0.060748
0.372428 0.122678 0.061569
0.400242 0.123565 0.062394
0.428168 0.124457 0.063222
0.456199 0.125351 0.064055
0.484332 0.126249 0.064891
0.512560 0.127150 0.065731
0.540880 0.128053 0.066573
0.569288 0.128960 0.067419
0.597780 0.129869 0.068268
0.626354 0.130780 0.069120
0.655006 0.131694 0.069975
0.683734 0.132611 0.070833
0.712490 0.133528 0.071692
0.741293 0.134447 0.072552
0.770153 0.135368 0.073415
0.799065 0.136290 0.074280
0.828027 0.137214 0.075147
0.857037 0.138139 0.076016
0.886090 0.139066 0.076886
0.897820 0.139448 0.077212
0.897982 0.139466 0.077175
0.898143 0.139484 0.077138
0.080285 0.139830 0.055303
0.105748 0.140647 0.056052
0.131655 0.141478 0.056814
0.157900 0.142320 0.057588
0.184421 0.143171 0.058371
0.211176 0.144029 0.059162
0.238135 0.144893 0.059959
0.265275 0.145763 0.060762
0.292578 0.146638 0.061571
0.320031 0.147517 0.062385
0.347621 0.148401 0.063204
0.375338 0.149289 0.064027
0.403176 0.150181 0.064855
0.431125 0.151076 0.065686
0.459181 0.151974 0.066521
0.487337 0.152876 0.067359
0.515590 0.153780 0.068201
0.543935 0.154687 0.069046
0.572368 0.155598 0.069895
0.600886 0.156510 0.070746
0.629485 0.157426 0.071600
0.658164 0.158343 0.072457
0.686919 0.159264 0.073317
0.715685 0.160184 0.074178
0.744491 0.161106 0.075041
0.773350 0.162029 0.075905
0.802260 0.162955 0.076771
0.831217 0.163881 0.077640
0.860217 0.164809 0.078510
0.889259 0.165738 0.079381
0.900981 0.166123 0.079709
0.901138 0.166144 0.079673
0.901295 0.166165 0.079637
0.082986 0.166688 0.057770
0.108470 0.167510 0.058520
0.134398 0.168345 0.059285
0.160665 0.169190 0.060061
0.187208 0.170045 0.060847
0.213985 0.170906 0.061639
0.240966 0.171774 0.062439
0.268128 0.172648 0.063245
0.295454 0.173526 0.064056
0.322930 0.174409 0.064872
0.350543 0.175297 0.065694
0.378284 0.176188 0.066519
0.406146 0.177084 0.067349
0.434119 0.177982 0.068182
0.462200 0.178884 0.069019
0.490381 0.179790 0.069860
0.518660 0.180698 0.070705
0.547030 0.181609 0.071552
0.575489 0.182523 0.072403
0.604033 0.183439 0.073257
0.632660 0.184358 0.074113
0.661366 0.185280 0.074973
0.690150 0.186204 0.075835
0.718923 0.187127 0.076698
0.747727 0.188052 0.077562
0.776582 0.188978 0.078428
0.805484 0.189906 0.079295
0.834431 0.190835 0.080165
0.863418 0.191766 0.081036
0.892443 0.192697 0.081909
0.904154 0.193084 0.082237
0.904307 0.193108 0.082203
0.904458 0.193131 0.082169
0.085715 0.193793 0.060265
0.111220 0.194617 0.061018
0.137170 0.195456 0.061785
0.163458 0.196305 0.062563
0.190024 0.197163 0.063351
0.216823 0.198028 0.064146
0.243827 0.198900 0.064948
0.271012 0.199777 0.065756
0.298362 0.200659 0.066570
0.325861 0.201546 0.067388
0.353498 0.202437 0.068212
0.381264 0.203333 0.069039
0.409150 0.204232 0.069871
0.437149 0.205134 0.070707
0.465254 0.206040 0.071547
0.493462 0.206948 0.072390
0.521766 0.207860 0.073237
0.550164 0.208775 0.074087
0.578650 0.209693 0.074940
0.607222 0.210613 0.075796
0.635877 0.211536 0.076655
0.664612 0.212461 0.077517
0.693425 0.213389 0.078382
0.722202 0.214315 0.079247
0.751001 0.215243 0.080112
0.779846 0.216171 0.080979
0.808736 0.217101 0.081848
0.837667 0.218033 0.082719
0.866634 0.218965 0.083591
0.895636 0.219899 0.084464
0.907334 0.220289 0.084794
0.907483 0.220315 0.084761
0.907630 0.220341 0.084728
0.088470 0.221111 0.062786
0.113997 0.221940 0.063541
0.139968 0.222782 0.064310
0.166279 0.223635 0.065091
0.192867 0.224496 0.065881
0.219690 0.225365 0.066678
0.246717 0.226240 0.067482
0.273926 0.227121 0.068293
0.301299 0.228007 0.069109
0.328823 0.228897 0.069930
0.356485 0.229792 0.070755
0.384276 0.230691 0.071586
0.412187 0.231593 0.072420
0.440212 0.232499 0.073258
0.468344 0.233409 0.074100
0.496579 0.234321 0.074946
0.524911 0.235237 0.075795
0.553336 0.236155 0.076647
0.581851 0.237076 0.077503
0.610452 0.238000 0.078362
0.639136 0.238927 0.079223
0.667902 0.239856 0.080088
0.696745 0.240787 0.080955
0.725524 0.241717 0.081821
0.754311 0.242646 0.082688
0.783142 0.243578 0.083556
0.812014 0.244510 0.084426
0.840923 0.245443 0.085297
0.869865 0.246378 0.086170
0.898837 0.247314 0.087045
0.910520 0.247705 0.087375
0.910664 0.247734 0.087344
0.910807 0.247763 0.087312
0.091250 0.248621 0.065330
0.116799 0.249453 0.066087
0.142793 0.250299 0.066859
0.169127 0.251155 0.067642
0.195738 0.252020 0.068434
0.222584 0.252893 0.069234
0.249635 0.253771 0.070040
0.276868 0.254656 0.070853
0.304267 0.255545 0.071671
0.331815 0.256439 0.072495
0.359503 0.257337 0.073323
0.387320 0.258240 0.074155
0.415258 0.259146 0.074992
0.443310 0.260055 0.075833
0.471469 0.260968 0.076677
0.499732 0.261885 0.077525
0.528092 0.262804 0.078377
0.556547 0.263726 0.079232
0.585091 0.264651 0.080090
0.613723 0.265578 0.080951
0.642438 0.266509 0.081815
0.671235 0.267441 0.082682
0.700111 0.268377 0.083552
0.728887 0.269309 0.084420
0.757657 0.270241 0.085287
0.786469 0.271174 0.086156
0.815316 0.272108 0.087027
0.844197 0.273043 0.087899
0.873108 0.273980 0.088773
0.902044 0.274917 0.089647
0.913708 0.275311 0.089979
0.913848 0.275342 0.089949
0.913986 0.275374 0.089919
0.094056 0.276304 0.067896
0.119627 0.277139 0.068655
0.145644 0.277989 0.069430
0.172001 0.278848 0.070215
0.198635 0.279717 0.071009
0.225506 0.280593 0.071811
0.252581 0.281475 0.072620
0.279840 0.282363 0.073435
0.307264 0.283256 0.074256
0.334839 0.284153 0.075081
0.362553 0.285055 0.075912
0.390397 0.285961 0.076747
0.418362 0.286871 0.077586
0.446442 0.287784 0.078429
0.474631 0.288700 0.079276
0.502922 0.289620 0.080127
0.531313 0.290543 0.080981
0.559797 0.291469 0.081838
0.588373 0.292397 0.082699
0.617036 0.293329 0.083562
0.645784 0.294263 0.084429
0.674614 0.295199 0.085299
0.703524 0.296138 0.086172
0.732293 0.297073 0.087040
0.761041 0.298007 0.087909
0.789826 0.298942 0.088779
0.818644 0.299878 0.089650
0.847490 0.300815 0.090523
0.876361 0.301753 0.091396
0.905254 0.302691 0.092271
0.916897 0.303087 0.092604
0.917032 0.303121 0.092575
0.917166 0.303155 0.092547
0.096885 0.304145 0.070482
0.122480 0.304984 0.071244
0.148520 0.305836 0.072020
0.174901 0.306699 0.072808
0.201560 0.307571 0.073604
0.228455 0.308451 0.074409
0.255556 0.309336 0.075220
0.282841 0.310227 0.076037
0.310291 0.311124 0.076860
0.337893 0.312025 0.077688
0.365635 0.312930 0.078521
0.393507 0.313840 0.079359
0.421501 0.314753 0.080200
0.449610 0.315670 0.081046
0.477829 0.316590 0.081895
0.506151 0.317513 0.082748
0.534572 0.318440 0.083605
0.563089 0.319369 0.084465
0.591697 0.320302 0.085328
0.620394 0.321237 0.086194
0.649175 0.322174 0.087064
0.678040 0.323115 0.087936
0.706985 0.324057 0.088812
0.735743 0.324994 0.089682
0.764463 0.325930 0.090551
0.793215 0.326867 0.091421
0.821995 0.327804 0.092293
0.850800 0.328743 0.093166
0.879625 0.329682 0.094039
0.908467 0.330621 0.094914
0.920085 0.331019 0.095248
0.920216 0.331056 0.095220
0.920345 0.331092 0.095193
0.099740 0.332131 0.073087
0.125358 0.332973 0.073851
0.151422 0.333829 0.074630
0.177828 0.334696 0.075419
0.204512 0.335571 0.076218
0.231433 0.336454 0.077025
0.258561 0.337343 0.077839
0.285872 0.338238 0.078659
0.313350 0.339138 0.079484
0.340980 0.340042 0.080315
0.368750 0.340951 0.081150
0.396652 0.341864 0.081990
0.424676 0.342781 0.082834
0.452816 0.343701 0.083682
0.481065 0.344625 0.084534
0.509419 0.345552 0.085390
0.537873 0.346482 0.086249
0.566423 0.347415 0.087111
0.595065 0.348351 0.087977
0.623797 0.349290 0.088846
0.652614 0.350232 0.089718
0.681515 0.351176 0.090593
0.710497 0.352122 0.091471
0.739240 0.353061 0.092342
0.767924 0.353998 0.093212
0.796637 0.354937 0.094083
0.825372 0.355875 0.094954
0.854128 0.356815 0.095827
0.882899 0.357755 0.096701
0.911681 0.358695 0.097575
0.923272 0.359095 0.097910
0.923398 0.359134 0.097884
0.923523 0.359173 0.097858
0.102619 0.360253 0.075710
0.128261 0.361099 0.076476
0.154350 0.361958 0.077257
0.180782 0.362828 0.078049
0.207492 0.363707 0.078851
0.234440 0.364593 0.079660
0.261595 0.365485 0.080476
0.288935 0.366383 0.081298
0.316441 0.367287 0.082126
0.344100 0.368195 0.082959
0.371900 0.369107 0.083797
0.399832 0.370024 0.084639
0.427887 0.370944 0.085486
0.456059 0.371868 0.086337
0.484341 0.372796 0.087191
0.512729 0.373726 0.088049
0.541217 0.374660 0.088911
0.569801 0.375597 0.089776
0.598479 0.376537 0.090645
0.627247 0.377479 0.091516
0.656102 0.378424 0.092391
0.685041 0.379372 0.093269
0.714062 0.380323 0.094150
0.742784 0.381264 0.095022
0.771426 0.382202 0.095892
0.800091 0.383141 0.096762
0.828775 0.384081 0.097634
0.857473 0.385021 0.098507
0.886181 0.385962 0.099380
0.914896 0.386903 0.100254
0.926456 0.387304 0.100589
0.926577 0.387346 0.100564
0.926697 0.387388 0.100540
0.105524 0.388502 0.078350
0.131191 0.389350 0.079119
0.157306 0.390213 0.079902
0.183763 0.391087 0.080697
0.210501 0.391969 0.081500
0.237477 0.392858 0.082312
0.264660 0.393754 0.083131
0.292029 0.394656 0.083955
0.319565 0.395563 0.084786
0.347254 0.396474 0.085621
0.375086 0.397390 0.086461
0.403049 0.398310 0.087306
0.431137 0.399234 0.088156
0.459342 0.400162 0.089009
0.487658 0.401093 0.089866
0.516081 0.402027 0.090727
0.544604 0.402965 0.091591
0.573226 0.403905 0.092459
0.601941 0.404849 0.093330
0.630747 0.405795 0.094205
0.659641 0.406744 0.095082
0.688620 0.407696 0.095963
0.717683 0.408650 0.096847
0.746378 0.409593 0.097719
0.774970 0.410532 0.098589
0.803580 0.411472 0.099460
0.832203 0.412413 0.100331
0.860836 0.413354 0.101203
0.889473 0.414295 0.102076
0.918111 0.415236 0.102949
0.929635 0.415639 0.103284
0.929753 0.415683 0.103261
0.929868 0.415727 0.103238
0.108454 0.416869 0.081007
0.134147 0.417721 0.081778
0.160289 0.418588 0.082564
0.186774 0.419464 0.083361
0.213540 0.420350 0.084167
0.240544 0.421243 0.084981
0.267757 0.422142 0.085802
0.295156 0.423047 0.086629
0.322723 0.423957 0.087462
0.350445 0.424873 0.088300
0.378308 0.425792 0.089143
0.406305 0.426716 0.089990
0.434427 0.427643 0.090842
0.462667 0.428575 0.091698
0.491019 0.429509 0.092558
0.519477 0.430447 0.093421
0.548039 0.431388 0.094288
0.576698 0.432333 0.095159
0.605452 0.433280 0.096033
0.634299 0.434230 0.096910
0.663233 0.435183 0.097791
0.692255 0.436138 0.098674
0.721360 0.437097 0.099561
0.750025 0.438041 0.100434
0.778559 0.438981 0.101303
0.807105 0.439922 0.102173
0.835659 0.440863 0.103044
0.864217 0.441804 0.103916
0.892774 0.442745 0.104787
0.921326 0.443686 0.105659
0.932811 0.444090 0.105995
0.932923 0.444137 0.105973
0.933035 0.444184 0.105951
0.111411 0.445350 0.083679
0.137131 0.446205 0.084453
0.163300 0.447074 0.085241
0.189814 0.447955 0.086040
0.216609 0.448843 0.086849
0.243644 0.449740 0.087666
0.270888 0.450643 0.088489
0.298318 0.451551 0.089319
0.325917 0.452465 0.090154
0.353672 0.453384 0.090995
0.381569 0.454307 0.091840
0.409601 0.455234 0.092690
0.437758 0.456165 0.093545
0.466035 0.457100 0.094403
0.494424 0.458038 0.095266
0.522921 0.458980 0.096132
0.551521 0.459925 0.097002
0.580221 0.460873 0.097876
0.609016 0.461824 0.098752
0.637904 0.462778 0.099633
0.666882 0.463735 0.100516
0.695947 0.464694 0.101402
0.725098 0.465657 0.102292
0.753725 0.466602 0.103165
0.782192 0.467543 0.104034
0.810666 0.468484 0.104904
0.839142 0.469425 0.105773
0.867616 0.470366 0.106644
0.896083 0.471307 0.107514
0.924539 0.472248 0.108384
0.935981 0.472653 0.108720
0.936089 0.472703 0.108700
0.936196 0.472752 0.108680
0.114396 0.473937 0.086367
0.140143 0.474796 0.087143
0.166341 0.475668 0.087934
0.192885 0.476552 0.088736
0.219710 0.477444 0.089547
0.246776 0.478344 0.090366
0.274052 0.479250 0.091192
0.301515 0.480162 0.092024
0.329148 0.481079 0.092862
0.356937 0.482002 0.093705
0.384871 0.482928 0.094554
0.412938 0.483859 0.095406
0.441133 0.484794 0.096263
0.469447 0.485732 0.097125
0.497876 0.486675 0.097990
0.526413 0.487620 0.098859
0.555054 0.488569 0.099732
0.583796 0.489521 0.100608
0.612634 0.490476 0.101488
0.641566 0.491434 0.102371
0.670589 0.492394 0.103257
0.699701 0.493358 0.104147
0.728898 0.494324 0.105039
0.757482 0.495271 0.105913
0.785874 0.496212 0.106781
0.814266 0.497153 0.107649
0.842655 0.498094 0.108518
0.871035 0.499035 0.109387
0.899402 0.499975 0.110256
0.927751 0.500915 0.111124
0.939146 0.501322 0.111460
0.939250 0.501373 0.111441
0.939352 0.501425 0.111422
0.117408 0.502626 0.089070
0.143184 0.503488 0.089849
0.169413 0.504364 0.090642
0.195987 0.505251 0.091446
0.222844 0.506146 0.092260
0.249943 0.507049 0.093081
0.277252 0.507959 0.093910
0.304750 0.508875 0.094745
0.332418 0.509796 0.095585
0.360243 0.510721 0.096431
0.388213 0.511652 0.097282
0.416319 0.512586 0.098138
0.444553 0.513525 0.098998
0.472907 0.514467 0.099862
0.501376 0.515413 0.100730
0.529955 0.516362 0.101602
0.558639 0.517315 0.102477
0.587425 0.518271 0.103357
0.616308 0.519230 0.104239
0.645287 0.520191 0.105125
0.674357 0.521156 0.106015
0.703517 0.522124 0.106907
0.732764 0.523094 0.107803
0.761298 0.524042 0.108676
0.789605 0.524983 0.109543
0.817906 0.525924 0.110410
0.846197 0.526864 0.111278
0.874473 0.527804 0.112145
0.902729 0.528744 0.113011
0.930961 0.529683 0.113878
0.942305 0.530091 0.114214
0.942404 0.530145 0.114196
0.942501 0.530199 0.114179
0.120449 0.531412 0.091788
0.146256 0.532277 0.092569
0.172515 0.533156 0.093364
0.199121 0.534046 0.094171
0.226012 0.534946 0.094987
0.253144 0.535852 0.095811
0.280489 0.536766 0.096642
0.308022 0.537685 0.097480
0.335728 0.538609 0.098323
0.363590 0.539539 0.099172
0.391599 0.540473 0.100026
0.419745 0.541411 0.100884
0.448019 0.542353 0.101747
0.476415 0.543299 0.102614
0.504927 0.544249 0.103485
0.533550 0.545202 0.104359
0.562279 0.546159 0.105238
0.591111 0.547118 0.106120
0.620042 0.548081 0.107006
0.649068 0.549047 0.107895
0.678188 0.550016 0.108787
0.707399 0.550988 0.109683
0.736698 0.551963 0.110582
0.765175 0.552911 0.111455
0.793387 0.553852 0.112321
0.821587 0.554792 0.113186
0.849770 0.555732 0.114052
0.877931 0.556671 0.114917
0.906066 0.557609 0.115781
0.934169 0.558547 0.116645
0.945457 0.558955 0.116981
0.945551 0.559012 0.116965
0.945644 0.559069 0.116949
0.123520 0.560290 0.094519
0.149358 0.561159 0.095303
0.175650 0.562042 0.096101
0.202290 0.562936 0.096910
0.229215 0.563838 0.097729
0.256383 0.564748 0.098556
0.283764 0.565665 0.099390
0.311335 0.566588 0.100230
0.339079 0.567516 0.101076
0.366981 0.568449 0.101927
0.395031 0.569387 0.102784
0.423218 0.570329 0.103645
0.451535 0.571275 0.104510
0.479975 0.572225 0.105380
0.508531 0.573179 0.106254
0.537200 0.574136 0.107132
0.565976 0.575096 0.108014
0.594856 0.576060 0.108899
0.623836 0.577027 0.109788
0.652914 0.577997 0.110680
0.682085 0.578970 0.111576
0.711349 0.579946 0.112475
0.740703 0.580925 0.113377
0.769116 0.581875 0.114250
0.797223 0.582815 0.115113
0.825311 0.583754 0.115977
0.853375 0.584692 0.116840
0.881410 0.585630 0.117702
0.909412 0.586567 0.118564
0.937375 0.587503 0.119426
0.948602 0.587912 0.119761
0.948692 0.587972 0.119746
0.948781 0.588031 0.119732
0.126622 0.589259 0.097264
0.152492 0.590131 0.098050
0.178818 0.591017 0.098851
0.205493 0.591914 0.099663
0.232454 0.592820 0.100485
0.259660 0.593734 0.101314
0.287079 0.594654 0.102151
0.314689 0.595581 0.102994
0.342473 0.596513 0.103843
0.370417 0.597450 0.104697
0.398509 0.598391 0.105556
0.426739 0.599337 0.106420
0.455101 0.600287 0.107289
0.483587 0.601241 0.108162
0.512190 0.602198 0.109039
0.540907 0.603160 0.109919
0.569733 0.604124 0.110804
0.598663 0.605092 0.111693
0.627695 0.606063 0.112584
0.656825 0.607038 0.113480
0.686051 0.608015 0.114379
0.715371 0.608996 0.115281
0.744781 0.609979 0.116186
0.773123 0.610929 0.117059
0.801114 0.611868 0.117920
0.829079 0.612806 0.118781
0.857013 0.613743 0.119642
0.884911 0.614679 0.120502
0.912768 0.615614 0.121361
0.940579 0.616548 0.122219
0.951740 0.616958 0.122553
0.951825 0.617020 0.122540
0.951909 0.617082 0.122527
0.129755 0.618313 0.100023
0.155660 0.619188 0.100812
0.182021 0.620078 0.101615
0.208733 0.620979 0.102430
0.235732 0.621889 0.103254
0.262976 0.622806 0.104086
0.290435 0.623730 0.104926
0.318086 0.624660 0.105771
0.345912 0.625596 0.106623
0.373899 0.626537 0.107480
0.402035 0.627482 0.108343
0.430312 0.628432 0.109210
0.458720 0.629386 0.110081
0.487253 0.630344 0.110957
0.515906 0.631305 0.111837
0.544673 0.632271 0.112721
0.573551 0.633239 0.113609
0.602534 0.634212 0.114501
0.631620 0.635187 0.115396
0.660806 0.636166 0.116295
0.690088 0.637148 0.117197
0.719466 0.638132 0.118102
0.748936 0.639120 0.119011
0.777199 0.640070 0.119882
0.805062 0.641008 0.120742
0.832893 0.641944 0.121600
0.860685 0.642880 0.122458
0.888434 0.643814 0.123314
0.916134 0.644747 0.124170
0.943780 0.645678 0.125024
0.954870 0.646089 0.125358
0.954951 0.646153 0.125346
0.955031 0.646218 0.125335
0.132921 0.647450 0.102795
0.158862 0.648329 0.103586
0.185260 0.649222 0.104392
0.212010 0.650127 0.105210
0.239048 0.651040 0.106037
0.266332 0.651961 0.106872
0.293833 0.652889 0.107714
0.321527 0.653823 0.108563
0.349397 0.654763 0.109417
0.377430 0.655707 0.110278
0.405613 0.656656 0.111143
0.433936 0.657610 0.112013
0.462394 0.658568 0.112887
0.490977 0.659530 0.113766
0.519681 0.660496 0.114650
0.548501 0.661466 0.115537
0.577432 0.662439 0.116428
0.606471 0.663415 0.117323
0.635613 0.664395 0.118221
0.664857 0.665378 0.119124
0.694199 0.666365 0.120029
0.723638 0.667354 0.120938
0.753170 0.668347 0.121851
0.781345 0.669296 0.122721
0.809071 0.670232 0.123577
0.836755 0.671167 0.124432
0.864393 0.672100 0.125287
0.891980 0.673032 0.126140
0.919511 0.673963 0.126992
0.946979 0.674891 0.127842
0.957992 0.675302 0.128175
0.958069 0.675370 0.128165
0.958144 0.675437 0.128155
0.136120 0.676668 0.105580
0.162098 0.677550 0.106374
0.188535 0.678447 0.107183
0.215325 0.679355 0.108003
0.242405 0.680272 0.108833
0.269731 0.681197 0.109671
0.297276 0.682129 0.110516
0.325015 0.683067 0.111368
0.352931 0.684010 0.112225
0.381011 0.684959 0.113088
0.409242 0.685912 0.113957
0.437616 0.686870 0.114830
0.466124 0.687832 0.115708
0.494760 0.688798 0.116590
0.523518 0.689768 0.117476
0.552393 0.690742 0.118367
0.581380 0.691720 0.119261
0.610477 0.692701 0.120159
0.639678 0.693685 0.121061
0.668983 0.694673 0.121967
0.698387 0.695664 0.122876
0.727889 0.696658 0.123789
0.757487 0.697655 0.124705
0.785566 0.698605 0.125573
0.813140 0.699539 0.126426
0.840666 0.700471 0.127278
0.868138 0.701402 0.128129
0.895551 0.702332 0.128978
0.922898 0.703259 0.129826
0.950174 0.704184 0.130672
0.961107 0.704596 0.131004
0.961179 0.704666 0.130995
0.961249 0.704736 0.130986
0.139354 0.705963 0.108378
0.165372 0.706849 0.109175
0.191849 0.707750 0.109986
0.218681 0.708662 0.110809
0.245803 0.709583 0.111642
0.273174 0.710511 0.112483
0.300764 0.711447 0.113331
0.328550 0.712389 0.114186
0.356514 0.713336 0.115046
0.384643 0.714289 0.115912
0.412926 0.715246 0.116784
0.441351 0.716208 0.117660
0.469913 0.717175 0.118541
0.498604 0.718145 0.119427
0.527418 0.719120 0.120317
0.556350 0.720098 0.121210
0.585397 0.721080 0.122108
0.614554 0.722066 0.123010
0.643817 0.723055 0.123915
0.673185 0.724047 0.124825
0.702654 0.725043 0.125737
0.732223 0.726042 0.126653
0.761888 0.727044 0.127573
0.789863 0.727993 0.128440
0.817274 0.728925 0.129290
0.844629 0.729855 0.130138
0.871921 0.730783 0.130985
0.899146 0.731709 0.131829
0.926296 0.732633 0.132672
0.953367 0.733555 0.133513
0.964212 0.733967 0.133844
0.964280 0.734040 0.133837
0.964346 0.734113 0.133830
0.142625 0.735334 0.111188
0.168682 0.736224 0.111988
0.195202 0.737128 0.112802
0.222077 0.738044 0.113628
0.249245 0.738969 0.114464
0.276662 0.739901 0.115308
0.304300 0.740841 0.116159
0.332135 0.741787 0.117017
0.360149 0.742738 0.117880
0.388330 0.743695 0.118750
0.416665 0.744657 0.119625
0.445145 0.745624 0.120504
0.473763 0.746594 0.121388
0.502511 0.747569 0.122277
0.531384 0.748548 0.123170
0.560376 0.749531 0.124068
0.589484 0.750518 0.124969
0.618704 0.751508 0.125874
0.648033 0.752502 0.126783
0.677467 0.753499 0.127696
0.707003 0.754500 0.128613
0.736641 0.755504 0.129533
0.766378 0.756511 0.130456
0.794239 0.757460 0.131321
0.821474 0.758389 0.132167
0.848645 0.759316 0.133011
0.875744 0.760241 0.133853
0.902766 0.761163 0.134693
0.929706 0.762084 0.135531
0.956558 0.763002 0.136366
0.967310 0.763413 0.136696
0.967373 0.763489 0.136690
0.967434 0.763565 0.136684
0.145931 0.764778 0.114011
0.172032 0.765672 0.114814
0.198596 0.766580 0.115631
0.225516 0.767500 0.116460
0.252731 0.768429 0.117299
0.280197 0.769365 0.118145
0.307884 0.770309 0.119000
0.335770 0.771259 0.119861
0.363838 0.772215 0.120728
0.392072 0.773176 0.121600
0.420463 0.774142 0.122478
0.449000 0.775113 0.123361
0.477676 0.776089 0.124249
0.506484 0.777068 0.125141
0.535418 0.778052 0.126038
0.564473 0.779040 0.126939
0.593646 0.780031 0.127844
0.622931 0.781026 0.128752
0.652327 0.782025 0.129665
0.681830 0.783027 0.130582
0.711438 0.784033 0.131502
0.741148 0.785042 0.132426
0.770958 0.786054 0.133353
0.798696 0.787002 0.134216
0.825742 0.787928 0.135057
0.852715 0.788852 0.135896
0.879607 0.789773 0.136734
0.906413 0.790692 0.137569
0.933128 0.791608 0.138401
0.959745 0.792522 0.139231
0.970398 0.792934 0.139559
0.970457 0.793012 0.139554
0.970514 0.793091 0.139550
0.149276 0.794294 0.116846
0.175421 0.795192 0.117652
0.202031 0.796104 0.118472
0.228999 0.797028 0.119304
0.256263 0.797961 0.120146
0.283780 0.798902 0.120996
0.311519 0.799850 0.121853
0.339458 0.800804 0.122717
0.367581 0.801764 0.123588
0.395872 0.802730 0.124464
0.424320 0.803701 0.125345
0.452917 0.804676 0.126231
0.481654 0.805656 0.127123
0.510524 0.806640 0.128018
0.539522 0.807629 0.128919
0.568643 0.808621 0.129823
0.597882 0.809618 0.130732
0.627237 0.810618 0.131644
0.656703 0.811621 0.132561
