library/cube/CineStill_Night_001.cube
# CINEGRADE LAB — Premium Cinematic LUT
# Title: CineStill Night
# Category: CineStill 800T Emulation
# Description: Tungsten balance, halation glow, night film characteristics
# Mood: Nocturnal, glowing, cinematic
# Variant: 2
# Generated: 2026-05-21T16:12:53.869712
TITLE "CineStill Night"
LUT_3D_SIZE 5
0.072393 0.061280 0.048130
0.284173 0.067998 0.054344
0.506637 0.075050 0.060918
0.735035 0.082288 0.067703
0.891905 0.087279 0.072264
0.094056 0.276304 0.067896
0.307264 0.283256 0.074256
0.531313 0.290543 0.080981
0.761041 0.298007 0.087909
0.917166 0.303155 0.092547
0.117408 0.502626 0.089070
0.332418 0.509796 0.095585
0.558639 0.517315 0.102477
0.789605 0.524983 0.109543
0.942501 0.530199 0.114179
0.142625 0.735334 0.111188
0.360149 0.742738 0.117880
0.589484 0.750518 0.124969
0.821474 0.758389 0.132167
0.967434 0.763565 0.136684
0.168184 0.952271 0.132087
0.389234 0.959568 0.138952
0.622929 0.967223 0.146236
0.855558 0.974804 0.153507
0.989601 0.979246 0.157698
0.074158 0.063023 0.205840
0.286072 0.069742 0.211876
0.508675 0.076796 0.218283
0.737205 0.084038 0.224913
0.894074 0.089027 0.229324
0.095850 0.278106 0.225043
0.309214 0.285059 0.231262
0.533446 0.292350 0.237857
0.763302 0.299815 0.244664
0.919231 0.304957 0.249181
0.119297 0.504480 0.245777
0.334520 0.511654 0.252188
0.561005 0.519180 0.258988
0.792082 0.526852 0.265968
0.944465 0.532052 0.270509
0.144677 0.737242 0.267575
0.362506 0.744656 0.274202
0.592219 0.752449 0.281238
0.824294 0.760325 0.288385
0.969298 0.765476 0.292829
0.170456 0.954114 0.288263
0.391933 0.961411 0.295101
0.626154 0.969068 0.302371
0.858825 0.976637 0.309624
0.991347 0.981018 0.313759
0.076003 0.064844 0.370785
0.288050 0.071565 0.376642
0.510795 0.078622 0.382882
0.739456 0.085866 0.389354
0.896310 0.090855 0.393614
0.097729 0.279986 0.389423
0.311253 0.286941 0.395501
0.535675 0.294235 0.401967
0.765658 0.301704 0.408654
0.921365 0.306838 0.413051
0.121279 0.506414 0.409718
0.336722 0.513592 0.416027
0.563480 0.521126 0.422738
0.794668 0.528801 0.429635
0.946497 0.533985 0.434083
0.146829 0.739230 0.431205
0.364973 0.746654 0.437770
0.595078 0.754461 0.444758
0.827233 0.762343 0.451859
0.971231 0.767467 0.456234
0.172834 0.956033 0.451696
0.394752 0.963329 0.458513
0.629516 0.970989 0.465775
0.862224 0.978546 0.473016
0.993161 0.982864 0.477099
0.077888 0.066706 0.539432
0.290069 0.073428 0.545113
0.512961 0.080488 0.551189
0.741754 0.087736 0.557508
0.898577 0.092723 0.561621
0.099657 0.281907 0.557517
0.313345 0.288864 0.563457
0.537963 0.296162 0.569799
0.768072 0.303633 0.576371
0.923529 0.308759 0.580652
0.123315 0.508388 0.577387
0.338987 0.515572 0.583600
0.566028 0.523113 0.590227
0.797324 0.530792 0.597046
0.948560 0.535960 0.601406
0.149042 0.741260 0.598580
0.367513 0.748695 0.605090
0.598023 0.756517 0.612037
0.830257 0.764406 0.619097
0.973194 0.769502 0.623407
0.175279 0.957989 0.618895
0.397653 0.965285 0.625697
0.632977 0.972949 0.632959
0.865719 0.980494 0.640195
0.995005 0.984747 0.644230
0.079652 0.068444 0.696803
0.291969 0.075169 0.702329
0.515010 0.082232 0.708260
0.743935 0.089483 0.714445
0.900710 0.094469 0.718429
0.101469 0.283705 0.714400
0.315327 0.290664 0.720222
0.540150 0.297967 0.726456
0.770383 0.305442 0.732928
0.925561 0.310559 0.737109
0.125244 0.510240 0.733904
0.341153 0.517430 0.740035
0.568488 0.524981 0.746594
0.799890 0.532664 0.753349
0.950491 0.537814 0.757632
0.151156 0.743169 0.754852
0.369965 0.750617 0.761319
0.600895 0.758455 0.768237
0.833203 0.766350 0.775268
0.975027 0.771417 0.779523
0.177631 0.959820 0.775030
0.400477 0.967117 0.781827
0.636379 0.974786 0.789100
0.869148 0.982319 0.796339
0.996719 0.986506 0.800333
