library/cube/Cinema_Skin_002.cube
# CINEGRADE LAB — Premium Cinematic LUT
# Title: Cinema Skin
# Category: ARRI Alexa Look
# Description: Digital cinema natural skin tones with wide dynamic range emulation
# Mood: Cinematic, natural, professional
# Variant: 3
# Generated: 2026-05-21T16:12:52.163635
TITLE "Cinema Skin"
LUT_3D_SIZE 9
0.000000 0.000000 0.000000
0.079330 0.001732 0.001732
0.200311 0.004373 0.004373
0.322844 0.007048 0.007048
0.446320 0.009743 0.009743
0.570478 0.012453 0.012453
0.695172 0.015176 0.015176
0.820308 0.017907 0.017907
0.925197 0.020197 0.020197
0.006335 0.090712 0.006335
0.085665 0.092444 0.008067
0.215277 0.095274 0.010896
0.340262 0.098002 0.013624
0.466207 0.100751 0.016374
0.592848 0.103516 0.019138
0.701506 0.105888 0.021510
0.826643 0.108620 0.024242
0.931532 0.110909 0.026532
0.015060 0.215657 0.015060
0.094390 0.217389 0.016792
0.215371 0.220030 0.019433
0.348987 0.222947 0.022350
0.474932 0.225696 0.025099
0.601573 0.228461 0.027864
0.728761 0.231237 0.030640
0.856400 0.234024 0.033426
0.940257 0.235854 0.035257
0.023892 0.342130 0.023892
0.103222 0.343862 0.025624
0.224203 0.346503 0.028265
0.346736 0.349178 0.030940
0.470212 0.351874 0.033635
0.610405 0.354934 0.036696
0.737593 0.357710 0.039472
0.865232 0.360497 0.042259
0.949089 0.362327 0.044089
0.032790 0.469549 0.032790
0.112120 0.471281 0.034522
0.233101 0.473922 0.037163
0.355634 0.476597 0.039838
0.479110 0.479292 0.042533
0.603268 0.482002 0.045244
0.746491 0.485129 0.048370
0.874130 0.487915 0.051157
0.957987 0.489746 0.052987
0.041736 0.597658 0.041736
0.121067 0.599389 0.043468
0.242047 0.602030 0.046109
0.364581 0.604705 0.048784
0.488056 0.607401 0.051480
0.612214 0.610111 0.054190
0.736908 0.612833 0.056912
0.883077 0.616024 0.060103
0.966933 0.617855 0.061933
0.050721 0.726311 0.050721
0.130051 0.728043 0.052453
0.251031 0.730684 0.055094
0.373565 0.733359 0.057768
0.497041 0.736054 0.060464
0.621198 0.738764 0.063174
0.745892 0.741487 0.065896
0.871029 0.744218 0.068628
0.975918 0.746508 0.070918
0.059737 0.855415 0.059737
0.139067 0.857147 0.061468
0.260047 0.859788 0.064109
0.382581 0.862463 0.066784
0.506056 0.865158 0.069480
0.630214 0.867869 0.072190
0.754908 0.870591 0.074912
0.880045 0.873322 0.077644
0.984934 0.875612 0.079934
0.067944 0.972944 0.067944
0.147274 0.974676 0.069676
0.268255 0.977317 0.072317
0.390788 0.979992 0.074992
0.514264 0.982687 0.077687
0.638422 0.985397 0.080397
0.763116 0.988120 0.083120
0.888252 0.990851 0.085851
0.993141 0.993141 0.088141
0.000714 0.000714 0.094889
0.080044 0.002446 0.096620
0.201024 0.005087 0.099261
0.323558 0.007761 0.101936
0.447034 0.010457 0.104632
0.571191 0.013167 0.107342
0.695885 0.015889 0.110064
0.821022 0.018621 0.112796
0.925911 0.020911 0.115086
0.007049 0.091426 0.101223
0.086379 0.093158 0.102955
0.207359 0.095799 0.105596
0.329893 0.098474 0.108271
0.453368 0.101169 0.110967
0.577526 0.103880 0.113677
0.702220 0.106602 0.116399
0.827357 0.109333 0.119131
0.932246 0.111623 0.121420
0.015774 0.216371 0.109949
0.095104 0.218103 0.111681
0.216084 0.220744 0.114322
0.349701 0.223661 0.117238
0.475646 0.226410 0.119988
0.602287 0.229174 0.122752
0.729475 0.231951 0.125529
0.836082 0.234278 0.127856
0.940971 0.236568 0.130146
0.024606 0.342844 0.118781
0.103936 0.344576 0.120513
0.224916 0.347217 0.123154
0.347450 0.349892 0.125828
0.484478 0.352883 0.128820
0.611119 0.355648 0.131584
0.738307 0.358424 0.134361
0.865946 0.361211 0.137147
0.949803 0.363041 0.138978
0.033504 0.470263 0.127679
0.112834 0.471994 0.129411
0.233814 0.474635 0.132052
0.356348 0.477310 0.134727
0.479824 0.480006 0.137422
0.603982 0.482716 0.140132
0.747205 0.485843 0.143259
0.874844 0.488629 0.146045
0.958701 0.490460 0.147876
0.042450 0.598371 0.136625
0.121780 0.600103 0.138357
0.242761 0.602744 0.140998
0.365294 0.605419 0.143673
0.488770 0.608114 0.146368
0.612928 0.610825 0.149079
0.737622 0.613547 0.151801
0.883790 0.616738 0.154992
0.967647 0.618568 0.156822
0.051435 0.727025 0.145609
0.130765 0.728756 0.147341
0.251745 0.731397 0.149982
0.374279 0.734072 0.152657
0.497754 0.736768 0.155353
0.621912 0.739478 0.158063
0.746606 0.742200 0.160785
0.871743 0.744932 0.163517
0.976632 0.747222 0.165806
0.060450 0.856129 0.154625
0.139781 0.857861 0.156357
0.260761 0.860502 0.158998
0.383295 0.863177 0.161673
0.506770 0.865872 0.164368
0.630928 0.868582 0.167079
0.755622 0.871304 0.169801
0.880758 0.874036 0.172533
0.985647 0.876326 0.174822
0.068658 0.973658 0.162833
0.147988 0.975390 0.164564
0.268968 0.978031 0.167205
0.391502 0.980705 0.169880
0.514978 0.983401 0.172576
0.639135 0.986111 0.175286
0.763829 0.988833 0.178008
0.888966 0.991565 0.180740
0.993855 0.993855 0.183030
0.001560 0.001560 0.207335
0.080890 0.003291 0.209067
0.201870 0.005932 0.211708
0.324404 0.008607 0.214383
0.447879 0.011303 0.217078
0.572037 0.014013 0.219789
0.696731 0.016735 0.222511
0.821868 0.019467 0.225242
0.926757 0.021757 0.227532
0.007894 0.092272 0.213670
0.087225 0.094004 0.215402
0.208205 0.096645 0.218043
0.330739 0.099320 0.220718
0.454214 0.102015 0.223413
0.578372 0.104726 0.226123
0.703066 0.107448 0.228845
0.828202 0.110179 0.231577
0.933091 0.112469 0.233867
0.016620 0.217217 0.222395
0.095950 0.218949 0.224127
0.216930 0.221589 0.226768
0.339464 0.224264 0.229443
0.462939 0.226960 0.232138
0.587097 0.229670 0.234849
0.711791 0.232392 0.237571
0.836928 0.235124 0.240302
0.941817 0.237414 0.242592
0.025452 0.343690 0.231227
0.104782 0.345422 0.232959
0.225762 0.348063 0.235600
0.348296 0.350738 0.238275
0.485324 0.353729 0.241266
0.611965 0.356493 0.244031
0.739153 0.359270 0.246807
0.866792 0.362056 0.249594
0.950649 0.363887 0.251424
0.034350 0.471108 0.240125
0.113680 0.472840 0.241857
0.234660 0.475481 0.244498
0.357194 0.478156 0.247173
0.480670 0.480852 0.249868
0.620863 0.483912 0.252929
0.748051 0.486689 0.255705
0.875690 0.489475 0.258492
0.959547 0.491305 0.260322
0.043296 0.599217 0.249072
0.122626 0.600949 0.250803
0.243607 0.603590 0.253444
0.366140 0.606265 0.256119
0.489616 0.608960 0.258815
0.613774 0.611671 0.261525
0.738468 0.614393 0.264247
0.884636 0.617583 0.267438
0.968493 0.619414 0.269269
0.052280 0.727871 0.258056
0.131611 0.729602 0.259788
0.252591 0.732243 0.262429
0.375125 0.734918 0.265104
0.498600 0.737614 0.267799
0.622758 0.740324 0.270509
0.747452 0.743046 0.273231
0.872588 0.745778 0.275963
0.977477 0.748068 0.278253
0.061296 0.856975 0.267072
0.140626 0.858706 0.268803
0.261607 0.861347 0.271444
0.384140 0.864022 0.274119
0.507616 0.866718 0.276815
0.631774 0.869428 0.279525
0.756468 0.872150 0.282247
0.881604 0.874882 0.284979
0.986493 0.877172 0.287269
0.069504 0.974504 0.275279
0.148834 0.976235 0.277011
0.269814 0.978876 0.279652
0.392348 0.981551 0.282327
0.515823 0.984247 0.285022
0.639981 0.986957 0.287733
0.764675 0.989679 0.290455
0.889812 0.992411 0.293186
0.994701 0.994701 0.295476
0.002420 0.002420 0.321686
0.081750 0.004151 0.323417
0.202730 0.006792 0.326058
0.325264 0.009467 0.328733
0.448740 0.012163 0.331429
0.572897 0.014873 0.334139
0.697591 0.017595 0.336861
0.822728 0.020327 0.339593
0.927617 0.022617 0.341883
0.008754 0.093132 0.328020
0.088085 0.094864 0.329752
0.209065 0.097505 0.332393
0.331599 0.100180 0.335068
0.455074 0.102875 0.337764
0.579232 0.105586 0.340474
0.703926 0.108308 0.343196
0.829063 0.111039 0.345928
0.933951 0.113329 0.348217
0.017480 0.218077 0.336746
0.096810 0.219809 0.338478
0.217790 0.222450 0.341119
0.340324 0.225125 0.343793
0.463800 0.227820 0.346489
0.587957 0.230530 0.349199
0.712651 0.233252 0.351921
0.837788 0.235984 0.354653
0.942677 0.238274 0.356943
0.026312 0.344550 0.345578
0.105642 0.346282 0.347310
0.226622 0.348923 0.349951
0.349156 0.351598 0.352626
0.472632 0.354293 0.355321
0.596789 0.357004 0.358031
0.721483 0.359726 0.360753
0.846620 0.362457 0.363485
0.951509 0.364747 0.365775
0.035210 0.471969 0.354476
0.114540 0.473700 0.356208
0.235520 0.476341 0.358849
0.358054 0.479016 0.361524
0.481530 0.481712 0.364219
0.621723 0.484772 0.367279
0.748911 0.487549 0.370056
0.876550 0.490335 0.372842
0.960407 0.492166 0.374673
0.044156 0.600077 0.363422
0.123486 0.601809 0.365154
0.244467 0.604450 0.367795
0.367000 0.607125 0.370470
0.490476 0.609820 0.373165
0.614634 0.612531 0.375876
0.757857 0.615657 0.379002
0.885496 0.618444 0.381789
0.969353 0.620274 0.383619
0.053140 0.728731 0.372406
0.132471 0.730462 0.374138
0.253451 0.733103 0.376779
0.375985 0.735778 0.379454
0.499460 0.738474 0.382150
0.623618 0.741184 0.384860
0.748312 0.743906 0.387582
0.873449 0.746638 0.390314
0.978337 0.748928 0.392603
0.062156 0.857835 0.381422
0.141486 0.859567 0.383154
0.262467 0.862208 0.385795
0.385001 0.864882 0.388470
0.508476 0.867578 0.391165
0.632634 0.870288 0.393876
0.757328 0.873010 0.396598
0.882464 0.875742 0.399330
0.987353 0.878032 0.401619
0.070364 0.975364 0.389630
0.149694 0.977095 0.391361
0.270674 0.979736 0.394002
0.393208 0.982411 0.396677
0.516684 0.985107 0.399373
0.640841 0.987817 0.402083
0.765535 0.990539 0.404805
0.890672 0.993271 0.407537
0.995561 0.995561 0.409827
0.003289 0.003289 0.437259
0.082619 0.005021 0.438990
0.203600 0.007662 0.441631
0.326133 0.010337 0.444306
0.449609 0.013032 0.447002
0.573767 0.015743 0.449712
0.698461 0.018465 0.452434
0.823597 0.021196 0.455166
0.928486 0.023486 0.457456
0.009624 0.094002 0.443593
0.088954 0.095733 0.445325
0.209934 0.098374 0.447966
0.332468 0.101049 0.450641
0.455944 0.103745 0.453336
0.580101 0.106455 0.456047
0.704795 0.109177 0.458769
0.829932 0.111909 0.461501
0.934821 0.114199 0.463790
0.018349 0.218946 0.452319
0.097679 0.220678 0.454050
0.218660 0.223319 0.456691
0.341193 0.225994 0.459366
0.464669 0.228689 0.462062
0.588827 0.231400 0.464772
0.713521 0.234122 0.467494
0.838657 0.236853 0.470226
0.943546 0.239143 0.472516
0.027181 0.345419 0.461151
0.106511 0.347151 0.462882
0.227492 0.349792 0.465523
0.350025 0.352467 0.468198
0.473501 0.355163 0.470894
0.597659 0.357873 0.473604
0.722353 0.360595 0.476326
0.847489 0.363327 0.479058
0.952378 0.365616 0.481348
0.036079 0.472838 0.470049
0.115409 0.474570 0.471781
0.236390 0.477211 0.474422
0.358924 0.479886 0.477096
0.482399 0.482581 0.479792
0.606557 0.485291 0.482502
0.731251 0.488014 0.485224
0.856387 0.490745 0.487956
0.961276 0.493035 0.490246
0.045026 0.600947 0.478995
0.124356 0.602678 0.480727
0.245336 0.605319 0.483368
0.367870 0.607994 0.486043
0.491345 0.610690 0.488738
0.615503 0.613400 0.491449
0.758727 0.616527 0.494575
0.886366 0.619313 0.497361
0.970223 0.621144 0.499192
0.054010 0.729600 0.487979
0.133340 0.731332 0.489711
0.254320 0.733973 0.492352
0.376854 0.736648 0.495027
0.500330 0.739343 0.497723
0.624487 0.742054 0.500433
0.749181 0.744776 0.503155
0.895350 0.747966 0.506346
0.979207 0.749797 0.508176
0.063026 0.858704 0.496995
0.142356 0.860436 0.498727
0.263336 0.863077 0.501368
0.385870 0.865752 0.504043
0.509345 0.868447 0.506738
0.633503 0.871158 0.509449
0.758197 0.873880 0.512171
0.883334 0.876611 0.514902
0.988223 0.878901 0.517192
0.071233 0.976233 0.505203
0.150563 0.977965 0.506934
0.271544 0.980606 0.509575
0.394077 0.983281 0.512250
0.517553 0.985976 0.514946
0.641711 0.988687 0.517656
0.766405 0.991409 0.520378
0.891541 0.994140 0.523110
0.996430 0.996430 0.525400
0.004165 0.004165 0.553739
0.083495 0.005897 0.555470
0.204476 0.008538 0.558111
0.327010 0.011213 0.560786
0.450485 0.013908 0.563482
0.574643 0.016619 0.566192
0.699337 0.019341 0.568914
0.824473 0.022072 0.571646
0.929362 0.024362 0.573936
0.010500 0.094878 0.560073
0.089830 0.096609 0.561805
0.210811 0.099250 0.564446
0.333344 0.101925 0.567121
0.456820 0.104621 0.569816
0.580978 0.107331 0.572527
0.705672 0.110053 0.575249
0.830808 0.112785 0.577981
0.935697 0.115075 0.580270
0.019225 0.219822 0.568799
0.098555 0.221554 0.570530
0.219536 0.224195 0.573171
0.342070 0.226870 0.575846
0.465545 0.229566 0.578542
0.589703 0.232276 0.581252
0.714397 0.234998 0.583974
0.839533 0.237730 0.586706
0.944422 0.240019 0.588996
0.028057 0.346296 0.577631
0.107388 0.348027 0.579362
0.228368 0.350668 0.582003
0.350902 0.353343 0.584678
0.474377 0.356039 0.587374
0.598535 0.358749 0.590084
0.723229 0.361471 0.592806
0.848365 0.364203 0.595538
0.953254 0.366493 0.597828
0.036955 0.473714 0.586529
0.116286 0.475446 0.588260
0.237266 0.478087 0.590901
0.359800 0.480762 0.593576
0.483275 0.483457 0.596272
0.607433 0.486168 0.598982
0.732127 0.488890 0.601704
0.857263 0.491621 0.604436
0.962152 0.493911 0.606726
0.045902 0.601823 0.595475
0.125232 0.603555 0.597207
0.246212 0.606196 0.599848
0.368746 0.608870 0.602523
0.492222 0.611566 0.605218
0.616379 0.614276 0.607928
0.741073 0.616998 0.610651
0.866210 0.619730 0.613382
0.971099 0.622020 0.615672
0.054886 0.730476 0.604459
0.134216 0.732208 0.606191
0.255197 0.734849 0.608832
0.377730 0.737524 0.611507
0.501206 0.740219 0.614202
0.625364 0.742930 0.616913
0.750058 0.745652 0.619635
0.896226 0.748843 0.622826
0.980083 0.750673 0.624656
0.063902 0.859580 0.613475
0.143232 0.861312 0.615207
0.264212 0.863953 0.617848
0.386746 0.866628 0.620523
0.510222 0.869323 0.623218
0.634379 0.872034 0.625929
0.759073 0.874756 0.628651
0.884210 0.877488 0.631382
0.989099 0.879777 0.633672
0.072109 0.977109 0.621683
0.151439 0.978841 0.623414
0.272420 0.981482 0.626055
0.394954 0.984157 0.628730
0.518429 0.986852 0.631426
0.642587 0.989563 0.634136
0.767281 0.992285 0.636858
0.892417 0.995016 0.639590
0.997306 0.997306 0.641880
0.005047 0.005047 0.670942
0.084377 0.006779 0.672673
0.205357 0.009420 0.675314
0.327891 0.012094 0.677989
0.451367 0.014790 0.680685
0.575524 0.017500 0.683395
0.700218 0.020222 0.686117
0.825355 0.022954 0.688849
0.930244 0.025244 0.691139
0.011382 0.095759 0.677276
0.090712 0.097491 0.679008
0.211692 0.100132 0.681649
0.334226 0.102807 0.684324
0.457701 0.105502 0.687020
0.581859 0.108213 0.689730
0.706553 0.110935 0.692452
0.831690 0.113667 0.695184
0.936579 0.115956 0.697473
0.020107 0.220704 0.686002
0.099437 0.222436 0.687734
0.220417 0.225077 0.690375
0.342951 0.227752 0.693049
0.466427 0.230447 0.695745
0.590584 0.233157 0.698455
0.715278 0.235880 0.701177
0.840415 0.238611 0.703909
0.945304 0.240901 0.706199
0.028939 0.347177 0.694834
0.108269 0.348909 0.696566
0.229249 0.351550 0.699207
0.351783 0.354225 0.701882
0.475259 0.356920 0.704577
0.599417 0.359631 0.707287
0.724111 0.362353 0.710009
0.849247 0.365084 0.712741
0.954136 0.367374 0.715031
0.037837 0.474596 0.703732
0.117167 0.476328 0.705464
0.238148 0.478969 0.708105
0.360681 0.481643 0.710780
0.484157 0.484339 0.713475
0.608315 0.487049 0.716185
0.733009 0.489771 0.718907
0.858145 0.492503 0.721639
0.963034 0.494793 0.723929
0.046783 0.602704 0.712678
0.126113 0.604436 0.714410
0.247094 0.607077 0.717051
0.369628 0.609752 0.719726
0.493103 0.612447 0.722421
0.617261 0.615158 0.725132
0.741955 0.617880 0.727854
0.867091 0.620612 0.730585
0.971980 0.622901 0.732875
0.055768 0.731358 0.721662
0.135098 0.733090 0.723394
0.256078 0.735731 0.726035
0.378612 0.738405 0.728710
0.502087 0.741101 0.731406
0.626245 0.743811 0.734116
0.750939 0.746533 0.736838
0.876076 0.749265 0.739570
0.980965 0.751555 0.741859
0.064783 0.860462 0.730678
0.144114 0.862194 0.732410
0.265094 0.864835 0.735051
0.387628 0.867510 0.737726
0.511103 0.870205 0.740421
0.635261 0.872915 0.743132
0.759955 0.875637 0.745854
0.885091 0.878369 0.748586
0.989980 0.880659 0.750875
0.072991 0.977991 0.738886
0.152321 0.979723 0.740617
0.273301 0.982364 0.743258
0.395835 0.985038 0.745933
0.519311 0.987734 0.748629
0.643468 0.990444 0.751339
0.768162 0.993166 0.754061
0.893299 0.995898 0.756793
0.998188 0.998188 0.759083
0.005933 0.005933 0.788747
0.085263 0.007665 0.790479
0.206243 0.010306 0.793120
0.328777 0.012981 0.795795
0.452253 0.015676 0.798490
0.576411 0.018386 0.801201
0.701105 0.021109 0.803923
0.826241 0.023840 0.806655
0.931130 0.026130 0.808944
0.012268 0.096645 0.795082
0.091598 0.098377 0.796814
0.212578 0.101018 0.799455
0.335112 0.103693 0.802130
0.458588 0.106389 0.804825
0.582745 0.109099 0.807536
0.707439 0.111821 0.810258
0.832576 0.114553 0.812989
0.937465 0.116842 0.815279
0.020993 0.221590 0.803807
0.100323 0.223322 0.805539
0.221304 0.225963 0.808180
0.343837 0.228638 0.810855
0.467313 0.231333 0.813550
0.591471 0.234044 0.816261
0.716165 0.236766 0.818983
0.841301 0.239497 0.821715
0.946190 0.241787 0.824004
0.029825 0.348063 0.812639
0.109155 0.349795 0.814371
0.230136 0.352436 0.817012
0.352669 0.355111 0.819687
0.476145 0.357806 0.822383
0.600303 0.360517 0.825093
0.724997 0.363239 0.827815
0.850133 0.365971 0.830547
0.955022 0.368260 0.832836
0.038723 0.475482 0.821537
0.118053 0.477214 0.823269
0.239034 0.479855 0.825910
0.361567 0.482530 0.828585
0.485043 0.485225 0.831281
0.609201 0.487935 0.833991
0.733895 0.490657 0.836713
0.859031 0.493389 0.839445
0.963920 0.495679 0.841734
0.047669 0.603590 0.830484
0.127000 0.605322 0.832215
0.247980 0.607963 0.834856
0.370514 0.610638 0.837531
0.493989 0.613334 0.840227
0.618147 0.616044 0.842937
0.742841 0.618766 0.845659
0.867977 0.621498 0.848391
0.972866 0.623787 0.850681
0.056654 0.732244 0.839468
0.135984 0.733976 0.841200
0.256964 0.736617 0.843841
0.379498 0.739292 0.846516
0.502974 0.741987 0.849211
0.627131 0.744697 0.851922
0.751825 0.747419 0.854644
0.876962 0.750151 0.857375
0.981851 0.752441 0.859665
0.065670 0.861348 0.848484
0.145000 0.863080 0.850216
0.265980 0.865721 0.852857
0.388514 0.868396 0.855531
0.511989 0.871091 0.858227
0.636147 0.873802 0.860937
0.760841 0.876524 0.863659
0.885978 0.879255 0.866391
0.990867 0.881545 0.868681
0.073877 0.978877 0.856691
0.153207 0.980609 0.858423
0.274187 0.983250 0.861064
0.396721 0.985925 0.863739
0.520197 0.988620 0.866434
0.644355 0.991330 0.869145
0.769049 0.994053 0.871867
0.894185 0.996784 0.874599
0.999074 0.999074 0.876888
0.006823 0.006823 0.907069
0.086153 0.008555 0.908801
0.207134 0.011196 0.911442
0.329667 0.013871 0.914117
0.453143 0.016566 0.916813
0.577301 0.019276 0.919523
0.701995 0.021999 0.922245
0.827131 0.024730 0.924977
0.932020 0.027020 0.927266
0.013158 0.097535 0.913404
0.092488 0.099267 0.915136
0.213468 0.101908 0.917777
0.336002 0.104583 0.920452
0.459478 0.107279 0.923147
0.583635 0.109989 0.925858
0.708329 0.112711 0.928580
0.833466 0.115443 0.931311
0.938355 0.117732 0.933601
0.021883 0.222480 0.922129
0.101213 0.224212 0.923861
0.222194 0.226853 0.926502
0.344727 0.229528 0.929177
0.468203 0.232223 0.931873
0.592361 0.234934 0.934583
0.717055 0.237656 0.937305
0.842191 0.240387 0.940037
0.947080 0.242677 0.942326
0.030715 0.348953 0.930962
0.110045 0.350685 0.932693
0.231026 0.353326 0.935334
0.353559 0.356001 0.938009
0.477035 0.358696 0.940705
0.601193 0.361407 0.943415
0.725887 0.364129 0.946137
0.851023 0.366861 0.948869
0.955912 0.369150 0.951159
0.039613 0.476372 0.939860
0.118943 0.478104 0.941591
0.239924 0.480745 0.944232
0.362457 0.483420 0.946907
0.485933 0.486115 0.949603
0.610091 0.488825 0.952313
0.734785 0.491547 0.955035
0.859921 0.494279 0.957767
0.964810 0.496569 0.960057
0.048559 0.604480 0.948806
0.127890 0.606212 0.950538
0.248870 0.608853 0.953179
0.371404 0.611528 0.955854
0.494879 0.614224 0.958549
0.619037 0.616934 0.961259
0.743731 0.619656 0.963981
0.868867 0.622388 0.966713
0.973756 0.624677 0.969003
0.057544 0.733134 0.957790
0.136874 0.734866 0.959522
0.257854 0.737507 0.962163
0.380388 0.740182 0.964838
0.503864 0.742877 0.967533
0.628021 0.745587 0.970244
0.752715 0.748309 0.972966
0.877852 0.751041 0.975697
0.982741 0.753331 0.977987
0.066560 0.862238 0.966806
0.145890 0.863970 0.968538
0.266870 0.866611 0.971179
0.389404 0.869286 0.973854
0.512879 0.871981 0.976549
0.637037 0.874692 0.979259
0.761731 0.877414 0.981981
0.886868 0.880145 0.984713
0.991757 0.882435 0.987003
0.074767 0.979767 0.975013
0.154097 0.981499 0.976745
0.275078 0.984140 0.979386
0.397611 0.986815 0.982061
0.521087 0.989510 0.984757
0.645245 0.992220 0.987467
0.769939 0.994943 0.990189
0.895075 0.997674 0.992921
0.999964 0.999964 0.995210
