library/cube/Cinema_Skin_002.cube
# CINEGRADE LAB — Premium Cinematic LUT
# Title: Cinema Skin
# Category: ARRI Alexa Look
# Description: Digital cinema natural skin tones with wide dynamic range emulation
# Mood: Cinematic, natural, professional
# Variant: 3
# Generated: 2026-05-21T16:12:52.163635
TITLE "Cinema Skin"
LUT_3D_SIZE 33
0.000000 0.000000 0.000000
0.000000 0.000000 0.000000
0.020094 0.000439 0.000439
0.049527 0.001081 0.001081
0.079330 0.001732 0.001732
0.109360 0.002387 0.002387
0.139555 0.003046 0.003046
0.169879 0.003708 0.003708
0.200311 0.004373 0.004373
0.230833 0.005039 0.005039
0.261435 0.005707 0.005707
0.292108 0.006377 0.006377
0.322844 0.007048 0.007048
0.353638 0.007720 0.007720
0.384484 0.008393 0.008393
0.415380 0.009068 0.009068
0.446320 0.009743 0.009743
0.477302 0.010419 0.010419
0.508324 0.011097 0.011097
0.539383 0.011775 0.011775
0.570478 0.012453 0.012453
0.601605 0.013133 0.013133
0.632764 0.013813 0.013813
0.663954 0.014494 0.014494
0.695172 0.015176 0.015176
0.726417 0.015858 0.015858
0.757689 0.016540 0.016540
0.788986 0.017224 0.017224
0.820308 0.017907 0.017907
0.851653 0.018592 0.018592
0.883021 0.019276 0.019276
0.914411 0.019962 0.019962
0.925197 0.020197 0.020197
0.000000 0.000000 0.000000
0.000000 0.000000 0.000000
0.025122 0.000548 0.000548
0.055143 0.001204 0.001204
0.085543 0.001867 0.001867
0.116173 0.002536 0.002536
0.139555 0.003046 0.003046
0.169879 0.003708 0.003708
0.200311 0.004373 0.004373
0.230833 0.005039 0.005039
0.261435 0.005707 0.005707
0.292108 0.006377 0.006377
0.322844 0.007048 0.007048
0.353638 0.007720 0.007720
0.384484 0.008393 0.008393
0.415380 0.009068 0.009068
0.446320 0.009743 0.009743
0.477302 0.010419 0.010419
0.508324 0.011097 0.011097
0.539383 0.011775 0.011775
0.570478 0.012453 0.012453
0.601605 0.013133 0.013133
0.632764 0.013813 0.013813
0.663954 0.014494 0.014494
0.695172 0.015176 0.015176
0.726417 0.015858 0.015858
0.757689 0.016540 0.016540
0.788986 0.017224 0.017224
0.820308 0.017907 0.017907
0.851653 0.018592 0.018592
0.883021 0.019276 0.019276
0.914411 0.019962 0.019962
0.925197 0.020197 0.020197
0.002053 0.029399 0.002053
0.002053 0.029399 0.002053
0.022147 0.029838 0.002492
0.057196 0.030603 0.003257
0.087596 0.031266 0.003920
0.118226 0.031935 0.004589
0.149025 0.032607 0.005261
0.179956 0.033282 0.005937
0.210996 0.033960 0.006614
0.242129 0.034640 0.007294
0.273343 0.035321 0.007975
0.304629 0.036004 0.008658
0.324897 0.036447 0.009101
0.355691 0.037119 0.009773
0.386537 0.037792 0.010446
0.417433 0.038467 0.011121
0.448373 0.039142 0.011796
0.479355 0.039818 0.012473
0.510377 0.040496 0.013150
0.541436 0.041174 0.013828
0.572531 0.041852 0.014507
0.603658 0.042532 0.015186
0.634817 0.043212 0.015866
0.666007 0.043893 0.016547
0.697225 0.044574 0.017229
0.728470 0.045257 0.017911
0.759742 0.045939 0.018593
0.791039 0.046622 0.019277
0.822361 0.047306 0.019960
0.853706 0.047990 0.020645
0.885074 0.048675 0.021329
0.916464 0.049360 0.022015
0.927250 0.049596 0.022250
0.004183 0.059895 0.004183
0.004183 0.059895 0.004183
0.024277 0.060333 0.004621
0.053709 0.060976 0.005264
0.083513 0.061626 0.005914
0.120356 0.062431 0.006719
0.151155 0.063103 0.007391
0.182085 0.063778 0.008066
0.213125 0.064456 0.008744
0.244258 0.065135 0.009423
0.275473 0.065817 0.010105
0.306759 0.066500 0.010788
0.338110 0.067184 0.011472
0.369519 0.067870 0.012158
0.400983 0.068557 0.012845
0.432496 0.069245 0.013533
0.464055 0.069934 0.014222
0.481485 0.070314 0.014602
0.512507 0.070991 0.015279
0.543566 0.071669 0.015957
0.574660 0.072348 0.016636
0.605788 0.073028 0.017316
0.636947 0.073708 0.017996
0.668136 0.074389 0.018677
0.699354 0.075070 0.019358
0.730600 0.075752 0.020040
0.761872 0.076435 0.020723
0.793169 0.077118 0.021406
0.824491 0.077802 0.022090
0.855836 0.078486 0.022774
0.887204 0.079171 0.023459
0.918593 0.079856 0.024144
0.929380 0.080092 0.024380
0.006335 0.090712 0.006335
0.006335 0.090712 0.006335
0.026429 0.091151 0.006773
0.055862 0.091794 0.007416
0.085665 0.092444 0.008067
0.115695 0.093100 0.008722
0.153307 0.093921 0.009543
0.184237 0.094596 0.010218
0.215277 0.095274 0.010896
0.246411 0.095953 0.011576
0.277625 0.096635 0.012257
0.308911 0.097318 0.012940
0.340262 0.098002 0.013624
0.371672 0.098688 0.014310
0.403135 0.099375 0.014997
0.434648 0.100063 0.015685
0.466207 0.100751 0.016374
0.497809 0.101441 0.017064
0.529451 0.102132 0.017754
0.561132 0.102824 0.018446
0.592848 0.103516 0.019138
0.624598 0.104209 0.019831
0.656380 0.104903 0.020525
0.670288 0.105207 0.020829
0.701506 0.105888 0.021510
0.732752 0.106570 0.022192
0.764024 0.107253 0.022875
0.795321 0.107936 0.023558
0.826643 0.108620 0.024242
0.857988 0.109304 0.024926
0.889356 0.109989 0.025611
0.920745 0.110674 0.026296
0.931532 0.110909 0.026532
0.008502 0.121741 0.008502
0.008502 0.121741 0.008502
0.028596 0.122180 0.008940
0.058028 0.122822 0.009583
0.087832 0.123473 0.010233
0.117862 0.124128 0.010889
0.148056 0.124788 0.011548
0.186404 0.125625 0.012385
0.217444 0.126302 0.013063
0.248577 0.126982 0.013742
0.279792 0.127663 0.014424
0.311078 0.128346 0.015107
0.342429 0.129031 0.015791
0.373838 0.129716 0.016477
0.405302 0.130403 0.017164
0.436815 0.131091 0.017852
0.468374 0.131780 0.018541
0.499976 0.132470 0.019230
0.531618 0.133161 0.019921
0.563299 0.133852 0.020613
0.595015 0.134545 0.021305
0.626765 0.135238 0.021998
0.658547 0.135932 0.022692
0.690360 0.136626 0.023387
0.722203 0.137321 0.024082
0.754073 0.138017 0.024777
0.785970 0.138713 0.025474
0.817894 0.139410 0.026171
0.828810 0.139648 0.026409
0.860155 0.140333 0.027093
0.891523 0.141017 0.027778
0.922912 0.141703 0.028463
0.933699 0.141938 0.028699
0.010679 0.152927 0.010679
0.010679 0.152927 0.010679
0.030774 0.153366 0.011118
0.060206 0.154009 0.011761
0.090010 0.154659 0.012411
0.120040 0.155315 0.013067
0.150234 0.155974 0.013726
0.180559 0.156636 0.014388
0.210990 0.157300 0.015052
0.250755 0.158168 0.015920
0.281969 0.158850 0.016602
0.313256 0.159533 0.017285
0.344607 0.160217 0.017969
0.376016 0.160903 0.018655
0.407480 0.161589 0.019342
0.438993 0.162277 0.020029
0.470552 0.162966 0.020718
0.502154 0.163656 0.021408
0.533796 0.164347 0.022099
0.565476 0.165039 0.022791
0.597193 0.165731 0.023483
0.628943 0.166424 0.024176
0.660725 0.167118 0.024870
0.692538 0.167812 0.025564
0.724380 0.168507 0.026259
0.756251 0.169203 0.026955
0.788148 0.169899 0.027652
0.820072 0.170596 0.028348
0.852020 0.171294 0.029046
0.883992 0.171992 0.029744
0.915987 0.172690 0.030442
0.935876 0.173124 0.030876
0.935876 0.173124 0.030876
0.012866 0.184240 0.012866
0.012866 0.184240 0.012866
0.032960 0.184678 0.013305
0.062393 0.185321 0.013947
0.092196 0.185971 0.014598
0.122226 0.186627 0.015253
0.152421 0.187286 0.015913
0.182745 0.187948 0.016575
0.213177 0.188612 0.017239
0.243699 0.189279 0.017905
0.284156 0.190162 0.018788
0.315442 0.190845 0.019471
0.346793 0.191529 0.020156
0.378203 0.192215 0.020841
0.409666 0.192902 0.021528
0.441179 0.193590 0.022216
0.472738 0.194279 0.022905
0.504340 0.194969 0.023595
0.535983 0.195659 0.024286
0.567663 0.196351 0.024977
0.599379 0.197043 0.025670
0.631129 0.197736 0.026363
0.662912 0.198430 0.027057
0.694725 0.199125 0.027751
0.726567 0.199820 0.028446
0.758438 0.200515 0.029142
0.790335 0.201212 0.029838
0.822258 0.201909 0.030535
0.854206 0.202606 0.031232
0.886178 0.203304 0.031930
0.918173 0.204002 0.032629
0.938063 0.204437 0.033063
0.938063 0.204437 0.033063
0.015060 0.215657 0.015060
0.015060 0.215657 0.015060
0.035154 0.216096 0.015499
0.064587 0.216738 0.016141
0.094390 0.217389 0.016792
0.124420 0.218044 0.017447
0.154615 0.218704 0.018107
0.184939 0.219366 0.018769
0.215371 0.220030 0.019433
0.245893 0.220696 0.020099
0.276495 0.221364 0.020767
0.307168 0.222034 0.021437
0.348987 0.222947 0.022350
0.380397 0.223632 0.023035
0.411860 0.224319 0.023722
0.443373 0.225007 0.024410
0.474932 0.225696 0.025099
0.506534 0.226386 0.025789
0.538177 0.227077 0.026480
0.569857 0.227768 0.027171
0.601573 0.228461 0.027864
0.633323 0.229154 0.028557
0.665106 0.229848 0.029251
0.696919 0.230542 0.029945
0.728761 0.231237 0.030640
0.760632 0.231933 0.031336
0.792529 0.232629 0.032032
0.824452 0.233326 0.032729
0.856400 0.234024 0.033426
0.888372 0.234722 0.034124
0.920367 0.235420 0.034823
0.940257 0.235854 0.035257
0.940257 0.235854 0.035257
0.017260 0.247165 0.017260
0.017260 0.247165 0.017260
0.037355 0.247604 0.017699
0.066787 0.248246 0.018342
0.096591 0.248897 0.018992
0.126621 0.249552 0.019648
0.156815 0.250211 0.020307
0.187140 0.250873 0.020969
0.217571 0.251538 0.021633
0.248094 0.252204 0.022299
0.278696 0.252872 0.022967
0.309368 0.253542 0.023637
0.340105 0.254213 0.024308
0.382597 0.255140 0.025236
0.414061 0.255827 0.025922
0.445574 0.256515 0.026610
0.477133 0.257204 0.027299
0.508735 0.257894 0.027989
0.540377 0.258585 0.028680
0.572057 0.259276 0.029372
0.603773 0.259969 0.030064
0.635524 0.260662 0.030757
0.667306 0.261355 0.031451
0.699119 0.262050 0.032145
0.730961 0.262745 0.032840
0.762832 0.263441 0.033536
0.794729 0.264137 0.034232
0.826652 0.264834 0.034929
0.858601 0.265531 0.035627
0.890573 0.266229 0.036325
0.922568 0.266928 0.037023
0.942457 0.267362 0.037457
0.942457 0.267362 0.037457
0.019466 0.278752 0.019466
0.019466 0.278752 0.019466
0.039560 0.279191 0.019905
0.068993 0.279833 0.020547
0.098796 0.280484 0.021198
0.128826 0.281139 0.021854
0.159021 0.281798 0.022513
0.189345 0.282460 0.023175
0.219777 0.283125 0.023839
0.250299 0.283791 0.024505
0.280902 0.284459 0.025173
0.311574 0.285129 0.025843
0.342310 0.285800 0.026514
0.373104 0.286472 0.027186
0.416266 0.287414 0.028128
0.447779 0.288102 0.028816
0.479338 0.288791 0.029505
0.510940 0.289481 0.030195
0.542583 0.290172 0.030886
0.574263 0.290863 0.031577
0.605979 0.291555 0.032270
0.637729 0.292249 0.032963
0.669512 0.292942 0.033657
0.701325 0.293637 0.034351
0.733167 0.294332 0.035046
0.765038 0.295028 0.035742
0.796935 0.295724 0.036438
0.828858 0.296421 0.037135
0.860806 0.297118 0.037833
0.892778 0.297816 0.038531
0.924774 0.298515 0.039229
0.944663 0.298949 0.039663
0.944663 0.298949 0.039663
0.021677 0.310409 0.021677
0.021677 0.310409 0.021677
0.041771 0.310848 0.022116
0.071204 0.311491 0.022758
0.101007 0.312141 0.023409
0.131037 0.312797 0.024064
0.161232 0.313456 0.024723
0.191556 0.314118 0.025385
0.221987 0.314782 0.026050
0.252510 0.315448 0.026716
0.283112 0.316116 0.027384
0.313785 0.316786 0.028054
0.344521 0.317457 0.028725
0.375315 0.318129 0.029397
0.406161 0.318803 0.030070
0.437057 0.319477 0.030745
0.481549 0.320448 0.031716
0.513151 0.321138 0.032406
0.544794 0.321829 0.033097
0.576474 0.322521 0.033788
0.608190 0.323213 0.034480
0.639940 0.323906 0.035174
0.671722 0.324600 0.035867
0.703536 0.325294 0.036562
0.735378 0.325989 0.037257
0.767248 0.326685 0.037953
0.799146 0.327381 0.038649
0.831069 0.328078 0.039346
0.863017 0.328776 0.040043
0.894989 0.329474 0.040741
0.926984 0.330172 0.041440
0.946874 0.330606 0.041874
0.946874 0.330606 0.041874
0.023892 0.342130 0.023892
0.023892 0.342130 0.023892
0.043986 0.342569 0.024331
0.073419 0.343212 0.024973
0.103222 0.343862 0.025624
0.133252 0.344518 0.026279
0.163447 0.345177 0.026939
0.193771 0.345839 0.027601
0.224203 0.346503 0.028265
0.254725 0.347169 0.028931
0.285327 0.347837 0.029599
0.316000 0.348507 0.030269
0.346736 0.349178 0.030940
0.377530 0.349850 0.031612
0.408377 0.350524 0.032285
0.439272 0.351198 0.032960
0.470212 0.351874 0.033635
0.515366 0.352859 0.034621
0.547009 0.353550 0.035312
0.578689 0.354242 0.036003
0.610405 0.354934 0.036696
0.642155 0.355627 0.037389
0.673938 0.356321 0.038083
0.705751 0.357015 0.038777
0.737593 0.357710 0.039472
0.769464 0.358406 0.040168
0.801361 0.359102 0.040864
0.833284 0.359799 0.041561
0.865232 0.360497 0.042259
0.897204 0.361195 0.042956
0.929199 0.361893 0.043655
0.949089 0.362327 0.044089
0.949089 0.362327 0.044089
0.026111 0.373909 0.026111
0.026111 0.373909 0.026111
0.046206 0.374348 0.026550
0.075638 0.374990 0.027193
0.105442 0.375641 0.027843
0.135472 0.376297 0.028499
0.165666 0.376956 0.029158
0.195991 0.377618 0.029820
0.226422 0.378282 0.030484
0.256945 0.378948 0.031150
0.287547 0.379616 0.031818
0.318219 0.380286 0.032488
0.348956 0.380957 0.033159
0.379749 0.381629 0.033831
0.410596 0.382302 0.034505
0.441491 0.382977 0.035179
0.472431 0.383652 0.035854
0.503414 0.384329 0.036531
0.534436 0.385006 0.037208
0.580908 0.386020 0.038223
0.612624 0.386713 0.038915
0.644375 0.387406 0.039608
0.676157 0.388100 0.040302
0.707970 0.388794 0.040996
0.739812 0.389489 0.041691
0.771683 0.390185 0.042387
0.803580 0.390881 0.043083
0.835503 0.391578 0.043780
0.867452 0.392276 0.044478
0.899424 0.392974 0.045176
0.931419 0.393672 0.045874
0.951308 0.394106 0.046308
0.951308 0.394106 0.046308
0.028334 0.405741 0.028334
0.028334 0.405741 0.028334
0.048429 0.406180 0.028773
0.077861 0.406822 0.029415
0.107664 0.407473 0.030066
0.137695 0.408129 0.030722
0.167889 0.408788 0.031381
0.198213 0.409450 0.032043
0.228645 0.410114 0.032707
0.259167 0.410780 0.033373
0.289770 0.411448 0.034041
0.320442 0.412118 0.034711
0.351179 0.412789 0.035382
0.381972 0.413461 0.036054
0.412819 0.414134 0.036728
0.443714 0.414809 0.037402
0.474654 0.415484 0.038077
0.505637 0.416161 0.038754
0.536658 0.416838 0.039431
0.567718 0.417516 0.040109
0.614847 0.418545 0.041138
0.646597 0.419238 0.041831
0.678380 0.419932 0.042525
0.710193 0.420626 0.043219
0.742035 0.421321 0.043914
0.773906 0.422017 0.044610
0.805803 0.422713 0.045306
0.837726 0.423410 0.046003
0.869674 0.424108 0.046701
0.901646 0.424806 0.047399
0.933642 0.425504 0.048097
0.953531 0.425938 0.048531
0.953531 0.425938 0.048531
0.030561 0.437622 0.030561
0.030561 0.437622 0.030561
0.050655 0.438061 0.030999
0.080087 0.438703 0.031642
0.109891 0.439354 0.032292
0.139921 0.440010 0.032948
0.170116 0.440669 0.033607
0.200440 0.441331 0.034269
0.230871 0.441995 0.034933
0.261394 0.442661 0.035600
0.291996 0.443329 0.036268
0.322669 0.443999 0.036937
0.353405 0.444670 0.037608
0.384199 0.445342 0.038281
0.415045 0.446015 0.038954
0.445940 0.446690 0.039628
0.476881 0.447365 0.040304
0.507863 0.448042 0.040980
0.538885 0.448719 0.041657
0.569944 0.449397 0.042335
0.601038 0.450076 0.043014
0.648824 0.451119 0.044057
0.680606 0.451813 0.044751
0.712419 0.452507 0.045446
0.744262 0.453202 0.046141
0.776132 0.453898 0.046836
0.808030 0.454594 0.047533
0.839953 0.455291 0.048230
0.871901 0.455989 0.048927
0.903873 0.456687 0.049625
0.935868 0.457385 0.050323
0.955758 0.457819 0.050758
0.955758 0.457819 0.050758
0.032790 0.469549 0.032790
0.032790 0.469549 0.032790
0.052884 0.469988 0.033229
0.082317 0.470630 0.033871
0.112120 0.471281 0.034522
0.142150 0.471936 0.035178
0.172345 0.472595 0.035837
0.202669 0.473257 0.036499
0.233101 0.473922 0.037163
0.263623 0.474588 0.037829
0.294226 0.475256 0.038497
0.324898 0.475926 0.039167
0.355634 0.476597 0.039838
0.386428 0.477269 0.040510
0.417275 0.477942 0.041183
0.448170 0.478617 0.041858
0.479110 0.479292 0.042533
0.510092 0.479968 0.043210
0.541114 0.480646 0.043887
0.572174 0.481324 0.044565
0.603268 0.482002 0.045244
0.634395 0.482682 0.045923
0.665554 0.483362 0.046603
0.714649 0.484434 0.047675
0.746491 0.485129 0.048370
0.778362 0.485825 0.049066
0.810259 0.486521 0.049762
0.842182 0.487218 0.050459
0.874130 0.487915 0.051157
0.906102 0.488613 0.051855
0.938098 0.489312 0.052553
0.957987 0.489746 0.052987
0.957987 0.489746 0.052987
0.035023 0.501518 0.035023
0.035023 0.501518 0.035023
0.055117 0.501957 0.035461
0.084550 0.502599 0.036104
0.114353 0.503250 0.036755
0.144383 0.503906 0.037410
0.174578 0.504565 0.038069
0.204902 0.505227 0.038731
0.235333 0.505891 0.039395
0.265856 0.506557 0.040062
0.296458 0.507225 0.040730
0.327131 0.507895 0.041399
0.357867 0.508566 0.042070
0.388661 0.509238 0.042743
0.419507 0.509912 0.043416
0.450402 0.510586 0.044090
0.481343 0.511261 0.044766
0.512325 0.511938 0.045442
0.543347 0.512615 0.046119
0.574406 0.513293 0.046797
0.605500 0.513972 0.047476
0.636628 0.514651 0.048156
0.667787 0.515331 0.048836
0.698976 0.516012 0.049517
0.748724 0.517098 0.050603
0.780594 0.517794 0.051299
0.812492 0.518490 0.051995
0.844415 0.519187 0.052692
0.876363 0.519885 0.053389
0.908335 0.520583 0.054087
0.940330 0.521281 0.054786
0.960220 0.521715 0.055220
0.960220 0.521715 0.055220
0.037258 0.533528 0.037258
0.037258 0.533528 0.037258
0.057352 0.533966 0.037697
0.086785 0.534609 0.038339
0.116588 0.535259 0.038990
0.146618 0.535915 0.039645
0.176813 0.536574 0.040305
0.207137 0.537236 0.040967
0.237569 0.537900 0.041631
0.268091 0.538567 0.042297
0.298693 0.539235 0.042965
0.329366 0.539904 0.043635
0.360102 0.540575 0.044306
0.390896 0.541248 0.044978
0.421743 0.541921 0.045651
0.452638 0.542595 0.046326
0.483578 0.543271 0.047001
0.514560 0.543947 0.047678
0.545582 0.544624 0.048355
0.576641 0.545302 0.049033
0.607736 0.545981 0.049712
0.638863 0.546661 0.050391
0.670022 0.547341 0.051071
0.701212 0.548022 0.051752
0.732430 0.548703 0.052434
0.782830 0.549803 0.053534
0.814727 0.550500 0.054230
0.846650 0.551197 0.054927
0.878598 0.551894 0.055624
0.910570 0.552592 0.056322
0.942565 0.553290 0.057021
0.962455 0.553725 0.057455
0.962455 0.553725 0.057455
0.039496 0.565575 0.039496
0.039496 0.565575 0.039496
0.059590 0.566013 0.039935
0.089023 0.566656 0.040577
0.118826 0.567307 0.041228
0.148856 0.567962 0.041883
0.179051 0.568621 0.042542
0.209375 0.569283 0.043204
0.239807 0.569948 0.043869
0.270329 0.570614 0.044535
0.300931 0.571282 0.045203
0.331604 0.571951 0.045873
0.362340 0.572622 0.046544
0.393134 0.573295 0.047216
0.423980 0.573968 0.047889
0.454876 0.574642 0.048564
0.485816 0.575318 0.049239
0.516798 0.575994 0.049915
0.547820 0.576671 0.050593
0.578879 0.577349 0.051271
0.609974 0.578028 0.051950
0.641101 0.578708 0.052629
0.672260 0.579388 0.053309
0.703450 0.580069 0.053990
0.734668 0.580750 0.054672
0.765913 0.581432 0.055354
0.797185 0.582115 0.056036
0.848888 0.583244 0.057165
0.880836 0.583941 0.057862
0.912808 0.584639 0.058560
0.944803 0.585338 0.059259
0.964693 0.585772 0.059693
0.964693 0.585772 0.059693
0.041736 0.597658 0.041736
0.041736 0.597658 0.041736
0.061831 0.598096 0.042175
0.091263 0.598739 0.042818
0.121067 0.599389 0.043468
0.151097 0.600045 0.044124
0.181291 0.600704 0.044783
0.211616 0.601366 0.045445
0.242047 0.602030 0.046109
0.272570 0.602697 0.046776
0.303172 0.603365 0.047444
0.333845 0.604034 0.048113
0.364581 0.604705 0.048784
0.395374 0.605377 0.049456
0.426221 0.606051 0.050130
0.457116 0.606725 0.050804
0.488056 0.607401 0.051480
0.519039 0.608077 0.052156
0.550061 0.608754 0.052833
0.581120 0.609432 0.053511
0.612214 0.610111 0.054190
0.643342 0.610791 0.054869
0.674501 0.611471 0.055550
0.705690 0.612152 0.056231
0.736908 0.612833 0.056912
0.768154 0.613515 0.057594
0.799426 0.614198 0.058277
0.830723 0.614881 0.058960
0.883077 0.616024 0.060103
0.915049 0.616722 0.060801
0.947044 0.617420 0.061499
0.966933 0.617855 0.061933
0.966933 0.617855 0.061933
0.043979 0.629774 0.043979
0.043979 0.629774 0.043979
0.064073 0.630213 0.044418
0.093506 0.630855 0.045060
0.123309 0.631506 0.045711
0.153339 0.632161 0.046367
0.183534 0.632821 0.047026
0.213858 0.633483 0.047688
0.244290 0.634147 0.048352
0.274812 0.634813 0.049018
0.305415 0.635481 0.049686
0.336087 0.636151 0.050356
0.366824 0.636822 0.051027
0.397617 0.637494 0.051699
0.428464 0.638167 0.052373
0.459359 0.638842 0.053047
0.490299 0.639517 0.053722
0.521282 0.640194 0.054399
0.552303 0.640871 0.055076
0.583363 0.641549 0.055754
0.614457 0.642228 0.056433
0.645584 0.642907 0.057112
0.676744 0.643587 0.057792
0.707933 0.644268 0.058473
0.739151 0.644950 0.059155
0.770396 0.645632 0.059837
0.801668 0.646314 0.060520
0.832966 0.646998 0.061203
0.864287 0.647681 0.061887
0.895632 0.648366 0.062571
0.949287 0.649537 0.063742
0.969176 0.649971 0.064176
0.969176 0.649971 0.064176
0.046224 0.661923 0.046224
0.046224 0.661923 0.046224
0.066319 0.662362 0.046663
0.095751 0.663004 0.047305
0.125555 0.663655 0.047956
0.155585 0.664310 0.048612
0.185779 0.664969 0.049271
0.216103 0.665631 0.049933
0.246535 0.666296 0.050597
0.277057 0.666962 0.051263
0.307660 0.667630 0.051931
0.338332 0.668300 0.052601
0.369069 0.668971 0.053272
0.399862 0.669643 0.053944
0.430709 0.670316 0.054618
0.461604 0.670991 0.055292
0.492544 0.671666 0.055967
0.523527 0.672342 0.056644
0.554549 0.673020 0.057321
0.585608 0.673698 0.057999
0.616702 0.674376 0.058678
0.647829 0.675056 0.059357
0.678989 0.675736 0.060038
0.710178 0.676417 0.060718
0.741396 0.677098 0.061400
0.772641 0.677780 0.062082
0.803913 0.678463 0.062765
0.835211 0.679146 0.063448
0.866532 0.679830 0.064132
0.897877 0.680514 0.064816
0.929245 0.681199 0.065501
0.971421 0.682120 0.066421
0.971421 0.682120 0.066421
0.048472 0.694102 0.048472
0.048472 0.694102 0.048472
0.068566 0.694541 0.048910
0.097998 0.695183 0.049553
0.127802 0.695834 0.050203
0.157832 0.696490 0.050859
0.188026 0.697149 0.051518
0.218351 0.697811 0.052180
0.248782 0.698475 0.052844
0.279305 0.699141 0.053511
0.309907 0.699809 0.054179
0.340580 0.700479 0.054848
0.371316 0.701150 0.055519
0.402110 0.701822 0.056191
0.432956 0.702496 0.056865
0.463851 0.703170 0.057539
0.494791 0.703845 0.058215
0.525774 0.704522 0.058891
0.556796 0.705199 0.059568
0.587855 0.705877 0.060246
0.618949 0.706556 0.060925
0.650077 0.707235 0.061605
0.681236 0.707915 0.062285
0.712425 0.708596 0.062966
0.743643 0.709278 0.063647
0.774889 0.709960 0.064329
0.806161 0.710643 0.065012
0.837458 0.711326 0.065695
0.868780 0.712010 0.066379
0.900125 0.712694 0.067063
0.931492 0.713379 0.067748
0.962882 0.714064 0.068433
0.973669 0.714299 0.068669
0.050721 0.726311 0.050721
0.050721 0.726311 0.050721
0.070815 0.726750 0.051159
0.100248 0.727392 0.051802
0.130051 0.728043 0.052453
0.160081 0.728698 0.053108
0.190276 0.729357 0.053767
0.220600 0.730019 0.054429
0.251031 0.730684 0.055094
0.281554 0.731350 0.055760
0.312156 0.732018 0.056428
0.342829 0.732688 0.057097
0.373565 0.733359 0.057768
0.404359 0.734031 0.058441
0.435205 0.734704 0.059114
0.466100 0.735379 0.059788
0.497041 0.736054 0.060464
0.528023 0.736730 0.061140
0.559045 0.737408 0.061817
0.590104 0.738086 0.062495
0.621198 0.738764 0.063174
0.652326 0.739444 0.063854
0.683485 0.740124 0.064534
0.714674 0.740805 0.065215
0.745892 0.741487 0.065896
0.777138 0.742169 0.066578
0.808410 0.742851 0.067261
0.839707 0.743534 0.067944
0.871029 0.744218 0.068628
0.902374 0.744902 0.069312
0.933742 0.745587 0.069997
0.965131 0.746272 0.070682
0.975918 0.746508 0.070918
0.052972 0.758548 0.052972
0.052972 0.758548 0.052972
0.073066 0.758986 0.053411
0.102499 0.759629 0.054053
0.132302 0.760279 0.054704
0.162332 0.760935 0.055359
0.192527 0.761594 0.056018
0.222851 0.762256 0.056680
0.253283 0.762920 0.057345
0.283805 0.763587 0.058011
0.314407 0.764255 0.058679
0.345080 0.764924 0.059349
0.375816 0.765595 0.060020
0.406610 0.766268 0.060692
0.437456 0.766941 0.061365
0.468352 0.767615 0.062040
0.499292 0.768291 0.062715
0.530274 0.768967 0.063391
0.561296 0.769644 0.064069
0.592355 0.770322 0.064747
0.623450 0.771001 0.065425
0.654577 0.771681 0.066105
0.685736 0.772361 0.066785
0.716926 0.773042 0.067466
0.748144 0.773723 0.068148
0.779389 0.774405 0.068830
0.810661 0.775088 0.069512
0.841958 0.775771 0.070196
0.873280 0.776455 0.070879
0.904625 0.777139 0.071564
0.935993 0.777824 0.072248
0.967383 0.778509 0.072934
0.978169 0.778745 0.073169
0.055225 0.790811 0.055225
0.055225 0.790811 0.055225
0.075319 0.791250 0.055664
0.104752 0.791892 0.056306
0.134555 0.792543 0.056957
0.164585 0.793199 0.057612
0.194780 0.793858 0.058272
0.225104 0.794520 0.058934
0.255536 0.795184 0.059598
0.286058 0.795850 0.060264
0.316660 0.796518 0.060932
0.347333 0.797188 0.061602
0.378069 0.797859 0.062273
0.408863 0.798531 0.062945
0.439710 0.799205 0.063618
0.470605 0.799879 0.064293
0.501545 0.800554 0.064968
0.532527 0.801231 0.065645
0.563549 0.801908 0.066322
