library/cube/Cinema_Skin_002.cube
# CINEGRADE LAB — Premium Cinematic LUT
# Title: Cinema Skin
# Category: ARRI Alexa Look
# Description: Digital cinema natural skin tones with wide dynamic range emulation
# Mood: Cinematic, natural, professional
# Variant: 3
# Generated: 2026-05-21T16:12:52.163635
TITLE "Cinema Skin"
LUT_3D_SIZE 5
0.000000 0.000000 0.000000
0.200311 0.004373 0.004373
0.446320 0.009743 0.009743
0.695172 0.015176 0.015176
0.925197 0.020197 0.020197
0.015060 0.215657 0.015060
0.215371 0.220030 0.019433
0.474932 0.225696 0.025099
0.728761 0.231237 0.030640
0.940257 0.235854 0.035257
0.032790 0.469549 0.032790
0.233101 0.473922 0.037163
0.479110 0.479292 0.042533
0.746491 0.485129 0.048370
0.957987 0.489746 0.052987
0.050721 0.726311 0.050721
0.251031 0.730684 0.055094
0.497041 0.736054 0.060464
0.745892 0.741487 0.065896
0.975918 0.746508 0.070918
0.067944 0.972944 0.067944
0.268255 0.977317 0.072317
0.514264 0.982687 0.077687
0.763116 0.988120 0.083120
0.993141 0.993141 0.088141
0.001560 0.001560 0.207335
0.201870 0.005932 0.211708
0.447879 0.011303 0.217078
0.696731 0.016735 0.222511
0.926757 0.021757 0.227532
0.016620 0.217217 0.222395
0.216930 0.221589 0.226768
0.462939 0.226960 0.232138
0.711791 0.232392 0.237571
0.941817 0.237414 0.242592
0.034350 0.471108 0.240125
0.234660 0.475481 0.244498
0.480670 0.480852 0.249868
0.748051 0.486689 0.255705
0.959547 0.491305 0.260322
0.052280 0.727871 0.258056
0.252591 0.732243 0.262429
0.498600 0.737614 0.267799
0.747452 0.743046 0.273231
0.977477 0.748068 0.278253
0.069504 0.974504 0.275279
0.269814 0.978876 0.279652
0.515823 0.984247 0.285022
0.764675 0.989679 0.290455
0.994701 0.994701 0.295476
0.003289 0.003289 0.437259
0.203600 0.007662 0.441631
0.449609 0.013032 0.447002
0.698461 0.018465 0.452434
0.928486 0.023486 0.457456
0.018349 0.218946 0.452319
0.218660 0.223319 0.456691
0.464669 0.228689 0.462062
0.713521 0.234122 0.467494
0.943546 0.239143 0.472516
0.036079 0.472838 0.470049
0.236390 0.477211 0.474422
0.482399 0.482581 0.479792
0.731251 0.488014 0.485224
0.961276 0.493035 0.490246
0.054010 0.729600 0.487979
0.254320 0.733973 0.492352
0.500330 0.739343 0.497723
0.749181 0.744776 0.503155
0.979207 0.749797 0.508176
0.071233 0.976233 0.505203
0.271544 0.980606 0.509575
0.517553 0.985976 0.514946
0.766405 0.991409 0.520378
0.996430 0.996430 0.525400
0.005047 0.005047 0.670942
0.205357 0.009420 0.675314
0.451367 0.014790 0.680685
0.700218 0.020222 0.686117
0.930244 0.025244 0.691139
0.020107 0.220704 0.686002
0.220417 0.225077 0.690375
0.466427 0.230447 0.695745
0.715278 0.235880 0.701177
0.945304 0.240901 0.706199
0.037837 0.474596 0.703732
0.238148 0.478969 0.708105
0.484157 0.484339 0.713475
0.733009 0.489771 0.718907
0.963034 0.494793 0.723929
0.055768 0.731358 0.721662
0.256078 0.735731 0.726035
0.502087 0.741101 0.731406
0.750939 0.746533 0.736838
0.980965 0.751555 0.741859
0.072991 0.977991 0.738886
0.273301 0.982364 0.743258
0.519311 0.987734 0.748629
0.768162 0.993166 0.754061
0.998188 0.998188 0.759083
0.006823 0.006823 0.907069
0.207134 0.011196 0.911442
0.453143 0.016566 0.916813
0.701995 0.021999 0.922245
0.932020 0.027020 0.927266
0.021883 0.222480 0.922129
0.222194 0.226853 0.926502
0.468203 0.232223 0.931873
0.717055 0.237656 0.937305
0.947080 0.242677 0.942326
0.039613 0.476372 0.939860
0.239924 0.480745 0.944232
0.485933 0.486115 0.949603
0.734785 0.491547 0.955035
0.964810 0.496569 0.960057
0.057544 0.733134 0.957790
0.257854 0.737507 0.962163
0.503864 0.742877 0.967533
0.752715 0.748309 0.972966
0.982741 0.753331 0.977987
0.074767 0.979767 0.975013
0.275078 0.984140 0.979386
0.521087 0.989510 0.984757
0.769939 0.994943 0.990189
0.999964 0.999964 0.995210
