library/cube/CineStill_Night_001.cube
# CINEGRADE LAB — Premium Cinematic LUT
# Title: CineStill Night
# Category: CineStill 800T Emulation
# Description: Tungsten balance, halation glow, night film characteristics
# Mood: Nocturnal, glowing, cinematic
# Variant: 2
# Generated: 2026-05-21T16:12:53.869712
TITLE "CineStill Night"
LUT_3D_SIZE 9
0.072393 0.061280 0.048130
0.176277 0.064576 0.051170
0.284173 0.067998 0.054344
0.394502 0.071495 0.057599
0.506637 0.075050 0.060918
0.620238 0.078650 0.064289
0.735035 0.082288 0.067703
0.850762 0.085956 0.071154
0.891905 0.087279 0.072264
0.082986 0.166688 0.057770
0.187208 0.170045 0.060847
0.295454 0.173526 0.064056
0.406146 0.177084 0.067349
0.518660 0.180698 0.070705
0.632660 0.184358 0.074113
0.747727 0.188052 0.077562
0.863418 0.191766 0.081036
0.904458 0.193131 0.082169
0.094056 0.276304 0.067896
0.198635 0.279717 0.071009
0.307264 0.283256 0.074256
0.418362 0.286871 0.077586
0.531313 0.290543 0.080981
0.645784 0.294263 0.084429
0.761041 0.298007 0.087909
0.876361 0.301753 0.091396
0.917166 0.303155 0.092547
0.105524 0.388502 0.078350
0.210501 0.391969 0.081500
0.319565 0.395563 0.084786
0.431137 0.399234 0.088156
0.544604 0.402965 0.091591
0.659641 0.406744 0.095082
0.774970 0.410532 0.098589
0.889473 0.414295 0.102076
0.929868 0.415727 0.103238
0.117408 0.502626 0.089070
0.222844 0.506146 0.092260
0.332418 0.509796 0.095585
0.444553 0.513525 0.098998
0.558639 0.517315 0.102477
0.674357 0.521156 0.106015
0.789605 0.524983 0.109543
0.902729 0.528744 0.113011
0.942501 0.530199 0.114179
0.129755 0.618313 0.100023
0.235732 0.621889 0.103254
0.345912 0.625596 0.106623
0.458720 0.629386 0.110081
0.573551 0.633239 0.113609
0.690088 0.637148 0.117197
0.805062 0.641008 0.120742
0.916134 0.644747 0.124170
0.955031 0.646218 0.125335
0.142625 0.735334 0.111188
0.249245 0.738969 0.114464
0.360149 0.742738 0.117880
0.473763 0.746594 0.121388
0.589484 0.750518 0.124969
0.707003 0.754500 0.128613
0.821474 0.758389 0.132167
0.929706 0.762084 0.135531
0.967434 0.763565 0.136684
0.156085 0.853535 0.122553
0.263471 0.857234 0.125877
0.375239 0.861074 0.129346
0.489813 0.865003 0.132909
0.606594 0.869005 0.136548
0.725277 0.873071 0.140253
0.838978 0.876983 0.143809
0.943470 0.880611 0.147081
0.979699 0.882096 0.148213
0.168184 0.952271 0.132087
0.276462 0.955854 0.135446
0.389234 0.959568 0.138952
0.504921 0.963364 0.142555
0.622929 0.967223 0.146236
0.742957 0.971135 0.149985
0.855558 0.974804 0.153507
0.955273 0.978058 0.156628
0.989601 0.979246 0.157698
0.073260 0.062136 0.125577
0.177177 0.065433 0.128573
0.285107 0.068855 0.131703
0.395470 0.072353 0.134917
0.507640 0.075908 0.138195
0.621278 0.079509 0.141526
0.736104 0.083147 0.144903
0.851839 0.086815 0.148315
0.892975 0.088138 0.149389
0.083856 0.167560 0.135071
0.188112 0.170916 0.138107
0.296394 0.174398 0.141278
0.407123 0.177956 0.144533
0.519677 0.181571 0.147852
0.633721 0.185232 0.151227
0.748811 0.188926 0.154641
0.864480 0.192639 0.158081
0.905503 0.194004 0.159181
0.094937 0.277190 0.145065
0.199553 0.280603 0.148142
0.308222 0.284142 0.151354
0.419364 0.287758 0.154652
0.532362 0.291431 0.158015
0.646885 0.295152 0.161433
0.762154 0.298896 0.164883
0.877414 0.302639 0.168339
0.918185 0.304041 0.169461
0.106424 0.389401 0.155402
0.211444 0.392868 0.158521
0.320554 0.396463 0.161776
0.432178 0.400135 0.165118
0.545702 0.403867 0.168527
0.660801 0.407648 0.171992
0.776129 0.411436 0.175473
0.890520 0.415195 0.178931
0.930861 0.416625 0.180068
0.118336 0.503538 0.166020
0.223822 0.507059 0.169183
0.333451 0.510710 0.172483
0.445648 0.514440 0.175872
0.559803 0.518232 0.179329
0.675596 0.522076 0.182846
0.790825 0.525902 0.186352
0.903774 0.529657 0.189795
0.943469 0.531110 0.190941
0.130719 0.619238 0.176885
0.236755 0.622815 0.180094
0.347002 0.626524 0.183443
0.459884 0.630316 0.186882
0.574797 0.634172 0.190393
0.691426 0.638083 0.193965
0.806359 0.641943 0.197491
0.917181 0.645674 0.200895
0.955973 0.647143 0.202042
0.143633 0.736273 0.187978
0.250324 0.739909 0.191237
0.361309 0.743682 0.194637
0.475011 0.747541 0.198131
0.590831 0.751468 0.201700
0.708458 0.755454 0.205332
0.822864 0.759341 0.208871
0.930760 0.763027 0.212214
0.968352 0.764505 0.213352
0.157146 0.854488 0.199286
0.264617 0.858191 0.202598
0.376481 0.862034 0.206055
0.491160 0.865967 0.209609
0.608058 0.869974 0.213241
0.726869 0.874045 0.216941
0.840475 0.877955 0.220484
0.944536 0.881571 0.223736
0.980592 0.883053 0.224857
0.169302 0.953178 0.208771
0.277679 0.956761 0.212122
0.390563 0.960475 0.215622
0.506374 0.964271 0.219220
0.624519 0.968130 0.222898
0.744697 0.972044 0.226647
0.857170 0.975705 0.230160
0.956343 0.978939 0.233261
0.990460 0.980117 0.234322
0.074158 0.063023 0.205840
0.178108 0.066320 0.208790
0.286072 0.069742 0.211876
0.396469 0.073241 0.215047
0.508675 0.076796 0.218283
0.622350 0.080398 0.221575
0.737205 0.084038 0.224913
0.852944 0.087705 0.228287
0.894074 0.089027 0.229324
0.084757 0.168462 0.215183
0.189048 0.171818 0.218179
0.297366 0.175301 0.221310
0.408133 0.178859 0.224527
0.520728 0.182475 0.227810
0.634816 0.186137 0.231149
0.749927 0.189831 0.234529
0.865572 0.193543 0.237934
0.906575 0.194907 0.239001
0.095850 0.278106 0.225043
0.200504 0.281519 0.228085
0.309214 0.285059 0.231262
0.420400 0.288675 0.234526
0.533446 0.292350 0.237857
0.648022 0.296071 0.241245
0.763302 0.299815 0.244664
0.878496 0.303557 0.248089
0.919231 0.304957 0.249181
0.107357 0.390331 0.235262
0.212420 0.393798 0.238349
0.321578 0.397394 0.241575
0.433255 0.401067 0.244888
0.546837 0.404800 0.248269
0.661999 0.408583 0.251709
0.777324 0.412370 0.255164
0.891596 0.416125 0.258593
0.931883 0.417554 0.259705
0.119297 0.504480 0.245777
0.224834 0.508003 0.248913
0.334520 0.511654 0.252188
0.446780 0.515387 0.255553
0.561005 0.519180 0.258988
0.676875 0.523026 0.262484
0.792082 0.526852 0.265968
0.904849 0.530602 0.269384
0.944465 0.532052 0.270509
0.131717 0.620194 0.256554
0.237814 0.623772 0.259741
0.348129 0.627483 0.263070
0.461087 0.631277 0.266490
0.576083 0.635136 0.269983
0.692804 0.639050 0.273540
0.807695 0.642909 0.277047
0.918260 0.646633 0.280428
0.956944 0.648099 0.281557
0.144677 0.737242 0.267575
0.251440 0.740881 0.270816
0.362506 0.744656 0.274202
0.476299 0.748518 0.277682
0.592219 0.752449 0.281238
0.709957 0.756439 0.284860
0.824294 0.760325 0.288385
0.931846 0.764001 0.291705
0.969298 0.765476 0.292829
0.158245 0.855472 0.278826
0.265801 0.859178 0.282126
0.377762 0.863025 0.285573
0.492548 0.866963 0.289118
0.609565 0.870974 0.292743
0.728506 0.875050 0.296437
0.842015 0.878959 0.299970
0.945633 0.882562 0.303201
0.981513 0.884040 0.304311
0.170456 0.954114 0.288263
0.278935 0.957697 0.291607
0.391933 0.961411 0.295101
0.507871 0.965207 0.298696
0.626154 0.969068 0.302371
0.746483 0.972983 0.306120
0.858825 0.976637 0.309624
0.957446 0.979850 0.312705
0.991347 0.981018 0.313759
0.075074 0.063927 0.287732
0.179057 0.067224 0.290637
0.287054 0.070647 0.293679
0.397486 0.074146 0.296807
0.509728 0.077703 0.300002
0.623441 0.081305 0.303254
0.738324 0.084945 0.306552
0.854065 0.088613 0.309888
0.895187 0.089935 0.310888
0.085678 0.169382 0.296926
0.190002 0.172738 0.299881
0.298357 0.176221 0.302973
0.409163 0.179780 0.306151
0.521799 0.183396 0.309398
0.635931 0.187060 0.312702
0.751063 0.190754 0.316047
0.866680 0.194465 0.319418
0.907663 0.195828 0.320451
0.096782 0.279040 0.306652
0.201475 0.282454 0.309657
0.310226 0.285994 0.312800
0.421457 0.289611 0.316031
0.534552 0.293286 0.319330
0.649181 0.297009 0.322688
0.764472 0.300753 0.326077
0.879595 0.304492 0.329470
0.920293 0.305891 0.330534
0.108311 0.391278 0.316753
0.213417 0.394746 0.319809
0.322624 0.398342 0.323004
0.434354 0.402017 0.326289
0.547995 0.405751 0.329643
0.663222 0.409536 0.333058
0.778543 0.413323 0.336487
0.892690 0.417074 0.339888
0.932919 0.418501 0.340975
0.120280 0.505441 0.327165
0.225868 0.508964 0.330274
0.335612 0.512617 0.333524
0.447936 0.516351 0.336866
0.562232 0.520147 0.340279
0.678180 0.523995 0.343755
0.793365 0.527820 0.347218
0.905942 0.531564 0.350608
0.945476 0.533012 0.351711
0.132738 0.621167 0.337856
0.238896 0.624747 0.341021
0.349280 0.628460 0.344329
0.462315 0.632257 0.347731
0.577397 0.636118 0.351208
0.694212 0.640036 0.354749
0.809058 0.643893 0.358239
0.919356 0.647610 0.361597
0.957930 0.649073 0.362708
0.145744 0.738230 0.348805
0.252580 0.741871 0.352030
0.363729 0.745649 0.355401
0.477615 0.749514 0.358868
0.593636 0.753448 0.362412
0.711486 0.757443 0.366025
0.825752 0.761327 0.369535
0.932950 0.764993 0.372834
0.970259 0.766465 0.373945
0.159367 0.856475 0.360001
0.267011 0.860184 0.363290
0.379070 0.864034 0.366727
0.493966 0.867977 0.370265
0.611103 0.871993 0.373883
0.730177 0.876074 0.377573
0.843585 0.879982 0.381095
0.946749 0.883572 0.384306
0.982450 0.885047 0.385406
0.171635 0.955068 0.369393
0.280217 0.958650 0.372731
0.393331 0.962364 0.376220
0.509397 0.966161 0.379811
0.627821 0.970022 0.383485
0.748305 0.973939 0.387234
0.860512 0.977585 0.390731
0.958569 0.980777 0.393793
0.992249 0.981935 0.394839
0.076003 0.064844 0.370785
0.180018 0.068142 0.373644
0.288050 0.071565 0.376642
0.398517 0.075065 0.379727
0.510795 0.078622 0.382882
0.624547 0.082225 0.386094
0.739456 0.085866 0.389354
0.855198 0.089534 0.392652
0.896310 0.090855 0.393614
0.086611 0.170314 0.379830
0.190970 0.173671 0.382744
0.299362 0.177154 0.385797
0.410207 0.180714 0.388938
0.522886 0.184331 0.392148
0.637063 0.187995 0.395417
0.752215 0.191690 0.398728
0.867800 0.195399 0.402065
0.908760 0.196762 0.403066
0.097729 0.279986 0.389423
0.202460 0.283400 0.392392
0.311253 0.286941 0.395501
0.422530 0.290559 0.398698
0.535675 0.294235 0.401967
0.650359 0.297960 0.405295
0.765658 0.301704 0.408654
0.880706 0.305440 0.412017
0.921365 0.306838 0.413051
0.109279 0.392238 0.399407
0.214430 0.395707 0.402432
0.323686 0.399304 0.405598
0.435471 0.402980 0.408854
0.549172 0.406716 0.412183
0.664465 0.410501 0.415573
0.779779 0.414288 0.418976
0.893797 0.418035 0.422349
0.933965 0.419461 0.423412
0.121279 0.506414 0.409718
0.226919 0.509938 0.412801
0.336722 0.513592 0.416027
0.449112 0.517328 0.419346
0.563480 0.521126 0.422738
0.679508 0.524976 0.426194
0.794668 0.528801 0.429635
0.907048 0.532539 0.433000
0.946497 0.533985 0.434083
0.133775 0.622154 0.420324
0.239996 0.625735 0.423468
0.350451 0.629450 0.426757
0.463564 0.633249 0.430141
0.578733 0.637114 0.433602
0.695644 0.641035 0.437129
0.810442 0.644891 0.440602
0.920466 0.648599 0.443936
0.958926 0.650060 0.445031
0.146829 0.739230 0.431205
0.253740 0.742874 0.434413
0.364973 0.746654 0.437770
0.478952 0.750523 0.441224
0.595078 0.754461 0.444758
0.713042 0.758460 0.448362
0.827233 0.762343 0.451859
0.934068 0.765999 0.455136
0.971231 0.767467 0.456234
0.160507 0.857491 0.442348
0.268240 0.861203 0.445625
0.380399 0.865057 0.449054
0.495407 0.869004 0.452584
0.612666 0.873026 0.456197
0.731875 0.877112 0.459884
0.845179 0.881018 0.463396
0.947879 0.884596 0.466587
0.983397 0.886066 0.467678
0.172834 0.956033 0.451696
0.281520 0.959614 0.455028
0.394752 0.963329 0.458513
0.510948 0.967127 0.462101
0.629516 0.970989 0.465775
0.750156 0.974907 0.469525
0.862224 0.978546 0.473016
0.959705 0.981717 0.476059
0.993161 0.982864 0.477099
0.076941 0.065771 0.454740
0.180990 0.069069 0.457554
0.289055 0.072493 0.460508
0.399558 0.075993 0.463552
0.511873 0.079551 0.466665
0.625664 0.083155 0.469838
0.740600 0.086797 0.473060
0.856339 0.090464 0.476321
0.897441 0.091785 0.477247
0.087556 0.171256 0.463638
0.191950 0.174613 0.466511
0.300379 0.178097 0.469525
0.411264 0.181657 0.472629
0.523985 0.185275 0.475804
0.638209 0.188940 0.479038
0.753380 0.192636 0.482316
0.868928 0.196343 0.485619
0.909865 0.197705 0.486588
0.098688 0.280943 0.473099
0.203458 0.284357 0.476033
0.312293 0.287898 0.479108
0.423617 0.291517 0.482273
0.536813 0.295194 0.485511
0.651552 0.298920 0.488810
0.766859 0.302664 0.492139
0.881826 0.306398 0.495472
0.922444 0.307794 0.496479
0.110260 0.393208 0.482967
0.215456 0.396677 0.485962
0.324763 0.400275 0.489099
0.436603 0.403952 0.492329
0.550365 0.407690 0.495632
0.665725 0.411477 0.498998
0.781032 0.415264 0.502376
0.894913 0.419007 0.505721
0.935019 0.420430 0.506760
0.122291 0.507397 0.493180
0.227985 0.510922 0.496238
0.337848 0.514578 0.499440
0.450304 0.518315 0.502736
0.564746 0.522115 0.506108
0.680855 0.525968 0.509546
0.795988 0.529792 0.512966
0.908164 0.533524 0.516306
0.947526 0.534968 0.517369
0.134827 0.623150 0.503703
0.241111 0.626733 0.506827
0.351638 0.630450 0.510097
0.464831 0.634252 0.513465
0.580089 0.638120 0.516910
0.697097 0.642044 0.520424
0.811845 0.645899 0.523879
0.921587 0.649599 0.527191
0.959930 0.651057 0.528270
0.147929 0.740241 0.514517
0.254916 0.743887 0.517711
0.366235 0.747670 0.521054
0.480310 0.751543 0.524497
0.596541 0.755485 0.528020
0.714620 0.759488 0.531616
0.828736 0.763370 0.535100
0.935197 0.767015 0.538356
0.972210 0.768480 0.539442
0.161664 0.858517 0.525610
0.269488 0.862233 0.528877
0.381749 0.866091 0.532298
0.496869 0.870042 0.535822
0.614253 0.874069 0.539431
0.733599 0.878161 0.543114
0.846795 0.882066 0.546618
0.949021 0.885630 0.549790
0.984352 0.887097 0.550872
0.174049 0.957007 0.534918
0.282842 0.960588 0.538244
0.396193 0.964303 0.541726
0.512522 0.968102 0.545313
0.631235 0.971965 0.548987
0.752034 0.975885 0.552739
0.863961 0.979516 0.556225
0.960854 0.982665 0.559249
0.994080 0.983802 0.560283
0.077888 0.066706 0.539432
0.181970 0.070004 0.542202
0.290069 0.073428 0.545113
0.400608 0.076930 0.548115
0.512961 0.080488 0.551189
0.626791 0.084094 0.554323
0.741754 0.087736 0.557508
0.857487 0.091403 0.560731
0.898577 0.092723 0.561621
0.088509 0.172206 0.548185
0.192938 0.175563 0.551019
0.301405 0.179048 0.553994
0.412331 0.182609 0.557062
0.525096 0.186228 0.560201
0.639366 0.189894 0.563402
0.754555 0.193590 0.566647
0.870064 0.197296 0.569916
0.910975 0.198657 0.570854
0.099657 0.281907 0.557517
0.204466 0.285322 0.560416
0.313345 0.288864 0.563457
0.424716 0.292483 0.566591
0.537963 0.296162 0.569799
0.652760 0.299889 0.573069
0.768072 0.303633 0.576371
0.882954 0.307364 0.579673
0.923529 0.308759 0.580652
0.111253 0.394185 0.567272
0.216494 0.397656 0.570237
0.325852 0.401255 0.573346
0.437748 0.404933 0.576549
0.551573 0.408672 0.579827
0.667002 0.412462 0.583170
0.782299 0.416248 0.586523
0.896037 0.419986 0.589842
0.936079 0.421408 0.590858
0.123315 0.508388 0.577387
0.229063 0.511914 0.580421
0.338987 0.515572 0.583600
0.451511 0.519311 0.586875
0.566028 0.523113 0.590227
0.682220 0.526969 0.593647
0.797324 0.530792 0.597046
0.909289 0.534518 0.600362
0.948560 0.535960 0.601406
0.135891 0.624155 0.587830
0.242240 0.627740 0.590935
0.352840 0.631459 0.594187
0.466115 0.635263 0.597538
0.581463 0.639134 0.600969
0.698571 0.643062 0.604470
0.813266 0.646916 0.607910
0.922716 0.650608 0.611199
0.960939 0.652063 0.612263
0.149042 0.741260 0.598580
0.256107 0.744908 0.601760
0.367513 0.748695 0.605090
0.481685 0.752571 0.608522
0.598023 0.756517 0.612037
0.716221 0.760525 0.615625
0.830257 0.764406 0.619097
0.936335 0.768040 0.622333
0.973194 0.769502 0.623407
0.162835 0.859552 0.609625
0.270751 0.863271 0.612884
0.383115 0.867134 0.616297
0.498351 0.871090 0.619816
0.615862 0.875121 0.623421
0.735346 0.879220 0.627103
0.848432 0.883122 0.630598
0.950173 0.886673 0.633752
0.985312 0.888136 0.634825
0.175279 0.957989 0.618895
0.284180 0.961570 0.622217
0.397653 0.965285 0.625697
0.514117 0.969084 0.629284
0.632977 0.972949 0.632959
0.753938 0.976871 0.636715
0.865719 0.980494 0.640195
0.962012 0.983621 0.643201
0.995005 0.984747 0.644230
0.078842 0.067647 0.624749
0.182957 0.070946 0.627475
0.291091 0.074371 0.630344
0.401665 0.077873 0.633305
0.514057 0.081432 0.636339
0.627927 0.085039 0.639436
0.742915 0.088681 0.642583
0.858640 0.092348 0.645770
0.899717 0.093668 0.646625
0.089471 0.173162 0.633358
0.193935 0.176520 0.636153
0.302441 0.180005 0.639091
0.413407 0.183567 0.642122
0.526216 0.187187 0.645228
0.640535 0.190855 0.648396
0.755741 0.194551 0.651608
0.871205 0.198255 0.654845
0.912090 0.199616 0.655751
0.100634 0.282878 0.642563
0.205483 0.286293 0.645428
0.314406 0.289836 0.648437
0.425826 0.293457 0.651540
0.539126 0.297136 0.654718
0.653980 0.300865 0.657961
0.769297 0.304609 0.661234
0.884088 0.308337 0.664507
0.924618 0.309731 0.665460
0.112254 0.395170 0.652207
0.217543 0.398641 0.655143
0.326952 0.402241 0.658225
0.438906 0.405921 0.661402
0.552794 0.409662 0.664656
0.668293 0.413454 0.667976
0.783579 0.417240 0.671306
0.897167 0.420973 0.674598
0.937142 0.422393 0.675591
0.124350 0.509386 0.662228
0.230153 0.512914 0.665237
0.340139 0.516573 0.668394
0.452732 0.520314 0.671649
0.567326 0.524119 0.674982
0.683602 0.527977 0.678385
0.798674 0.531799 0.681765
0.910421 0.535519 0.685057
0.949599 0.536958 0.686082
0.136967 0.625167 0.672593
0.243382 0.628754 0.675679
0.354056 0.632475 0.678914
0.467414 0.636282 0.682250
0.582854 0.640156 0.685667
0.700063 0.644087 0.689157
0.814703 0.647940 0.692581
0.923853 0.651624 0.695849
0.961953 0.653076 0.696898
0.150168 0.742286 0.683282
0.257311 0.745937 0.686447
0.368807 0.749727 0.689766
0.483077 0.753607 0.693188
0.599525 0.757557 0.696695
0.717843 0.761570 0.700277
0.831796 0.765449 0.703737
0.937482 0.769072 0.706954
0.974183 0.770531 0.708018
0.164019 0.860594 0.694282
0.272029 0.864317 0.697532
0.384499 0.868184 0.700940
0.499851 0.872145 0.704454
0.617491 0.876182 0.708056
0.737116 0.880286 0.711737
0.850089 0.884187 0.715225
0.951333 0.887725 0.718360
0.986277 0.889183 0.719427
0.176523 0.958976 0.703516
0.285534 0.962557 0.706835
0.399131 0.966273 0.710313
0.515731 0.970073 0.713901
0.634742 0.973939 0.717579
0.755866 0.977863 0.721338
0.867498 0.981478 0.724814
0.963179 0.984582 0.727804
0.995935 0.985699 0.728829
0.079652 0.068444 0.696803
0.183800 0.071743 0.699494
0.291969 0.075169 0.702329
0.402580 0.078672 0.705257
0.515010 0.082232 0.708260
0.628921 0.085840 0.711326
0.743935 0.089483 0.714445
0.859648 0.093150 0.717602
0.900710 0.094469 0.718429
0.090289 0.173975 0.705297
0.194790 0.177333 0.708061
0.303334 0.180819 0.710969
0.414342 0.184382 0.713972
0.527196 0.188003 0.717050
0.641564 0.191671 0.720192
0.756786 0.195368 0.723379
0.872202 0.199071 0.726589
0.913058 0.200431 0.727471
0.101469 0.283705 0.714400
0.206359 0.287121 0.717238
0.315327 0.290664 0.720222
0.426796 0.294286 0.723301
0.540150 0.297967 0.726456
0.655063 0.301698 0.729677
0.770383 0.305442 0.732928
0.885078 0.309167 0.736177
0.925561 0.310559 0.737109
0.113115 0.396011 0.723957
0.218451 0.399483 0.726870
0.327914 0.403084 0.729930
0.439926 0.406765 0.733088
0.553879 0.410508 0.736323
0.669450 0.414302 0.739627
0.784721 0.418088 0.742938
0.898155 0.421817 0.746209
0.938060 0.423235 0.747184
0.125244 0.510240 0.733904
0.231104 0.513769 0.736895
0.341153 0.517430 0.740035
0.453817 0.521174 0.743274
0.568488 0.524981 0.746594
0.684851 0.528842 0.749983
0.799890 0.532664 0.753349
0.911409 0.536377 0.756621
0.950491 0.537814 0.757632
0.137904 0.626035 0.744209
0.244386 0.629624 0.747281
0.355137 0.633348 0.750504
0.468579 0.637158 0.753829
0.584112 0.641035 0.757237
0.701424 0.644970 0.760718
0.816007 0.648822 0.764131
0.924847 0.652497 0.767381
0.962821 0.653946 0.768419
0.151156 0.743169 0.754852
0.258380 0.746824 0.758008
0.369965 0.750617 0.761319
0.484337 0.754500 0.764735
0.600895 0.758455 0.768237
0.719335 0.762473 0.771816
0.833203 0.766350 0.775268
0.938486 0.769962 0.778468
0.975027 0.771417 0.779523
0.165066 0.861494 0.765820
0.273171 0.865221 0.769066
0.385749 0.869092 0.772470
0.501220 0.873058 0.775983
0.618991 0.877101 0.779585
0.738760 0.881211 0.783268
0.851615 0.885110 0.786750
0.952351 0.888634 0.789870
0.987096 0.890088 0.790931
0.177631 0.959820 0.775030
0.286755 0.963401 0.778348
0.400477 0.967117 0.781827
0.517216 0.970918 0.785417
0.636379 0.974786 0.789100
0.757669 0.978711 0.792866
0.869148 0.982319 0.796339
0.964206 0.985400 0.799312
0.996719 0.986506 0.800333
