library/cube/Clean_Linen_003.cube
# CINEGRADE LAB — Premium Cinematic LUT
# Title: Clean Linen
# Category: Minimal Scandinavian
# Description: Clean, bright, muted, airy aesthetic inspired by Scandinavian design
# Mood: Calm, airy, minimal
# Variant: 4
# Generated: 2026-05-21T16:12:26.794874
TITLE "Clean Linen"
LUT_3D_SIZE 33
0.246908 0.247753 0.264869
0.258946 0.250057 0.267137
0.271242 0.252410 0.269455
0.283775 0.254808 0.271818
0.296529 0.257248 0.274223
0.309490 0.259727 0.276668
0.322646 0.262243 0.279149
0.335986 0.264795 0.281666
0.349501 0.267379 0.284216
0.363181 0.269994 0.286797
0.377021 0.272640 0.289408
0.391012 0.275314 0.292048
0.405149 0.278016 0.294716
0.419427 0.280745 0.297411
0.433839 0.283498 0.300130
0.448381 0.286277 0.302875
0.463049 0.289079 0.305643
0.477840 0.291904 0.308434
0.492748 0.294752 0.311247
0.507770 0.297621 0.314082
0.522904 0.300511 0.316938
0.538146 0.303422 0.319815
0.553493 0.306352 0.322711
0.568943 0.309301 0.325626
0.584493 0.312270 0.328560
0.600140 0.315257 0.331513
0.615883 0.318261 0.334483
0.631719 0.321283 0.337471
0.647645 0.324323 0.340476
0.660460 0.326768 0.342884
0.660505 0.326779 0.342845
0.660550 0.326789 0.342805
0.660595 0.326800 0.342766
0.254672 0.265269 0.272500
0.266714 0.267574 0.274769
0.279013 0.269928 0.277087
0.291550 0.272327 0.279450
0.304308 0.274767 0.281855
0.317272 0.277247 0.284299
0.330432 0.279764 0.286781
0.343775 0.282316 0.289298
0.357293 0.284901 0.291847
0.370978 0.287517 0.294429
0.384821 0.290164 0.297040
0.398816 0.292839 0.299680
0.412956 0.295541 0.302348
0.427237 0.298271 0.305042
0.441653 0.301025 0.307762
0.456199 0.303804 0.310506
0.470870 0.306607 0.313275
0.485664 0.309433 0.316066
0.500575 0.312281 0.318879
0.515601 0.315151 0.321714
0.530738 0.318042 0.324570
0.545984 0.320953 0.327447
0.561334 0.323884 0.330343
0.576787 0.326834 0.333258
0.592340 0.329803 0.336193
0.607991 0.332790 0.339145
0.623736 0.335796 0.342116
0.639575 0.338818 0.345104
0.655505 0.341858 0.348109
0.668321 0.344305 0.350517
0.668366 0.344315 0.350478
0.668410 0.344326 0.350440
0.668454 0.344336 0.350402
0.262602 0.283161 0.280297
0.274647 0.285466 0.282566
0.286950 0.287821 0.284884
0.299490 0.290220 0.287247
0.312252 0.292662 0.289652
0.325220 0.295143 0.292096
0.338383 0.297660 0.294578
0.351730 0.300213 0.297094
0.365251 0.302798 0.299644
0.378939 0.305415 0.302225
0.392786 0.308062 0.304837
0.406784 0.310738 0.307477
0.420928 0.313442 0.310145
0.435212 0.316171 0.312839
0.449631 0.318927 0.315559
0.464181 0.321706 0.318304
0.478856 0.324510 0.321072
0.493652 0.327337 0.323863
0.508567 0.330185 0.326677
0.523596 0.333056 0.329512
0.538737 0.335947 0.332368
0.553985 0.338859 0.335244
0.569339 0.341790 0.338141
0.584795 0.344741 0.341056
0.600351 0.347711 0.343991
0.616004 0.350699 0.346943
0.631753 0.353705 0.349914
0.647594 0.356728 0.352902
0.663527 0.359768 0.355908
0.676346 0.362215 0.358316
0.676390 0.362226 0.358278
0.676433 0.362237 0.358240
0.676476 0.362248 0.358203
0.270685 0.301399 0.288247
0.282734 0.303705 0.290515
0.295040 0.306060 0.292833
0.307584 0.308460 0.295196
0.320349 0.310903 0.297601
0.333320 0.313384 0.300046
0.346487 0.315902 0.302527
0.359837 0.318456 0.305044
0.373362 0.321042 0.307594
0.387053 0.323660 0.310175
0.400903 0.326307 0.312787
0.414905 0.328984 0.315427
0.429052 0.331688 0.318095
0.443340 0.334418 0.320789
0.457762 0.337174 0.323509
0.472315 0.339955 0.326254
0.486993 0.342759 0.329022
0.501793 0.345586 0.331813
0.516711 0.348435 0.334627
0.531743 0.351306 0.337462
0.546886 0.354198 0.340318
0.562138 0.357111 0.343195
0.577494 0.360043 0.346091
0.592953 0.362994 0.349007
0.608512 0.365964 0.351942
0.624169 0.368953 0.354895
0.639920 0.371959 0.357866
0.655764 0.374983 0.360854
0.671700 0.378024 0.363859
0.684521 0.380471 0.366268
0.684564 0.380483 0.366231
0.684606 0.380494 0.366194
0.684649 0.380505 0.366157
0.278912 0.319959 0.296338
0.290964 0.322266 0.298606
0.303273 0.324622 0.300924
0.315820 0.327023 0.303287
0.328588 0.329466 0.305692
0.341563 0.331948 0.308137
0.354733 0.334467 0.310619
0.368087 0.337021 0.313135
0.381615 0.339608 0.315685
0.395310 0.342226 0.318267
0.409163 0.344875 0.320878
0.423168 0.347552 0.323519
0.437318 0.350256 0.326187
0.451609 0.352987 0.328881
0.466034 0.355744 0.331601
0.480590 0.358525 0.334346
0.495271 0.361330 0.337114
0.510074 0.364157 0.339906
0.524995 0.367008 0.342719
0.540030 0.369879 0.345555
0.555177 0.372772 0.348411
0.570431 0.375684 0.351288
0.585791 0.378617 0.354185
0.601252 0.381569 0.357101
0.616814 0.384540 0.360035
0.632473 0.387529 0.362988
0.648227 0.390536 0.365960
0.664074 0.393560 0.368948
0.680012 0.396602 0.371954
0.692835 0.399049 0.374363
0.692877 0.399061 0.374326
0.692919 0.399072 0.374290
0.692961 0.399083 0.374254
0.287272 0.338822 0.304561
0.299328 0.341129 0.306830
0.311640 0.343486 0.309148
0.324190 0.345887 0.311511
0.336961 0.348331 0.313916
0.349940 0.350814 0.316361
0.363113 0.353333 0.318843
0.376469 0.355888 0.321360
0.390001 0.358475 0.323910
0.403699 0.361094 0.326491
0.417555 0.363743 0.329103
0.431563 0.366421 0.331743
0.445717 0.369126 0.334411
0.460010 0.371858 0.337106
0.474439 0.374615 0.339826
0.488997 0.377397 0.342571
0.503682 0.380202 0.345340
0.518488 0.383030 0.348131
0.533411 0.385881 0.350945
0.548450 0.388753 0.353781
0.563599 0.391646 0.356637
0.578856 0.394559 0.359514
0.594218 0.397493 0.362411
0.609683 0.400445 0.365327
0.625247 0.403416 0.368262
0.640909 0.406406 0.371216
0.656666 0.409413 0.374187
0.672515 0.412438 0.377176
0.688455 0.415480 0.380182
0.701280 0.417928 0.382591
0.701322 0.417940 0.382556
0.701363 0.417951 0.382520
0.701403 0.417962 0.382485
0.295758 0.357968 0.312910
0.307817 0.360276 0.315179
0.320133 0.362633 0.317496
0.332686 0.365035 0.319860
0.345460 0.367480 0.322265
0.358441 0.369963 0.324710
0.371617 0.372483 0.327192
0.384977 0.375038 0.329709
0.398512 0.377626 0.332259
0.412213 0.380246 0.334841
0.426072 0.382896 0.337452
0.440083 0.385574 0.340093
0.454240 0.388280 0.342761
0.468536 0.391012 0.345456
0.482968 0.393769 0.348177
0.497529 0.396552 0.350922
0.512216 0.399358 0.353690
0.527025 0.402186 0.356482
0.541952 0.405038 0.359296
0.556993 0.407910 0.362132
0.572144 0.410804 0.364989
0.587404 0.413718 0.367866
0.602769 0.416651 0.370763
0.618236 0.419604 0.373680
0.633803 0.422576 0.376615
0.649467 0.425566 0.379568
0.665227 0.428574 0.382540
0.681079 0.431599 0.385529
0.697021 0.434642 0.388536
0.709848 0.437090 0.390946
0.709888 0.437102 0.390910
0.709928 0.437113 0.390876
0.709968 0.437125 0.390841
0.304364 0.377382 0.321376
0.316425 0.379691 0.323645
0.328744 0.382049 0.325963
0.341300 0.384452 0.328327
0.354077 0.386897 0.330732
0.367061 0.389381 0.333177
0.380240 0.391901 0.335659
0.393603 0.394457 0.338176
0.407141 0.397046 0.340727
0.420844 0.399666 0.343308
0.434707 0.402316 0.345920
0.448721 0.404995 0.348561
0.462880 0.407701 0.351230
0.477180 0.410434 0.353925
0.491614 0.413192 0.356645
0.506178 0.415975 0.359390
0.520868 0.418781 0.362159
0.535680 0.421610 0.364952
0.550609 0.424462 0.367766
0.565652 0.427335 0.370602
0.580807 0.430229 0.373459
0.596069 0.433143 0.376336
0.611437 0.436078 0.379234
0.626906 0.439031 0.382151
0.642476 0.442003 0.385086
0.658142 0.444994 0.388040
0.673904 0.448002 0.391012
0.689758 0.451028 0.394001
0.705703 0.454070 0.397008
0.718531 0.456519 0.399419
0.718570 0.456531 0.399384
0.718610 0.456543 0.399350
0.718649 0.456554 0.399317
0.313082 0.397052 0.329954
0.325146 0.399361 0.332223
0.337467 0.401719 0.334542
0.350027 0.404123 0.336905
0.362807 0.406568 0.339311
0.375794 0.409052 0.341756
0.388976 0.411574 0.344239
0.402342 0.414130 0.346756
0.415882 0.416719 0.349306
0.429588 0.419340 0.351888
0.443453 0.421990 0.354501
0.457470 0.424670 0.357142
0.471632 0.427377 0.359810
0.485935 0.430110 0.362505
0.500372 0.432868 0.365226
0.514938 0.435652 0.367972
0.529631 0.438458 0.370741
0.544445 0.441288 0.373533
0.559377 0.444140 0.376348
0.574423 0.447014 0.379184
0.589580 0.449908 0.382042
0.604845 0.452823 0.384919
0.620214 0.455758 0.387817
0.635686 0.458711 0.390734
0.651258 0.461684 0.393670
0.666927 0.464675 0.396624
0.682691 0.467683 0.399597
0.698547 0.470710 0.402586
0.714494 0.473753 0.405593
0.727323 0.476202 0.408004
0.727362 0.476214 0.407971
0.727401 0.476225 0.407938
0.727438 0.476237 0.407905
0.321907 0.416963 0.338639
0.333974 0.419273 0.340908
0.346298 0.421632 0.343227
0.358860 0.424036 0.345591
0.371643 0.426481 0.347997
0.384633 0.428966 0.350442
0.397818 0.431488 0.352925
0.411186 0.434045 0.355442
0.424729 0.436635 0.357993
0.438439 0.439256 0.360575
0.452306 0.441907 0.363188
0.466326 0.444587 0.365829
0.480491 0.447294 0.368498
0.494795 0.450027 0.371193
0.509235 0.452787 0.373914
0.523804 0.455570 0.376660
0.538499 0.458378 0.379430
0.553316 0.461208 0.382222
0.568250 0.464060 0.385037
0.583299 0.466934 0.387874
0.598458 0.469829 0.390732
0.613725 0.472744 0.393610
0.629097 0.475679 0.396508
0.644571 0.478633 0.399425
0.660145 0.481606 0.402361
0.675816 0.484597 0.405316
0.691582 0.487606 0.408289
0.707440 0.490633 0.411279
0.723389 0.493676 0.414286
0.736220 0.496125 0.416698
0.736258 0.496137 0.416665
0.736295 0.496149 0.416633
0.736332 0.496161 0.416601
0.330835 0.437105 0.347426
0.342905 0.439416 0.349695
0.355232 0.441775 0.352014
0.367796 0.444180 0.354378
0.380582 0.446626 0.356784
0.393574 0.449111 0.359230
0.406762 0.451634 0.361713
0.420133 0.454191 0.364230
0.433679 0.456781 0.366781
0.447390 0.459402 0.369364
0.461261 0.462054 0.371977
0.475282 0.464734 0.374618
0.489450 0.467442 0.377287
0.503757 0.470176 0.379983
0.518199 0.472935 0.382705
0.532771 0.475719 0.385451
0.547468 0.478527 0.388220
0.562287 0.481358 0.391013
0.577224 0.484210 0.393829
0.592275 0.487085 0.396666
0.607436 0.489980 0.399524
0.622705 0.492895 0.402402
0.638080 0.495831 0.405301
0.653556 0.498785 0.408218
0.669132 0.501758 0.411155
0.684805 0.504750 0.414110
0.700572 0.507759 0.417083
0.716433 0.510786 0.420074
0.732383 0.513830 0.423082
0.745215 0.516279 0.425494
0.745252 0.516291 0.425462
0.745289 0.516303 0.425430
0.745325 0.516315 0.425399
0.339861 0.457469 0.356309
0.351933 0.459780 0.358579
0.364263 0.462140 0.360898
0.376830 0.464544 0.363263
0.389618 0.466991 0.365669
0.402613 0.469477 0.368115
0.415803 0.472000 0.370598
0.429177 0.474557 0.373116
0.442725 0.477148 0.375667
0.456439 0.479770 0.378250
0.470312 0.482422 0.380863
0.484336 0.485102 0.383505
0.498506 0.487810 0.386175
0.512815 0.490545 0.388871
0.527260 0.493305 0.391593
0.541834 0.496089 0.394339
0.556534 0.498897 0.397109
0.571355 0.501728 0.399903
0.586293 0.504581 0.402718
0.601346 0.507456 0.405556
0.616510 0.510351 0.408414
0.631781 0.513267 0.411293
0.647157 0.516203 0.414192
0.662636 0.519157 0.417110
0.678213 0.522131 0.420047
0.693888 0.525123 0.423003
0.709658 0.528132 0.425976
0.725520 0.531159 0.428967
0.741472 0.534203 0.431976
0.754306 0.536653 0.434388
0.754341 0.536665 0.434357
0.754377 0.536677 0.434327
0.754412 0.536688 0.434297
0.348980 0.478044 0.365287
0.361055 0.480356 0.367557
0.373387 0.482716 0.369876
0.385957 0.485121 0.372241
0.398748 0.487568 0.374648
0.411745 0.490054 0.377094
0.424937 0.492577 0.379577
0.438313 0.495135 0.382096
0.451864 0.497726 0.384647
0.465581 0.500349 0.387231
0.479456 0.503001 0.389844
0.493482 0.505682 0.392486
0.507654 0.508390 0.395156
0.521966 0.511125 0.397853
0.536413 0.513885 0.400575
0.550989 0.516670 0.403322
0.565691 0.519478 0.406092
0.580514 0.522310 0.408886
0.595455 0.525163 0.411702
0.610510 0.528038 0.414540
0.625675 0.530934 0.417399
0.640948 0.533850 0.420278
0.656327 0.536786 0.423177
0.671807 0.539741 0.426096
0.687386 0.542714 0.429034
0.703063 0.545706 0.431990
0.718834 0.548716 0.434964
0.734698 0.551743 0.437955
0.750652 0.554788 0.440964
0.763486 0.557237 0.443377
0.763521 0.557249 0.443347
0.763555 0.557261 0.443318
0.763589 0.557273 0.443288
0.358190 0.498823 0.374354
0.370267 0.501135 0.376625
0.382602 0.503496 0.378944
0.395174 0.505901 0.381309
0.407967 0.508349 0.383716
0.420967 0.510835 0.386163
0.434161 0.513359 0.388647
0.447540 0.515917 0.391165
0.461092 0.518508 0.393717
0.474811 0.521131 0.396301
0.488689 0.523783 0.398915
0.502717 0.526465 0.401557
0.516892 0.529173 0.404228
0.531206 0.531909 0.406925
0.545654 0.534669 0.409647
0.560233 0.537454 0.412394
0.574936 0.540263 0.415166
0.589762 0.543094 0.417960
0.604704 0.545948 0.420776
0.619761 0.548823 0.423615
0.634928 0.551719 0.426474
0.650203 0.554635 0.429354
0.665583 0.557571 0.432254
0.681065 0.560527 0.435173
0.696646 0.563501 0.438111
0.712324 0.566493 0.441067
0.728097 0.569503 0.444042
0.743962 0.572530 0.447034
0.759918 0.575575 0.450043
0.772753 0.578024 0.452457
0.772787 0.578036 0.452428
0.772820 0.578048 0.452400
0.772853 0.578059 0.452371
0.367487 0.519798 0.383508
0.379566 0.522110 0.385779
0.391903 0.524471 0.388099
0.404477 0.526877 0.390464
0.417272 0.529325 0.392872
0.430274 0.531812 0.395319
0.443471 0.534336 0.397803
0.456852 0.536894 0.400322
0.470407 0.539486 0.402875
0.484128 0.542109 0.405459
0.498007 0.544762 0.408073
0.512038 0.547443 0.410716
0.526214 0.550152 0.413387
0.540530 0.552887 0.416084
0.554981 0.555648 0.418807
0.569561 0.558433 0.421555
0.584267 0.561242 0.424326
0.599094 0.564074 0.427121
0.614038 0.566928 0.429938
0.629097 0.569803 0.432777
0.644266 0.572700 0.435637
0.659543 0.575616 0.438517
0.674924 0.578552 0.441417
0.690407 0.581508 0.444337
0.705990 0.584482 0.447276
0.721670 0.587474 0.450233
0.737444 0.590484 0.453208
0.753310 0.593512 0.456201
0.769267 0.596556 0.459211
0.782103 0.599006 0.461625
0.782136 0.599018 0.461597
0.782168 0.599029 0.461569
0.782200 0.599041 0.461542
0.376867 0.540962 0.392746
0.388949 0.543275 0.395017
0.401287 0.545636 0.397338
0.413864 0.548042 0.399704
0.426661 0.550490 0.402111
0.439665 0.552977 0.404559
0.452864 0.555501 0.407043
0.466247 0.558060 0.409563
0.479804 0.560652 0.412116
0.493527 0.563275 0.414700
0.507408 0.565928 0.417315
0.521441 0.568610 0.419958
0.535619 0.571319 0.422630
0.549937 0.574055 0.425328
0.564389 0.576816 0.428051
0.578971 0.579601 0.430799
0.593679 0.582410 0.433571
0.608508 0.585242 0.436367
0.623454 0.588096 0.439184
0.638514 0.590972 0.442024
0.653685 0.593868 0.444884
0.668963 0.596785 0.447765
0.684346 0.599721 0.450666
0.699830 0.602677 0.453586
0.715415 0.605651 0.456525
0.731095 0.608643 0.459483
0.746871 0.611654 0.462459
0.762739 0.614681 0.465452
0.778697 0.617726 0.468463
0.791533 0.620176 0.470878
0.791565 0.620187 0.470851
0.791596 0.620199 0.470824
0.791627 0.620210 0.470798
0.386328 0.562309 0.402065
0.398411 0.564621 0.404337
0.410752 0.566983 0.406658
0.423331 0.569389 0.409024
0.436130 0.571838 0.411432
0.449136 0.574325 0.413880
0.462337 0.576849 0.416365
0.475721 0.579408 0.418885
0.489280 0.582000 0.421438
0.503005 0.584624 0.424023
0.516888 0.587277 0.426638
0.530923 0.589959 0.429283
0.545103 0.592668 0.431954
0.559423 0.595404 0.434653
0.573877 0.598165 0.437377
0.588461 0.600951 0.440125
0.603170 0.603760 0.442898
0.618000 0.606592 0.445694
0.632948 0.609446 0.448512
0.648009 0.612322 0.451352
0.663181 0.615219 0.454213
0.678461 0.618135 0.457094
0.693845 0.621072 0.459996
0.709331 0.624027 0.462917
0.724917 0.627002 0.465857
0.740599 0.629994 0.468815
0.756376 0.633004 0.471791
0.772244 0.636032 0.474785
0.788204 0.639077 0.477797
0.801041 0.641527 0.480213
0.801071 0.641538 0.480187
0.801101 0.641549 0.480161
0.801131 0.641560 0.480136
0.395866 0.583832 0.411462
0.407952 0.586145 0.413735
0.420295 0.588506 0.416056
0.432875 0.590913 0.418423
0.445676 0.593361 0.420831
0.458684 0.595849 0.423280
0.471887 0.598373 0.425765
0.485273 0.600933 0.428286
0.498834 0.603525 0.430840
0.512561 0.606148 0.433425
0.526446 0.608802 0.436041
0.540482 0.611484 0.438686
0.554664 0.614193 0.441358
0.568985 0.616929 0.444057
0.583440 0.619691 0.446781
0.598026 0.622476 0.449531
0.612736 0.625286 0.452304
0.627568 0.628118 0.455100
0.642517 0.630972 0.457919
0.657580 0.633848 0.460760
0.672754 0.636744 0.463621
0.688035 0.639661 0.466503
0.703420 0.642598 0.469405
0.718907 0.645553 0.472327
0.734494 0.648528 0.475268
0.750177 0.651520 0.478227
0.765955 0.654530 0.481204
0.781825 0.657558 0.484199
0.797785 0.660603 0.487211
0.810622 0.663052 0.489627
0.810652 0.663064 0.489602
0.810680 0.663075 0.489578
0.810709 0.663086 0.489553
0.405480 0.605525 0.420936
0.417568 0.607838 0.423209
0.429912 0.610200 0.425531
0.442494 0.612607 0.427898
0.455297 0.615056 0.430307
0.468307 0.617543 0.432756
0.481512 0.620068 0.435242
0.494900 0.622627 0.437763
0.508462 0.625220 0.440318
0.522190 0.627843 0.442904
0.536077 0.630497 0.445520
0.550115 0.633179 0.448165
0.564298 0.635889 0.450838
0.578621 0.638625 0.453538
0.593078 0.641386 0.456263
0.607665 0.644172 0.459013
0.622377 0.646981 0.461787
0.637210 0.649813 0.464584
0.652160 0.652668 0.467403
0.667224 0.655543 0.470244
0.682399 0.658440 0.473107
0.697681 0.661357 0.475989
0.713068 0.664293 0.478892
0.728556 0.667249 0.481814
0.744143 0.670223 0.484756
0.759828 0.673216 0.487715
0.775606 0.676226 0.490693
0.791477 0.679254 0.493689
0.807438 0.682298 0.496702
0.820276 0.684748 0.499119
0.820304 0.684759 0.499095
0.820331 0.684770 0.499072
0.820358 0.684780 0.499048
0.415167 0.627384 0.430484
0.427256 0.629698 0.432757
0.439603 0.632059 0.435079
0.452186 0.634466 0.437447
0.464991 0.636915 0.439857
0.478002 0.639403 0.442307
0.491208 0.641928 0.444793
0.504598 0.644487 0.447315
0.518162 0.647080 0.449870
0.531892 0.649703 0.452457
0.545780 0.652357 0.455073
0.559819 0.655039 0.457719
0.574004 0.657749 0.460393
0.588328 0.660485 0.463093
0.602786 0.663246 0.465819
0.617375 0.666032 0.468569
0.632088 0.668842 0.471344
0.646922 0.671674 0.474142
0.661874 0.674528 0.476962
0.676939 0.677404 0.479804
0.692115 0.680300 0.482667
0.707398 0.683217 0.485550
0.722785 0.686154 0.488454
0.738275 0.689109 0.491377
0.753863 0.692083 0.494319
0.769548 0.695076 0.497279
0.785327 0.698086 0.500258
0.801199 0.701114 0.503254
0.817160 0.704158 0.506268
0.829998 0.706608 0.508686
0.830025 0.706618 0.508663
0.830051 0.706629 0.508641
0.830077 0.706639 0.508619
0.424925 0.649404 0.440103
0.437015 0.651717 0.442377
0.449363 0.654079 0.444700
0.461949 0.656486 0.447069
0.474755 0.658935 0.449479
0.487768 0.661423 0.451929
0.500975 0.663948 0.454417
0.514366 0.666507 0.456939
0.527932 0.669100 0.459494
0.541663 0.671724 0.462082
0.555552 0.674377 0.464699
0.569593 0.677060 0.467346
0.583779 0.679769 0.470020
0.598104 0.682505 0.472721
0.612564 0.685267 0.475447
0.627153 0.688052 0.478199
0.641868 0.690862 0.480974
0.656703 0.693694 0.483772
0.671656 0.696548 0.486593
0.686722 0.699424 0.489436
0.701899 0.702320 0.492300
0.717183 0.705237 0.495184
0.732571 0.708173 0.498088
0.748061 0.711129 0.501012
0.763650 0.714103 0.503955
0.779336 0.717095 0.506916
0.795116 0.720105 0.509896
0.810988 0.723133 0.512893
0.826950 0.726177 0.515907
0.839788 0.728627 0.518327
0.839813 0.728637 0.518305
0.839839 0.728647 0.518283
0.839863 0.728657 0.518263
0.434751 0.671579 0.449793
0.446843 0.673893 0.452068
0.459192 0.676255 0.454391
0.471779 0.678662 0.456760
0.484587 0.681111 0.459172
0.497601 0.683599 0.461622
0.510810 0.686124 0.464110
0.524203 0.688683 0.466633
0.537769 0.691276 0.469190
0.551502 0.693899 0.471778
0.565392 0.696553 0.474396
0.579434 0.699235 0.477043
0.593621 0.701945 0.479718
0.607948 0.704681 0.482419
0.622409 0.707442 0.485147
0.636999 0.710228 0.487899
0.651714 0.713037 0.490675
0.666551 0.715869 0.493474
0.681504 0.718723 0.496296
0.696571 0.721599 0.499139
0.711749 0.724495 0.502004
0.727033 0.727412 0.504889
0.742423 0.730348 0.507794
0.757913 0.733304 0.510719
0.773503 0.736278 0.513662
0.789189 0.739270 0.516624
0.804969 0.742280 0.519605
0.820842 0.745307 0.522603
0.836804 0.748351 0.525618
0.849642 0.750800 0.528038
0.849667 0.750810 0.528018
0.849690 0.750820 0.527997
0.849714 0.750830 0.527978
0.444644 0.693907 0.459552
0.456737 0.696220 0.461827
0.469088 0.698582 0.464151
0.481676 0.700989 0.466521
0.494485 0.703438 0.468933
0.507500 0.705926 0.471384
0.520711 0.708451 0.473873
0.534104 0.711010 0.476396
0.547672 0.713602 0.478953
0.561406 0.716226 0.481542
0.575298 0.718880 0.484161
0.589341 0.721562 0.486809
0.603529 0.724272 0.489485
0.617856 0.727007 0.492187
0.632318 0.729769 0.494915
0.646909 0.732554 0.497668
0.661625 0.735363 0.500445
0.676462 0.738195 0.503245
0.691417 0.741049 0.506067
0.706485 0.743925 0.508911
0.721663 0.746821 0.511777
0.736948 0.749737 0.514663
0.752338 0.752674 0.517569
0.767829 0.755629 0.520494
0.783419 0.758602 0.523439
0.799106 0.761594 0.526402
0.814886 0.764604 0.529383
0.830759 0.767631 0.532382
0.846722 0.770675 0.535398
0.859560 0.773124 0.537820
0.859583 0.773133 0.537800
0.859605 0.773143 0.537781
0.859627 0.773152 0.537763
0.454601 0.716381 0.469377
0.466696 0.718694 0.471653
0.479047 0.721056 0.473978
0.491637 0.723463 0.476348
0.504447 0.725912 0.478761
0.517464 0.728400 0.481213
0.530675 0.730925 0.483702
0.544070 0.733484 0.486227
0.557639 0.736076 0.488784
0.571374 0.738700 0.491374
0.585266 0.741354 0.493994
0.599310 0.744036 0.496642
0.613499 0.746745 0.499319
0.627828 0.749481 0.502022
0.642290 0.752242 0.504751
0.656882 0.755027 0.507505
0.671599 0.757836 0.510282
0.686437 0.760668 0.513083
0.701392 0.763522 0.515906
0.716460 0.766397 0.518751
0.731639 0.769293 0.521618
0.746925 0.772209 0.524505
0.762315 0.775145 0.527411
0.777806 0.778100 0.530338
0.793397 0.781074 0.533283
0.809084 0.784065 0.536247
0.824865 0.787075 0.539230
0.840738 0.790101 0.542229
0.856700 0.793145 0.545247
0.869538 0.795594 0.547669
0.869560 0.795603 0.547651
0.869581 0.795612 0.547633
0.869601 0.795621 0.547616
0.464621 0.738999 0.479267
0.476717 0.741312 0.481544
0.489070 0.743674 0.483870
0.501660 0.746081 0.486241
0.514471 0.748530 0.488654
0.527489 0.751017 0.491107
0.540702 0.753542 0.493597
0.554097 0.756101 0.496123
0.567667 0.758694 0.498681
0.581403 0.761317 0.501271
0.595297 0.763970 0.503892
0.609341 0.766652 0.506542
0.623531 0.769362 0.509219
0.637860 0.772097 0.511923
0.652324 0.774858 0.514653
0.666916 0.777643 0.517407
0.681634 0.780452 0.520186
0.696472 0.783284 0.522987
0.711428 0.786137 0.525812
0.726496 0.789012 0.528658
0.741676 0.791908 0.531525
0.756962 0.794824 0.534413
0.772352 0.797759 0.537320
0.787844 0.800714 0.540248
0.803435 0.803687 0.543194
0.819122 0.806679 0.546159
0.834903 0.809688 0.549142
0.850775 0.812714 0.552143
0.866738 0.815757 0.555161
0.879576 0.818206 0.557585
0.879596 0.818214 0.557568
0.879615 0.818223 0.557551
0.879634 0.818231 0.557535
0.474702 0.761757 0.489222
0.486799 0.764070 0.491499
0.499153 0.766432 0.493826
0.511744 0.768838 0.496198
0.524557 0.771287 0.498612
0.537575 0.773775 0.501066
0.550789 0.776299 0.503557
0.564185 0.778858 0.506083
0.577756 0.781450 0.508642
0.591492 0.784073 0.511233
0.605387 0.786727 0.513855
0.619432 0.789408 0.516505
0.633623 0.792117 0.519183
0.647953 0.794853 0.521888
0.662416 0.797613 0.524619
0.677010 0.800398 0.527374
0.691728 0.803207 0.530154
0.706566 0.806038 0.532956
0.721522 0.808891 0.535781
0.736591 0.811766 0.538628
0.751771 0.814662 0.541496
0.767057 0.817577 0.544385
0.782448 0.820513 0.547294
0.797940 0.823467 0.550222
0.813530 0.826440 0.553170
0.829217 0.829431 0.556136
0.844998 0.832439 0.559120
0.860871 0.835465 0.562122
0.876833 0.838508 0.565141
0.889671 0.840956 0.567566
0.889689 0.840964 0.567550
0.889707 0.840972 0.567535
0.889725 0.840980 0.567520
0.484843 0.784651 0.499239
0.496940 0.786964 0.501517
0.509295 0.789325 0.503844
0.521888 0.791732 0.506217
0.534701 0.794180 0.508632
0.547720 0.796668 0.511087
0.560934 0.799192 0.513578
0.574332 0.801751 0.516105
0.587903 0.804343 0.518666
0.601640 0.806966 0.521258
0.615535 0.809619 0.523880
0.629581 0.812300 0.526531
0.643772 0.815009 0.529210
0.658103 0.817744 0.531916
0.672567 0.820504 0.534648
0.687160 0.823289 0.537404
0.701879 0.826097 0.540185
0.716718 0.828928 0.542988
0.731674 0.831781 0.545814
0.746743 0.834656 0.548662
