library/cube/Clean_Slate_003.cube
# CINEGRADE LAB — Premium Cinematic LUT
# Title: Clean Slate
# Category: Clean Creator Economy
# Description: Bright, clean, approachable, modern aesthetic for content creators
# Mood: Fresh, bright, friendly
# Variant: 4
# Generated: 2026-05-21T16:12:38.597771
TITLE "Clean Slate"
LUT_3D_SIZE 9
0.120466 0.122657 0.150481
0.211292 0.126129 0.153953
0.308902 0.129860 0.157684
0.410594 0.133747 0.161572
0.515267 0.137748 0.165573
0.622308 0.141840 0.169664
0.731320 0.146007 0.173831
0.842028 0.150239 0.178063
0.891536 0.152131 0.179956
0.132442 0.224211 0.162458
0.223269 0.227683 0.165930
0.320879 0.231414 0.169661
0.422571 0.235301 0.173548
0.527244 0.239302 0.177549
0.634284 0.243394 0.181641
0.743297 0.247561 0.185808
0.854004 0.251793 0.190040
0.903512 0.253685 0.191932
0.145130 0.331794 0.175146
0.235957 0.335266 0.178618
0.333567 0.338997 0.182349
0.435258 0.342885 0.186236
0.539931 0.346886 0.190237
0.646972 0.350977 0.194329
0.755985 0.355144 0.198496
0.866692 0.359376 0.202728
0.916200 0.361269 0.204620
0.158241 0.442963 0.188256
0.249067 0.446435 0.191728
0.346677 0.450166 0.195459
0.448369 0.454053 0.199347
0.553042 0.458054 0.203348
0.660083 0.462146 0.207439
0.769095 0.466313 0.211606
0.879803 0.470545 0.215838
0.929311 0.472437 0.217731
0.171658 0.556732 0.201674
0.262485 0.560204 0.205145
0.360095 0.563935 0.208877
0.461786 0.567822 0.212764
0.566459 0.571823 0.216765
0.673500 0.575915 0.220857
0.782512 0.580082 0.225024
0.893220 0.584314 0.229255
0.942728 0.586206 0.231148
0.185317 0.672555 0.215333
0.276144 0.676027 0.218805
0.373754 0.679758 0.222536
0.475446 0.683645 0.226423
0.580119 0.687646 0.230424
0.687159 0.691738 0.234516
0.796172 0.695905 0.238683
0.906879 0.700137 0.242915
0.956387 0.702029 0.244807
0.199178 0.790082 0.229194
0.290004 0.793554 0.232665
0.387614 0.797285 0.236397
0.489306 0.801172 0.240284
0.593979 0.805174 0.244285
0.701020 0.809265 0.248376
0.810032 0.813432 0.252543
0.920740 0.817664 0.256775
0.970248 0.819556 0.258668
0.213210 0.909069 0.243226
0.304037 0.912541 0.246698
0.401647 0.916272 0.250429
0.503339 0.920159 0.254316
0.608012 0.924160 0.258317
0.715052 0.928252 0.262409
0.824065 0.932419 0.266576
0.934772 0.936651 0.270808
0.984280 0.938543 0.272700
0.219326 0.960921 0.249341
0.310152 0.964393 0.252813
0.407762 0.968124 0.256544
0.509454 0.972012 0.260431
0.614127 0.976013 0.264433
0.721168 0.980104 0.268524
0.830180 0.984271 0.272691
0.940887 0.988503 0.276923
0.990396 0.990396 0.278815
0.121637 0.123828 0.238423
0.212464 0.127300 0.241895
0.310074 0.131031 0.245626
0.411765 0.134919 0.249513
0.516438 0.138920 0.253514
0.623479 0.143011 0.257606
0.732491 0.147178 0.261773
0.843199 0.151410 0.266005
0.892707 0.153303 0.267897
0.133614 0.225382 0.250400
0.224440 0.228854 0.253871
0.322050 0.232585 0.257603
0.423742 0.236472 0.261490
0.528415 0.240473 0.265491
0.635455 0.244565 0.269582
0.744468 0.248732 0.273749
0.855175 0.252964 0.277981
0.904683 0.254856 0.279874
0.146301 0.332966 0.263087
0.237128 0.336437 0.266559
0.334738 0.340169 0.270290
0.436430 0.344056 0.274177
0.541103 0.348057 0.278179
0.648143 0.352148 0.282270
0.757156 0.356315 0.286437
0.867863 0.360547 0.290669
0.917371 0.362440 0.292561
0.159412 0.444134 0.276198
0.250238 0.447606 0.279670
0.347848 0.451337 0.283401
0.449540 0.455224 0.287288
0.554213 0.459226 0.291289
0.661254 0.463317 0.295381
0.770266 0.467484 0.299548
0.880974 0.471716 0.303780
0.930482 0.473608 0.305672
0.172829 0.557903 0.289615
0.263656 0.561375 0.293087
0.361266 0.565106 0.296818
0.462957 0.568993 0.300705
0.567630 0.572995 0.304706
0.674671 0.577086 0.308798
0.783684 0.581253 0.312965
0.894391 0.585485 0.317197
0.943899 0.587377 0.319089
0.186489 0.673726 0.303275
0.277315 0.677198 0.306746
0.374925 0.680929 0.310478
0.476617 0.684816 0.314365
0.581290 0.688818 0.318366
0.688330 0.692909 0.322458
0.797343 0.697076 0.326625
0.908050 0.701308 0.330856
0.957559 0.703200 0.332749
0.200349 0.791253 0.317135
0.291176 0.794725 0.320607
0.388786 0.798456 0.324338
0.490477 0.802344 0.328225
0.595150 0.806345 0.332226
0.702191 0.810436 0.336318
0.811204 0.814603 0.340485
0.921911 0.818835 0.344717
0.971419 0.820728 0.346609
0.214382 0.910240 0.331168
0.305208 0.913712 0.334639
0.402818 0.917443 0.338371
0.504510 0.921330 0.342258
0.609183 0.925331 0.346259
0.716224 0.929423 0.350351
0.825236 0.933590 0.354518
0.935943 0.937822 0.358749
0.985452 0.939714 0.360642
0.220497 0.962093 0.337283
0.311323 0.965564 0.340755
0.408933 0.969296 0.344486
0.510625 0.973183 0.348373
0.615298 0.977184 0.352374
0.722339 0.981275 0.356466
0.831351 0.985443 0.360633
0.942059 0.989674 0.364865
0.991567 0.991567 0.366757
0.122885 0.125076 0.332124
0.213711 0.128548 0.335596
0.311321 0.132279 0.339327
0.413013 0.136166 0.343214
0.517686 0.140168 0.347215
0.624727 0.144259 0.351307
0.733739 0.148426 0.355474
0.844447 0.152658 0.359706
0.893955 0.154550 0.361598
0.134861 0.226630 0.344101
0.225688 0.230102 0.347572
0.323298 0.233833 0.351304
0.424990 0.237720 0.355191
0.529663 0.241721 0.359192
0.636703 0.245813 0.363283
0.745716 0.249980 0.367450
0.856423 0.254212 0.371682
0.905931 0.256104 0.373575
0.147549 0.334213 0.356788
0.238376 0.337685 0.360260
0.335986 0.341416 0.363991
0.437677 0.345304 0.367878
0.542351 0.349305 0.371880
0.649391 0.353396 0.375971
0.758404 0.357563 0.380138
0.869111 0.361795 0.384370
0.918619 0.363688 0.386262
0.160660 0.445382 0.369899
0.251486 0.448854 0.373371
0.349096 0.452585 0.377102
0.450788 0.456472 0.380989
0.555461 0.460473 0.384990
0.662502 0.464565 0.389082
0.771514 0.468732 0.393249
0.882222 0.472964 0.397481
0.931730 0.474856 0.399373
0.174077 0.559151 0.383316
0.264904 0.562623 0.386788
0.362514 0.566354 0.390519
0.464205 0.570241 0.394406
0.568878 0.574242 0.398407
0.675919 0.578334 0.402499
0.784931 0.582501 0.406666
0.895639 0.586733 0.410898
0.945147 0.588625 0.412790
0.187736 0.674974 0.396976
0.278563 0.678446 0.400447
0.376173 0.682177 0.404179
0.477865 0.686064 0.408066
0.582538 0.690065 0.412067
0.689578 0.694157 0.416158
0.798591 0.698324 0.420325
0.909298 0.702556 0.424557
0.958806 0.704448 0.426450
0.201597 0.792501 0.410836
0.292424 0.795973 0.414308
0.390034 0.799704 0.418039
0.491725 0.803591 0.421926
0.596398 0.807593 0.425927
0.703439 0.811684 0.430019
0.812451 0.815851 0.434186
0.923159 0.820083 0.438418
0.972667 0.821975 0.440310
0.215630 0.911488 0.424869
0.306456 0.914960 0.428340
0.404066 0.918691 0.432072
0.505758 0.922578 0.435959
0.610431 0.926579 0.439960
0.717471 0.930671 0.444051
0.826484 0.934838 0.448219
0.937191 0.939070 0.452450
0.986699 0.940962 0.454343
0.221745 0.963340 0.430984
0.312571 0.966812 0.434456
0.410181 0.970543 0.438187
0.511873 0.974431 0.442074
0.616546 0.978432 0.446075
0.723587 0.982523 0.450167
0.832599 0.986690 0.454334
0.943306 0.990922 0.458565
0.992815 0.992815 0.460458
0.124181 0.126373 0.429472
0.215008 0.129845 0.432944
0.312618 0.133576 0.436675
0.414310 0.137463 0.440562
0.518983 0.141464 0.444564
0.626023 0.145556 0.448655
0.735036 0.149723 0.452822
0.845743 0.153954 0.457054
0.895251 0.155847 0.458946
0.136158 0.227926 0.441449
0.226984 0.231398 0.444921
0.324594 0.235129 0.448652
0.426286 0.239017 0.452539
0.530959 0.243018 0.456540
0.638000 0.247109 0.460632
0.747012 0.251276 0.464799
0.857720 0.255508 0.469031
0.907228 0.257401 0.470923
0.148846 0.335510 0.454137
0.239672 0.338982 0.457609
0.337282 0.342713 0.461340
0.438974 0.346600 0.465227
0.543647 0.350601 0.469228
0.650687 0.354693 0.473320
0.759700 0.358860 0.477487
0.870407 0.363092 0.481718
0.919916 0.364984 0.483611
0.161956 0.446679 0.467247
0.252783 0.450150 0.470719
0.350393 0.453882 0.474450
0.452084 0.457769 0.478337
0.556758 0.461770 0.482339
0.663798 0.465862 0.486430
0.772811 0.470029 0.490597
0.883518 0.474260 0.494829
0.933026 0.476153 0.496721
0.175373 0.560448 0.480665
0.266200 0.563919 0.484136
0.363810 0.567651 0.487868
0.465502 0.571538 0.491755
0.570175 0.575539 0.495756
0.677215 0.579630 0.499847
0.786228 0.583797 0.504014
0.896935 0.588029 0.508246
0.946443 0.589922 0.510139
0.189033 0.676271 0.494324
0.279860 0.679742 0.497796
0.377470 0.683474 0.501527
0.479161 0.687361 0.505414
0.583834 0.691362 0.509415
0.690875 0.695454 0.513507
0.799887 0.699621 0.517674
0.910595 0.703852 0.521906
0.960103 0.705745 0.523798
0.202893 0.793798 0.508184
0.293720 0.797270 0.511656
0.391330 0.801001 0.515387
0.493022 0.804888 0.519275
0.597695 0.808889 0.523276
0.704735 0.812981 0.527367
0.813748 0.817148 0.531534
0.924455 0.821379 0.535766
0.973963 0.823272 0.537659
0.216926 0.912784 0.522217
0.307753 0.916256 0.525689
0.405363 0.919987 0.529420
0.507054 0.923875 0.533307
0.611727 0.927876 0.537308
0.718768 0.931967 0.541400
0.827780 0.936134 0.545567
0.938488 0.940366 0.549799
0.987996 0.942259 0.551691
0.223041 0.964637 0.528332
0.313868 0.968109 0.531804
0.411478 0.971840 0.535535
0.513169 0.975727 0.539422
0.617842 0.979728 0.543423
0.724883 0.983820 0.547515
0.833896 0.987987 0.551682
0.944603 0.992219 0.555914
0.994111 0.994111 0.557806
0.125514 0.127705 0.529535
0.216340 0.131177 0.533007
0.313950 0.134908 0.536738
0.415642 0.138795 0.540625
0.520315 0.142797 0.544627
0.627356 0.146888 0.548718
0.736368 0.151055 0.552885
0.847076 0.155287 0.557117
0.896584 0.157179 0.559009
0.137490 0.229259 0.541512
0.228317 0.232731 0.544984
0.325927 0.236462 0.548715
0.427619 0.240349 0.552602
0.532292 0.244350 0.556603
0.639332 0.248442 0.560695
0.748345 0.252609 0.564862
0.859052 0.256841 0.569094
0.908560 0.258733 0.570986
0.150178 0.336842 0.554200
0.241005 0.340314 0.557672
0.338615 0.344045 0.561403
0.440307 0.347933 0.565290
0.544980 0.351934 0.569291
0.652020 0.356025 0.573383
0.761033 0.360192 0.577550
0.871740 0.364424 0.581781
0.921248 0.366317 0.583674
0.163289 0.448011 0.567310
0.254115 0.451483 0.570782
0.351725 0.455214 0.574513
0.453417 0.459101 0.578400
0.558090 0.463103 0.582402
0.665131 0.467194 0.586493
0.774143 0.471361 0.590660
0.884851 0.475593 0.594892
0.934359 0.477485 0.596784
0.176706 0.561780 0.580728
0.267533 0.565252 0.584199
0.365143 0.568983 0.587931
0.466834 0.572870 0.591818
0.571507 0.576871 0.595819
0.678548 0.580963 0.599910
0.787560 0.585130 0.604077
0.898268 0.589362 0.608309
0.947776 0.591254 0.610202
0.190366 0.677603 0.594387
0.281192 0.681075 0.597859
0.378802 0.684806 0.601590
0.480494 0.688693 0.605477
0.585167 0.692694 0.609478
0.692207 0.696786 0.613570
0.801220 0.700953 0.617737
0.911927 0.705185 0.621969
0.961435 0.707077 0.623861
0.204226 0.795130 0.608247
0.295053 0.798602 0.611719
0.392663 0.802333 0.615450
0.494354 0.806220 0.619338
0.599027 0.810222 0.623339
0.706068 0.814313 0.627430
0.815080 0.818480 0.631597
0.925788 0.822712 0.635829
0.975296 0.824604 0.637722
0.218259 0.914117 0.622280
0.309085 0.917589 0.625752
0.406695 0.921320 0.629483
0.508387 0.925207 0.633370
0.613060 0.929208 0.637371
0.720100 0.933300 0.641463
0.829113 0.937467 0.645630
0.939820 0.941699 0.649862
0.989328 0.943591 0.651754
0.224374 0.965970 0.628395
0.315200 0.969441 0.631867
0.412810 0.973172 0.635598
0.514502 0.977060 0.639485
0.619175 0.981061 0.643486
0.726216 0.985152 0.647578
0.835228 0.989319 0.651745
0.945936 0.993551 0.655977
0.995444 0.995444 0.657869
0.126875 0.129067 0.631776
0.217702 0.132539 0.635247
0.315312 0.136270 0.638979
0.417004 0.140157 0.642866
0.521677 0.144158 0.646867
0.628717 0.148250 0.650959
0.737730 0.152417 0.655126
0.848437 0.156649 0.659357
0.897945 0.158541 0.661250
0.138852 0.230621 0.643752
0.229679 0.234092 0.647224
0.327289 0.237824 0.650955
0.428980 0.241711 0.654842
0.533653 0.245712 0.658844
0.640694 0.249803 0.662935
0.749707 0.253970 0.667102
0.860414 0.258202 0.671334
0.909922 0.260095 0.673226
0.151540 0.338204 0.656440
0.242366 0.341676 0.659912
0.339976 0.345407 0.663643
0.441668 0.349294 0.667530
0.546341 0.353295 0.671531
0.653382 0.357387 0.675623
0.762394 0.361554 0.679790
0.873102 0.365786 0.684022
0.922610 0.367678 0.685914
0.164650 0.449373 0.669551
0.255477 0.452845 0.673022
0.353087 0.456576 0.676754
0.454779 0.460463 0.680641
0.559452 0.464464 0.684642
0.666492 0.468556 0.688734
0.775505 0.472723 0.692901
0.886212 0.476955 0.697132
0.935720 0.478847 0.699025
0.178068 0.563142 0.682968
0.268894 0.566614 0.686440
0.366504 0.570345 0.690171
0.468196 0.574232 0.694058
0.572869 0.578233 0.698059
0.679910 0.582325 0.702151
0.788922 0.586492 0.706318
0.899629 0.590723 0.710550
0.949138 0.592616 0.712442
0.191727 0.678965 0.696627
0.282554 0.682437 0.700099
0.380164 0.686168 0.703830
0.481855 0.690055 0.707717
0.586528 0.694056 0.711719
0.693569 0.698148 0.715810
0.802582 0.702315 0.719977
0.913289 0.706547 0.724209
0.962797 0.708439 0.726101
0.205588 0.796492 0.710488
0.296414 0.799964 0.713960
0.394024 0.803695 0.717691
0.495716 0.807582 0.721578
0.600389 0.811583 0.725579
0.707429 0.815675 0.729671
0.816442 0.819842 0.733838
0.927149 0.824074 0.738069
0.976657 0.825966 0.739962
0.219620 0.915479 0.724520
0.310447 0.918950 0.727992
0.408057 0.922682 0.731723
0.509748 0.926569 0.735611
0.614421 0.930570 0.739612
0.721462 0.934661 0.743703
0.830475 0.938828 0.747870
0.941182 0.943060 0.752102
0.990690 0.944953 0.753994
0.225735 0.967331 0.730636
0.316562 0.970803 0.734107
0.414172 0.974534 0.737839
0.515864 0.978421 0.741726
0.620537 0.982422 0.745727
0.727577 0.986514 0.749818
0.836590 0.990681 0.753985
0.947297 0.994913 0.758217
0.996805 0.996805 0.760110
0.128261 0.130453 0.735841
0.219088 0.133925 0.739313
0.316698 0.137656 0.743044
0.418390 0.141543 0.746931
0.523063 0.145544 0.750932
0.630103 0.149636 0.755024
0.739116 0.153803 0.759191
0.849823 0.158034 0.763423
0.899331 0.159927 0.765315
0.140238 0.232006 0.747818
0.231065 0.235478 0.751290
0.328675 0.239209 0.755021
0.430366 0.243097 0.758908
0.535039 0.247098 0.762909
0.642080 0.251189 0.767001
0.751092 0.255356 0.771168
0.861800 0.259588 0.775399
0.911308 0.261481 0.777292
0.152926 0.339590 0.760506
0.243752 0.343062 0.763977
0.341362 0.346793 0.767709
0.443054 0.350680 0.771596
0.547727 0.354681 0.775597
0.654768 0.358773 0.779688
0.763780 0.362940 0.783855
0.874488 0.367172 0.788087
0.923996 0.369064 0.789980
0.166036 0.450759 0.773616
0.256863 0.454231 0.777088
0.354473 0.457962 0.780819
0.456165 0.461849 0.784706
0.560838 0.465850 0.788707
0.667878 0.469942 0.792799
0.776891 0.474109 0.796966
0.887598 0.478340 0.801198
0.937106 0.480233 0.803090
0.179454 0.564528 0.787033
0.270280 0.568000 0.790505
0.367890 0.571731 0.794236
0.469582 0.575618 0.798123
0.574255 0.579619 0.802125
0.681295 0.583711 0.806216
0.790308 0.587878 0.810383
0.901015 0.592109 0.814615
0.950523 0.594002 0.816507
0.193113 0.680351 0.800693
0.283940 0.683823 0.804165
0.381550 0.687554 0.807896
0.483241 0.691441 0.811783
0.587914 0.695442 0.815784
0.694955 0.699534 0.819876
0.803967 0.703701 0.824043
0.914675 0.707932 0.828275
0.964183 0.709825 0.830167
0.206973 0.797878 0.814553
0.297800 0.801350 0.818025
0.395410 0.805081 0.821756
0.497102 0.808968 0.825643
0.601775 0.812969 0.829645
0.708815 0.817061 0.833736
0.817828 0.821228 0.837903
0.928535 0.825460 0.842135
0.978043 0.827352 0.844027
0.221006 0.916864 0.828586
0.311833 0.920336 0.832058
0.409443 0.924067 0.835789
0.511134 0.927955 0.839676
0.615807 0.931956 0.843677
0.722848 0.936047 0.847769
0.831860 0.940214 0.851936
0.942568 0.944446 0.856168
0.992076 0.946339 0.858060
0.227121 0.968717 0.834701
0.317948 0.972189 0.838173
0.415558 0.975920 0.841904
0.517249 0.979807 0.845791
0.621923 0.983808 0.849792
0.728963 0.987900 0.853884
0.837976 0.992067 0.858051
0.948683 0.996299 0.862283
0.998191 0.998191 0.864175
0.129668 0.131860 0.841482
0.220495 0.135332 0.844954
0.318105 0.139063 0.848685
0.419796 0.142950 0.852572
0.524470 0.146951 0.856573
0.631510 0.151043 0.860665
0.740523 0.155210 0.864832
0.851230 0.159441 0.869064
0.900738 0.161334 0.870956
0.141645 0.233413 0.853459
0.232471 0.236885 0.856930
0.330081 0.240616 0.860662
0.431773 0.244504 0.864549
0.536446 0.248505 0.868550
0.643487 0.252596 0.872641
0.752499 0.256763 0.876808
0.863207 0.260995 0.881040
0.912715 0.262888 0.882933
0.154333 0.340997 0.866146
0.245159 0.344469 0.869618
0.342769 0.348200 0.873349
0.444461 0.352087 0.877236
0.549134 0.356088 0.881238
0.656174 0.360180 0.885329
0.765187 0.364347 0.889496
0.875894 0.368579 0.893728
0.925403 0.370471 0.895620
0.167443 0.452166 0.879257
0.258270 0.455637 0.882729
0.355880 0.459369 0.886460
0.457571 0.463256 0.890347
0.562245 0.467257 0.894348
0.669285 0.471348 0.898440
0.778298 0.475516 0.902607
0.889005 0.479747 0.906839
0.938513 0.481640 0.908731
0.180860 0.565935 0.892674
0.271687 0.569406 0.896146
0.369297 0.573138 0.899877
0.470989 0.577025 0.903764
0.575662 0.581026 0.907765
0.682702 0.585117 0.911857
0.791715 0.589284 0.916024
0.902422 0.593516 0.920256
0.951930 0.595409 0.922148
0.194520 0.681758 0.906334
0.285346 0.685229 0.909805
0.382956 0.688961 0.913537
0.484648 0.692848 0.917424
0.589321 0.696849 0.921425
0.696362 0.700940 0.925517
0.805374 0.705107 0.929684
0.916082 0.709339 0.933915
0.965590 0.711232 0.935808
0.208380 0.799285 0.920194
0.299207 0.802757 0.923666
0.396817 0.806488 0.927397
0.498509 0.810375 0.931284
0.603182 0.814376 0.935285
0.710222 0.818468 0.939377
0.819235 0.822635 0.943544
0.929942 0.826866 0.947776
0.979450 0.828759 0.949668
0.222413 0.918271 0.934227
0.313240 0.921743 0.937699
0.410850 0.925474 0.941430
0.512541 0.929361 0.945317
0.617214 0.933363 0.949318
0.724255 0.937454 0.953410
0.833267 0.941621 0.957577
0.943975 0.945853 0.961808
0.993483 0.947745 0.963701
0.228528 0.970124 0.940342
0.319355 0.973596 0.943814
0.416965 0.977327 0.947545
0.518656 0.981214 0.951432
0.623329 0.985215 0.955433
0.730370 0.989307 0.959525
0.839383 0.993474 0.963692
0.950090 0.997706 0.967924
0.999598 0.999598 0.969816
0.130070 0.132262 0.871666
0.220897 0.135733 0.875138
0.318507 0.139465 0.878869
0.420198 0.143352 0.882756
0.524872 0.147353 0.886757
0.631912 0.151445 0.890849
0.740925 0.155612 0.895016
0.851632 0.159843 0.899248
0.901140 0.161736 0.901140
0.142047 0.233815 0.883643
0.232873 0.237287 0.887114
0.330483 0.241018 0.890846
0.432175 0.244905 0.894733
0.536848 0.248907 0.898734
0.643889 0.252998 0.902826
0.752901 0.257165 0.906993
0.863609 0.261397 0.911224
0.913117 0.263289 0.913117
0.154735 0.341399 0.896330
0.245561 0.344871 0.899802
0.343171 0.348602 0.903533
0.444863 0.352489 0.907421
0.549536 0.356490 0.911422
0.656576 0.360582 0.915513
0.765589 0.364749 0.919680
0.876296 0.368981 0.923912
0.925805 0.370873 0.925805
0.167845 0.452568 0.909441
0.258672 0.456039 0.912913
0.356282 0.459771 0.916644
0.457973 0.463658 0.920531
0.562646 0.467659 0.924532
0.669687 0.471750 0.928624
0.778700 0.475917 0.932791
0.889407 0.480149 0.937023
0.938915 0.482042 0.938915
0.181262 0.566337 0.922858
0.272089 0.569808 0.926330
0.369699 0.573540 0.930061
0.471391 0.577427 0.933948
0.576064 0.581428 0.937949
0.683104 0.585519 0.942041
0.792117 0.589686 0.946208
0.902824 0.593918 0.950440
0.952332 0.595811 0.952332
0.194922 0.682160 0.936518
0.285748 0.685631 0.939990
0.383358 0.689363 0.943721
0.485050 0.693250 0.947608
0.589723 0.697251 0.951609
0.696764 0.701342 0.955701
0.805776 0.705509 0.959868
0.916484 0.709741 0.964099
0.965992 0.711634 0.965992
0.208782 0.799687 0.950378
0.299609 0.803159 0.953850
0.397219 0.806890 0.957581
0.498911 0.810777 0.961468
0.603584 0.814778 0.965469
0.710624 0.818870 0.969561
0.819637 0.823037 0.973728
0.930344 0.827268 0.977960
0.979852 0.829161 0.979852
0.222815 0.918673 0.964411
0.313641 0.922145 0.967883
0.411251 0.925876 0.971614
0.512943 0.929763 0.975501
0.617616 0.933765 0.979502
0.724657 0.937856 0.983594
0.833669 0.942023 0.987761
0.944377 0.946255 0.991992
0.993885 0.948147 0.993885
0.228930 0.970526 0.970526
0.319757 0.973998 0.973998
0.417367 0.977729 0.977729
0.519058 0.981616 0.981616
0.623731 0.985617 0.985617
0.730772 0.989709 0.989709
0.839785 0.993876 0.993876
0.950492 0.998108 0.998108
1.000000 1.000000 1.000000
