library/cube/Clean_Linen_003.cube
# CINEGRADE LAB — Premium Cinematic LUT
# Title: Clean Linen
# Category: Minimal Scandinavian
# Description: Clean, bright, muted, airy aesthetic inspired by Scandinavian design
# Mood: Calm, airy, minimal
# Variant: 4
# Generated: 2026-05-21T16:12:26.794874
TITLE "Clean Linen"
LUT_3D_SIZE 5
0.246908 0.247753 0.264869
0.349501 0.267379 0.284216
0.463049 0.289079 0.305643
0.584493 0.312270 0.328560
0.660595 0.326800 0.342766
0.313082 0.397052 0.329954
0.415882 0.416719 0.349306
0.529631 0.438458 0.370741
0.651258 0.461684 0.393670
0.727438 0.476237 0.407905
0.386328 0.562309 0.402065
0.489280 0.582000 0.421438
0.603170 0.603760 0.442898
0.724917 0.627002 0.465857
0.801131 0.641560 0.480136
0.464621 0.738999 0.479267
0.567667 0.758694 0.498681
0.681634 0.780452 0.520186
0.803435 0.803687 0.543194
0.879634 0.818231 0.557535
0.513690 0.849568 0.527396
0.616765 0.869237 0.546875
0.730738 0.890965 0.568449
0.852521 0.914167 0.591532
0.928654 0.928671 0.605956
0.253580 0.254417 0.355259
0.356197 0.274045 0.374563
0.469769 0.295748 0.395950
0.591234 0.318941 0.418830
0.667346 0.333472 0.433004
0.319770 0.403731 0.420213
0.422588 0.423399 0.439532
0.536354 0.445139 0.460936
0.657996 0.468365 0.483838
0.734181 0.482918 0.498049
0.393025 0.568996 0.492223
0.495989 0.588687 0.511574
0.609889 0.610446 0.533013
0.731644 0.633686 0.555955
0.807858 0.648243 0.570220
0.471318 0.745688 0.569359
0.574370 0.765380 0.588760
0.688340 0.787136 0.610254
0.810143 0.810368 0.633255
0.886338 0.824908 0.647592
0.520377 0.856249 0.617456
0.623451 0.875913 0.636932
0.737423 0.897638 0.658506
0.859200 0.920835 0.681591
0.935325 0.935334 0.696020
0.260955 0.261784 0.455188
0.363594 0.281415 0.474446
0.477189 0.303121 0.495790
0.598675 0.326316 0.518631
0.674797 0.340848 0.532768
0.327160 0.411112 0.520000
0.429996 0.430782 0.539284
0.543778 0.452523 0.560657
0.665434 0.475749 0.583529
0.741625 0.490301 0.597716
0.400424 0.576387 0.591905
0.503400 0.596077 0.611232
0.617309 0.617835 0.632650
0.739072 0.641074 0.655573
0.815287 0.655628 0.669824
0.478718 0.753080 0.668972
0.581775 0.772769 0.688359
0.695749 0.794522 0.709843
0.817552 0.817751 0.732837
0.893742 0.832288 0.747171
0.527765 0.863632 0.717037
0.630839 0.883293 0.736511
0.744808 0.905013 0.758085
0.866580 0.928205 0.781174
0.942695 0.942699 0.795610
0.268833 0.269655 0.561942
0.371495 0.289289 0.581153
0.485113 0.310997 0.602454
0.606620 0.334194 0.625253
0.682751 0.348727 0.639355
0.335055 0.418998 0.626610
0.437907 0.438669 0.645858
0.551705 0.460410 0.667198
0.673376 0.483637 0.690042
0.749572 0.498189 0.704203
0.408327 0.584281 0.698408
0.511314 0.603970 0.717710
0.625233 0.625727 0.739107
0.747003 0.648965 0.762013
0.823217 0.663517 0.776250
0.486621 0.760975 0.775405
0.589683 0.780662 0.794780
0.703659 0.802412 0.816254
0.825463 0.825638 0.839242
0.901648 0.840171 0.853574
0.535657 0.871518 0.823442
0.638730 0.891175 0.842914
0.752695 0.912890 0.864490
0.874461 0.936078 0.887584
0.950566 0.950567 0.902029
0.273780 0.274586 0.628585
0.376464 0.294221 0.647771
0.490101 0.315931 0.669048
0.611627 0.339130 0.691825
0.687766 0.353663 0.705909
0.340012 0.423940 0.693175
0.442880 0.443611 0.712406
0.556692 0.465353 0.733730
0.678374 0.488580 0.756559
0.754573 0.503130 0.770710
0.413287 0.589229 0.764920
0.516283 0.608917 0.784212
0.630210 0.630672 0.805601
0.751986 0.653908 0.828500
0.828199 0.668458 0.842734
0.491577 0.765922 0.841890
0.594643 0.785606 0.861262
0.708621 0.807352 0.882736
0.830423 0.830575 0.905726
0.906602 0.845103 0.920061
0.540599 0.876455 0.889927
0.643670 0.896107 0.909404
0.757631 0.917818 0.930986
0.879389 0.941000 0.954084
0.955484 0.955484 0.968546
