library/cube/Clean_Linen_003.cube
# CINEGRADE LAB — Premium Cinematic LUT
# Title: Clean Linen
# Category: Minimal Scandinavian
# Description: Clean, bright, muted, airy aesthetic inspired by Scandinavian design
# Mood: Calm, airy, minimal
# Variant: 4
# Generated: 2026-05-21T16:12:26.794874
TITLE "Clean Linen"
LUT_3D_SIZE 9
0.246908 0.247753 0.264869
0.296529 0.257248 0.274223
0.349501 0.267379 0.284216
0.405149 0.278016 0.294716
0.463049 0.289079 0.305643
0.522904 0.300511 0.316938
0.584493 0.312270 0.328560
0.647645 0.324323 0.340476
0.660595 0.326800 0.342766
0.278912 0.319959 0.296338
0.328588 0.329466 0.305692
0.381615 0.339608 0.315685
0.437318 0.350256 0.326187
0.495271 0.361330 0.337114
0.555177 0.372772 0.348411
0.616814 0.384540 0.360035
0.680012 0.396602 0.371954
0.692961 0.399083 0.374254
0.313082 0.397052 0.329954
0.362807 0.406568 0.339311
0.415882 0.416719 0.349306
0.471632 0.427377 0.359810
0.529631 0.438458 0.370741
0.589580 0.449908 0.382042
0.651258 0.461684 0.393670
0.714494 0.473753 0.405593
0.727438 0.476237 0.407905
0.348980 0.478044 0.365287
0.398748 0.487568 0.374648
0.451864 0.497726 0.384647
0.507654 0.508390 0.395156
0.565691 0.519478 0.406092
0.625675 0.530934 0.417399
0.687386 0.542714 0.429034
0.750652 0.554788 0.440964
0.763589 0.557273 0.443288
0.386328 0.562309 0.402065
0.436130 0.571838 0.411432
0.489280 0.582000 0.421438
0.545103 0.592668 0.431954
0.603170 0.603760 0.442898
0.663181 0.615219 0.454213
0.724917 0.627002 0.465857
0.788204 0.639077 0.477797
0.801131 0.641560 0.480136
0.424925 0.649404 0.440103
0.474755 0.658935 0.449479
0.527932 0.669100 0.459494
0.583779 0.679769 0.470020
0.641868 0.690862 0.480974
0.701899 0.702320 0.492300
0.763650 0.714103 0.503955
0.826950 0.726177 0.515907
0.839863 0.728657 0.518263
0.464621 0.738999 0.479267
0.514471 0.748530 0.488654
0.567667 0.758694 0.498681
0.623531 0.769362 0.509219
0.681634 0.780452 0.520186
0.741676 0.791908 0.531525
0.803435 0.803687 0.543194
0.866738 0.815757 0.555161
0.879634 0.818231 0.557535
0.505296 0.830835 0.519455
0.555160 0.840362 0.528856
0.608367 0.850522 0.538897
0.664239 0.861186 0.549449
0.722348 0.872271 0.560432
0.782392 0.883722 0.571787
0.844150 0.895495 0.583473
0.907448 0.907558 0.595458
0.920324 0.910023 0.597852
0.513690 0.849568 0.527396
0.563557 0.859086 0.536815
0.616765 0.869237 0.546875
0.672635 0.879890 0.557447
0.730738 0.890965 0.568449
0.790775 0.902405 0.579825
0.852521 0.914167 0.591532
0.915805 0.926218 0.603539
0.928654 0.928671 0.605956
0.250137 0.250977 0.308601
0.299764 0.260473 0.317945
0.352741 0.270604 0.327927
0.408396 0.281242 0.338418
0.466302 0.292306 0.349335
0.526162 0.303739 0.360621
0.587756 0.315498 0.372234
0.650913 0.327551 0.384141
0.663863 0.330028 0.386424
0.282145 0.323188 0.340036
0.331827 0.332695 0.349381
0.384858 0.342837 0.359365
0.440567 0.353486 0.369857
0.498525 0.364560 0.380777
0.558435 0.376002 0.392066
0.620077 0.387771 0.403682
0.683279 0.399833 0.415593
0.696227 0.402314 0.417887
0.316318 0.400283 0.373622
0.366048 0.409800 0.382971
0.419127 0.419951 0.392958
0.474882 0.430609 0.403454
0.532885 0.441691 0.414378
0.592838 0.453141 0.425672
0.654519 0.464917 0.437293
0.717759 0.476986 0.449211
0.730702 0.479470 0.451517
0.352220 0.481279 0.408928
0.401990 0.490802 0.418282
0.455111 0.500961 0.428275
0.510904 0.511625 0.438777
0.568944 0.522713 0.449708
0.628932 0.534168 0.461008
0.690645 0.545949 0.472638
0.753913 0.558022 0.484563
0.766850 0.560506 0.486884
0.389569 0.565545 0.445684
0.439374 0.575074 0.455045
0.492527 0.585236 0.465046
0.548352 0.595904 0.475557
0.606421 0.606995 0.486496
0.666435 0.618453 0.497806
0.728173 0.630236 0.509446
0.791461 0.642311 0.521382
0.804387 0.644794 0.523718
0.428166 0.652641 0.483704
0.477998 0.662172 0.493075
0.531178 0.672336 0.503086
0.587027 0.683005 0.513608
0.645117 0.694097 0.524558
0.705149 0.705555 0.535881
0.766902 0.717337 0.547533
0.830202 0.729411 0.559483
0.843114 0.731890 0.561836
0.467862 0.742236 0.522853
0.517714 0.751766 0.532237
0.570911 0.761929 0.542261
0.626776 0.772596 0.552796
0.684880 0.783686 0.563760
0.744922 0.795141 0.575097
0.806681 0.806920 0.586765
0.869985 0.818989 0.598731
0.882879 0.821462 0.601104
0.508535 0.834071 0.563031
0.558400 0.843597 0.572430
0.611608 0.853756 0.582469
0.667480 0.864419 0.593020
0.725589 0.875504 0.604001
0.785633 0.886953 0.615355
0.847390 0.898725 0.627041
0.910688 0.910787 0.639026
0.923560 0.913251 0.641421
0.516926 0.852801 0.570966
0.566792 0.862318 0.580385
0.620000 0.872467 0.590444
0.675870 0.883120 0.601016
0.733973 0.894194 0.612018
0.794008 0.905632 0.623394
0.855753 0.917393 0.635102
0.919035 0.929444 0.647110
0.931882 0.931895 0.649528
0.253580 0.254417 0.355259
0.303214 0.263913 0.364592
0.356197 0.274045 0.374563
0.411857 0.284684 0.385044
0.469769 0.295748 0.395950
0.529634 0.307181 0.407227
0.591234 0.318941 0.418830
0.654396 0.330995 0.430729
0.667346 0.333472 0.433004
0.285593 0.326631 0.386658
0.335280 0.336139 0.395994
0.388317 0.346282 0.405968
0.444030 0.356931 0.416451
0.501993 0.368005 0.427362
0.561908 0.379448 0.438642
0.623554 0.391217 0.450250
0.686761 0.403279 0.462154
0.699708 0.405760 0.464441
0.319770 0.403731 0.420213
0.369504 0.413247 0.429553
0.422588 0.423399 0.439532
0.478347 0.434057 0.450020
0.536354 0.445139 0.460936
0.596310 0.456589 0.472223
0.657996 0.468365 0.483838
0.721238 0.480434 0.495749
0.734181 0.482918 0.498049
0.355674 0.484728 0.455491
0.405448 0.494252 0.464838
0.458572 0.504410 0.474824
0.514370 0.515074 0.485320
0.572413 0.526162 0.496243
0.632403 0.537618 0.507538
0.694119 0.549398 0.519162
0.757390 0.561471 0.531083
0.770325 0.563955 0.533398
0.393025 0.568996 0.492223
0.442833 0.578525 0.501579
0.495989 0.588687 0.511574
0.551817 0.599355 0.522079
0.609889 0.610446 0.533013
0.669905 0.621904 0.544319
0.731644 0.633686 0.555955
0.794934 0.645760 0.567887
0.807858 0.648243 0.570220
0.431623 0.656093 0.530224
0.481457 0.665624 0.539591
0.534639 0.675788 0.549598
0.590490 0.686456 0.560115
0.648582 0.697548 0.571062
0.708615 0.709005 0.582381
0.770369 0.720787 0.594030
0.833670 0.732860 0.605977
0.846580 0.735338 0.608329
0.471318 0.745688 0.569359
0.521172 0.755218 0.578739
0.574370 0.765380 0.588760
0.630236 0.776047 0.599292
0.688340 0.787136 0.610254
0.748383 0.798590 0.621589
0.810143 0.810368 0.633255
0.873446 0.822437 0.645220
0.886338 0.824908 0.647592
0.511990 0.837522 0.609526
0.561855 0.847048 0.618922
0.615064 0.857206 0.628960
0.670937 0.867868 0.639509
0.729045 0.878951 0.650489
0.789088 0.890400 0.661843
0.850845 0.902171 0.673529
0.914142 0.914231 0.685514
0.927012 0.916694 0.687909
0.520377 0.856249 0.617456
0.570243 0.865765 0.626873
0.623451 0.875913 0.636932
0.679321 0.886565 0.647503
0.737423 0.897638 0.658506
0.797457 0.909075 0.669882
0.859200 0.920835 0.681591
0.922480 0.932884 0.693600
0.935325 0.935334 0.696020
0.257196 0.258028 0.404247
0.306835 0.267526 0.413569
0.359824 0.277658 0.423529
0.415490 0.288298 0.433998
0.473407 0.299362 0.444895
0.533278 0.310796 0.456161
0.594883 0.322556 0.467755
0.658050 0.334611 0.479644
0.671000 0.337088 0.481911
0.289213 0.330247 0.435609
0.338905 0.339755 0.444934
0.391947 0.349898 0.454899
0.447665 0.360548 0.465373
0.505633 0.371623 0.476274
0.565552 0.383066 0.487546
0.627203 0.394835 0.499146
0.690413 0.406898 0.511041
0.703361 0.409379 0.513321
0.323393 0.407349 0.469131
0.373132 0.416866 0.478462
0.426220 0.427018 0.488433
0.481983 0.437676 0.498913
0.539994 0.448759 0.509821
0.599954 0.460209 0.521101
0.661643 0.471985 0.532709
0.724889 0.484054 0.544613
0.737832 0.486538 0.546908
0.359300 0.488350 0.504381
0.409078 0.497874 0.513720
0.462205 0.508032 0.523699
0.518006 0.518696 0.534188
0.576052 0.529784 0.545105
0.636046 0.541239 0.556394
0.697765 0.553019 0.568013
0.761038 0.565092 0.579928
0.773972 0.567576 0.582239
0.396652 0.572620 0.541089
0.446463 0.582148 0.550439
0.499622 0.592310 0.560428
0.555453 0.602977 0.570928
0.613527 0.614068 0.581857
0.673545 0.625526 0.593158
0.735286 0.637308 0.604789
0.798578 0.649382 0.616717
0.811501 0.651864 0.619047
0.435251 0.659717 0.579071
0.485088 0.669247 0.588432
0.538271 0.679411 0.598435
0.594124 0.690079 0.608948
0.652218 0.701170 0.619891
0.712252 0.712627 0.631207
0.774007 0.724408 0.642853
0.837308 0.736480 0.654798
0.850217 0.738958 0.657147
0.474946 0.749312 0.618190
0.524801 0.758841 0.627567
0.578001 0.769003 0.637585
0.633868 0.779669 0.648114
0.691973 0.790757 0.659074
0.752016 0.802211 0.670407
0.813775 0.813988 0.682071
0.877078 0.826055 0.694035
0.889968 0.828526 0.696406
0.515616 0.841145 0.658347
0.565482 0.850670 0.667741
0.618691 0.860827 0.677777
0.674564 0.871488 0.688325
0.732672 0.882570 0.699303
0.792715 0.894018 0.710657
0.854471 0.905788 0.722342
0.917767 0.917848 0.734327
0.930635 0.920309 0.736723
0.523999 0.859869 0.666272
0.573866 0.869384 0.675688
0.627073 0.879531 0.685746
0.682943 0.890182 0.696317
0.741044 0.901253 0.707320
0.801076 0.912690 0.718697
0.862818 0.924448 0.730407
0.926097 0.936496 0.742417
0.938938 0.938945 0.744839
0.260955 0.261784 0.455188
0.310599 0.271282 0.464497
0.363594 0.281415 0.474446
0.419266 0.292055 0.484905
0.477189 0.303121 0.495790
0.537066 0.314555 0.507047
0.598675 0.326316 0.518631
0.661847 0.338371 0.530510
0.674797 0.340848 0.532768
0.292976 0.334006 0.486512
0.342673 0.343515 0.495827
0.395721 0.353659 0.505781
0.451444 0.364309 0.516246
0.509416 0.375384 0.527138
0.569340 0.386827 0.538401
0.630995 0.398597 0.549992
0.694210 0.410660 0.561879
0.707157 0.413141 0.564152
0.327160 0.411112 0.520000
0.376903 0.420630 0.529322
0.429996 0.430782 0.539284
0.485763 0.441440 0.549757
0.543778 0.452523 0.560657
0.603742 0.463973 0.571929
0.665434 0.475749 0.583529
0.728683 0.487818 0.595427
0.741625 0.490301 0.597716
0.363070 0.492115 0.555221
0.412852 0.501639 0.564553
0.465983 0.511798 0.574524
0.521787 0.522461 0.585007
0.579836 0.533549 0.595918
0.639832 0.545005 0.607200
0.701554 0.556785 0.618813
0.764829 0.568857 0.630723
0.777763 0.571341 0.633030
0.400424 0.576387 0.591905
0.450238 0.585915 0.601248
0.503400 0.596077 0.611232
0.559233 0.606744 0.621726
0.617309 0.617835 0.632650
0.677329 0.629292 0.643946
0.739072 0.641074 0.655573
0.802365 0.653147 0.667498
0.815287 0.655628 0.669824
0.439023 0.663485 0.629867
0.488862 0.673015 0.639224
0.542048 0.683178 0.649221
0.597902 0.693846 0.659731
0.655997 0.704936 0.670670
0.716033 0.716393 0.681982
0.777789 0.728173 0.693626
0.841091 0.740245 0.705568
0.853997 0.742721 0.707916
0.478718 0.753080 0.668972
0.528574 0.762608 0.678345
0.581775 0.772769 0.688359
0.637643 0.783435 0.698886
0.695749 0.794522 0.709843
0.755792 0.805975 0.721174
0.817552 0.817751 0.732837
0.880854 0.829818 0.744800
0.893742 0.832288 0.747171
0.519386 0.844911 0.709118
0.569253 0.854435 0.718510
0.622462 0.864592 0.728543
0.678336 0.875252 0.739090
0.736443 0.886333 0.750068
0.796486 0.897780 0.761421
0.858241 0.909549 0.773106
0.921535 0.921607 0.785091
0.934401 0.924068 0.787488
0.527765 0.863632 0.717037
0.577632 0.873146 0.726453
0.630839 0.883293 0.736511
0.686708 0.893942 0.747082
0.744808 0.905013 0.758085
0.804840 0.916448 0.769463
0.866580 0.928205 0.781174
0.929856 0.940252 0.793186
0.942695 0.942699 0.795610
0.264838 0.265664 0.507817
0.314489 0.275163 0.517115
0.367490 0.285297 0.527053
0.423167 0.295937 0.537500
0.481096 0.307003 0.548375
0.540978 0.318438 0.559621
0.602592 0.330200 0.571195
0.665769 0.342255 0.583065
0.678719 0.344732 0.585315
0.296864 0.337891 0.539103
0.346567 0.347400 0.548408
0.399619 0.357544 0.558352
0.455347 0.368194 0.568807
0.513324 0.379270 0.579689
0.573253 0.390714 0.590943
0.634912 0.402484 0.602526
0.698131 0.414547 0.614406
0.711078 0.417028 0.616671
0.331052 0.415000 0.572558
0.380799 0.424518 0.581871
0.433896 0.434670 0.591824
0.489668 0.445328 0.602288
0.547687 0.456411 0.613181
0.607654 0.467862 0.624445
0.669350 0.479638 0.636039
0.732602 0.491707 0.647929
0.745543 0.494190 0.650213
0.366964 0.496005 0.607750
0.416750 0.505529 0.617074
0.469884 0.515688 0.627038
0.525692 0.526352 0.637513
0.583744 0.537440 0.648418
0.643743 0.548895 0.659694
0.705468 0.560675 0.671301
0.768745 0.572747 0.683206
0.781677 0.575230 0.685508
0.404320 0.580279 0.644410
0.454137 0.589807 0.653746
0.507301 0.599968 0.663724
0.563137 0.610635 0.674213
0.621216 0.621726 0.685132
0.681238 0.633183 0.696423
0.742982 0.644964 0.708046
0.806277 0.657037 0.719967
0.819197 0.659518 0.722290
0.442920 0.667378 0.682351
0.492761 0.676907 0.691703
0.545948 0.687070 0.701697
0.601805 0.697737 0.712202
0.659901 0.708827 0.723137
0.719938 0.720283 0.734447
0.781694 0.732063 0.746087
0.844997 0.744134 0.758027
0.857902 0.746610 0.760373
0.482614 0.756972 0.721441
0.532472 0.766500 0.730811
0.585674 0.776661 0.740822
0.641543 0.787325 0.751346
0.699649 0.798412 0.762301
0.759693 0.809864 0.773631
0.821452 0.821640 0.785292
0.884754 0.833705 0.797254
0.897640 0.836174 0.799624
0.523281 0.848803 0.761577
0.573148 0.858326 0.770967
0.626358 0.868481 0.780999
0.682231 0.879140 0.791545
0.740339 0.890221 0.802522
0.800381 0.901666 0.813874
0.862135 0.913434 0.825559
0.925427 0.925492 0.837545
0.938291 0.927951 0.839943
0.531656 0.867520 0.769492
0.581523 0.877033 0.778907
0.634730 0.887179 0.788965
0.690598 0.897827 0.799536
0.748697 0.908896 0.810539
0.808727 0.920330 0.821918
0.870465 0.932086 0.833631
0.933739 0.944132 0.845645
0.946575 0.946578 0.848071
0.268833 0.269655 0.561942
0.318489 0.279154 0.571228
0.371495 0.289289 0.581153
0.427179 0.299930 0.591590
0.485113 0.310997 0.602454
0.545000 0.322432 0.613689
0.606620 0.334194 0.625253
0.669802 0.346250 0.637114
0.682751 0.348727 0.639355
0.300863 0.341885 0.593189
0.350570 0.351395 0.602483
0.403628 0.361540 0.612417
0.459361 0.372191 0.622862
0.517343 0.383267 0.633735
0.577276 0.394711 0.644980
0.638939 0.406481 0.656555
0.702162 0.418545 0.668426
0.715108 0.421025 0.670685
0.335055 0.418998 0.626610
0.384806 0.428516 0.635914
0.437907 0.438669 0.645858
0.493683 0.449327 0.656314
0.551705 0.460410 0.667198
0.611677 0.471861 0.678455
0.673376 0.483637 0.690042
0.736631 0.495707 0.701926
0.749572 0.498189 0.704203
0.370969 0.500006 0.661773
0.420759 0.509530 0.671089
0.473896 0.519689 0.681046
0.529707 0.530352 0.691514
0.587763 0.541440 0.702412
0.647765 0.552895 0.713683
0.709491 0.564675 0.725284
0.772771 0.576748 0.737183
0.785702 0.579230 0.739481
0.408327 0.584281 0.698408
0.458146 0.593809 0.707738
0.511314 0.603970 0.717710
0.567152 0.614637 0.728193
0.625233 0.625727 0.739107
0.685257 0.637184 0.750394
0.747003 0.648965 0.762013
0.810298 0.661038 0.773930
0.823217 0.663517 0.776250
0.446928 0.671381 0.736330
0.496771 0.680910 0.745677
0.549960 0.691072 0.755666
0.605818 0.701739 0.766167
0.663915 0.712828 0.777099
0.723954 0.724284 0.788405
0.785710 0.736063 0.800043
0.849013 0.748133 0.811981
0.861916 0.750608 0.814325
0.486621 0.760975 0.775405
0.536480 0.770502 0.784771
0.589683 0.780662 0.794780
0.645553 0.791326 0.805301
0.703659 0.802412 0.816254
0.763703 0.813863 0.827582
0.825463 0.825638 0.839242
0.888764 0.837703 0.851203
0.901648 0.840171 0.853574
0.527286 0.852804 0.815531
0.577153 0.862326 0.824919
0.630363 0.872481 0.834950
0.686237 0.883139 0.845495
0.744344 0.894219 0.856471
0.804385 0.905663 0.867823
0.866138 0.917430 0.879509
0.929430 0.929486 0.891495
0.942290 0.931944 0.893894
0.535657 0.871518 0.823442
0.585524 0.881031 0.832857
0.638730 0.891175 0.842914
0.694597 0.901822 0.853486
0.752695 0.912890 0.864490
0.812724 0.924323 0.875870
0.874461 0.936078 0.887584
0.937732 0.948122 0.899600
0.950566 0.950567 0.902029
0.272926 0.273745 0.617410
0.322588 0.283245 0.626684
0.375601 0.293381 0.636598
0.431290 0.304023 0.647023
0.489229 0.315090 0.657876
0.549121 0.326526 0.669101
0.610746 0.338288 0.680655
0.673933 0.350345 0.692506
0.686883 0.352822 0.694739
0.304962 0.345980 0.648619
0.354674 0.355490 0.657902
0.407736 0.365635 0.667826
0.463474 0.376286 0.678261
0.521460 0.387363 0.689125
0.581398 0.398807 0.700361
0.643065 0.410578 0.711927
0.706292 0.422642 0.723790
0.719238 0.425122 0.726041
0.339157 0.423096 0.682005
0.388912 0.432614 0.691300
0.442018 0.442767 0.701236
0.497797 0.453426 0.711683
0.555824 0.464509 0.722560
0.615799 0.475960 0.733809
0.677501 0.487736 0.745389
0.740759 0.499805 0.757266
0.753699 0.502288 0.759538
0.375074 0.504106 0.717139
0.424867 0.513630 0.726447
0.478008 0.523789 0.736397
0.533822 0.534453 0.746859
0.591880 0.545540 0.757750
0.651885 0.556995 0.769015
0.713614 0.568775 0.780611
0.776895 0.580847 0.792505
0.789826 0.583329 0.794799
0.412433 0.588383 0.753750
0.462255 0.597910 0.763074
0.515425 0.608072 0.773040
0.571266 0.618738 0.783518
0.629349 0.629828 0.794427
0.689375 0.641284 0.805710
0.751122 0.653065 0.817324
0.814419 0.665137 0.829237
0.827336 0.667616 0.831555
0.451034 0.675483 0.791653
0.500879 0.685012 0.800995
0.554070 0.695173 0.810980
0.609930 0.705840 0.821477
0.668029 0.716929 0.832406
0.728068 0.728384 0.843709
0.789825 0.740162 0.855344
0.853129 0.752232 0.867280
0.866030 0.754706 0.869623
0.490726 0.765077 0.830714
0.540587 0.774604 0.840077
0.593791 0.784763 0.850082
0.649662 0.795426 0.860602
0.707769 0.806511 0.871553
0.767813 0.817962 0.882879
0.829572 0.829736 0.894538
0.892873 0.841800 0.906498
0.905754 0.844266 0.908869
0.531390 0.856905 0.870830
0.581258 0.866426 0.880217
0.634468 0.876580 0.890246
0.690341 0.887237 0.900790
0.748448 0.898316 0.911766
0.808489 0.909759 0.923118
0.870241 0.921525 0.934801
0.933530 0.933580 0.946770
0.946388 0.936037 0.949175
0.539757 0.875616 0.878738
0.589623 0.885127 0.888152
0.642829 0.895270 0.898210
0.698696 0.905916 0.908782
0.756793 0.916984 0.919787
0.816820 0.928415 0.931169
0.878555 0.940169 0.942881
0.941824 0.952212 0.954900
0.954655 0.954655 0.957334
0.273780 0.274586 0.628585
0.323447 0.284086 0.637858
0.376464 0.294221 0.647771
0.432157 0.304863 0.658195
0.490101 0.315931 0.669048
0.549998 0.327367 0.680272
0.611627 0.339130 0.691825
0.674817 0.351186 0.703675
0.687766 0.353663 0.705909
0.305816 0.346822 0.659790
0.355532 0.356332 0.669073
0.408599 0.366478 0.678997
0.464340 0.377129 0.689431
0.522331 0.388205 0.700295
0.582272 0.399650 0.711531
0.643942 0.411420 0.723096
0.707172 0.423484 0.734959
0.720117 0.425964 0.737211
0.340012 0.423940 0.693175
0.389771 0.433458 0.702470
0.442880 0.443611 0.712406
0.498662 0.454270 0.722853
0.556692 0.465353 0.733730
0.616669 0.476803 0.744979
0.678374 0.488580 0.756559
0.741635 0.500649 0.768437
0.754573 0.503130 0.770710
0.375929 0.504952 0.728309
0.425724 0.514476 0.737617
0.478868 0.524634 0.747567
0.534685 0.535297 0.758029
0.592746 0.546385 0.768921
0.652752 0.557839 0.780186
0.714483 0.569619 0.791783
0.777766 0.581690 0.803678
0.790695 0.584172 0.805973
0.413287 0.589229 0.764920
0.463112 0.598756 0.774245
0.516283 0.608917 0.784212
0.572126 0.619583 0.794691
0.630210 0.630672 0.805601
0.690238 0.642128 0.816884
0.751986 0.653908 0.828500
0.815283 0.665979 0.840415
0.828199 0.668458 0.842734
0.451887 0.676329 0.802826
0.501733 0.685857 0.812169
0.554925 0.696018 0.822155
0.610786 0.706683 0.832654
0.668886 0.717772 0.843584
0.728926 0.729226 0.854888
0.790683 0.741004 0.866525
0.853986 0.753072 0.878462
0.866885 0.755546 0.880808
0.491577 0.765922 0.841890
0.541438 0.775447 0.851255
0.594643 0.785606 0.861262
0.650513 0.796268 0.871783
0.708621 0.807352 0.882736
0.768665 0.818802 0.894064
0.830423 0.830575 0.905726
0.893723 0.842638 0.917688
0.906602 0.845103 0.920061
0.532237 0.857747 0.882012
0.582105 0.867268 0.891401
0.635315 0.877421 0.901432
0.691188 0.888077 0.911978
0.749294 0.899154 0.922957
0.809334 0.910596 0.934309
0.871084 0.922361 0.945973
0.934372 0.934415 0.957955
0.947227 0.936870 0.960370
0.540599 0.876455 0.889927
0.590465 0.885965 0.899344
0.643670 0.896107 0.909404
0.699535 0.906751 0.919979
0.757631 0.917818 0.930986
0.817656 0.929248 0.942365
0.879389 0.941000 0.954084
0.942656 0.953042 0.966109
0.955484 0.955484 0.968546
