library/cube/Clean_Slate_003.cube
# CINEGRADE LAB — Premium Cinematic LUT
# Title: Clean Slate
# Category: Clean Creator Economy
# Description: Bright, clean, approachable, modern aesthetic for content creators
# Mood: Fresh, bright, friendly
# Variant: 4
# Generated: 2026-05-21T16:12:38.597771
TITLE "Clean Slate"
LUT_3D_SIZE 5
0.120466 0.122657 0.150481
0.308902 0.129860 0.157684
0.515267 0.137748 0.165573
0.731320 0.146007 0.173831
0.891536 0.152131 0.179956
0.145130 0.331794 0.175146
0.333567 0.338997 0.182349
0.539931 0.346886 0.190237
0.755985 0.355144 0.198496
0.916200 0.361269 0.204620
0.171658 0.556732 0.201674
0.360095 0.563935 0.208877
0.566459 0.571823 0.216765
0.782512 0.580082 0.225024
0.942728 0.586206 0.231148
0.199178 0.790082 0.229194
0.387614 0.797285 0.236397
0.593979 0.805174 0.244285
0.810032 0.813432 0.252543
0.970248 0.819556 0.258668
0.219326 0.960921 0.249341
0.407762 0.968124 0.256544
0.614127 0.976013 0.264433
0.830180 0.984271 0.272691
0.990396 0.990396 0.278815
0.122885 0.125076 0.332124
0.311321 0.132279 0.339327
0.517686 0.140168 0.347215
0.733739 0.148426 0.355474
0.893955 0.154550 0.361598
0.147549 0.334213 0.356788
0.335986 0.341416 0.363991
0.542351 0.349305 0.371880
0.758404 0.357563 0.380138
0.918619 0.363688 0.386262
0.174077 0.559151 0.383316
0.362514 0.566354 0.390519
0.568878 0.574242 0.398407
0.784931 0.582501 0.406666
0.945147 0.588625 0.412790
0.201597 0.792501 0.410836
0.390034 0.799704 0.418039
0.596398 0.807593 0.425927
0.812451 0.815851 0.434186
0.972667 0.821975 0.440310
0.221745 0.963340 0.430984
0.410181 0.970543 0.438187
0.616546 0.978432 0.446075
0.832599 0.986690 0.454334
0.992815 0.992815 0.460458
0.125514 0.127705 0.529535
0.313950 0.134908 0.536738
0.520315 0.142797 0.544627
0.736368 0.151055 0.552885
0.896584 0.157179 0.559009
0.150178 0.336842 0.554200
0.338615 0.344045 0.561403
0.544980 0.351934 0.569291
0.761033 0.360192 0.577550
0.921248 0.366317 0.583674
0.176706 0.561780 0.580728
0.365143 0.568983 0.587931
0.571507 0.576871 0.595819
0.787560 0.585130 0.604077
0.947776 0.591254 0.610202
0.204226 0.795130 0.608247
0.392663 0.802333 0.615450
0.599027 0.810222 0.623339
0.815080 0.818480 0.631597
0.975296 0.824604 0.637722
0.224374 0.965970 0.628395
0.412810 0.973172 0.635598
0.619175 0.981061 0.643486
0.835228 0.989319 0.651745
0.995444 0.995444 0.657869
0.128261 0.130453 0.735841
0.316698 0.137656 0.743044
0.523063 0.145544 0.750932
0.739116 0.153803 0.759191
0.899331 0.159927 0.765315
0.152926 0.339590 0.760506
0.341362 0.346793 0.767709
0.547727 0.354681 0.775597
0.763780 0.362940 0.783855
0.923996 0.369064 0.789980
0.179454 0.564528 0.787033
0.367890 0.571731 0.794236
0.574255 0.579619 0.802125
0.790308 0.587878 0.810383
0.950523 0.594002 0.816507
0.206973 0.797878 0.814553
0.395410 0.805081 0.821756
0.601775 0.812969 0.829645
0.817828 0.821228 0.837903
0.978043 0.827352 0.844027
0.227121 0.968717 0.834701
0.415558 0.975920 0.841904
0.621923 0.983808 0.849792
0.837976 0.992067 0.858051
0.998191 0.998191 0.864175
0.130070 0.132262 0.871666
0.318507 0.139465 0.878869
0.524872 0.147353 0.886757
0.740925 0.155612 0.895016
0.901140 0.161736 0.901140
0.154735 0.341399 0.896330
0.343171 0.348602 0.903533
0.549536 0.356490 0.911422
0.765589 0.364749 0.919680
0.925805 0.370873 0.925805
0.181262 0.566337 0.922858
0.369699 0.573540 0.930061
0.576064 0.581428 0.937949
0.792117 0.589686 0.946208
0.952332 0.595811 0.952332
0.208782 0.799687 0.950378
0.397219 0.806890 0.957581
0.603584 0.814778 0.965469
0.819637 0.823037 0.973728
0.979852 0.829161 0.979852
0.228930 0.970526 0.970526
0.417367 0.977729 0.977729
0.623731 0.985617 0.985617
0.839785 0.993876 0.993876
1.000000 1.000000 1.000000
