library/cube/Clean_Slate_003.cube
# CINEGRADE LAB — Premium Cinematic LUT
# Title: Clean Slate
# Category: Clean Creator Economy
# Description: Bright, clean, approachable, modern aesthetic for content creators
# Mood: Fresh, bright, friendly
# Variant: 4
# Generated: 2026-05-21T16:12:38.597771
TITLE "Clean Slate"
LUT_3D_SIZE 33
0.120466 0.122657 0.150481
0.142212 0.123488 0.151313
0.164703 0.124348 0.152172
0.187764 0.125230 0.153054
0.211292 0.126129 0.153953
0.235216 0.127044 0.154868
0.259483 0.127971 0.155795
0.284056 0.128910 0.156735
0.308902 0.129860 0.157684
0.333998 0.130819 0.158644
0.359324 0.131788 0.159612
0.384860 0.132764 0.160588
0.410594 0.133747 0.161572
0.436512 0.134738 0.162562
0.462603 0.135735 0.163560
0.488858 0.136739 0.164563
0.515267 0.137748 0.165573
0.541823 0.138764 0.166588
0.568520 0.139784 0.167608
0.595350 0.140810 0.168634
0.622308 0.141840 0.169664
0.649388 0.142875 0.170699
0.676587 0.143915 0.171739
0.703899 0.144959 0.172783
0.731320 0.146007 0.173831
0.758847 0.147059 0.174884
0.786476 0.148115 0.175940
0.814204 0.149175 0.177000
0.842028 0.150239 0.178063
0.869944 0.151306 0.179130
0.891536 0.152131 0.179956
0.891536 0.152131 0.179956
0.891536 0.152131 0.179956
0.123358 0.147185 0.153374
0.145105 0.148016 0.154205
0.167595 0.148876 0.155065
0.190657 0.149757 0.155947
0.214185 0.150657 0.156846
0.238108 0.151571 0.157760
0.262376 0.152499 0.158688
0.286948 0.153438 0.159627
0.311795 0.154388 0.160577
0.336891 0.155347 0.161536
0.362216 0.156315 0.162504
0.387753 0.157291 0.163481
0.413487 0.158275 0.164464
0.439405 0.159266 0.165455
0.465496 0.160263 0.166452
0.491750 0.161266 0.167456
0.518160 0.162276 0.168465
0.544716 0.163291 0.169480
0.571412 0.164312 0.170501
0.598242 0.165337 0.171526
0.625200 0.166368 0.172557
0.652281 0.167403 0.173592
0.679479 0.168442 0.174632
0.706791 0.169486 0.175676
0.734213 0.170535 0.176724
0.761740 0.171587 0.177776
0.789369 0.172643 0.178832
0.817097 0.173703 0.179892
0.844920 0.174766 0.180956
0.872837 0.175833 0.182023
0.894428 0.176659 0.182848
0.894428 0.176659 0.182848
0.894428 0.176659 0.182848
0.126330 0.172381 0.156346
0.148076 0.173212 0.157177
0.170567 0.174072 0.158037
0.193628 0.174954 0.158918
0.217156 0.175853 0.159817
0.241080 0.176768 0.160732
0.265347 0.177695 0.161660
0.289920 0.178634 0.162599
0.314766 0.179584 0.163549
0.339863 0.180543 0.164508
0.365188 0.181512 0.165476
0.390724 0.182488 0.166452
0.416458 0.183471 0.167436
0.442376 0.184462 0.168426
0.468467 0.185459 0.169424
0.494722 0.186463 0.170427
0.521131 0.187472 0.171437
0.547688 0.188488 0.172452
0.574384 0.189508 0.173472
0.601214 0.190534 0.174498
0.628172 0.191564 0.175528
0.655252 0.192599 0.176564
0.682451 0.193639 0.177603
0.709763 0.194683 0.178647
0.737184 0.195731 0.179695
0.764711 0.196783 0.180748
0.792340 0.197839 0.181804
0.820068 0.198899 0.182864
0.847892 0.199963 0.183927
0.875808 0.201030 0.184994
0.897400 0.201855 0.185820
0.897400 0.201855 0.185820
0.897400 0.201855 0.185820
0.129362 0.198089 0.159377
0.151108 0.198920 0.160209
0.173599 0.199779 0.161068
0.196660 0.200661 0.161950
0.220188 0.201560 0.162849
0.244112 0.202475 0.163764
0.268379 0.203402 0.164691
0.292952 0.204342 0.165631
0.317798 0.205292 0.166580
0.342894 0.206251 0.167540
0.368219 0.207219 0.168508
0.393756 0.208195 0.169484
0.419490 0.209179 0.170468
0.445408 0.210169 0.171458
0.471499 0.211167 0.172456
0.497754 0.212170 0.173459
0.524163 0.213180 0.174469
0.550719 0.214195 0.175484
0.577416 0.215215 0.176504
0.604246 0.216241 0.177530
0.631204 0.217271 0.178560
0.658284 0.218307 0.179595
0.685483 0.219346 0.180635
0.712795 0.220390 0.181679
0.740216 0.221438 0.182727
0.767743 0.222491 0.183779
0.795372 0.223547 0.184836
0.823100 0.224607 0.185895
0.850923 0.225670 0.186959
0.878840 0.226737 0.188026
0.900432 0.227563 0.188852
0.900432 0.227563 0.188852
0.900432 0.227563 0.188852
0.132442 0.224211 0.162458
0.154189 0.225042 0.163289
0.176679 0.225902 0.164149
0.199741 0.226783 0.165031
0.223269 0.227683 0.165930
0.247192 0.228597 0.166844
0.271460 0.229525 0.167772
0.296032 0.230464 0.168711
0.320879 0.231414 0.169661
0.345975 0.232373 0.170620
0.371300 0.233341 0.171588
0.396837 0.234317 0.172565
0.422571 0.235301 0.173548
0.448489 0.236292 0.174539
0.474580 0.237289 0.175536
0.500834 0.238293 0.176540
0.527244 0.239302 0.177549
0.553800 0.240317 0.178564
0.580496 0.241338 0.179585
0.607326 0.242363 0.180611
0.634284 0.243394 0.181641
0.661365 0.244429 0.182676
0.688563 0.245469 0.183716
0.715875 0.246513 0.184760
0.743297 0.247561 0.185808
0.770824 0.248613 0.186860
0.798453 0.249669 0.187916
0.826181 0.250729 0.188976
0.854004 0.251793 0.190040
0.881921 0.252860 0.191107
0.903512 0.253685 0.191932
0.903512 0.253685 0.191932
0.903512 0.253685 0.191932
0.135564 0.250684 0.165580
0.157311 0.251515 0.166411
0.179801 0.252375 0.167271
0.202863 0.253256 0.168153
0.226391 0.254156 0.169052
0.250314 0.255070 0.169966
0.274582 0.255998 0.170894
0.299154 0.256937 0.171833
0.324001 0.257887 0.172783
0.349097 0.258846 0.173742
0.374422 0.259814 0.174710
0.399959 0.260790 0.175687
0.425693 0.261774 0.176670
0.451611 0.262765 0.177661
0.477702 0.263762 0.178658
0.503956 0.264766 0.179662
0.530366 0.265775 0.180671
0.556922 0.266790 0.181687
0.583618 0.267811 0.182707
0.610448 0.268836 0.183733
0.637406 0.269867 0.184763
0.664487 0.270902 0.185798
0.691686 0.271942 0.186838
0.718998 0.272986 0.187882
0.746419 0.274034 0.188930
0.773946 0.275086 0.189982
0.801575 0.276142 0.191038
0.829303 0.277202 0.192098
0.857126 0.278266 0.193162
0.885043 0.279333 0.194229
0.906634 0.280158 0.195054
0.906634 0.280158 0.195054
0.906634 0.280158 0.195054
0.138722 0.277461 0.168738
0.160469 0.278292 0.169569
0.182959 0.279152 0.170429
0.206021 0.280034 0.171311
0.229549 0.280933 0.172210
0.253472 0.281847 0.173124
0.277740 0.282775 0.174052
0.302312 0.283714 0.174991
0.327159 0.284664 0.175941
0.352255 0.285623 0.176900
0.377580 0.286591 0.177868
0.403117 0.287568 0.178845
0.428851 0.288551 0.179828
0.454769 0.289542 0.180819
0.480860 0.290539 0.181816
0.507114 0.291543 0.182820
0.533524 0.292552 0.183829
0.560080 0.293567 0.184844
0.586776 0.294588 0.185865
0.613606 0.295614 0.186891
0.640564 0.296644 0.187921
0.667645 0.297679 0.188956
0.694843 0.298719 0.189996
0.722155 0.299763 0.191040
0.749577 0.300811 0.192088
0.777104 0.301863 0.193140
0.804733 0.302919 0.194196
0.832461 0.303979 0.195256
0.860284 0.305043 0.196320
0.888201 0.306110 0.197387
0.909792 0.306935 0.198212
0.909792 0.306935 0.198212
0.909792 0.306935 0.198212
0.141912 0.304507 0.171928
0.163659 0.305338 0.172759
0.186149 0.306198 0.173619
0.209211 0.307080 0.174500
0.232739 0.307979 0.175400
0.256662 0.308893 0.176314
0.280930 0.309821 0.177242
0.305502 0.310760 0.178181
0.330349 0.311710 0.179131
0.355445 0.312669 0.180090
0.380770 0.313637 0.181058
0.406307 0.314614 0.182034
0.432040 0.315597 0.183018
0.457958 0.316588 0.184009
0.484049 0.317585 0.185006
0.510304 0.318589 0.186010
0.536713 0.319598 0.187019
0.563270 0.320614 0.188034
0.589966 0.321634 0.189055
0.616796 0.322660 0.190080
0.643754 0.323690 0.191111
0.670835 0.324725 0.192146
0.698033 0.325765 0.193185
0.725345 0.326809 0.194229
0.752767 0.327857 0.195278
0.780293 0.328909 0.196330
0.807923 0.329965 0.197386
0.835650 0.331025 0.198446
0.863474 0.332089 0.199509
0.891390 0.333156 0.200577
0.912982 0.333981 0.201402
0.912982 0.333981 0.201402
0.912982 0.333981 0.201402
0.145130 0.331794 0.175146
0.166877 0.332626 0.175977
0.189367 0.333485 0.176837
0.212429 0.334367 0.177718
0.235957 0.335266 0.178618
0.259880 0.336181 0.179532
0.284148 0.337108 0.180460
0.308720 0.338048 0.181399
0.333567 0.338997 0.182349
0.358663 0.339957 0.183308
0.383988 0.340925 0.184276
0.409525 0.341901 0.185252
0.435258 0.342885 0.186236
0.461176 0.343875 0.187227
0.487268 0.344873 0.188224
0.513522 0.345876 0.189228
0.539931 0.346886 0.190237
0.566488 0.347901 0.191252
0.593184 0.348921 0.192273
0.620014 0.349947 0.193298
0.646972 0.350977 0.194329
0.674053 0.352012 0.195364
0.701251 0.353052 0.196404
0.728563 0.354096 0.197448
0.755985 0.355144 0.198496
0.783512 0.356197 0.199548
0.811141 0.357253 0.200604
0.838868 0.358313 0.201664
0.866692 0.359376 0.202728
0.894608 0.360443 0.203795
0.916200 0.361269 0.204620
0.916200 0.361269 0.204620
0.916200 0.361269 0.204620
0.148374 0.359301 0.178390
0.170121 0.360132 0.179221
0.192611 0.360992 0.180081
0.215673 0.361873 0.180962
0.239201 0.362772 0.181862
0.263124 0.363687 0.182776
0.287392 0.364615 0.183704
0.311964 0.365554 0.184643
0.336811 0.366504 0.185593
0.361907 0.367463 0.186552
0.387232 0.368431 0.187520
0.412769 0.369407 0.188496
0.438502 0.370391 0.189480
0.464420 0.371381 0.190471
0.490512 0.372379 0.191468
0.516766 0.373382 0.192472
0.543175 0.374392 0.193481
0.569732 0.375407 0.194496
0.596428 0.376427 0.195517
0.623258 0.377453 0.196542
0.650216 0.378484 0.197573
0.677297 0.379519 0.198608
0.704495 0.380558 0.199647
0.731807 0.381602 0.200691
0.759229 0.382651 0.201740
0.786755 0.383703 0.202792
0.814385 0.384759 0.203848
0.842112 0.385819 0.204908
0.869936 0.386882 0.205971
0.897852 0.387949 0.207039
0.919444 0.388775 0.207864
0.919444 0.388775 0.207864
0.919444 0.388775 0.207864
0.151642 0.387007 0.181657
0.173388 0.387839 0.182489
0.195879 0.388698 0.183348
0.218940 0.389580 0.184230
0.242468 0.390479 0.185129
0.266392 0.391394 0.186044
0.290659 0.392321 0.186971
0.315232 0.393261 0.187911
0.340078 0.394210 0.188860
0.365174 0.395170 0.189820
0.390499 0.396138 0.190788
0.416036 0.397114 0.191764
0.441770 0.398098 0.192747
0.467688 0.399088 0.193738
0.493779 0.400086 0.194736
0.520034 0.401089 0.195739
0.546443 0.402099 0.196749
0.572999 0.403114 0.197764
0.599696 0.404134 0.198784
0.626526 0.405160 0.199810
0.653484 0.406190 0.200840
0.680564 0.407225 0.201875
0.707763 0.408265 0.202915
0.735075 0.409309 0.203959
0.762496 0.410357 0.205007
0.790023 0.411410 0.206059
0.817652 0.412466 0.207116
0.845380 0.413526 0.208175
0.873203 0.414589 0.209239
0.901120 0.415656 0.210306
0.922712 0.416482 0.211131
0.922712 0.416482 0.211131
0.922712 0.416482 0.211131
0.154931 0.414899 0.184947
0.176678 0.415731 0.185778
0.199168 0.416590 0.186638
0.222230 0.417472 0.187519
0.245758 0.418371 0.188419
0.269681 0.419286 0.189333
0.293949 0.420213 0.190261
0.318521 0.421152 0.191200
0.343368 0.422102 0.192150
0.368464 0.423062 0.193109
0.393789 0.424030 0.194077
0.419326 0.425006 0.195053
0.445059 0.425989 0.196037
0.470977 0.426980 0.197028
0.497068 0.427977 0.198025
0.523323 0.428981 0.199029
0.549732 0.429991 0.200038
0.576289 0.431006 0.201053
0.602985 0.432026 0.202074
0.629815 0.433052 0.203099
0.656773 0.434082 0.204130
0.683854 0.435117 0.205165
0.711052 0.436157 0.206204
0.738364 0.437201 0.207248
0.765785 0.438249 0.208297
0.793312 0.439301 0.209349
0.820942 0.440358 0.210405
0.848669 0.441417 0.211465
0.876493 0.442481 0.212528
0.904409 0.443548 0.213596
0.926001 0.444373 0.214421
0.926001 0.444373 0.214421
0.926001 0.444373 0.214421
0.158241 0.442963 0.188256
0.179987 0.443794 0.189088
0.202478 0.444654 0.189947
0.225539 0.445536 0.190829
0.249067 0.446435 0.191728
0.272991 0.447349 0.192643
0.297258 0.448277 0.193570
0.321831 0.449216 0.194510
0.346677 0.450166 0.195459
0.371773 0.451125 0.196419
0.397099 0.452093 0.197387
0.422635 0.453070 0.198363
0.448369 0.454053 0.199347
0.474287 0.455044 0.200337
0.500378 0.456041 0.201335
0.526633 0.457045 0.202338
0.553042 0.458054 0.203348
0.579598 0.459070 0.204363
0.606295 0.460090 0.205383
0.633125 0.461116 0.206409
0.660083 0.462146 0.207439
0.687163 0.463181 0.208474
0.714362 0.464221 0.209514
0.741674 0.465265 0.210558
0.769095 0.466313 0.211606
0.796622 0.467365 0.212659
0.824251 0.468421 0.213715
0.851979 0.469481 0.214775
0.879803 0.470545 0.215838
0.907719 0.471612 0.216905
0.929311 0.472437 0.217731
0.929311 0.472437 0.217731
0.929311 0.472437 0.217731
0.161569 0.471188 0.191585
0.183316 0.472019 0.192416
0.205806 0.472879 0.193276
0.228868 0.473760 0.194158
0.252396 0.474660 0.195057
0.276319 0.475574 0.195971
0.300587 0.476502 0.196899
0.325159 0.477441 0.197838
0.350006 0.478391 0.198788
0.375102 0.479350 0.199747
0.400427 0.480318 0.200715
0.425964 0.481294 0.201692
0.451698 0.482278 0.202675
0.477616 0.483269 0.203666
0.503707 0.484266 0.204663
0.529961 0.485269 0.205667
0.556371 0.486279 0.206676
0.582927 0.487294 0.207691
0.609623 0.488315 0.208712
0.636453 0.489340 0.209737
0.663411 0.490371 0.210768
0.690492 0.491406 0.211803
0.717690 0.492445 0.212843
0.745002 0.493489 0.213887
0.772424 0.494538 0.214935
0.799951 0.495590 0.215987
0.827580 0.496646 0.217043
0.855308 0.497706 0.218103
0.883131 0.498769 0.219167
0.911048 0.499836 0.220234
0.932639 0.500662 0.221059
0.932639 0.500662 0.221059
0.932639 0.500662 0.221059
0.164916 0.499563 0.194931
0.186662 0.500394 0.195763
0.209153 0.501254 0.196622
0.232214 0.502135 0.197504
0.255742 0.503035 0.198403
0.279666 0.503949 0.199318
0.303933 0.504877 0.200245
0.328506 0.505816 0.201185
0.353352 0.506766 0.202134
0.378448 0.507725 0.203094
0.403774 0.508693 0.204062
0.429310 0.509669 0.205038
0.455044 0.510653 0.206022
0.480962 0.511644 0.207012
0.507053 0.512641 0.208010
0.533308 0.513645 0.209013
0.559717 0.514654 0.210023
0.586273 0.515669 0.211038
0.612970 0.516690 0.212058
0.639800 0.517715 0.213084
0.666758 0.518746 0.214114
0.693838 0.519781 0.215150
0.721037 0.520821 0.216189
0.748349 0.521865 0.217233
0.775770 0.522913 0.218281
0.803297 0.523965 0.219334
0.830926 0.525021 0.220390
0.858654 0.526081 0.221450
0.886478 0.527145 0.222513
0.914394 0.528212 0.223580
0.935986 0.529037 0.224406
0.935986 0.529037 0.224406
0.935986 0.529037 0.224406
0.168279 0.528080 0.198295
0.190025 0.528912 0.199126
0.212516 0.529771 0.199986
0.235578 0.530653 0.200867
0.259106 0.531552 0.201766
0.283029 0.532467 0.202681
0.307296 0.533394 0.203609
0.331869 0.534334 0.204548
0.356716 0.535283 0.205498
0.381812 0.536243 0.206457
0.407137 0.537211 0.207425
0.432673 0.538187 0.208401
0.458407 0.539170 0.209385
0.484325 0.540161 0.210375
0.510416 0.541159 0.211373
0.536671 0.542162 0.212376
0.563080 0.543172 0.213386
0.589637 0.544187 0.214401
0.616333 0.545207 0.215421
0.643163 0.546233 0.216447
0.670121 0.547263 0.217478
0.697201 0.548298 0.218513
0.724400 0.549338 0.219552
0.751712 0.550382 0.220596
0.779133 0.551430 0.221645
0.806660 0.552482 0.222697
0.834289 0.553539 0.223753
0.862017 0.554598 0.224813
0.889841 0.555662 0.225876
0.917757 0.556729 0.226943
0.939349 0.557554 0.227769
0.939349 0.557554 0.227769
0.939349 0.557554 0.227769
0.171658 0.556732 0.201674
0.193404 0.557563 0.202505
0.215895 0.558423 0.203365
0.238957 0.559305 0.204246
0.262485 0.560204 0.205145
0.286408 0.561118 0.206060
0.310675 0.562046 0.206988
0.335248 0.562985 0.207927
0.360095 0.563935 0.208877
0.385191 0.564894 0.209836
0.410516 0.565862 0.210804
0.436053 0.566839 0.211780
0.461786 0.567822 0.212764
0.487704 0.568813 0.213755
0.513795 0.569810 0.214752
0.540050 0.570814 0.215755
0.566459 0.571823 0.216765
0.593016 0.572838 0.217780
0.619712 0.573859 0.218801
0.646542 0.574885 0.219826
0.673500 0.575915 0.220857
0.700580 0.576950 0.221892
0.727779 0.577990 0.222931
0.755091 0.579034 0.223975
0.782512 0.580082 0.225024
0.810039 0.581134 0.226076
0.837668 0.582190 0.227132
0.865396 0.583250 0.228192
0.893220 0.584314 0.229255
0.921136 0.585381 0.230322
0.942728 0.586206 0.231148
0.942728 0.586206 0.231148
0.942728 0.586206 0.231148
0.175052 0.585511 0.205068
0.196799 0.586343 0.205899
0.219289 0.587202 0.206759
0.242351 0.588084 0.207640
0.265879 0.588983 0.208540
0.289802 0.589898 0.209454
0.314069 0.590825 0.210382
0.338642 0.591765 0.211321
0.363489 0.592714 0.212271
0.388585 0.593674 0.213230
0.413910 0.594642 0.214198
0.439447 0.595618 0.215174
0.465180 0.596601 0.216158
0.491098 0.597592 0.217149
0.517189 0.598590 0.218146
0.543444 0.599593 0.219149
0.569853 0.600603 0.220159
0.596410 0.601618 0.221174
0.623106 0.602638 0.222195
0.649936 0.603664 0.223220
0.676894 0.604694 0.224251
0.703975 0.605729 0.225286
0.731173 0.606769 0.226325
0.758485 0.607813 0.227369
0.785906 0.608861 0.228418
0.813433 0.609913 0.229470
0.841062 0.610970 0.230526
0.868790 0.612029 0.231586
0.896614 0.613093 0.232649
0.924530 0.614160 0.233716
0.946122 0.614985 0.234542
0.946122 0.614985 0.234542
0.946122 0.614985 0.234542
0.178460 0.614412 0.208476
0.200207 0.615243 0.209307
0.222697 0.616103 0.210167
0.245759 0.616984 0.211049
0.269287 0.617884 0.211948
0.293210 0.618798 0.212862
0.317478 0.619726 0.213790
0.342050 0.620665 0.214729
0.366897 0.621615 0.215679
0.391993 0.622574 0.216638
0.417318 0.623542 0.217606
0.442855 0.624518 0.218583
0.468589 0.625502 0.219566
0.494507 0.626493 0.220557
0.520598 0.627490 0.221554
0.546852 0.628494 0.222558
0.573262 0.629503 0.223567
0.599818 0.630518 0.224582
0.626514 0.631539 0.225603
0.653344 0.632564 0.226628
0.680302 0.633595 0.227659
0.707383 0.634630 0.228694
0.734581 0.635670 0.229734
0.761893 0.636714 0.230778
0.789315 0.637762 0.231826
0.816842 0.638814 0.232878
0.844471 0.639870 0.233934
0.872199 0.640930 0.234994
0.900022 0.641994 0.236058
0.927939 0.643061 0.237125
0.949530 0.643886 0.237950
0.949530 0.643886 0.237950
0.949530 0.643886 0.237950
0.181882 0.643428 0.211898
0.203629 0.644259 0.212729
0.226119 0.645119 0.213589
0.249181 0.646001 0.214471
0.272709 0.646900 0.215370
0.296632 0.647815 0.216284
0.320900 0.648742 0.217212
0.345472 0.649681 0.218151
0.370319 0.650631 0.219101
0.395415 0.651590 0.220060
0.420740 0.652559 0.221028
0.446277 0.653535 0.222005
0.472011 0.654518 0.222988
0.497929 0.655509 0.223979
0.524020 0.656506 0.224976
0.550274 0.657510 0.225980
0.576684 0.658519 0.226989
0.603240 0.659535 0.228004
0.629936 0.660555 0.229025
0.656766 0.661581 0.230051
0.683724 0.662611 0.231081
0.710805 0.663646 0.232116
0.738003 0.664686 0.233156
0.765315 0.665730 0.234200
0.792737 0.666778 0.235248
0.820264 0.667830 0.236300
0.847893 0.668886 0.237356
0.875621 0.669946 0.238416
0.903444 0.671010 0.239480
0.931361 0.672077 0.240547
0.952952 0.672902 0.241372
0.952952 0.672902 0.241372
0.952952 0.672902 0.241372
0.185317 0.672555 0.215333
0.207064 0.673386 0.216164
0.229554 0.674246 0.217024
0.252616 0.675128 0.217906
0.276144 0.676027 0.218805
0.300067 0.676941 0.219719
0.324335 0.677869 0.220647
0.348907 0.678808 0.221586
0.373754 0.679758 0.222536
0.398850 0.680717 0.223495
0.424175 0.681685 0.224463
0.449712 0.682662 0.225440
0.475446 0.683645 0.226423
0.501364 0.684636 0.227414
0.527455 0.685633 0.228411
0.553709 0.686637 0.229415
0.580119 0.687646 0.230424
0.606675 0.688662 0.231440
0.633371 0.689682 0.232460
0.660201 0.690708 0.233486
0.687159 0.691738 0.234516
0.714240 0.692773 0.235551
0.741438 0.693813 0.236591
0.768751 0.694857 0.237635
0.796172 0.695905 0.238683
0.823699 0.696957 0.239735
0.851328 0.698013 0.240791
0.879056 0.699073 0.241851
0.906879 0.700137 0.242915
0.934796 0.701204 0.243982
0.956387 0.702029 0.244807
0.956387 0.702029 0.244807
0.956387 0.702029 0.244807
0.188765 0.701788 0.218781
0.210512 0.702619 0.219612
0.233002 0.703479 0.220472
0.256064 0.704361 0.221353
0.279592 0.705260 0.222253
0.303515 0.706174 0.223167
0.327782 0.707102 0.224095
0.352355 0.708041 0.225034
0.377202 0.708991 0.225984
0.402298 0.709950 0.226943
0.427623 0.710918 0.227911
0.453160 0.711895 0.228887
0.478893 0.712878 0.229871
0.504811 0.713869 0.230862
0.530902 0.714866 0.231859
0.557157 0.715870 0.232862
0.583566 0.716879 0.233872
0.610123 0.717894 0.234887
0.636819 0.718915 0.235908
0.663649 0.719941 0.236933
0.690607 0.720971 0.237964
0.717688 0.722006 0.238999
0.744886 0.723046 0.240038
0.772198 0.724090 0.241082
0.799619 0.725138 0.242131
0.827146 0.726190 0.243183
0.854775 0.727246 0.244239
0.882503 0.728306 0.245299
0.910327 0.729370 0.246362
0.938243 0.730437 0.247429
0.959835 0.731262 0.248255
0.959835 0.731262 0.248255
0.959835 0.731262 0.248255
0.192225 0.731123 0.222240
0.213971 0.731954 0.223072
0.236461 0.732814 0.223931
0.259523 0.733695 0.224813
0.283051 0.734595 0.225712
0.306975 0.735509 0.226627
0.331242 0.736437 0.227554
0.355814 0.737376 0.228493
0.380661 0.738326 0.229443
0.405757 0.739285 0.230403
0.431082 0.740253 0.231371
0.456619 0.741229 0.232347
0.482353 0.742213 0.233330
0.508271 0.743204 0.234321
0.534362 0.744201 0.235318
0.560617 0.745205 0.236322
0.587026 0.746214 0.237332
0.613582 0.747229 0.238347
0.640279 0.748250 0.239367
0.667108 0.749275 0.240393
0.694066 0.750306 0.241423
0.721147 0.751341 0.242458
0.748346 0.752381 0.243498
0.775658 0.753425 0.244542
0.803079 0.754473 0.245590
0.830606 0.755525 0.246642
0.858235 0.756581 0.247698
0.885963 0.757641 0.248758
0.913786 0.758705 0.249822
0.941703 0.759772 0.250889
0.963294 0.760597 0.251714
0.963294 0.760597 0.251714
0.963294 0.760597 0.251714
0.195696 0.760555 0.225711
0.217442 0.761387 0.226543
0.239933 0.762246 0.227402
0.262994 0.763128 0.228284
0.286522 0.764027 0.229183
0.310446 0.764942 0.230098
0.334713 0.765869 0.231025
0.359286 0.766809 0.231965
0.384132 0.767758 0.232914
0.409228 0.768718 0.233874
0.434553 0.769686 0.234842
0.460090 0.770662 0.235818
0.485824 0.771646 0.236802
0.511742 0.772636 0.237792
0.537833 0.773634 0.238790
0.564088 0.774637 0.239793
0.590497 0.775647 0.240803
0.617053 0.776662 0.241818
0.643750 0.777682 0.242838
0.670580 0.778708 0.243864
0.697538 0.779738 0.244894
0.724618 0.780773 0.245929
0.751817 0.781813 0.246969
0.779129 0.782857 0.248013
0.806550 0.783905 0.249061
0.834077 0.784958 0.250113
0.861706 0.786014 0.251170
0.889434 0.787074 0.252229
0.917257 0.788137 0.253293
0.945174 0.789204 0.254360
0.966766 0.790030 0.255185
0.966766 0.790030 0.255185
0.966766 0.790030 0.255185
0.199178 0.790082 0.229194
0.220924 0.790914 0.230025
0.243415 0.791773 0.230885
0.266476 0.792655 0.231766
0.290004 0.793554 0.232665
0.313928 0.794469 0.233580
0.338195 0.795396 0.234508
0.362768 0.796335 0.235447
0.387614 0.797285 0.236397
0.412711 0.798245 0.237356
0.438036 0.799213 0.238324
0.463572 0.800189 0.239300
0.489306 0.801172 0.240284
0.515224 0.802163 0.241274
0.541315 0.803160 0.242272
0.567570 0.804164 0.243275
0.593979 0.805174 0.244285
0.620536 0.806189 0.245300
0.647232 0.807209 0.246320
0.674062 0.808235 0.247346
0.701020 0.809265 0.248376
0.728100 0.810300 0.249412
0.755299 0.811340 0.250451
0.782611 0.812384 0.251495
0.810032 0.813432 0.252543
0.837559 0.814484 0.253596
0.865188 0.815541 0.254652
0.892916 0.816600 0.255712
0.920740 0.817664 0.256775
0.948656 0.818731 0.257842
0.970248 0.819556 0.258668
0.970248 0.819556 0.258668
0.970248 0.819556 0.258668
0.202671 0.819700 0.232687
0.224417 0.820531 0.233518
0.246908 0.821391 0.234377
0.269969 0.822273 0.235259
0.293497 0.823172 0.236158
0.317421 0.824086 0.237073
0.341688 0.825014 0.238000
0.366261 0.825953 0.238940
0.391107 0.826903 0.239890
0.416204 0.827862 0.240849
0.441529 0.828830 0.241817
0.467065 0.829807 0.242793
0.492799 0.830790 0.243777
0.518717 0.831781 0.244767
0.544808 0.832778 0.245765
0.571063 0.833782 0.246768
0.597472 0.834791 0.247778
0.624028 0.835806 0.248793
0.650725 0.836827 0.249813
0.677555 0.837852 0.250839
0.704513 0.838883 0.251869
0.731593 0.839918 0.252905
0.758792 0.840958 0.253944
0.786104 0.842002 0.254988
0.813525 0.843050 0.256036
0.841052 0.844102 0.257089
0.868681 0.845158 0.258145
0.896409 0.846218 0.259205
0.924233 0.847282 0.260268
0.952149 0.848349 0.261335
0.973741 0.849174 0.262161
0.973741 0.849174 0.262161
0.973741 0.849174 0.262161
0.206174 0.849406 0.236190
0.227921 0.850237 0.237021
0.250411 0.851097 0.237881
0.273473 0.851978 0.238762
0.297001 0.852877 0.239662
0.320924 0.853792 0.240576
0.345192 0.854720 0.241504
0.369764 0.855659 0.242443
0.394611 0.856609 0.243393
0.419707 0.857568 0.244352
0.445032 0.858536 0.245320
0.470569 0.859512 0.246296
0.496302 0.860496 0.247280
0.522220 0.861486 0.248271
0.548312 0.862484 0.249268
0.574566 0.863487 0.250272
0.600975 0.864497 0.251281
0.627532 0.865512 0.252296
0.654228 0.866532 0.253317
