library/cube/Color_Fade_Lab_001.cube
# CINEGRADE LAB — Premium Cinematic LUT
# Title: Color Fade Lab
# Category: Vintage Film Lab
# Description: Faded, grainy, color-shifted retro film lab aesthetic
# Mood: Retro, faded, nostalgic
# Variant: 2
# Generated: 2026-05-21T16:12:32.097920
TITLE "Color Fade Lab"
LUT_3D_SIZE 9
0.180545 0.165048 0.155237
0.254485 0.171024 0.161335
0.333341 0.177417 0.167856
0.415737 0.184115 0.174688
0.500918 0.191056 0.181770
0.588402 0.198200 0.189063
0.677853 0.205520 0.196540
0.769026 0.212995 0.204180
0.801550 0.215638 0.207010
0.199497 0.252314 0.175783
0.273195 0.258277 0.181909
0.351809 0.264658 0.188460
0.433967 0.271344 0.195322
0.518918 0.278275 0.202436
0.606182 0.285409 0.209762
0.695427 0.292720 0.217273
0.786407 0.300187 0.224949
0.818931 0.302826 0.227813
0.219903 0.345458 0.197825
0.293390 0.351412 0.203983
0.371792 0.357784 0.210566
0.453744 0.364463 0.217463
0.538499 0.371387 0.224613
0.625579 0.378515 0.231976
0.714652 0.385821 0.239525
0.805475 0.393284 0.247240
0.837870 0.395922 0.250141
0.241392 0.442878 0.220998
0.314697 0.448827 0.227192
0.392920 0.455195 0.233812
0.474699 0.461870 0.240748
0.559291 0.468791 0.247937
0.646222 0.475918 0.255341
0.735160 0.483223 0.262933
0.825863 0.490686 0.270692
0.857262 0.493328 0.273634
0.263769 0.543704 0.245111
0.336923 0.549652 0.251344
0.414998 0.556021 0.258006
0.496639 0.562697 0.264983
0.581104 0.569620 0.272217
0.667920 0.576750 0.279666
0.756759 0.584058 0.287304
0.846812 0.591526 0.295112
0.878438 0.594176 0.298098
0.286919 0.647388 0.270044
0.359953 0.653340 0.276321
0.437914 0.659714 0.283028
0.519450 0.666396 0.290053
0.603823 0.673326 0.297334
0.690561 0.680463 0.304833
0.779338 0.687781 0.312523
0.868979 0.695259 0.320383
0.901128 0.697922 0.323416
0.310772 0.753552 0.295722
0.383717 0.759514 0.302047
0.461596 0.765898 0.308804
0.543061 0.772592 0.315879
0.627377 0.779534 0.323213
0.714074 0.786685 0.330766
0.802825 0.794017 0.338512
0.892525 0.801510 0.346429
0.925085 0.804191 0.349513
0.335280 0.861926 0.322090
0.408168 0.867903 0.328468
0.485998 0.874303 0.335278
0.567428 0.881013 0.342409
0.651722 0.887973 0.349800
0.738413 0.895143 0.357412
0.827177 0.902495 0.365218
0.917219 0.910009 0.373196
0.950075 0.912713 0.376335
0.343713 0.901208 0.332337
0.416579 0.907210 0.338763
0.494399 0.913635 0.345624
0.575832 0.920372 0.352807
0.660144 0.927359 0.360251
0.746870 0.934554 0.367917
0.835661 0.941923 0.375778
0.926184 0.949463 0.383813
0.959210 0.952203 0.387001
0.182457 0.167078 0.224190
0.256371 0.173053 0.230291
0.335202 0.179447 0.236817
0.417572 0.186145 0.243655
0.502728 0.193086 0.250745
0.590188 0.200231 0.258046
0.679617 0.207551 0.265533
0.770769 0.215027 0.273185
0.803292 0.217670 0.276027
0.201411 0.254339 0.244753
0.275087 0.260302 0.250887
0.353679 0.266684 0.257446
0.435814 0.273371 0.264319
0.520744 0.280302 0.271445
0.607988 0.287437 0.278783
0.697215 0.294749 0.286308
0.788177 0.302217 0.294000
0.820701 0.304857 0.296880
0.221822 0.347480 0.266826
0.295290 0.353434 0.272996
0.373673 0.359808 0.279593
0.455606 0.366488 0.286504
0.540343 0.373412 0.293669
0.627406 0.380541 0.301049
0.716465 0.387848 0.308617
0.807274 0.395312 0.316352
0.839548 0.397952 0.319273
0.243318 0.444898 0.290045
0.316607 0.450848 0.296255
0.394813 0.457217 0.302893
0.476578 0.463894 0.309847
0.561156 0.470816 0.317056
0.648073 0.477944 0.324481
0.737000 0.485250 0.332095
0.827693 0.492715 0.339878
0.859044 0.495359 0.342844
0.265703 0.545724 0.314217
0.338844 0.551673 0.320470
0.416907 0.558043 0.327154
0.498536 0.564721 0.334154
0.582990 0.571646 0.341412
0.669797 0.578777 0.348887
0.758629 0.586088 0.356552
0.848626 0.593558 0.364387
0.880309 0.596210 0.367402
0.288865 0.649409 0.339224
0.361889 0.655363 0.345526
0.439840 0.661738 0.352259
0.521368 0.668423 0.359310
0.605734 0.675355 0.366620
0.692466 0.682494 0.374149
0.781239 0.689814 0.381869
0.870877 0.697294 0.389762
0.903072 0.699960 0.392828
0.312731 0.755576 0.364990
0.385669 0.761541 0.371344
0.463542 0.767927 0.378130
0.545003 0.774623 0.385237
0.629315 0.781567 0.392604
0.716009 0.788721 0.400191
0.804761 0.796055 0.407971
0.894492 0.803551 0.415925
0.927086 0.806235 0.419046
0.337256 0.863955 0.391460
0.410140 0.869935 0.397871
0.487967 0.876337 0.404715
0.569395 0.883050 0.411882
0.653689 0.890013 0.419310
0.740382 0.897185 0.426960
0.829135 0.904540 0.434805
0.919237 0.912057 0.442824
0.952116 0.914764 0.446004
0.345709 0.903245 0.401821
0.418575 0.909250 0.408284
0.496395 0.915679 0.415183
0.577829 0.922418 0.422406
0.662145 0.929408 0.429891
0.748876 0.936602 0.437599
0.837672 0.943977 0.445504
0.928233 0.951523 0.453584
0.961271 0.954266 0.456817
0.184513 0.169248 0.297839
0.258402 0.175224 0.303945
0.337206 0.181618 0.310476
0.419552 0.188316 0.317322
0.504683 0.195258 0.324420
0.592119 0.202403 0.331731
0.681526 0.209724 0.339229
0.772657 0.217200 0.346893
0.805179 0.219844 0.349749
0.203470 0.256505 0.318422
0.277124 0.262469 0.324565
0.355692 0.268851 0.331135
0.437806 0.275539 0.338019
0.522715 0.282471 0.345158
0.609939 0.289607 0.352511
0.699147 0.296919 0.360052
0.790092 0.304388 0.367760
0.822617 0.307029 0.370658
0.223886 0.349643 0.340531
0.297334 0.355599 0.346714
0.375697 0.361973 0.353325
0.457612 0.368654 0.360253
0.542331 0.375579 0.367436
0.629378 0.382709 0.374834
0.718422 0.390017 0.382422
0.809218 0.397482 0.390179
0.841369 0.400124 0.393122
0.245387 0.447060 0.363800
0.318660 0.453011 0.370028
0.396851 0.459381 0.376685
0.478600 0.466059 0.383659
0.563164 0.472983 0.390890
0.650069 0.480112 0.398339
0.738984 0.487420 0.405978
0.829668 0.494886 0.413787
0.860970 0.497531 0.416780
0.267782 0.547885 0.388037
0.340910 0.553836 0.394314
0.418960 0.560208 0.401020
0.500577 0.566887 0.408046
0.585021 0.573814 0.415330
0.671819 0.580947 0.422833
0.760643 0.588259 0.430527
0.850586 0.595730 0.438393
0.882325 0.598385 0.441438
0.290955 0.651571 0.413126
0.363969 0.657527 0.419454
0.441911 0.663905 0.426215
0.523430 0.670591 0.433296
0.607789 0.677525 0.440637
0.694516 0.684667 0.448198
0.783285 0.691989 0.455952
0.872921 0.699471 0.463879
0.905161 0.702139 0.466981
0.314834 0.757742 0.438987
0.387765 0.763709 0.445372
0.465632 0.770097 0.452191
0.547088 0.776796 0.459333
0.631397 0.783742 0.466734
0.718090 0.790898 0.474358
0.806841 0.798235 0.482177
0.896604 0.805734 0.490170
0.929231 0.808420 0.493331
0.339375 0.866126 0.465569
0.412255 0.872108 0.472015
0.490080 0.878513 0.478897
0.571506 0.885229 0.486102
0.655801 0.892194 0.493570
0.742496 0.899369 0.501261
0.831239 0.906727 0.509148
0.921400 0.914247 0.517211
0.954301 0.916957 0.520436
0.347848 0.905424 0.476053
0.420713 0.911432 0.482557
0.498534 0.917864 0.489497
0.579971 0.924606 0.496762
0.664290 0.931599 0.504292
0.751027 0.938792 0.512045
0.839830 0.946173 0.519997
0.930424 0.953724 0.528126
0.963474 0.956471 0.531407
0.186675 0.171523 0.374915
0.260538 0.177499 0.381027
0.339317 0.183893 0.387565
0.421637 0.190592 0.394419
0.506744 0.197533 0.401526
0.594157 0.204679 0.408849
0.683542 0.212000 0.416359
0.774652 0.219476 0.424037
0.807173 0.222121 0.426908
0.205634 0.258775 0.395523
0.279265 0.264739 0.401676
0.357812 0.271122 0.408257
0.439904 0.277811 0.415154
0.524791 0.284743 0.422307
0.611996 0.291880 0.429676
0.701185 0.299193 0.437234
0.792114 0.306662 0.444960
0.824640 0.309304 0.447878
0.226053 0.351910 0.417671
0.299482 0.357866 0.423869
0.377827 0.364241 0.430496
0.459724 0.370923 0.437441
0.544426 0.377849 0.444643
0.631457 0.384981 0.452062
0.720486 0.392290 0.459672
0.811269 0.399756 0.467451
0.843299 0.402399 0.470419
0.247562 0.449325 0.440995
0.320818 0.455277 0.447242
0.398993 0.461649 0.453920
0.480728 0.468328 0.460917
0.565278 0.475253 0.468172
0.652170 0.482383 0.475645
0.741075 0.489692 0.483311
0.831749 0.497160 0.491148
0.863005 0.499807 0.494169
0.269965 0.550150 0.465304
0.343080 0.556103 0.471604
0.421117 0.562476 0.478336
0.502723 0.569157 0.485389
0.587157 0.576085 0.492701
0.673946 0.583219 0.500233
0.762763 0.590534 0.507959
0.852654 0.598007 0.515857
0.884449 0.600663 0.518936
0.293149 0.653837 0.490479
0.366153 0.659796 0.496836
0.444086 0.666175 0.503627
0.525598 0.672863 0.510740
0.609950 0.679799 0.518113
0.696672 0.686943 0.525709
0.785438 0.694267 0.533499
0.875074 0.701752 0.541463
0.907357 0.704422 0.544602
0.317042 0.760012 0.516443
0.389967 0.765980 0.522861
0.467828 0.772371 0.529715
0.549279 0.779072 0.536893
0.633585 0.786021 0.544332
0.720277 0.793179 0.551995
0.809028 0.800519 0.559854
0.898823 0.808020 0.567889
0.931483 0.810709 0.571092
0.341599 0.868401 0.543143
0.414475 0.874385 0.549627
0.492298 0.880793 0.556548
0.573724 0.887511 0.563794
0.658019 0.894479 0.571304
0.744716 0.901658 0.579039
0.833451 0.909018 0.586972
0.923669 0.916541 0.595082
0.956591 0.919254 0.598353
0.350092 0.907708 0.553759
0.422957 0.913718 0.560305
0.500779 0.920153 0.567289
0.582218 0.926898 0.574600
0.666541 0.933893 0.582176
0.753284 0.941088 0.589978
0.842095 0.948474 0.597979
0.932721 0.956030 0.606160
0.965782 0.958780 0.609493
0.188920 0.173879 0.454723
0.262757 0.179856 0.460841
0.341511 0.186250 0.467388
0.423806 0.192949 0.474251
0.508889 0.199891 0.481369
0.596280 0.207037 0.488704
0.685643 0.214358 0.496228
0.776732 0.221835 0.503921
0.809253 0.224481 0.506808
0.207881 0.261127 0.475359
0.281490 0.267092 0.481523
0.360015 0.273476 0.488117
0.442086 0.280165 0.495028
0.526953 0.287098 0.502196
0.614138 0.294235 0.509582
0.703309 0.301549 0.517159
0.794221 0.309019 0.524905
0.826749 0.311662 0.527844
0.228305 0.354259 0.497550
0.301715 0.360216 0.503764
0.380041 0.366592 0.510409
0.461920 0.373275 0.517373
0.546605 0.380202 0.524595
0.633620 0.387335 0.532036
0.722635 0.394645 0.539669
0.813405 0.402112 0.547474
0.845319 0.404756 0.550467
0.249819 0.451672 0.520934
0.323060 0.457626 0.527202
0.401220 0.463999 0.533903
0.482940 0.470679 0.540923
0.567477 0.477605 0.548203
0.654357 0.484737 0.555703
0.743251 0.492048 0.563397
0.833870 0.499516 0.571263
0.865129 0.502165 0.574315
0.272231 0.552497 0.545319
0.345334 0.558451 0.551645
0.423359 0.564826 0.558404
0.504954 0.571509 0.565486
0.589378 0.578439 0.572828
0.676159 0.585575 0.580391
0.764969 0.592891 0.588150
0.854812 0.600366 0.596083
0.886660 0.603024 0.599197
0.295426 0.656186 0.570586
0.368421 0.662146 0.576974
0.446346 0.668528 0.583797
0.527850 0.675218 0.590943
0.612195 0.682156 0.598352
0.698913 0.689302 0.605983
0.787676 0.696628 0.613811
0.877314 0.704115 0.621815
0.909641 0.706787 0.624994
0.319333 0.762364 0.596659
0.392252 0.768335 0.603113
0.470108 0.774728 0.610004
0.551555 0.781431 0.617219
0.635858 0.788383 0.624698
0.722549 0.795543 0.632402
0.811301 0.802886 0.640304
0.901130 0.810389 0.648383
0.933821 0.813080 0.651631
0.343906 0.870758 0.623484
0.416780 0.876745 0.630009
0.494601 0.883156 0.636971
0.576026 0.889877 0.644261
0.660322 0.896848 0.651815
0.747022 0.904029 0.659596
0.835752 0.911392 0.667576
0.926023 0.918918 0.675735
0.958965 0.921634 0.679056
0.352421 0.910074 0.634239
0.425286 0.916087 0.640830
0.503109 0.922524 0.647861
0.584550 0.929273 0.655219
0.668878 0.936266 0.662845
0.755627 0.943467 0.670697
0.844447 0.950859 0.678751
0.935103 0.958419 0.686985
0.968173 0.961172 0.690372
0.191235 0.176305 0.536818
0.265047 0.182282 0.542943
0.343776 0.188676 0.549499
0.426047 0.195375 0.556372
0.511106 0.202318 0.563502
0.598474 0.209464 0.570851
0.687815 0.216786 0.578389
0.778885 0.224263 0.586099
0.811406 0.226910 0.589003
0.210199 0.263548 0.557484
0.283786 0.269514 0.563661
0.362289 0.275898 0.570268
0.444338 0.282588 0.577195
0.529185 0.289521 0.584380
0.616351 0.296659 0.591785
0.705505 0.303974 0.599381
0.796401 0.311445 0.607149
0.828929 0.314089 0.610110
0.230627 0.356677 0.579723
0.304018 0.362635 0.585955
0.382326 0.369012 0.592619
0.464187 0.375696 0.599603
0.548855 0.382624 0.606847
0.635855 0.389758 0.614311
0.724855 0.397069 0.621968
0.815613 0.404537 0.629799
0.847415 0.407182 0.632820
0.252147 0.454089 0.603172
0.325373 0.460043 0.609462
0.403517 0.466418 0.616186
0.485223 0.473099 0.623232
0.569747 0.480027 0.630539
0.656616 0.487160 0.638067
0.745500 0.494472 0.645790
0.836005 0.501942 0.653688
0.867328 0.504593 0.656772
0.274568 0.554914 0.627637
0.347658 0.560870 0.633991
0.425672 0.567246 0.640779
0.507256 0.573930 0.647890
0.591671 0.580862 0.655264
0.678444 0.588000 0.662861
0.767247 0.595317 0.670654
0.857045 0.602794 0.678623
0.888947 0.605455 0.681774
0.297774 0.658604 0.653002
0.370760 0.664566 0.659422
0.448676 0.670950 0.666279
0.530173 0.677642 0.673460
0.614513 0.684582 0.680906
0.701226 0.691730 0.688575
0.789986 0.699059 0.696443
0.879629 0.706547 0.704488
0.911998 0.709222 0.707709
0.321695 0.764785 0.679190
0.394608 0.770759 0.685681
0.472459 0.777154 0.692610
0.553902 0.783860 0.699866
0.638203 0.790814 0.707387
0.724893 0.797977 0.715134
0.813646 0.805322 0.723080
0.903509 0.812828 0.731205
0.936231 0.815522 0.734500
0.346285 0.873185 0.706146
0.419155 0.879175 0.712713
0.496974 0.885588 0.719719
0.578399 0.892312 0.727053
0.662697 0.899285 0.734654
0.749400 0.906469 0.742483
0.838127 0.913836 0.750513
0.928450 0.921365 0.758723
0.961410 0.924083 0.762095
0.354820 0.912509 0.717046
0.427685 0.918526 0.723684
0.505510 0.924966 0.730763
0.586954 0.931717 0.738172
0.671287 0.938709 0.745848
0.758042 0.945916 0.753754
0.846873 0.953314 0.761862
0.937555 0.960877 0.770152
0.970634 0.963633 0.773595
0.193610 0.178790 0.620887
0.267398 0.184767 0.627021
0.346102 0.191161 0.633586
0.428348 0.197861 0.640471
0.513384 0.204804 0.647615
0.600729 0.211950 0.654977
0.690050 0.219272 0.662532
0.781100 0.226750 0.670259
0.813620 0.229398 0.673183
0.212576 0.266029 0.641588
0.286142 0.271995 0.647778
0.364623 0.278380 0.654401
0.446652 0.285070 0.661344
0.531479 0.292004 0.668547
0.618627 0.299143 0.675971
0.707763 0.306458 0.683588
0.798643 0.313930 0.691379
0.831173 0.316576 0.694364
0.233008 0.359155 0.663878
0.306382 0.365114 0.670129
0.384671 0.371492 0.676813
0.466515 0.378176 0.683819
0.551167 0.385106 0.691085
0.638151 0.392240 0.698574
0.727138 0.399552 0.706258
0.817884 0.407022 0.714117
0.849579 0.409669 0.717166
0.254536 0.456565 0.687396
0.327746 0.462521 0.693710
0.405876 0.468896 0.700459
0.487568 0.475579 0.707531
0.572079 0.482508 0.714866
0.658936 0.489643 0.722424
0.747810 0.496956 0.730179
0.838207 0.504428 0.738109
0.869595 0.507080 0.741227
0.276965 0.557390 0.711947
0.350044 0.563347 0.718329
0.428046 0.569725 0.725147
0.509620 0.576412 0.732291
0.594025 0.583344 0.739698
0.680790 0.590484 0.747329
0.769588 0.597804 0.755159
0.859345 0.605282 0.763166
0.891300 0.607945 0.766355
0.300183 0.661082 0.737415
0.373160 0.667046 0.743869
0.451068 0.673432 0.750761
0.532558 0.680126 0.757979
0.616892 0.687068 0.765462
0.703601 0.694218 0.773172
0.792359 0.701549 0.781081
0.882010 0.709040 0.789169
0.914419 0.711717 0.792433
0.324118 0.767267 0.763722
0.397025 0.773242 0.770252
0.474871 0.779640 0.777222
0.556311 0.786348 0.784519
0.640610 0.793305 0.792084
0.727300 0.800470 0.799876
0.816054 0.807818 0.807868
0.905953 0.815326 0.816041
0.938704 0.818023 0.819385
0.348724 0.875672 0.790816
0.421592 0.881664 0.797426
0.499410 0.888080 0.804478
0.580835 0.894807 0.811859
0.665134 0.901783 0.819509
0.751840 0.908970 0.827388
0.840568 0.916339 0.835469
0.930939 0.923871 0.843732
0.963917 0.926593 0.847158
0.357280 0.915005 0.801868
0.430146 0.921024 0.808554
0.507972 0.927467 0.815684
0.589420 0.934220 0.823144
0.673758 0.941214 0.830874
0.760520 0.948427 0.838835
0.849362 0.955829 0.847000
0.940069 0.963396 0.855348
0.973155 0.966154 0.858850
0.196038 0.181327 0.706699
0.269802 0.187304 0.712842
0.348482 0.193699 0.719419
0.430704 0.200399 0.726316
0.515716 0.207342 0.733474
0.603040 0.214489 0.740853
0.692340 0.221812 0.748425
0.783370 0.229290 0.756171
0.815890 0.231938 0.759114
0.215007 0.268563 0.727438
0.288552 0.274529 0.733643
0.367012 0.280915 0.740282
0.449020 0.287605 0.747243
0.533827 0.294540 0.754466
0.620957 0.301679 0.761910
0.710076 0.308996 0.769550
0.800940 0.316468 0.777365
0.833472 0.319115 0.780375
0.235444 0.361685 0.749784
0.308799 0.367645 0.756054
0.387070 0.374024 0.762760
0.468897 0.380710 0.769789
0.553533 0.387640 0.777080
0.640503 0.394775 0.784595
0.729477 0.402089 0.792306
0.820211 0.409559 0.800194
0.851805 0.412207 0.803274
0.256978 0.459094 0.773375
0.330173 0.465051 0.779714
0.408289 0.471428 0.786489
0.489967 0.478112 0.793590
0.574465 0.485042 0.800955
0.661312 0.492178 0.808544
0.750176 0.499493 0.816331
0.840471 0.506966 0.824296
0.871922 0.509620 0.827449
0.279416 0.559919 0.798017
0.352483 0.565878 0.804428
0.430474 0.572258 0.811279
0.512038 0.578946 0.818455
0.596434 0.585880 0.825897
0.683192 0.593022 0.833565
0.771984 0.600343 0.841432
0.861706 0.607823 0.849479
0.893711 0.610488 0.852709
0.302646 0.663613 0.823592
0.375614 0.669579 0.830081
0.453514 0.675967 0.837010
0.534997 0.682663 0.844267
0.619327 0.689607 0.851790
0.706032 0.696759 0.859541
0.794788 0.704092 0.867493
0.884450 0.711585 0.875626
0.916899 0.714265 0.878936
0.326594 0.769801 0.850025
0.399496 0.775779 0.856595
0.477338 0.782180 0.863607
0.558775 0.788890 0.870948
0.643072 0.795849 0.878558
0.729762 0.803017 0.886396
0.818518 0.810367 0.894101
0.908455 0.817878 0.901683
0.941234 0.820577 0.904769
0.351217 0.878212 0.877262
0.424084 0.884207 0.883917
0.501900 0.890626 0.890916
0.583326 0.897355 0.897808
0.667627 0.904334 0.904874
0.754337 0.911524 0.912071
0.843066 0.918896 0.919368
0.933484 0.926431 0.926739
0.966478 0.929156 0.929691
0.359795 0.917554 0.888471
0.432661 0.923576 0.894852
0.510490 0.930022 0.901415
0.591942 0.936773 0.908204
0.676285 0.943773 0.915155
0.763054 0.950991 0.922223
0.851909 0.958398 0.929377
0.942637 0.965968 0.936592
0.975729 0.968729 0.939476
0.196799 0.182221 0.737992
0.270540 0.188199 0.744143
0.349197 0.194595 0.750728
0.431398 0.201295 0.757634
0.516389 0.208239 0.764801
0.603692 0.215386 0.772190
0.692973 0.222710 0.779773
0.783986 0.230189 0.787530
0.816508 0.232838 0.790485
0.215776 0.269454 0.758759
0.289301 0.275422 0.764974
0.367742 0.281808 0.771623
0.449731 0.288500 0.778595
0.534521 0.295435 0.785829
0.621634 0.302576 0.793286
0.710738 0.309893 0.800939
0.801588 0.317366 0.808767
0.834123 0.320014 0.811790
0.236223 0.362575 0.781141
0.309561 0.368536 0.787422
0.387817 0.374916 0.794140
0.469628 0.381603 0.801182
0.554249 0.388535 0.808487
0.641206 0.395671 0.816016
0.730168 0.402986 0.823742
0.820892 0.410458 0.831645
0.852476 0.413108 0.834741
0.257768 0.459983 0.804773
0.330950 0.465942 0.811125
0.409053 0.472320 0.817915
0.490719 0.479006 0.825031
0.575206 0.485938 0.832411
0.662043 0.493076 0.840017
0.750899 0.500392 0.847821
0.841164 0.507867 0.855803
0.872671 0.510523 0.858974
0.280220 0.560809 0.829463
0.353276 0.566770 0.835891
0.431258 0.573152 0.842757
0.512813 0.579842 0.849951
0.597201 0.586778 0.857411
0.683953 0.593922 0.865097
0.772740 0.601245 0.872983
0.862475 0.608728 0.881049
0.894526 0.611394 0.884299
0.303465 0.664507 0.855095
0.376426 0.670475 0.861602
0.454319 0.676864 0.868549
0.535797 0.683563 0.875825
0.620122 0.690509 0.883368
0.706825 0.697664 0.890956
0.795580 0.704999 0.898462
0.885281 0.712494 0.906066
0.917765 0.715176 0.909110
0.327431 0.770699 0.881590
0.400328 0.776680 0.888147
0.478166 0.783082 0.894799
0.559601 0.789795 0.901702
0.643898 0.796757 0.908789
0.730589 0.803927 0.916016
0.819348 0.811280 0.923352
0.909335 0.818794 0.930771
0.942138 0.821496 0.933698
0.352073 0.879115 0.907607
0.424938 0.885114 0.913763
0.502755 0.891535 0.920264
0.584181 0.898268 0.926998
0.668485 0.905250 0.933901
0.755200 0.912442 0.940928
0.843940 0.919818 0.948048
0.934399 0.927355 0.955236
0.967407 0.930083 0.958008
0.360673 0.918467 0.917778
0.433542 0.924492 0.923841
0.511373 0.930941 0.930235
0.592829 0.937694 0.936847
0.677178 0.944699 0.943614
0.763955 0.951922 0.950492
0.852824 0.959332 0.957450
0.943571 0.966905 0.964462
0.976667 0.969667 0.967147
