library/cube/Color_Fade_Lab_001.cube
# CINEGRADE LAB — Premium Cinematic LUT
# Title: Color Fade Lab
# Category: Vintage Film Lab
# Description: Faded, grainy, color-shifted retro film lab aesthetic
# Mood: Retro, faded, nostalgic
# Variant: 2
# Generated: 2026-05-21T16:12:32.097920
TITLE "Color Fade Lab"
LUT_3D_SIZE 33
0.180545 0.165048 0.155237
0.198446 0.166493 0.156712
0.216768 0.167973 0.158223
0.235461 0.169484 0.159765
0.254485 0.171024 0.161335
0.273808 0.172589 0.162931
0.293406 0.174177 0.164551
0.313257 0.175787 0.166193
0.333341 0.177417 0.167856
0.353645 0.179066 0.169538
0.374153 0.180732 0.171238
0.394854 0.182416 0.172955
0.415737 0.184115 0.174688
0.436794 0.185829 0.176437
0.458014 0.187558 0.178200
0.479391 0.189300 0.179978
0.500918 0.191056 0.181770
0.522588 0.192824 0.183575
0.544395 0.194604 0.185392
0.566335 0.196396 0.187222
0.588402 0.198200 0.189063
0.610591 0.200014 0.190916
0.632899 0.201839 0.192780
0.655321 0.203675 0.194654
0.677853 0.205520 0.196540
0.700494 0.207375 0.198435
0.723238 0.209239 0.200341
0.746083 0.211113 0.202256
0.769026 0.212995 0.204180
0.792065 0.214886 0.206114
0.802081 0.215702 0.206977
0.801814 0.215670 0.206993
0.801550 0.215638 0.207010
0.185113 0.186170 0.160201
0.202998 0.187614 0.161677
0.221304 0.189093 0.163189
0.239981 0.190603 0.164733
0.258989 0.192142 0.166305
0.278297 0.193706 0.167903
0.297879 0.195293 0.169525
0.317713 0.196902 0.171169
0.337782 0.198532 0.172833
0.358070 0.200180 0.174517
0.378562 0.201845 0.176218
0.399248 0.203528 0.177937
0.420116 0.205226 0.179672
0.441157 0.206940 0.181423
0.462362 0.208668 0.183189
0.483724 0.210409 0.184968
0.505236 0.212164 0.186762
0.526891 0.213932 0.188569
0.548684 0.215712 0.190388
0.570609 0.217503 0.192219
0.592662 0.219306 0.194063
0.614837 0.221120 0.195918
0.637131 0.222944 0.197784
0.659539 0.224779 0.199660
0.682059 0.226623 0.201548
0.704685 0.228478 0.203445
0.727416 0.230341 0.205353
0.750249 0.232214 0.207270
0.773180 0.234096 0.209197
0.796206 0.235987 0.211133
0.806221 0.236803 0.211997
0.805960 0.236770 0.212016
0.805702 0.236738 0.212035
0.189803 0.207792 0.165288
0.207673 0.209235 0.166766
0.225964 0.210713 0.168280
0.244625 0.212223 0.169826
0.263618 0.213761 0.171400
0.282910 0.215324 0.172999
0.302477 0.216910 0.174623
0.322296 0.218519 0.176268
0.342349 0.220147 0.177935
0.362622 0.221795 0.179620
0.383099 0.223460 0.181324
0.403769 0.225141 0.183044
0.424622 0.226839 0.184781
0.445648 0.228552 0.186534
0.466839 0.230279 0.188302
0.488187 0.232020 0.190083
0.509684 0.233774 0.191879
0.531325 0.235541 0.193687
0.553104 0.237320 0.195509
0.575015 0.239111 0.197342
0.597054 0.240913 0.199188
0.619216 0.242726 0.201045
0.641496 0.244550 0.202913
0.663892 0.246384 0.204792
0.686398 0.248228 0.206681
0.709012 0.250082 0.208581
0.731731 0.251945 0.210491
0.754551 0.253818 0.212410
0.777470 0.255699 0.214339
0.800485 0.257589 0.216277
0.810498 0.258405 0.217144
0.810243 0.258372 0.217164
0.809992 0.258340 0.217185
0.194601 0.229855 0.170486
0.212456 0.231297 0.171966
0.230733 0.232775 0.173481
0.249379 0.234284 0.175029
0.268357 0.235821 0.176604
0.287634 0.237383 0.178206
0.307186 0.238969 0.179832
0.326990 0.240577 0.181479
0.347029 0.242205 0.183147
0.367286 0.243851 0.184834
0.387749 0.245516 0.186540
0.408405 0.247197 0.188262
0.429243 0.248894 0.190002
0.450255 0.250606 0.191756
0.471431 0.252332 0.193526
0.492765 0.254073 0.195309
0.514248 0.255826 0.197107
0.535876 0.257593 0.198918
0.557641 0.259371 0.200741
0.579539 0.261161 0.202577
0.601564 0.262963 0.204424
0.623713 0.264776 0.206283
0.645981 0.266599 0.208154
0.668364 0.268432 0.210035
0.690858 0.270276 0.211926
0.713460 0.272129 0.213828
0.736167 0.273992 0.215740
0.758975 0.275864 0.217662
0.781883 0.277745 0.219593
0.804886 0.279634 0.221534
0.814898 0.280450 0.222403
0.814650 0.280417 0.222425
0.814405 0.280384 0.222448
0.199497 0.252314 0.175783
0.217338 0.253755 0.177265
0.235600 0.255232 0.178783
0.254232 0.256740 0.180332
0.273195 0.258277 0.181909
0.292458 0.259838 0.183513
0.311995 0.261424 0.185140
0.331785 0.263031 0.186790
0.351809 0.264658 0.188460
0.372052 0.266304 0.190149
0.392501 0.267967 0.191856
0.413142 0.269648 0.193581
0.433967 0.271344 0.195322
0.454965 0.273056 0.197079
0.476128 0.274782 0.198850
0.497448 0.276522 0.200636
0.518918 0.278275 0.202436
0.540532 0.280040 0.204249
0.562284 0.281818 0.206074
0.584169 0.283608 0.207912
0.606182 0.285409 0.209762
0.628319 0.287221 0.211623
0.650574 0.289044 0.213496
0.672945 0.290877 0.215379
0.695427 0.292720 0.217273
0.718018 0.294573 0.219177
0.740713 0.296435 0.221091
0.763511 0.298307 0.223015
0.786407 0.300187 0.224949
0.809400 0.302076 0.226892
0.819411 0.302892 0.227763
0.819170 0.302859 0.227788
0.818931 0.302826 0.227813
0.204481 0.275131 0.181172
0.222309 0.276572 0.182656
0.240557 0.278048 0.184175
0.259175 0.279556 0.185727
0.278124 0.281091 0.187306
0.297373 0.282652 0.188912
0.316896 0.284237 0.190541
0.336672 0.285843 0.192192
0.356682 0.287470 0.193864
0.376911 0.289115 0.195555
0.397346 0.290778 0.197265
0.417974 0.292458 0.198992
0.438785 0.294154 0.200735
0.459770 0.295865 0.202494
0.480920 0.297591 0.204267
0.502227 0.299330 0.206055
0.523684 0.301082 0.207857
0.545285 0.302848 0.209672
0.567025 0.304625 0.211500
0.588898 0.306414 0.213340
0.610899 0.308215 0.215192
0.633024 0.310027 0.217056
0.655267 0.311849 0.218930
0.677627 0.313682 0.220816
0.700098 0.315524 0.222712
0.722677 0.317377 0.224619
0.745362 0.319239 0.226535
0.768149 0.321110 0.228462
0.791035 0.322990 0.230398
0.814018 0.324879 0.232343
0.824028 0.325694 0.233217
0.823793 0.325661 0.233243
0.823561 0.325628 0.233270
0.209547 0.298277 0.186646
0.227362 0.299717 0.188131
0.245596 0.301193 0.189653
0.264201 0.302700 0.191206
0.283136 0.304235 0.192787
0.302372 0.305795 0.194395
0.321881 0.307379 0.196026
0.341644 0.308985 0.197680
0.361641 0.310611 0.199354
0.381857 0.312256 0.201047
0.402278 0.313918 0.202759
0.422893 0.315598 0.204488
0.443692 0.317293 0.206233
0.464663 0.319004 0.207994
0.485800 0.320729 0.209770
0.507095 0.322468 0.211560
0.528540 0.324220 0.213364
0.550129 0.325984 0.215181
0.571857 0.327761 0.217011
0.593718 0.329550 0.218854
0.615708 0.331351 0.220708
0.637821 0.333162 0.222574
0.660054 0.334984 0.224451
0.682402 0.336816 0.226339
0.704863 0.338659 0.228238
0.727432 0.340511 0.230147
0.750106 0.342372 0.232066
0.772883 0.344243 0.233994
0.795760 0.346123 0.235933
0.818733 0.348012 0.237881
0.828743 0.348827 0.238757
0.828514 0.348794 0.238785
0.828289 0.348761 0.238815
0.214690 0.321726 0.192198
0.232491 0.323166 0.193686
0.250713 0.324641 0.195209
0.269304 0.326147 0.196764
0.288227 0.327682 0.198348
0.307449 0.329242 0.199958
0.326945 0.330826 0.201591
0.346695 0.332431 0.203247
0.366679 0.334056 0.204923
0.386882 0.335701 0.206618
0.407291 0.337363 0.208332
0.427894 0.339042 0.210063
0.448680 0.340737 0.211811
0.469639 0.342447 0.213574
0.490764 0.344171 0.215352
0.512046 0.345910 0.217145
0.533480 0.347661 0.218951
0.555058 0.349426 0.220770
0.576774 0.351203 0.222603
0.598624 0.352991 0.224447
0.620603 0.354791 0.226304
0.642705 0.356602 0.228172
0.664927 0.358424 0.230052
0.687265 0.360256 0.231942
0.709716 0.362098 0.233843
0.732275 0.363950 0.235755
0.754940 0.365811 0.237676
0.777707 0.367682 0.239608
0.800575 0.369561 0.241549
0.823539 0.371450 0.243499
0.833549 0.372265 0.244377
0.833327 0.372232 0.244408
0.833108 0.372199 0.244440
0.219903 0.345458 0.197825
0.237692 0.346897 0.199315
0.255901 0.348372 0.200840
0.274480 0.349878 0.202397
0.293390 0.351412 0.203983
0.312600 0.352971 0.205595
0.332084 0.354555 0.207230
0.351820 0.356159 0.208888
0.371792 0.357784 0.210566
0.391983 0.359428 0.212264
0.412380 0.361090 0.213980
0.432971 0.362769 0.215713
0.453744 0.364463 0.217463
0.474692 0.366173 0.219229
0.495805 0.367897 0.221009
0.517077 0.369635 0.222804
0.538499 0.371387 0.224613
0.560066 0.373151 0.226435
0.581771 0.374927 0.228269
0.603611 0.376715 0.230116
0.625579 0.378515 0.231976
0.647671 0.380326 0.233846
0.669883 0.382147 0.235728
0.692211 0.383979 0.237621
0.714652 0.385821 0.239525
0.737202 0.387673 0.241439
0.759858 0.389534 0.243363
0.782617 0.391404 0.245297
0.805475 0.393284 0.247240
0.828432 0.395172 0.249193
0.838291 0.395987 0.250074
0.838080 0.395954 0.250107
0.837870 0.395922 0.250141
0.225183 0.369454 0.203521
0.242960 0.370893 0.205013
0.261157 0.372367 0.206541
0.279724 0.373872 0.208100
0.298622 0.375406 0.209688
0.317819 0.376965 0.211302
0.337291 0.378548 0.212940
0.357016 0.380153 0.214600
0.376976 0.381777 0.216280
0.397155 0.383421 0.217980
0.417541 0.385082 0.219699
0.438120 0.386760 0.221434
0.458882 0.388455 0.223186
0.479819 0.390164 0.224954
0.500921 0.391888 0.226737
0.522181 0.393626 0.228534
0.543593 0.395377 0.230345
0.565149 0.397141 0.232170
0.586844 0.398917 0.234007
0.608674 0.400705 0.235857
0.630632 0.402505 0.237718
0.652714 0.404315 0.239591
0.674917 0.406136 0.241476
0.697236 0.407968 0.243371
0.719668 0.409810 0.245278
0.742209 0.411661 0.247194
0.764857 0.413522 0.249121
0.787607 0.415393 0.251058
0.810458 0.417272 0.253004
0.833406 0.419160 0.254959
0.842927 0.419976 0.255843
0.842730 0.419943 0.255878
0.842535 0.419911 0.255915
0.230527 0.393698 0.209285
0.248292 0.395137 0.210778
0.266477 0.396611 0.212308
0.285033 0.398116 0.213870
0.303919 0.399649 0.215460
0.323105 0.401208 0.217076
0.342565 0.402790 0.218716
0.362279 0.404394 0.220378
0.382227 0.406019 0.222061
0.402395 0.407662 0.223764
0.422769 0.409323 0.225484
0.443337 0.411001 0.227222
0.464089 0.412695 0.228977
0.485015 0.414405 0.230747
0.506107 0.416128 0.232532
0.527357 0.417866 0.234332
0.548758 0.419617 0.236146
0.570305 0.421381 0.237973
0.591990 0.423157 0.239812
0.613810 0.424944 0.241664
0.635759 0.426744 0.243529
0.657832 0.428554 0.245404
0.680026 0.430375 0.247292
0.702337 0.432207 0.249190
0.724760 0.434049 0.251099
0.747293 0.435900 0.253018
0.769933 0.437761 0.254947
0.792675 0.439632 0.256887
0.815519 0.441511 0.258836
0.838257 0.443399 0.260794
0.847690 0.444215 0.261680
0.847506 0.444182 0.261718
0.847325 0.444151 0.261756
0.235930 0.418177 0.215111
0.253685 0.419615 0.216607
0.271859 0.421089 0.218139
0.290403 0.422594 0.219703
0.309278 0.424127 0.221295
0.328453 0.425685 0.222914
0.347903 0.427268 0.224556
0.367605 0.428871 0.226221
0.387543 0.430496 0.227906
0.407700 0.432139 0.229611
0.428063 0.433800 0.231334
0.448621 0.435477 0.233075
0.469362 0.437171 0.234832
0.490278 0.438880 0.236604
0.511360 0.440604 0.238392
0.532600 0.442341 0.240194
0.553992 0.444092 0.242010
0.575529 0.445856 0.243840
0.597205 0.447632 0.245682
0.619016 0.449420 0.247537
0.640956 0.451219 0.249404
0.663021 0.453029 0.251282
0.685207 0.454850 0.253172
0.707509 0.456682 0.255073
0.729925 0.458524 0.256984
0.752450 0.460375 0.258906
0.775082 0.462236 0.260839
0.797818 0.464107 0.262781
0.820655 0.465986 0.264732
0.843088 0.467874 0.266694
0.852574 0.468690 0.267582
0.852404 0.468658 0.267623
0.852236 0.468627 0.267664
0.241392 0.442878 0.220998
0.259135 0.444316 0.222497
0.277299 0.445789 0.224031
0.295832 0.447294 0.225597
0.314697 0.448827 0.227192
0.333861 0.450385 0.228813
0.353300 0.451967 0.230458
0.372992 0.453571 0.232125
0.392920 0.455195 0.233812
0.413067 0.456838 0.235520
0.433420 0.458499 0.237245
0.453968 0.460177 0.238988
0.474699 0.461870 0.240748
0.495605 0.463579 0.242523
0.516678 0.465303 0.244313
0.537909 0.467040 0.246118
0.559291 0.468791 0.247937
0.580820 0.470555 0.249769
0.602487 0.472331 0.251614
0.624290 0.474118 0.253471
0.646222 0.475918 0.255341
0.668279 0.477728 0.257222
0.690457 0.479549 0.259115
0.712752 0.481381 0.261018
0.735160 0.483223 0.262933
0.757678 0.485074 0.264857
0.780304 0.486936 0.266792
0.803033 0.488806 0.268737
0.825863 0.490686 0.270692
0.848038 0.492574 0.272656
0.857574 0.493390 0.273547
0.857417 0.493359 0.273590
0.857262 0.493328 0.273634
0.246908 0.467791 0.226944
0.264642 0.469229 0.228445
0.282795 0.470702 0.229981
0.301318 0.472206 0.231550
0.320173 0.473739 0.233147
0.339327 0.475297 0.234770
0.358756 0.476879 0.236418
0.378438 0.478483 0.238087
0.398355 0.480107 0.239777
0.418493 0.481750 0.241487
0.438837 0.483410 0.243215
0.459375 0.485088 0.244961
0.480097 0.486782 0.246723
0.500994 0.488491 0.248501
0.522058 0.490214 0.250294
0.543280 0.491952 0.252101
0.564654 0.493703 0.253923
0.586174 0.495466 0.255758
0.607834 0.497242 0.257605
0.629628 0.499030 0.259465
0.651553 0.500830 0.261338
0.673602 0.502640 0.263222
0.695773 0.504461 0.265117
0.718061 0.506293 0.267024
0.740463 0.508135 0.268941
0.762975 0.509987 0.270868
0.785594 0.511848 0.272806
0.808317 0.513719 0.274754
0.831142 0.515599 0.276712
0.853103 0.517487 0.278679
0.862687 0.518304 0.279572
0.862543 0.518273 0.279618
0.862400 0.518242 0.279664
0.252477 0.492905 0.232946
0.270201 0.494343 0.234449
0.288345 0.495816 0.235988
0.306859 0.497320 0.237559
0.325703 0.498853 0.239159
0.344848 0.500411 0.240784
0.364267 0.501993 0.242434
0.383940 0.503597 0.244106
0.403848 0.505221 0.245799
0.423976 0.506863 0.247512
0.444311 0.508524 0.249242
0.464841 0.510202 0.250990
0.485554 0.511896 0.252755
0.506443 0.513605 0.254536
0.527498 0.515328 0.256332
0.548712 0.517066 0.258142
0.570079 0.518817 0.259966
0.591591 0.520581 0.261803
0.613243 0.522357 0.263654
0.635030 0.524145 0.265517
0.656947 0.525944 0.267392
0.678990 0.527755 0.269279
0.701154 0.529577 0.271177
0.723436 0.531409 0.273086
0.745831 0.533251 0.275007
0.768338 0.535103 0.276937
0.790951 0.536964 0.278878
0.813669 0.538835 0.280829
0.836322 0.540716 0.282789
0.858277 0.542605 0.284760
0.867908 0.543421 0.285656
0.867776 0.543391 0.285704
0.867645 0.543361 0.285753
0.258098 0.518212 0.239002
0.275813 0.519650 0.240507
0.293948 0.521123 0.242049
0.312452 0.522627 0.243623
0.331287 0.524160 0.245225
0.350423 0.525718 0.246853
0.369833 0.527300 0.248506
0.389497 0.528904 0.250180
0.409396 0.530528 0.251876
0.429516 0.532171 0.253591
0.449842 0.533832 0.255324
0.470363 0.535510 0.257075
0.491069 0.537204 0.258843
0.511949 0.538913 0.260626
0.532997 0.540636 0.262424
0.554203 0.542374 0.264237
0.575562 0.544125 0.266064
0.597067 0.545889 0.267905
0.618713 0.547666 0.269758
0.640493 0.549454 0.271624
0.662404 0.551254 0.273502
0.684440 0.553065 0.275392
0.706598 0.554886 0.277293
0.728874 0.556719 0.279205
0.751264 0.558561 0.281128
0.773765 0.560414 0.283062
0.796373 0.562276 0.285006
0.819087 0.564147 0.286960
0.841515 0.566027 0.288923
0.863557 0.567917 0.290897
0.873232 0.568734 0.291796
0.873111 0.568704 0.291847
0.872992 0.568675 0.291898
0.263769 0.543704 0.245111
0.281475 0.545142 0.246619
0.299600 0.546615 0.248163
0.318096 0.548120 0.249739
0.336923 0.549652 0.251344
0.356050 0.551211 0.252975
0.375451 0.552793 0.254630
0.395107 0.554397 0.256307
0.414998 0.556021 0.258006
0.435109 0.557664 0.259723
0.455428 0.559325 0.261460
0.475941 0.561003 0.263213
0.496639 0.562697 0.264983
0.517512 0.564407 0.266770
0.538552 0.566131 0.268571
0.559752 0.567869 0.270387
0.581104 0.569620 0.272217
0.602602 0.571384 0.274060
0.624241 0.573161 0.275916
0.646015 0.574949 0.277785
0.667920 0.576750 0.279666
0.689951 0.578561 0.281559
0.712104 0.580383 0.283463
0.734374 0.582216 0.285378
0.756759 0.584058 0.287304
0.779255 0.585911 0.289241
0.801859 0.587774 0.291188
0.824568 0.589645 0.293145
0.846812 0.591526 0.295112
0.868938 0.593416 0.297088
0.878656 0.594234 0.297991
0.878546 0.594205 0.298044
0.878438 0.594176 0.298098
0.269487 0.569374 0.251270
0.287185 0.570812 0.252781
0.305302 0.572285 0.254328
0.323790 0.573790 0.255907
0.342608 0.575323 0.257515
0.361727 0.576882 0.259148
0.381121 0.578464 0.260806
0.400768 0.580068 0.262486
0.420652 0.581692 0.264187
0.440756 0.583336 0.265908
0.461067 0.584997 0.267647
0.481573 0.586675 0.269403
0.502263 0.588370 0.271176
0.523130 0.590079 0.272965
0.544163 0.591804 0.274769
0.565356 0.593542 0.276588
0.586702 0.595294 0.278421
0.608194 0.597058 0.280267
0.629827 0.598835 0.282127
0.651596 0.600624 0.283998
0.673495 0.602425 0.285882
0.695521 0.604236 0.287778
0.717669 0.606059 0.289686
0.739935 0.607892 0.291604
0.762315 0.609735 0.293533
0.784807 0.611589 0.295473
0.807408 0.613452 0.297423
0.830113 0.615324 0.299383
0.852211 0.617205 0.301354
0.874417 0.619096 0.303333
0.884175 0.619914 0.304238
0.884076 0.619886 0.304294
0.883979 0.619858 0.304351
0.275252 0.595215 0.257480
0.292942 0.596653 0.258994
0.311052 0.598127 0.260543
0.329532 0.599632 0.262125
0.348343 0.601165 0.263735
0.367454 0.602724 0.265372
0.386840 0.604306 0.267032
0.406480 0.605911 0.268715
0.426357 0.607535 0.270419
0.446453 0.609179 0.272142
0.466757 0.610841 0.273884
0.487256 0.612519 0.275643
0.507941 0.614214 0.277420
0.528801 0.615924 0.279212
0.549828 0.617649 0.281019
0.571015 0.619388 0.282840
0.592355 0.621140 0.284676
0.613842 0.622905 0.286526
0.635470 0.624682 0.288388
0.657233 0.626472 0.290263
0.679128 0.628273 0.292150
0.701149 0.630085 0.294049
0.723292 0.631908 0.295959
0.745554 0.633742 0.297881
0.767931 0.635585 0.299813
0.790420 0.637439 0.301756
0.813017 0.639303 0.303710
0.835567 0.641176 0.305673
0.857708 0.643058 0.307647
0.879989 0.644949 0.309630
0.889786 0.645768 0.310538
0.889697 0.645741 0.310596
0.889610 0.645714 0.310656
0.281063 0.621222 0.263738
0.298746 0.622660 0.265255
0.316849 0.624134 0.266807
0.335321 0.625639 0.268391
0.354125 0.627173 0.270004
0.373229 0.628732 0.271644
0.392608 0.630315 0.273307
0.412241 0.631919 0.274993
0.432111 0.633544 0.276700
0.452201 0.635188 0.278426
0.472499 0.636851 0.280171
0.492992 0.638530 0.281933
0.513670 0.640225 0.283712
0.534524 0.641935 0.285507
0.555546 0.643660 0.287317
0.576727 0.645400 0.289142
0.598062 0.647152 0.290981
0.619544 0.648918 0.292834
0.641167 0.650696 0.294699
0.662926 0.652486 0.296577
0.684817 0.654287 0.298467
0.706834 0.656100 0.300369
0.728974 0.657924 0.302283
0.751232 0.659758 0.304208
0.773606 0.661603 0.306144
0.796091 0.663457 0.308090
0.818685 0.665321 0.310047
0.841083 0.667195 0.312014
0.863298 0.669078 0.313990
0.885652 0.670969 0.315977
0.895485 0.671789 0.316888
0.895406 0.671763 0.316949
0.895328 0.671737 0.317011
0.286919 0.647388 0.270044
0.304595 0.648826 0.271563
0.322691 0.650300 0.273118
0.341156 0.651806 0.274706
0.359953 0.653340 0.276321
0.379051 0.654900 0.277964
0.398424 0.656483 0.279630
0.418051 0.658088 0.281319
0.437914 0.659714 0.283028
0.457998 0.661358 0.284758
0.478290 0.663021 0.286506
0.498777 0.664700 0.288271
0.519450 0.666396 0.290053
0.540299 0.668107 0.291851
0.561315 0.669833 0.293664
0.582492 0.671573 0.295492
0.603823 0.673326 0.297334
0.625300 0.675092 0.299190
0.646919 0.676871 0.301059
0.668674 0.678661 0.302940
0.690561 0.680463 0.304833
0.712575 0.682277 0.306739
0.734711 0.684101 0.308656
0.756967 0.685936 0.310584
0.779338 0.687781 0.312523
0.801821 0.689637 0.314473
0.824413 0.691501 0.316433
0.846694 0.693376 0.318403
0.868979 0.695259 0.320383
0.891400 0.697152 0.322373
0.901267 0.697973 0.323287
0.901197 0.697947 0.323351
0.901128 0.697922 0.323416
0.292819 0.673708 0.276396
0.310488 0.675147 0.277918
0.328578 0.676622 0.279476
0.347037 0.678128 0.281066
0.365828 0.679663 0.282685
0.384919 0.681223 0.284330
0.404286 0.682807 0.286000
0.423907 0.684412 0.287691
0.443765 0.686038 0.289404
0.463843 0.687683 0.291136
0.484130 0.689347 0.292887
0.504612 0.691027 0.294656
0.525280 0.692723 0.296441
0.546124 0.694435 0.298242
0.567136 0.696161 0.300059
0.588309 0.697901 0.301890
0.609635 0.699655 0.303735
0.631109 0.701422 0.305594
0.652724 0.703201 0.307466
0.674476 0.704993 0.309351
0.696359 0.706796 0.311247
0.718370 0.708610 0.313156
0.740504 0.710435 0.315076
0.762758 0.712271 0.317008
0.785127 0.714117 0.318950
0.807608 0.715973 0.320904
0.830181 0.717838 0.322867
0.852394 0.719714 0.324841
0.874745 0.721598 0.326824
0.897230 0.723491 0.328818
0.907130 0.724313 0.329735
0.907069 0.724289 0.329802
0.907008 0.724265 0.329870
0.298761 0.700179 0.282794
0.316425 0.701618 0.284319
0.334508 0.703094 0.285880
0.352962 0.704600 0.287473
0.371747 0.706135 0.289095
0.390833 0.707696 0.290743
0.410194 0.709280 0.292415
0.429810 0.710887 0.294110
0.449662 0.712513 0.295826
0.469736 0.714159 0.297561
0.490018 0.715823 0.299315
0.510495 0.717504 0.301087
0.531159 0.719201 0.302875
0.551999 0.720913 0.304680
0.573007 0.722640 0.306500
0.594176 0.724381 0.308334
0.615499 0.726136 0.310182
0.636969 0.727904 0.312045
0.658581 0.729684 0.313920
0.680330 0.731476 0.315808
0.702212 0.733280 0.317708
0.724220 0.735095 0.319620
0.746352 0.736921 0.321544
0.768604 0.738757 0.323479
0.790971 0.740604 0.325425
0.813451 0.742461 0.327382
0.835905 0.744328 0.329349
0.858182 0.746204 0.331326
0.880594 0.748089 0.333313
0.903139 0.749983 0.335310
0.913070 0.750806 0.336230
0.913016 0.750783 0.336301
0.912963 0.750760 0.336371
0.304746 0.726795 0.289236
0.322404 0.728235 0.290764
0.340482 0.729711 0.292328
0.358930 0.731218 0.293924
0.377710 0.732754 0.295549
0.396791 0.734315 0.297200
0.416147 0.735900 0.298875
0.435758 0.737507 0.300573
0.455606 0.739135 0.302292
0.475676 0.740781 0.304031
0.495953 0.742446 0.305788
0.516427 0.744127 0.307563
0.537086 0.745825 0.309355
0.557923 0.747538 0.311163
0.578927 0.749266 0.312986
0.600093 0.751008 0.314824
0.621413 0.752764 0.316675
0.642880 0.754532 0.318541
0.664490 0.756313 0.320420
0.686237 0.758106 0.322311
0.708116 0.759911 0.324215
0.730123 0.761727 0.326130
0.752254 0.763554 0.328058
0.774504 0.765391 0.329996
0.796871 0.767239 0.331946
0.819350 0.769097 0.333906
0.841715 0.770964 0.335876
0.864052 0.772841 0.337857
0.886522 0.774728 0.339848
0.909123 0.776623 0.341849
0.919082 0.777447 0.342773
0.919035 0.777425 0.342846
0.918990 0.777404 0.342919
0.310772 0.753552 0.295722
0.328425 0.754993 0.297253
0.346498 0.756470 0.298820
0.364942 0.757978 0.300419
0.383717 0.759514 0.302047
0.402793 0.761076 0.303701
0.422145 0.762662 0.305380
0.441752 0.764270 0.307081
0.461596 0.765898 0.308804
0.481661 0.767546 0.310545
0.501935 0.769211 0.312306
0.522405 0.770893 0.314084
0.543061 0.772592 0.315879
0.563895 0.774306 0.317690
0.584896 0.776035 0.319517
0.606060 0.777778 0.321358
0.627377 0.779534 0.323213
0.648842 0.781303 0.325082
0.670450 0.783085 0.326964
0.692196 0.784879 0.328859
0.714074 0.786685 0.330766
0.736079 0.788502 0.332686
0.758209 0.790330 0.334616
0.780459 0.792168 0.336559
0.802825 0.794017 0.338512
0.825305 0.795876 0.340476
0.847609 0.797745 0.342450
0.870001 0.799623 0.344434
0.892525 0.801510 0.346429
0.915178 0.803407 0.348433
0.925163 0.804232 0.349360
0.925124 0.804212 0.349436
0.925085 0.804191 0.349513
0.316839 0.780448 0.302251
0.334488 0.781889 0.303785
0.352556 0.783367 0.305355
0.370995 0.784876 0.306957
0.389766 0.786413 0.308589
0.408839 0.787976 0.310246
0.428187 0.789562 0.311928
0.447790 0.791171 0.313633
0.467630 0.792800 0.315358
0.487692 0.794448 0.317104
0.507963 0.796115 0.318867
0.528430 0.797798 0.320649
0.549083 0.799498 0.322448
0.569914 0.801213 0.324262
0.590914 0.802942 0.326092
0.612075 0.804686 0.327937
0.633390 0.806443 0.329795
0.654854 0.808214 0.331668
0.676461 0.809997 0.333553
0.698205 0.811792 0.335452
0.720082 0.813599 0.337363
0.742087 0.815417 0.339286
0.764217 0.817246 0.341220
0.786467 0.819085 0.343166
0.808833 0.820935 0.345123
0.831271 0.822795 0.347090
0.853582 0.824665 0.349068
0.876026 0.826545 0.351056
0.898600 0.828433 0.353055
0.921301 0.830331 0.355063
0.931310 0.831158 0.355993
0.931277 0.831138 0.356073
0.931245 0.831119 0.356152
0.322946 0.807477 0.308822
0.340591 0.808920 0.310359
0.358656 0.810398 0.311933
0.377091 0.811908 0.313539
0.395858 0.813446 0.315173
0.414927 0.815010 0.316834
0.434272 0.816597 0.318519
0.453872 0.818207 0.320227
0.473709 0.819837 0.321956
0.493768 0.821486 0.323705
0.514036 0.823153 0.325472
0.534501 0.824838 0.327257
0.555152 0.826538 0.329059
0.575981 0.828254 0.330877
0.596979 0.829985 0.332710
0.618138 0.831730 0.334559
0.639453 0.833489 0.336421
0.660916 0.835260 0.338297
0.682522 0.837044 0.340186
0.704265 0.838840 0.342088
