library/cube/Color_Fade_Lab_001.cube
# CINEGRADE LAB — Premium Cinematic LUT
# Title: Color Fade Lab
# Category: Vintage Film Lab
# Description: Faded, grainy, color-shifted retro film lab aesthetic
# Mood: Retro, faded, nostalgic
# Variant: 2
# Generated: 2026-05-21T16:12:32.097920
TITLE "Color Fade Lab"
LUT_3D_SIZE 5
0.180545 0.165048 0.155237
0.333341 0.177417 0.167856
0.500918 0.191056 0.181770
0.677853 0.205520 0.196540
0.801550 0.215638 0.207010
0.219903 0.345458 0.197825
0.371792 0.357784 0.210566
0.538499 0.371387 0.224613
0.714652 0.385821 0.239525
0.837870 0.395922 0.250141
0.263769 0.543704 0.245111
0.414998 0.556021 0.258006
0.581104 0.569620 0.272217
0.756759 0.584058 0.287304
0.878438 0.594176 0.298098
0.310772 0.753552 0.295722
0.461596 0.765898 0.308804
0.627377 0.779534 0.323213
0.802825 0.794017 0.338512
0.925085 0.804191 0.349513
0.343713 0.901208 0.332337
0.494399 0.913635 0.345624
0.660144 0.927359 0.360251
0.835661 0.941923 0.375778
0.959210 0.952203 0.387001
0.184513 0.169248 0.297839
0.337206 0.181618 0.310476
0.504683 0.195258 0.324420
0.681526 0.209724 0.339229
0.805179 0.219844 0.349749
0.223886 0.349643 0.340531
0.375697 0.361973 0.353325
0.542331 0.375579 0.367436
0.718422 0.390017 0.382422
0.841369 0.400124 0.393122
0.267782 0.547885 0.388037
0.418960 0.560208 0.401020
0.585021 0.573814 0.415330
0.760643 0.588259 0.430527
0.882325 0.598385 0.441438
0.314834 0.757742 0.438987
0.465632 0.770097 0.452191
0.631397 0.783742 0.466734
0.806841 0.798235 0.482177
0.929231 0.808420 0.493331
0.347848 0.905424 0.476053
0.498534 0.917864 0.489497
0.664290 0.931599 0.504292
0.839830 0.946173 0.519997
0.963474 0.956471 0.531407
0.188920 0.173879 0.454723
0.341511 0.186250 0.467388
0.508889 0.199891 0.481369
0.685643 0.214358 0.496228
0.809253 0.224481 0.506808
0.228305 0.354259 0.497550
0.380041 0.366592 0.510409
0.546605 0.380202 0.524595
0.722635 0.394645 0.539669
0.845319 0.404756 0.550467
0.272231 0.552497 0.545319
0.423359 0.564826 0.558404
0.589378 0.578439 0.572828
0.764969 0.592891 0.588150
0.886660 0.603024 0.599197
0.319333 0.762364 0.596659
0.470108 0.774728 0.610004
0.635858 0.788383 0.624698
0.811301 0.802886 0.640304
0.933821 0.813080 0.651631
0.352421 0.910074 0.634239
0.503109 0.922524 0.647861
0.668878 0.936266 0.662845
0.844447 0.950859 0.678751
0.968173 0.961172 0.690372
0.193610 0.178790 0.620887
0.346102 0.191161 0.633586
0.513384 0.204804 0.647615
0.690050 0.219272 0.662532
0.813620 0.229398 0.673183
0.233008 0.359155 0.663878
0.384671 0.371492 0.676813
0.551167 0.385106 0.691085
0.727138 0.399552 0.706258
0.849579 0.409669 0.717166
0.276965 0.557390 0.711947
0.428046 0.569725 0.725147
0.594025 0.583344 0.739698
0.769588 0.597804 0.755159
0.891300 0.607945 0.766355
0.324118 0.767267 0.763722
0.474871 0.779640 0.777222
0.640610 0.793305 0.792084
0.816054 0.807818 0.807868
0.938704 0.818023 0.819385
0.357280 0.915005 0.801868
0.507972 0.927467 0.815684
0.673758 0.941214 0.830874
0.849362 0.955829 0.847000
0.973155 0.966154 0.858850
0.196799 0.182221 0.737992
0.349197 0.194595 0.750728
0.516389 0.208239 0.764801
0.692973 0.222710 0.779773
0.816508 0.232838 0.790485
0.236223 0.362575 0.781141
0.387817 0.374916 0.794140
0.554249 0.388535 0.808487
0.730168 0.402986 0.823742
0.852476 0.413108 0.834741
0.280220 0.560809 0.829463
0.431258 0.573152 0.842757
0.597201 0.586778 0.857411
0.772740 0.601245 0.872983
0.894526 0.611394 0.884299
0.327431 0.770699 0.881590
0.478166 0.783082 0.894799
0.643898 0.796757 0.908789
0.819348 0.811280 0.923352
0.942138 0.821496 0.933698
0.360673 0.918467 0.917778
0.511373 0.930941 0.930235
0.677178 0.944699 0.943614
0.852824 0.959332 0.957450
0.976667 0.969667 0.967147
