library/cube/Commercial_Gold_002.cube
# CINEGRADE LAB — Premium Cinematic LUT
# Title: Commercial Gold
# Category: Commercial Luxury
# Description: Polished, professional, product-ready aesthetic for commercial work
# Mood: Clean, premium, sharp
# Variant: 3
# Generated: 2026-05-21T16:12:41.772281
TITLE "Commercial Gold"
LUT_3D_SIZE 5
0.005000 0.002000 0.000000
0.216705 0.005038 0.003023
0.488898 0.008944 0.006910
0.761090 0.012850 0.010796
0.972795 0.015888 0.013819
0.015610 0.222706 0.010402
0.227315 0.225744 0.013425
0.519207 0.237067 0.017924
0.796843 0.241051 0.021888
0.983748 0.243733 0.024557
0.028709 0.495198 0.023244
0.240414 0.498236 0.026267
0.512607 0.502142 0.030153
0.810073 0.516268 0.034859
0.996978 0.518950 0.037528
0.041808 0.767689 0.036086
0.253513 0.770727 0.039109
0.525706 0.774634 0.042996
0.797898 0.778540 0.046882
1.000000 0.781578 0.049905
0.052418 0.988395 0.046488
0.264123 0.991433 0.049511
0.536315 0.995339 0.053397
0.808508 0.999246 0.057284
1.000000 1.000000 0.060307
0.006119 0.003102 0.219653
0.217824 0.006140 0.222676
0.490017 0.010047 0.226563
0.762209 0.013953 0.230449
0.973914 0.016991 0.233472
0.016729 0.223808 0.230055
0.228434 0.226846 0.233078
0.500626 0.230753 0.236964
0.772819 0.234659 0.240851
0.984524 0.237697 0.243874
0.029828 0.496300 0.242897
0.241533 0.499338 0.245920
0.513725 0.503244 0.249807
0.811192 0.517370 0.254512
0.998097 0.520052 0.257181
0.042927 0.768792 0.255740
0.254632 0.771830 0.258762
0.526825 0.775736 0.262649
0.799017 0.779642 0.266536
1.000000 0.795269 0.270152
0.053537 0.989498 0.266141
0.265242 0.992536 0.269164
0.537434 0.996442 0.273051
0.809627 1.000000 0.276937
1.000000 1.000000 0.279960
0.007393 0.004358 0.469847
0.219099 0.007396 0.472869
0.491291 0.011302 0.476756
0.763484 0.015208 0.480643
0.975189 0.018246 0.483665
0.018003 0.225064 0.480248
0.229708 0.228102 0.483271
0.501901 0.232008 0.487158
0.774093 0.235914 0.491044
0.985799 0.238952 0.494067
0.031102 0.497556 0.493090
0.242808 0.500594 0.496113
0.515000 0.504500 0.500000
0.787192 0.508406 0.503887
0.998898 0.511444 0.506910
0.044201 0.770048 0.505933
0.255907 0.773086 0.508956
0.528099 0.776992 0.512842
0.800292 0.780898 0.516729
1.000000 0.796525 0.520345
0.054811 0.990754 0.516335
0.266516 0.993792 0.519357
0.538709 0.997698 0.523244
0.810901 1.000000 0.527131
1.000000 1.000000 0.530153
0.008668 0.005614 0.720040
0.220373 0.008652 0.723063
0.492566 0.012558 0.726949
0.764758 0.016464 0.730836
0.976463 0.019502 0.733859
0.019278 0.226320 0.730441
0.230983 0.229358 0.733464
0.503175 0.233264 0.737351
0.775368 0.237170 0.741238
0.987073 0.240208 0.744260
0.032377 0.498812 0.743284
0.244082 0.501850 0.746307
0.516275 0.505756 0.750193
0.788467 0.509662 0.754080
1.000000 0.512700 0.757103
0.045476 0.771303 0.756126
0.257181 0.774341 0.759149
0.529374 0.778247 0.763036
0.801566 0.782154 0.766922
1.000000 0.785192 0.769945
0.056086 0.992009 0.766528
0.267791 0.995047 0.769551
0.539983 0.998953 0.773437
0.812176 1.000000 0.777324
1.000000 1.000000 0.780347
0.009787 0.006716 0.939693
0.221492 0.009754 0.942716
0.493685 0.013661 0.946602
0.765877 0.017567 0.950489
0.977582 0.020605 0.953512
0.020397 0.227422 0.950095
0.232102 0.230460 0.953118
0.504294 0.234366 0.957004
0.776487 0.238273 0.960891
0.988192 0.241311 0.963914
0.033496 0.499914 0.962937
0.245201 0.502952 0.965960
0.517393 0.506858 0.969847
0.789586 0.510764 0.973733
1.000000 0.513802 0.976756
0.046595 0.772406 0.975779
0.258300 0.775444 0.978802
0.530493 0.779350 0.982689
0.802685 0.783256 0.986575
1.000000 0.786294 0.989598
0.057205 0.993112 0.986181
0.268910 0.996150 0.989204
0.541102 1.000000 0.993090
0.813295 1.000000 0.996977
1.000000 1.000000 1.000000
