library/cube/Commercial_Gold_002.cube
# CINEGRADE LAB — Premium Cinematic LUT
# Title: Commercial Gold
# Category: Commercial Luxury
# Description: Polished, professional, product-ready aesthetic for commercial work
# Mood: Clean, premium, sharp
# Variant: 3
# Generated: 2026-05-21T16:12:41.772281
TITLE "Commercial Gold"
LUT_3D_SIZE 9
0.005000 0.002000 0.000000
0.080609 0.003085 0.001080
0.216705 0.005038 0.003023
0.352801 0.006991 0.004966
0.488898 0.008944 0.006910
0.624994 0.010897 0.008853
0.761090 0.012850 0.010796
0.897186 0.014803 0.012739
0.972795 0.015888 0.013819
0.009060 0.086460 0.003981
0.084669 0.087545 0.005060
0.234955 0.095474 0.007474
0.373773 0.097466 0.009456
0.512591 0.099458 0.011439
0.651410 0.101451 0.013421
0.765150 0.097310 0.014777
0.901247 0.099263 0.016720
0.976856 0.100348 0.017800
0.015610 0.222706 0.010402
0.091219 0.223791 0.011481
0.227315 0.225744 0.013425
0.380388 0.235075 0.015942
0.519207 0.237067 0.017924
0.658025 0.239059 0.019906
0.796843 0.241051 0.021888
0.935661 0.243043 0.023871
0.983748 0.243733 0.024557
0.022159 0.358952 0.016823
0.097768 0.360037 0.017902
0.233865 0.361990 0.019846
0.369961 0.363943 0.021789
0.506057 0.365896 0.023732
0.664640 0.376667 0.026392
0.803458 0.378659 0.028374
0.942276 0.380651 0.030356
0.990363 0.381341 0.031043
0.028709 0.495198 0.023244
0.104318 0.496283 0.024324
0.240414 0.498236 0.026267
0.376510 0.500189 0.028210
0.512607 0.502142 0.030153
0.648703 0.504095 0.032097
0.810073 0.516268 0.034859
0.948891 0.518260 0.036841
0.996978 0.518950 0.037528
0.035258 0.631444 0.029665
0.110867 0.632529 0.030745
0.246964 0.634482 0.032688
0.383060 0.636435 0.034631
0.519156 0.638388 0.036575
0.655252 0.640341 0.038518
0.791349 0.642294 0.040461
0.955506 0.655868 0.043327
1.000000 0.656558 0.044013
0.041808 0.767689 0.036086
0.117417 0.768774 0.037166
0.253513 0.770727 0.039109
0.389610 0.772680 0.041053
0.525706 0.774634 0.042996
0.661802 0.776587 0.044939
0.797898 0.778540 0.046882
0.933994 0.780493 0.048826
1.000000 0.781578 0.049905
0.048358 0.903935 0.042507
0.123967 0.905020 0.043587
0.260063 0.906973 0.045530
0.396159 0.908926 0.047474
0.532255 0.910879 0.049417
0.668352 0.912832 0.051360
0.804448 0.914785 0.053304
0.940544 0.916738 0.055247
1.000000 0.917823 0.056326
0.052418 0.988395 0.046488
0.128027 0.989480 0.047568
0.264123 0.991433 0.049511
0.400219 0.993386 0.051454
0.536315 0.995339 0.053397
0.672412 0.997293 0.055341
0.808508 0.999246 0.057284
0.944604 1.000000 0.059227
1.000000 1.000000 0.060307
0.005482 0.002475 0.094557
0.081091 0.003560 0.095636
0.217187 0.005513 0.097580
0.353283 0.007466 0.099523
0.489379 0.009419 0.101466
0.625476 0.011372 0.103409
0.761572 0.013325 0.105353
0.897668 0.015278 0.107296
0.973277 0.016363 0.108376
0.009542 0.086935 0.098537
0.085151 0.088020 0.099617
0.221247 0.089973 0.101560
0.357343 0.091926 0.103503
0.493440 0.093879 0.105447
0.629536 0.095832 0.107390
0.765632 0.097785 0.109333
0.901728 0.099738 0.111277
0.977337 0.100823 0.112356
0.016091 0.223181 0.104958
0.091700 0.224266 0.106038
0.227797 0.226219 0.107981
0.380870 0.235549 0.110498
0.519688 0.237541 0.112481
0.658506 0.239533 0.114463
0.797324 0.241526 0.116445
0.908278 0.235984 0.117698
0.983887 0.237069 0.118777
0.022641 0.359426 0.111379
0.098250 0.360511 0.112459
0.234346 0.362464 0.114402
0.370442 0.364417 0.116346
0.526303 0.375150 0.118966
0.665121 0.377142 0.120948
0.803940 0.379134 0.122930
0.942758 0.381126 0.124912
0.990845 0.381816 0.125599
0.029191 0.495672 0.117801
0.104800 0.496757 0.118880
0.240896 0.498710 0.120824
0.376992 0.500663 0.122767
0.513088 0.502616 0.124710
0.649184 0.504569 0.126653
0.810555 0.516742 0.129416
0.949373 0.518734 0.131398
0.997460 0.519424 0.132084
0.035740 0.631918 0.124222
0.111349 0.633003 0.125301
0.247445 0.634956 0.127245
0.383542 0.636909 0.129188
0.519638 0.638862 0.131131
0.655734 0.640815 0.133075
0.791830 0.642768 0.135018
0.955988 0.656343 0.137883
1.000000 0.657033 0.138570
0.042290 0.768164 0.130643
0.117899 0.769249 0.131723
0.253995 0.771202 0.133666
0.390091 0.773155 0.135609
0.526187 0.775108 0.137552
0.662284 0.777061 0.139496
0.798380 0.779014 0.141439
0.934476 0.780967 0.143382
1.000000 0.794641 0.145055
0.048839 0.904410 0.137064
0.124448 0.905495 0.138144
0.260545 0.907448 0.140087
0.396641 0.909401 0.142030
0.532737 0.911354 0.143974
0.668833 0.913307 0.145917
0.804929 0.915260 0.147860
0.941026 0.917213 0.149803
1.000000 0.918298 0.150883
0.052899 0.988870 0.141045
0.128508 0.989955 0.142124
0.264605 0.991908 0.144068
0.400701 0.993861 0.146011
0.536797 0.995814 0.147954
0.672893 0.997767 0.149897
0.808990 0.999720 0.151841
0.945086 1.000000 0.153784
1.000000 1.000000 0.154864
0.006119 0.003102 0.219653
0.081728 0.004187 0.220733
0.217824 0.006140 0.222676
0.353920 0.008094 0.224619
0.490017 0.010047 0.226563
0.626113 0.012000 0.228506
0.762209 0.013953 0.230449
0.898305 0.015906 0.232393
0.973914 0.016991 0.233472
0.010179 0.087563 0.223634
0.085788 0.088648 0.224713
0.221884 0.090601 0.226657
0.357981 0.092554 0.228600
0.494077 0.094507 0.230543
0.630173 0.096460 0.232487
0.766269 0.098413 0.234430
0.902365 0.100366 0.236373
0.977974 0.101451 0.237453
0.016729 0.223808 0.230055
0.092338 0.224893 0.231135
0.228434 0.226846 0.233078
0.364530 0.228799 0.235021
0.500626 0.230753 0.236964
0.636723 0.232706 0.238908
0.772819 0.234659 0.240851
0.908915 0.236612 0.242794
0.984524 0.237697 0.243874
0.023278 0.360054 0.236476
0.098887 0.361139 0.237556
0.234983 0.363092 0.239499
0.371080 0.365045 0.241442
0.526941 0.375778 0.244063
0.665759 0.377770 0.246045
0.804577 0.379762 0.248027
0.943395 0.381754 0.250009
0.991074 0.373942 0.250295
0.029828 0.496300 0.242897
0.105437 0.497385 0.243977
0.241533 0.499338 0.245920
0.377629 0.501291 0.247863
0.513725 0.503244 0.249807
0.672374 0.515378 0.252530
0.811192 0.517370 0.254512
0.950010 0.519362 0.256494
0.998097 0.520052 0.257181
0.036377 0.632546 0.249318
0.111986 0.633631 0.250398
0.248083 0.635584 0.252341
0.384179 0.637537 0.254285
0.520275 0.639490 0.256228
0.656371 0.641443 0.258171
0.792468 0.643396 0.260114
0.956625 0.656971 0.262980
1.000000 0.657661 0.263666
0.042927 0.768792 0.255740
0.118536 0.769877 0.256819
0.254632 0.771830 0.258762
0.390728 0.773783 0.260706
0.526825 0.775736 0.262649
0.662921 0.777689 0.264592
0.799017 0.779642 0.266536
0.935113 0.781595 0.268479
1.000000 0.795269 0.270152
0.049477 0.905038 0.262161
0.125086 0.906123 0.263240
0.261182 0.908076 0.265184
0.397278 0.910029 0.267127
0.533374 0.911982 0.269070
0.669470 0.913935 0.271014
0.805567 0.915888 0.272957
0.941663 0.917841 0.274900
1.000000 0.918926 0.275980
0.053537 0.989498 0.266141
0.129146 0.990583 0.267221
0.265242 0.992536 0.269164
0.401338 0.994489 0.271107
0.537434 0.996442 0.273051
0.673531 0.998395 0.274994
0.809627 1.000000 0.276937
0.945723 1.000000 0.278881
1.000000 1.000000 0.279960
0.006756 0.003730 0.344750
0.082365 0.004815 0.345829
0.218461 0.006768 0.347773
0.354558 0.008721 0.349716
0.490654 0.010674 0.351659
0.626750 0.012627 0.353603
0.762846 0.014580 0.355546
0.898943 0.016533 0.357489
0.974552 0.017618 0.358569
0.010816 0.088190 0.348730
0.086425 0.089275 0.349810
0.222522 0.091228 0.351753
0.358618 0.093181 0.353697
0.494714 0.095135 0.355640
0.630810 0.097088 0.357583
0.766906 0.099041 0.359526
0.903003 0.100994 0.361470
0.978612 0.102079 0.362549
0.017366 0.224436 0.355152
0.092975 0.225521 0.356231
0.229071 0.227474 0.358174
0.365167 0.229427 0.360118
0.501264 0.231380 0.362061
0.637360 0.233333 0.364004
0.773456 0.235286 0.365948
0.909552 0.237239 0.367891
0.985161 0.238324 0.368971
0.023915 0.360682 0.361573
0.099524 0.361767 0.362652
0.235621 0.363720 0.364596
0.371717 0.365673 0.366539
0.507813 0.367626 0.368482
0.643909 0.369579 0.370426
0.780006 0.371532 0.372369
0.916102 0.373485 0.374312
0.991711 0.374570 0.375392
0.030465 0.496928 0.367994
0.106074 0.498013 0.369073
0.242170 0.499966 0.371017
0.378267 0.501919 0.372960
0.514363 0.503872 0.374903
0.673011 0.516006 0.377627
0.811829 0.517998 0.379609
0.950647 0.519990 0.381591
0.998735 0.520680 0.382278
0.037015 0.633174 0.374415
0.112624 0.634259 0.375495
0.248720 0.636212 0.377438
0.384816 0.638165 0.379381
0.520912 0.640118 0.381325
0.657009 0.642071 0.383268
0.818444 0.655606 0.386094
0.957262 0.657598 0.388076
1.000000 0.658288 0.388763
0.043564 0.769420 0.380836
0.119173 0.770505 0.381916
0.255269 0.772458 0.383859
0.391366 0.774411 0.385802
0.527462 0.776364 0.387746
0.663558 0.778317 0.389689
0.799654 0.780270 0.391632
0.935751 0.782223 0.393576
1.000000 0.795897 0.395248
0.050114 0.905666 0.387257
0.125723 0.906751 0.388337
0.261819 0.908704 0.390280
0.397915 0.910657 0.392224
0.534011 0.912610 0.394167
0.670108 0.914563 0.396110
0.806204 0.916516 0.398053
0.942300 0.918469 0.399997
1.000000 0.919554 0.401076
0.054174 0.990126 0.391238
0.129783 0.991211 0.392317
0.265879 0.993164 0.394261
0.401975 0.995117 0.396204
0.538072 0.997070 0.398147
0.674168 0.999023 0.400091
0.810264 1.000000 0.402034
0.946360 1.000000 0.403977
1.000000 1.000000 0.405057
0.007393 0.004358 0.469847
0.083002 0.005443 0.470926
0.219099 0.007396 0.472869
0.355195 0.009349 0.474813
0.491291 0.011302 0.476756
0.627387 0.013255 0.478699
0.763484 0.015208 0.480643
0.899580 0.017161 0.482586
0.975189 0.018246 0.483665
0.011454 0.088818 0.473827
0.087063 0.089903 0.474907
0.223159 0.091856 0.476850
0.359255 0.093809 0.478793
0.495351 0.095762 0.480737
0.631447 0.097715 0.482680
0.767544 0.099668 0.484623
0.903640 0.101621 0.486566
0.979249 0.102706 0.487646
0.018003 0.225064 0.480248
0.093612 0.226149 0.481328
0.229708 0.228102 0.483271
0.365805 0.230055 0.485214
0.501901 0.232008 0.487158
0.637997 0.233961 0.489101
0.774093 0.235914 0.491044
0.910190 0.237867 0.492988
0.985799 0.238952 0.494067
0.024553 0.361310 0.486669
0.100162 0.362395 0.487749
0.236258 0.364348 0.489692
0.372354 0.366301 0.491636
0.508450 0.368254 0.493579
0.644547 0.370207 0.495522
0.780643 0.372160 0.497465
0.916739 0.374113 0.499409
0.992348 0.375198 0.500488
0.031102 0.497556 0.493090
0.106711 0.498641 0.494170
0.242808 0.500594 0.496113
0.378904 0.502547 0.498057
0.515000 0.504500 0.500000
0.651096 0.506453 0.501943
0.787192 0.508406 0.503887
0.923289 0.510359 0.505830
0.998898 0.511444 0.506910
0.037652 0.633802 0.499512
0.113261 0.634887 0.500591
0.249357 0.636840 0.502535
0.385453 0.638793 0.504478
0.521550 0.640746 0.506421
0.657646 0.642699 0.508364
0.819081 0.656234 0.511191
0.957900 0.658226 0.513173
1.000000 0.658916 0.513860
0.044201 0.770048 0.505933
0.119810 0.771133 0.507012
0.255907 0.773086 0.508956
0.392003 0.775039 0.510899
0.528099 0.776992 0.512842
0.664195 0.778945 0.514786
0.800292 0.780898 0.516729
0.964515 0.795835 0.519658
1.000000 0.796525 0.520345
0.050751 0.906294 0.512354
0.126360 0.907379 0.513434
0.262456 0.909332 0.515377
0.398553 0.911285 0.517320
0.534649 0.913238 0.519263
0.670745 0.915191 0.521207
0.806841 0.917144 0.523150
0.942937 0.919097 0.525093
1.000000 0.920182 0.526173
0.054811 0.990754 0.516335
0.130420 0.991839 0.517414
0.266516 0.993792 0.519357
0.402613 0.995745 0.521301
0.538709 0.997698 0.523244
0.674805 0.999651 0.525187
0.810901 1.000000 0.527131
0.946998 1.000000 0.529074
1.000000 1.000000 0.530153
0.008031 0.004986 0.594943
0.083640 0.006071 0.596023
0.219736 0.008024 0.597966
0.355832 0.009977 0.599909
0.491928 0.011930 0.601853
0.628025 0.013883 0.603796
0.764121 0.015836 0.605739
0.900217 0.017789 0.607683
0.975826 0.018874 0.608762
0.012091 0.089446 0.598924
0.087700 0.090531 0.600003
0.223796 0.092484 0.601947
0.359892 0.094437 0.603890
0.495989 0.096390 0.605833
0.632085 0.098343 0.607776
0.768181 0.100296 0.609720
0.904277 0.102249 0.611663
0.979886 0.103334 0.612743
0.018640 0.225692 0.605345
0.094249 0.226777 0.606424
0.230346 0.228730 0.608368
0.366442 0.230683 0.610311
0.502538 0.232636 0.612254
0.638634 0.234589 0.614198
0.774731 0.236542 0.616141
0.910827 0.238495 0.618084
0.986436 0.239580 0.619164
0.025190 0.361938 0.611766
0.100799 0.363023 0.612846
0.236895 0.364976 0.614789
0.372991 0.366929 0.616732
0.509088 0.368882 0.618675
0.645184 0.370835 0.620619
0.781280 0.372788 0.622562
0.917376 0.374741 0.624505
0.992985 0.375826 0.625585
0.031740 0.498184 0.618187
0.107349 0.499269 0.619267
0.243445 0.501222 0.621210
0.379541 0.503175 0.623153
0.515637 0.505128 0.625097
0.651733 0.507081 0.627040
0.787830 0.509034 0.628983
0.923926 0.510987 0.630927
0.999535 0.512072 0.632006
0.038289 0.634430 0.624608
0.113898 0.635515 0.625688
0.249994 0.637468 0.627631
0.386091 0.639421 0.629574
0.522187 0.641374 0.631518
0.658283 0.643327 0.633461
0.794379 0.645280 0.635404
0.930476 0.647233 0.637348
1.000000 0.648318 0.638427
0.044839 0.770676 0.631029
0.120448 0.771761 0.632109
0.256544 0.773714 0.634052
0.392640 0.775667 0.635996
0.528736 0.777620 0.637939
0.664833 0.779573 0.639882
0.800929 0.781526 0.641826
0.965152 0.796462 0.644755
1.000000 0.797153 0.645442
0.051388 0.906921 0.637451
0.126997 0.908006 0.638530
0.263094 0.909959 0.640474
0.399190 0.911912 0.642417
0.535286 0.913865 0.644360
0.671382 0.915819 0.646303
0.807478 0.917772 0.648247
0.943575 0.919725 0.650190
1.000000 0.934761 0.651927
0.055448 0.991382 0.641431
0.131057 0.992467 0.642511
0.267154 0.994420 0.644454
0.403250 0.996373 0.646397
0.539346 0.998326 0.648341
0.675442 1.000000 0.650284
0.811539 1.000000 0.652227
0.947635 1.000000 0.654171
1.000000 1.000000 0.655250
0.008668 0.005614 0.720040
0.084277 0.006699 0.721119
0.220373 0.008652 0.723063
0.356469 0.010605 0.725006
0.492566 0.012558 0.726949
0.628662 0.014511 0.728893
0.764758 0.016464 0.730836
0.900854 0.018417 0.732779
0.976463 0.019502 0.733859
0.012728 0.090074 0.724020
0.088337 0.091159 0.725100
0.224433 0.093112 0.727043
0.360530 0.095065 0.728986
0.496626 0.097018 0.730930
0.632722 0.098971 0.732873
0.768818 0.100924 0.734816
0.904914 0.102877 0.736760
0.980523 0.103962 0.737839
0.019278 0.226320 0.730441
0.094887 0.227405 0.731521
0.230983 0.229358 0.733464
0.367079 0.231311 0.735408
0.503175 0.233264 0.737351
0.639272 0.235217 0.739294
0.775368 0.237170 0.741238
0.911464 0.239123 0.743181
0.987073 0.240208 0.744260
0.025827 0.362566 0.736863
0.101436 0.363651 0.737942
0.237532 0.365604 0.739886
0.373629 0.367557 0.741829
0.509725 0.369510 0.743772
0.645821 0.371463 0.745715
0.781917 0.373416 0.747659
0.918014 0.375369 0.749602
0.993623 0.376454 0.750682
0.032377 0.498812 0.743284
0.107986 0.499897 0.744363
0.244082 0.501850 0.746307
0.380178 0.503803 0.748250
0.516275 0.505756 0.750193
0.652371 0.507709 0.752137
0.788467 0.509662 0.754080
0.924563 0.511615 0.756023
1.000000 0.512700 0.757103
0.038926 0.635058 0.749705
0.114535 0.636143 0.750785
0.250632 0.638096 0.752728
0.386728 0.640049 0.754671
0.522824 0.642002 0.756614
0.658920 0.643955 0.758558
0.795017 0.645908 0.760501
0.931113 0.647861 0.762444
1.000000 0.648946 0.763524
0.045476 0.771303 0.756126
0.121085 0.772388 0.757206
0.257181 0.774341 0.759149
0.393277 0.776294 0.761092
0.529374 0.778247 0.763036
0.665470 0.780201 0.764979
0.801566 0.782154 0.766922
0.937662 0.784107 0.768865
1.000000 0.785192 0.769945
0.052026 0.907549 0.762547
0.127635 0.908634 0.763627
0.263731 0.910587 0.765570
0.399827 0.912540 0.767513
0.535923 0.914493 0.769457
0.672019 0.916446 0.771400
0.808116 0.918399 0.773343
0.944212 0.920352 0.775287
1.000000 0.935389 0.777024
0.056086 0.992009 0.766528
0.131695 0.993094 0.767607
0.267791 0.995047 0.769551
0.403887 0.997000 0.771494
0.539983 0.998953 0.773437
0.676080 1.000000 0.775381
0.812176 1.000000 0.777324
0.948272 1.000000 0.779267
1.000000 1.000000 0.780347
0.009305 0.006242 0.845136
0.084914 0.007327 0.846216
0.221010 0.009280 0.848159
0.357107 0.011233 0.850103
0.493203 0.013186 0.852046
0.629299 0.015139 0.853989
0.765395 0.017092 0.855932
0.901492 0.019045 0.857876
0.977101 0.020130 0.858955
0.013365 0.090702 0.849117
0.088974 0.091787 0.850197
0.225071 0.093740 0.852140
0.361167 0.095693 0.854083
0.497263 0.097646 0.856026
0.633359 0.099599 0.857970
0.769455 0.101552 0.859913
0.905552 0.103505 0.861856
0.981161 0.104590 0.862936
0.019915 0.226948 0.855538
0.095524 0.228033 0.856618
0.231620 0.229986 0.858561
0.367716 0.231939 0.860504
0.503813 0.233892 0.862448
0.639909 0.235845 0.864391
0.776005 0.237798 0.866334
0.912101 0.239751 0.868277
0.987710 0.240836 0.869357
0.026464 0.363194 0.861959
0.102073 0.364279 0.863039
0.238170 0.366232 0.864982
0.374266 0.368185 0.866925
0.510362 0.370138 0.868869
0.646458 0.372091 0.870812
0.782555 0.374044 0.872755
0.918651 0.375997 0.874699
0.994260 0.377082 0.875778
0.033014 0.499440 0.868380
0.108623 0.500525 0.869460
0.244719 0.502478 0.871403
0.380816 0.504431 0.873347
0.516912 0.506384 0.875290
0.653008 0.508337 0.877233
0.789104 0.510290 0.879176
0.925200 0.512243 0.881120
1.000000 0.513328 0.882199
0.039564 0.635685 0.874802
0.115173 0.636770 0.875881
0.251269 0.638723 0.877824
0.387365 0.640676 0.879768
0.523461 0.642630 0.881711
0.659558 0.644583 0.883654
0.795654 0.646536 0.885598
0.931750 0.648489 0.887541
1.000000 0.649574 0.888621
0.046113 0.771931 0.881223
0.121722 0.773016 0.882302
0.257818 0.774969 0.884246
0.393915 0.776922 0.886189
0.530011 0.778875 0.888132
0.666107 0.780828 0.890075
0.802203 0.782781 0.892019
0.938300 0.784734 0.893962
1.000000 0.785819 0.895042
0.052663 0.908177 0.887644
0.128272 0.909262 0.888723
0.264368 0.911215 0.890667
0.400464 0.913168 0.892610
0.536560 0.915121 0.894553
0.672657 0.917074 0.896497
0.808753 0.919027 0.898440
0.944849 0.920980 0.900383
1.000000 0.922065 0.901463
0.056723 0.992637 0.891624
0.132332 0.993722 0.892704
0.268428 0.995675 0.894647
0.404524 0.997628 0.896591
0.540621 0.999581 0.898534
0.676717 1.000000 0.900477
0.812813 1.000000 0.902420
0.948909 1.000000 0.904364
1.000000 1.000000 0.905443
0.009787 0.006716 0.939693
0.085396 0.007801 0.940773
0.221492 0.009754 0.942716
0.357588 0.011707 0.944659
0.493685 0.013661 0.946602
0.629781 0.015614 0.948546
0.765877 0.017567 0.950489
0.901973 0.019520 0.952432
0.977582 0.020605 0.953512
0.013847 0.091177 0.943674
0.089456 0.092262 0.944753
0.225552 0.094215 0.946696
0.361648 0.096168 0.948640
0.497745 0.098121 0.950583
0.633841 0.100074 0.952526
0.769937 0.102027 0.954470
0.906033 0.103980 0.956413
0.981642 0.105065 0.957493
0.020397 0.227422 0.950095
0.096006 0.228507 0.951174
0.232102 0.230460 0.953118
0.368198 0.232413 0.955061
0.504294 0.234366 0.957004
0.640390 0.236320 0.958947
0.776487 0.238273 0.960891
0.912583 0.240226 0.962834
0.988192 0.241311 0.963914
0.026946 0.363668 0.956516
0.102555 0.364753 0.957595
0.238651 0.366706 0.959539
0.374748 0.368659 0.961482
0.510844 0.370612 0.963425
0.646940 0.372565 0.965369
0.783036 0.374518 0.967312
0.919133 0.376471 0.969255
0.994742 0.377556 0.970335
0.033496 0.499914 0.962937
0.109105 0.500999 0.964017
0.245201 0.502952 0.965960
0.381297 0.504905 0.967903
0.517393 0.506858 0.969847
0.653490 0.508811 0.971790
0.789586 0.510764 0.973733
0.925682 0.512717 0.975676
1.000000 0.513802 0.976756
0.040045 0.636160 0.969358
0.115654 0.637245 0.970438
0.251751 0.639198 0.972381
0.387847 0.641151 0.974324
0.523943 0.643104 0.976268
0.660039 0.645057 0.978211
0.796135 0.647010 0.980154
0.932232 0.648963 0.982098
1.000000 0.650048 0.983177
0.046595 0.772406 0.975779
0.122204 0.773491 0.976859
0.258300 0.775444 0.978802
0.394396 0.777397 0.980746
0.530493 0.779350 0.982689
0.666589 0.781303 0.984632
0.802685 0.783256 0.986575
0.938781 0.785209 0.988519
1.000000 0.786294 0.989598
0.053144 0.908652 0.982200
0.128753 0.909737 0.983280
0.264850 0.911690 0.985223
0.400946 0.913643 0.987167
0.537042 0.915596 0.989110
0.673138 0.917549 0.991053
0.809235 0.919502 0.992997
0.945331 0.921455 0.994940
1.000000 0.922540 0.996019
0.057205 0.993112 0.986181
0.132814 0.994197 0.987261
0.268910 0.996150 0.989204
0.405006 0.998103 0.991147
0.541102 1.000000 0.993090
0.677199 1.000000 0.995034
0.813295 1.000000 0.996977
0.949391 1.000000 0.998920
1.000000 1.000000 1.000000
