library/cube/Commercial_Gold_002.cube
# CINEGRADE LAB — Premium Cinematic LUT
# Title: Commercial Gold
# Category: Commercial Luxury
# Description: Polished, professional, product-ready aesthetic for commercial work
# Mood: Clean, premium, sharp
# Variant: 3
# Generated: 2026-05-21T16:12:41.772281
TITLE "Commercial Gold"
LUT_3D_SIZE 33
0.005000 0.002000 0.000000
0.005000 0.002000 0.000000
0.012561 0.002109 0.000108
0.046585 0.002597 0.000594
0.080609 0.003085 0.001080
0.114633 0.003573 0.001565
0.148657 0.004062 0.002051
0.182681 0.004550 0.002537
0.216705 0.005038 0.003023
0.250729 0.005526 0.003509
0.284753 0.006015 0.003995
0.318777 0.006503 0.004480
0.352801 0.006991 0.004966
0.386826 0.007479 0.005452
0.420850 0.007968 0.005938
0.454874 0.008456 0.006424
0.488898 0.008944 0.006910
0.522922 0.009432 0.007395
0.556946 0.009921 0.007881
0.590970 0.010409 0.008367
0.624994 0.010897 0.008853
0.659018 0.011385 0.009339
0.693042 0.011874 0.009824
0.727066 0.012362 0.010310
0.761090 0.012850 0.010796
0.795114 0.013338 0.011282
0.829138 0.013827 0.011768
0.863162 0.014315 0.012254
0.897186 0.014803 0.012739
0.931210 0.015291 0.013225
0.965234 0.015780 0.013711
0.972795 0.015888 0.013819
0.972795 0.015888 0.013819
0.005000 0.002000 0.000000
0.005000 0.002000 0.000000
0.022627 0.007182 0.000481
0.057332 0.007680 0.000976
0.092036 0.008178 0.001472
0.126741 0.008676 0.001967
0.148657 0.004062 0.002051
0.182681 0.004550 0.002537
0.216705 0.005038 0.003023
0.250729 0.005526 0.003509
0.284753 0.006015 0.003995
0.318777 0.006503 0.004480
0.352801 0.006991 0.004966
0.386826 0.007479 0.005452
0.420850 0.007968 0.005938
0.454874 0.008456 0.006424
0.488898 0.008944 0.006910
0.522922 0.009432 0.007395
0.556946 0.009921 0.007881
0.590970 0.010409 0.008367
0.624994 0.010897 0.008853
0.659018 0.011385 0.009339
0.693042 0.011874 0.009824
0.727066 0.012362 0.010310
0.761090 0.012850 0.010796
0.795114 0.013338 0.011282
0.829138 0.013827 0.011768
0.863162 0.014315 0.012254
0.897186 0.014803 0.012739
0.931210 0.015291 0.013225
0.965234 0.015780 0.013711
0.972795 0.015888 0.013819
0.972795 0.015888 0.013819
0.005785 0.018337 0.000770
0.005785 0.018337 0.000770
0.013346 0.018446 0.000878
0.058125 0.024180 0.001754
0.092829 0.024678 0.002249
0.127534 0.025176 0.002745
0.162239 0.025674 0.003241
0.196943 0.026172 0.003736
0.231648 0.026670 0.004232
0.266352 0.027168 0.004727
0.301057 0.027666 0.005223
0.335761 0.028164 0.005718
0.353587 0.023328 0.005736
0.387611 0.023816 0.006222
0.421635 0.024305 0.006708
0.455659 0.024793 0.007194
0.489683 0.025281 0.007679
0.523707 0.025769 0.008165
0.557731 0.026258 0.008651
0.591755 0.026746 0.009137
0.625779 0.027234 0.009623
0.659803 0.027722 0.010109
0.693827 0.028211 0.010594
0.727851 0.028699 0.011080
0.761875 0.029187 0.011566
0.795900 0.029676 0.012052
0.829924 0.030164 0.012538
0.863948 0.030652 0.013024
0.897972 0.031140 0.013509
0.931996 0.031629 0.013995
0.966020 0.032117 0.014481
0.973581 0.032225 0.014589
0.973581 0.032225 0.014589
0.007423 0.052399 0.002375
0.007423 0.052399 0.002375
0.014984 0.052507 0.002483
0.049008 0.052995 0.002969
0.083032 0.053484 0.003455
0.129188 0.059578 0.004366
0.163892 0.060076 0.004862
0.198597 0.060574 0.005357
0.233301 0.061072 0.005853
0.268006 0.061570 0.006349
0.302710 0.062068 0.006844
0.337415 0.062566 0.007340
0.372120 0.063064 0.007835
0.406824 0.063562 0.008331
0.441529 0.064060 0.008826
0.476233 0.064558 0.009322
0.510938 0.065056 0.009817
0.525344 0.059831 0.009771
0.559369 0.060319 0.010256
0.593393 0.060807 0.010742
0.627417 0.061296 0.011228
0.661441 0.061784 0.011714
0.695465 0.062272 0.012200
0.729489 0.062760 0.012686
0.763513 0.063249 0.013171
0.797537 0.063737 0.013657
0.831561 0.064225 0.014143
0.865585 0.064713 0.014629
0.899609 0.065202 0.015115
0.933633 0.065690 0.015600
0.967657 0.066178 0.016086
0.975218 0.066287 0.016194
0.975218 0.066287 0.016194
0.009060 0.086460 0.003981
0.009060 0.086460 0.003981
0.016621 0.086569 0.004088
0.050645 0.087057 0.004574
0.084669 0.087545 0.005060
0.118693 0.088033 0.005546
0.165546 0.094478 0.006483
0.200251 0.094976 0.006979
0.234955 0.095474 0.007474
0.269660 0.095972 0.007970
0.304364 0.096470 0.008465
0.339069 0.096968 0.008961
0.373773 0.097466 0.009456
0.408478 0.097964 0.009952
0.443182 0.098462 0.010448
0.477887 0.098960 0.010943
0.512591 0.099458 0.011439
0.547296 0.099957 0.011934
0.582001 0.100455 0.012430
0.616705 0.100953 0.012925
0.651410 0.101451 0.013421
0.686114 0.101949 0.013916
0.720819 0.102447 0.014412
0.731126 0.096822 0.014291
0.765150 0.097310 0.014777
0.799174 0.097798 0.015262
0.833198 0.098287 0.015748
0.867222 0.098775 0.016234
0.901247 0.099263 0.016720
0.935271 0.099751 0.017206
0.969295 0.100240 0.017692
0.976856 0.100348 0.017800
0.976856 0.100348 0.017800
0.010698 0.120522 0.005586
0.010698 0.120522 0.005586
0.018258 0.120630 0.005694
0.052282 0.121118 0.006180
0.086307 0.121607 0.006665
0.120331 0.122095 0.007151
0.154355 0.122583 0.007637
0.201904 0.129378 0.008600
0.236609 0.129876 0.009096
0.271313 0.130374 0.009591
0.306018 0.130872 0.010087
0.340723 0.131370 0.010582
0.375427 0.131869 0.011078
0.410132 0.132367 0.011573
0.444836 0.132865 0.012069
0.479541 0.133363 0.012564
0.514245 0.133861 0.013060
0.548950 0.134359 0.013556
0.583654 0.134857 0.014051
0.618359 0.135355 0.014547
0.653063 0.135853 0.015042
0.687768 0.136351 0.015538
0.722472 0.136849 0.016033
0.757177 0.137347 0.016529
0.791882 0.137845 0.017024
0.826586 0.138343 0.017520
0.861291 0.138841 0.018015
0.895995 0.139339 0.018511
0.902884 0.133325 0.018325
0.936908 0.133813 0.018811
0.970932 0.134301 0.019297
0.978493 0.134410 0.019405
0.978493 0.134410 0.019405
0.012335 0.154583 0.007191
0.012335 0.154583 0.007191
0.019896 0.154692 0.007299
0.053920 0.155180 0.007785
0.087944 0.155668 0.008271
0.121968 0.156156 0.008757
0.155992 0.156645 0.009242
0.190016 0.157133 0.009728
0.224040 0.157621 0.010214
0.272967 0.164777 0.011213
0.307672 0.165275 0.011708
0.342376 0.165773 0.012204
0.377081 0.166271 0.012699
0.411785 0.166769 0.013195
0.446490 0.167267 0.013690
0.481194 0.167765 0.014186
0.515899 0.168263 0.014681
0.550604 0.168761 0.015177
0.585308 0.169259 0.015672
0.620013 0.169757 0.016168
0.654717 0.170255 0.016664
0.689422 0.170753 0.017159
0.724126 0.171251 0.017655
0.758831 0.171749 0.018150
0.793535 0.172247 0.018646
0.828240 0.172745 0.019141
0.862944 0.173243 0.019637
0.897649 0.173741 0.020132
0.932353 0.174239 0.020628
0.967058 0.174737 0.021123
0.980441 0.174929 0.021314
0.980441 0.174929 0.021314
0.980441 0.174929 0.021314
0.013972 0.188645 0.008796
0.013972 0.188645 0.008796
0.021533 0.188753 0.008904
0.055557 0.189241 0.009390
0.089581 0.189730 0.009876
0.123605 0.190218 0.010362
0.157629 0.190706 0.010848
0.191654 0.191194 0.011333
0.225678 0.191683 0.011819
0.259702 0.192171 0.012305
0.309326 0.199677 0.013329
0.344030 0.200175 0.013825
0.378735 0.200673 0.014321
0.413439 0.201171 0.014816
0.448144 0.201669 0.015312
0.482848 0.202167 0.015807
0.517553 0.202665 0.016303
0.552257 0.203163 0.016798
0.586962 0.203661 0.017294
0.621666 0.204159 0.017789
0.656371 0.204657 0.018285
0.691075 0.205155 0.018780
0.725780 0.205653 0.019276
0.760485 0.206151 0.019771
0.795189 0.206649 0.020267
0.829894 0.207147 0.020763
0.864598 0.207645 0.021258
0.899303 0.208143 0.021754
0.934007 0.208641 0.022249
0.968712 0.209139 0.022745
0.982095 0.209331 0.022936
0.982095 0.209331 0.022936
0.982095 0.209331 0.022936
0.015610 0.222706 0.010402
0.015610 0.222706 0.010402
0.023171 0.222814 0.010510
0.057195 0.223303 0.010995
0.091219 0.223791 0.011481
0.125243 0.224279 0.011967
0.159267 0.224767 0.012453
0.193291 0.225256 0.012939
0.227315 0.225744 0.013425
0.261339 0.226232 0.013910
0.295363 0.226721 0.014396
0.329387 0.227209 0.014882
0.380388 0.235075 0.015942
0.415093 0.235573 0.016437
0.449797 0.236071 0.016933
0.484502 0.236569 0.017428
0.519207 0.237067 0.017924
0.553911 0.237565 0.018420
0.588616 0.238063 0.018915
0.623320 0.238561 0.019411
0.658025 0.239059 0.019906
0.692729 0.239557 0.020402
0.727434 0.240055 0.020897
0.762138 0.240553 0.021393
0.796843 0.241051 0.021888
0.831547 0.241549 0.022384
0.866252 0.242047 0.022879
0.900956 0.242545 0.023375
0.935661 0.243043 0.023871
0.970365 0.243541 0.024366
0.983748 0.243733 0.024557
0.983748 0.243733 0.024557
0.983748 0.243733 0.024557
0.017247 0.256767 0.012007
0.017247 0.256767 0.012007
0.024808 0.256876 0.012115
0.058832 0.257364 0.012601
0.092856 0.257852 0.013087
0.126880 0.258341 0.013572
0.160904 0.258829 0.014058
0.194928 0.259317 0.014544
0.228952 0.259805 0.015030
0.262976 0.260294 0.015516
0.297000 0.260782 0.016002
0.331025 0.261270 0.016487
0.365049 0.261758 0.016973
0.416747 0.269975 0.018059
0.451451 0.270473 0.018554
0.486156 0.270971 0.019050
0.520860 0.271469 0.019545
0.555565 0.271967 0.020041
0.590269 0.272465 0.020536
0.624974 0.272963 0.021032
0.659678 0.273461 0.021528
0.694383 0.273959 0.022023
0.729088 0.274457 0.022519
0.763792 0.274955 0.023014
0.798497 0.275453 0.023510
0.833201 0.275951 0.024005
0.867906 0.276449 0.024501
0.902610 0.276947 0.024996
0.937315 0.277445 0.025492
0.972019 0.277943 0.025987
0.985402 0.278135 0.026178
0.985402 0.278135 0.026178
0.985402 0.278135 0.026178
0.018885 0.290829 0.013612
0.018885 0.290829 0.013612
0.026445 0.290937 0.013720
0.060469 0.291426 0.014206
0.094494 0.291914 0.014692
0.128518 0.292402 0.015178
0.162542 0.292890 0.015664
0.196566 0.293379 0.016149
0.230590 0.293867 0.016635
0.264614 0.294355 0.017121
0.298638 0.294843 0.017607
0.332662 0.295332 0.018093
0.366686 0.295820 0.018578
0.400710 0.296308 0.019064
0.453105 0.304875 0.020176
0.487810 0.305373 0.020671
0.522514 0.305871 0.021167
0.557219 0.306369 0.021662
0.591923 0.306867 0.022158
0.626628 0.307365 0.022653
0.661332 0.307863 0.023149
0.696037 0.308361 0.023644
0.730741 0.308859 0.024140
0.765446 0.309357 0.024635
0.800150 0.309855 0.025131
0.834855 0.310353 0.025627
0.869559 0.310851 0.026122
0.904264 0.311349 0.026618
0.938968 0.311847 0.027113
0.973673 0.312345 0.027609
0.987056 0.312537 0.027800
0.987056 0.312537 0.027800
0.987056 0.312537 0.027800
0.020522 0.324890 0.015218
0.020522 0.324890 0.015218
0.028083 0.324999 0.015326
0.062107 0.325487 0.015811
0.096131 0.325975 0.016297
0.130155 0.326464 0.016783
0.164179 0.326952 0.017269
0.198203 0.327440 0.017755
0.232227 0.327928 0.018240
0.266251 0.328417 0.018726
0.300275 0.328905 0.019212
0.334299 0.329393 0.019698
0.368323 0.329881 0.020184
0.402347 0.330370 0.020670
0.436371 0.330858 0.021155
0.470396 0.331346 0.021641
0.524168 0.340273 0.022788
0.558872 0.340771 0.023284
0.593577 0.341269 0.023779
0.628281 0.341767 0.024275
0.662986 0.342265 0.024770
0.697691 0.342763 0.025266
0.732395 0.343261 0.025761
0.767100 0.343759 0.026257
0.801804 0.344257 0.026752
0.836509 0.344755 0.027248
0.871213 0.345253 0.027743
0.905918 0.345751 0.028239
0.940622 0.346249 0.028735
0.975327 0.346747 0.029230
0.988710 0.346939 0.029421
0.988710 0.346939 0.029421
0.988710 0.346939 0.029421
0.022159 0.358952 0.016823
0.022159 0.358952 0.016823
0.029720 0.359060 0.016931
0.063744 0.359549 0.017417
0.097768 0.360037 0.017902
0.131792 0.360525 0.018388
0.165816 0.361013 0.018874
0.199840 0.361502 0.019360
0.233865 0.361990 0.019846
0.267889 0.362478 0.020332
0.301913 0.362966 0.020817
0.335937 0.363455 0.021303
0.369961 0.363943 0.021789
0.403985 0.364431 0.022275
0.438009 0.364919 0.022761
0.472033 0.365408 0.023247
0.506057 0.365896 0.023732
0.560526 0.375173 0.024905
0.595231 0.375671 0.025400
0.629935 0.376169 0.025896
0.664640 0.376667 0.026392
0.699344 0.377165 0.026887
0.734049 0.377663 0.027383
0.768753 0.378161 0.027878
0.803458 0.378659 0.028374
0.838162 0.379157 0.028869
0.872867 0.379655 0.029365
0.907571 0.380153 0.029860
0.942276 0.380651 0.030356
0.976981 0.381149 0.030851
0.990363 0.381341 0.031043
0.990363 0.381341 0.031043
0.990363 0.381341 0.031043
0.023797 0.393013 0.018428
0.023797 0.393013 0.018428
0.031358 0.393122 0.018536
0.065382 0.393610 0.019022
0.099406 0.394098 0.019508
0.133430 0.394587 0.019994
0.167454 0.395075 0.020479
0.201478 0.395563 0.020965
0.235502 0.396051 0.021451
0.269526 0.396540 0.021937
0.303550 0.397028 0.022423
0.337574 0.397516 0.022909
0.371598 0.398004 0.023394
0.405622 0.398493 0.023880
0.439646 0.398981 0.024366
0.473670 0.399469 0.024852
0.507694 0.399957 0.025338
0.541718 0.400446 0.025823
0.575742 0.400934 0.026309
0.631589 0.410571 0.027517
0.666293 0.411069 0.028013
0.700998 0.411567 0.028508
0.735703 0.412065 0.029004
0.770407 0.412563 0.029500
0.805112 0.413061 0.029995
0.839816 0.413559 0.030491
0.874521 0.414057 0.030986
0.909225 0.414555 0.031482
0.943930 0.415053 0.031977
0.978634 0.415551 0.032473
0.992017 0.415744 0.032664
0.992017 0.415744 0.032664
0.992017 0.415744 0.032664
0.025434 0.427075 0.020033
0.025434 0.427075 0.020033
0.032995 0.427183 0.020141
0.067019 0.427672 0.020627
0.101043 0.428160 0.021113
0.135067 0.428648 0.021599
0.169091 0.429136 0.022085
0.203115 0.429625 0.022571
0.237139 0.430113 0.023056
0.271163 0.430601 0.023542
0.305187 0.431089 0.024028
0.339211 0.431578 0.024514
0.373236 0.432066 0.025000
0.407260 0.432554 0.025485
0.441284 0.433042 0.025971
0.475308 0.433531 0.026457
0.509332 0.434019 0.026943
0.543356 0.434507 0.027429
0.577380 0.434995 0.027915
0.611404 0.435484 0.028400
0.667947 0.445471 0.029634
0.702652 0.445969 0.030130
0.737356 0.446467 0.030625
0.772061 0.446965 0.031121
0.806765 0.447463 0.031616
0.841470 0.447961 0.032112
0.876174 0.448460 0.032607
0.910879 0.448958 0.033103
0.945584 0.449456 0.033599
0.980288 0.449954 0.034094
0.993671 0.450146 0.034285
0.993671 0.450146 0.034285
0.993671 0.450146 0.034285
0.027071 0.461136 0.021639
0.027071 0.461136 0.021639
0.034632 0.461245 0.021747
0.068656 0.461733 0.022232
0.102680 0.462221 0.022718
0.136705 0.462710 0.023204
0.170729 0.463198 0.023690
0.204753 0.463686 0.024176
0.238777 0.464174 0.024662
0.272801 0.464663 0.025147
0.306825 0.465151 0.025633
0.340849 0.465639 0.026119
0.374873 0.466127 0.026605
0.408897 0.466616 0.027091
0.442921 0.467104 0.027577
0.476945 0.467592 0.028062
0.510969 0.468080 0.028548
0.544993 0.468569 0.029034
0.579017 0.469057 0.029520
0.613041 0.469545 0.030006
0.647065 0.470033 0.030492
0.704306 0.480371 0.031751
0.739010 0.480870 0.032247
0.773715 0.481368 0.032742
0.808419 0.481866 0.033238
0.843124 0.482364 0.033733
0.877828 0.482862 0.034229
0.912533 0.483360 0.034724
0.947237 0.483858 0.035220
0.981942 0.484356 0.035715
0.995325 0.484548 0.035907
0.995325 0.484548 0.035907
0.995325 0.484548 0.035907
0.028709 0.495198 0.023244
0.028709 0.495198 0.023244
0.036270 0.495306 0.023352
0.070294 0.495794 0.023838
0.104318 0.496283 0.024324
0.138342 0.496771 0.024809
0.172366 0.497259 0.025295
0.206390 0.497747 0.025781
0.240414 0.498236 0.026267
0.274438 0.498724 0.026753
0.308462 0.499212 0.027239
0.342486 0.499701 0.027724
0.376510 0.500189 0.028210
0.410534 0.500677 0.028696
0.444558 0.501165 0.029182
0.478583 0.501654 0.029668
0.512607 0.502142 0.030153
0.546631 0.502630 0.030639
0.580655 0.503118 0.031125
0.614679 0.503607 0.031611
0.648703 0.504095 0.032097
0.682727 0.504583 0.032583
0.716751 0.505071 0.033068
0.775368 0.515770 0.034364
0.810073 0.516268 0.034859
0.844777 0.516766 0.035355
0.879482 0.517264 0.035850
0.914187 0.517762 0.036346
0.948891 0.518260 0.036841
0.983596 0.518758 0.037337
0.996978 0.518950 0.037528
0.996978 0.518950 0.037528
0.996978 0.518950 0.037528
0.030346 0.529259 0.024849
0.030346 0.529259 0.024849
0.037907 0.529368 0.024957
0.071931 0.529856 0.025443
0.105955 0.530344 0.025929
0.139979 0.530832 0.026415
0.174003 0.531321 0.026901
0.208027 0.531809 0.027386
0.242052 0.532297 0.027872
0.276076 0.532785 0.028358
0.310100 0.533274 0.028844
0.344124 0.533762 0.029330
0.378148 0.534250 0.029815
0.412172 0.534738 0.030301
0.446196 0.535227 0.030787
0.480220 0.535715 0.031273
0.514244 0.536203 0.031759
0.548268 0.536691 0.032245
0.582292 0.537180 0.032730
0.616316 0.537668 0.033216
0.650340 0.538156 0.033702
0.684364 0.538645 0.034188
0.718388 0.539133 0.034674
0.752412 0.539621 0.035160
0.811727 0.550670 0.036480
0.846431 0.551168 0.036976
0.881136 0.551666 0.037472
0.915840 0.552164 0.037967
0.950545 0.552662 0.038463
0.985249 0.553160 0.038958
0.998632 0.553352 0.039149
0.998632 0.553352 0.039149
0.998632 0.553352 0.039149
0.031984 0.563321 0.026455
0.031984 0.563321 0.026455
0.039545 0.563429 0.026563
0.073569 0.563917 0.027048
0.107593 0.564406 0.027534
0.141617 0.564894 0.028020
0.175641 0.565382 0.028506
0.209665 0.565870 0.028992
0.243689 0.566359 0.029477
0.277713 0.566847 0.029963
0.311737 0.567335 0.030449
0.345761 0.567823 0.030935
0.379785 0.568312 0.031421
0.413809 0.568800 0.031907
0.447833 0.569288 0.032392
0.481857 0.569776 0.032878
0.515881 0.570265 0.033364
0.549905 0.570753 0.033850
0.583929 0.571241 0.034336
0.617954 0.571729 0.034822
0.651978 0.572218 0.035307
0.686002 0.572706 0.035793
0.720026 0.573194 0.036279
0.754050 0.573682 0.036765
0.788074 0.574171 0.037251
0.848085 0.585570 0.038597
0.882790 0.586068 0.039093
0.917494 0.586566 0.039588
0.952199 0.587064 0.040084
0.986903 0.587562 0.040579
1.000000 0.587754 0.040771
1.000000 0.587754 0.040771
1.000000 0.587754 0.040771
0.033621 0.597382 0.028060
0.033621 0.597382 0.028060
0.041182 0.597491 0.028168
0.075206 0.597979 0.028654
0.109230 0.598467 0.029139
0.143254 0.598955 0.029625
0.177278 0.599444 0.030111
0.211302 0.599932 0.030597
0.245326 0.600420 0.031083
0.279350 0.600908 0.031569
0.313374 0.601397 0.032054
0.347398 0.601885 0.032540
0.381423 0.602373 0.033026
0.415447 0.602861 0.033512
0.449471 0.603350 0.033998
0.483495 0.603838 0.034484
0.517519 0.604326 0.034969
0.551543 0.604814 0.035455
0.585567 0.605303 0.035941
0.619591 0.605791 0.036427
0.653615 0.606279 0.036913
0.687639 0.606767 0.037398
0.721663 0.607256 0.037884
0.755687 0.607744 0.038370
0.789711 0.608232 0.038856
0.823735 0.608720 0.039342
0.857759 0.609209 0.039828
0.919148 0.620968 0.041210
0.953852 0.621466 0.041705
0.988557 0.621964 0.042201
1.000000 0.622156 0.042392
1.000000 0.622156 0.042392
1.000000 0.622156 0.042392
0.035258 0.631444 0.029665
0.035258 0.631444 0.029665
0.042819 0.631552 0.029773
0.076843 0.632040 0.030259
0.110867 0.632529 0.030745
0.144892 0.633017 0.031231
0.178916 0.633505 0.031716
0.212940 0.633993 0.032202
0.246964 0.634482 0.032688
0.280988 0.634970 0.033174
0.315012 0.635458 0.033660
0.349036 0.635946 0.034146
0.383060 0.636435 0.034631
0.417084 0.636923 0.035117
0.451108 0.637411 0.035603
0.485132 0.637899 0.036089
0.519156 0.638388 0.036575
0.553180 0.638876 0.037060
0.587204 0.639364 0.037546
0.621228 0.639852 0.038032
0.655252 0.640341 0.038518
0.689276 0.640829 0.039004
0.723300 0.641317 0.039490
0.757325 0.641805 0.039975
0.791349 0.642294 0.040461
0.825373 0.642782 0.040947
0.859397 0.643270 0.041433
0.893421 0.643758 0.041919
0.955506 0.655868 0.043327
0.990211 0.656366 0.043822
1.000000 0.656558 0.044013
1.000000 0.656558 0.044013
1.000000 0.656558 0.044013
0.036896 0.665505 0.031270
0.036896 0.665505 0.031270
0.044457 0.665614 0.031378
0.078481 0.666102 0.031864
0.112505 0.666590 0.032350
0.146529 0.667078 0.032836
0.180553 0.667567 0.033322
0.214577 0.668055 0.033808
0.248601 0.668543 0.034293
0.282625 0.669031 0.034779
0.316649 0.669520 0.035265
0.350673 0.670008 0.035751
0.384697 0.670496 0.036237
0.418721 0.670984 0.036722
0.452745 0.671473 0.037208
0.486769 0.671961 0.037694
0.520794 0.672449 0.038180
0.554818 0.672937 0.038666
0.588842 0.673426 0.039152
0.622866 0.673914 0.039637
0.656890 0.674402 0.040123
0.690914 0.674890 0.040609
0.724938 0.675379 0.041095
0.758962 0.675867 0.041581
0.792986 0.676355 0.042067
0.827010 0.676843 0.042552
0.861034 0.677332 0.043038
0.895058 0.677820 0.043524
0.929082 0.678308 0.044010
0.963106 0.678796 0.044496
1.000000 0.690960 0.045635
1.000000 0.690960 0.045635
1.000000 0.690960 0.045635
0.038533 0.699567 0.032876
0.038533 0.699567 0.032876
0.046094 0.699675 0.032984
0.080118 0.700163 0.033470
0.114142 0.700652 0.033955
0.148166 0.701140 0.034441
0.182190 0.701628 0.034927
0.216214 0.702116 0.035413
0.250238 0.702605 0.035899
0.284263 0.703093 0.036384
0.318287 0.703581 0.036870
0.352311 0.704069 0.037356
0.386335 0.704558 0.037842
0.420359 0.705046 0.038328
0.454383 0.705534 0.038814
0.488407 0.706022 0.039299
0.522431 0.706511 0.039785
0.556455 0.706999 0.040271
0.590479 0.707487 0.040757
0.624503 0.707975 0.041243
0.658527 0.708464 0.041729
0.692551 0.708952 0.042214
0.726575 0.709440 0.042700
0.760599 0.709928 0.043186
0.794623 0.710417 0.043672
0.828647 0.710905 0.044158
0.862672 0.711393 0.044643
0.896696 0.711881 0.045129
0.930720 0.712370 0.045615
0.964744 0.712858 0.046101
0.998768 0.713346 0.046587
1.000000 0.725362 0.047256
1.000000 0.725362 0.047256
0.040171 0.733628 0.034481
0.040171 0.733628 0.034481
0.047732 0.733736 0.034589
0.081756 0.734225 0.035075
0.115780 0.734713 0.035561
0.149804 0.735201 0.036046
0.183828 0.735690 0.036532
0.217852 0.736178 0.037018
0.251876 0.736666 0.037504
0.285900 0.737154 0.037990
0.319924 0.737643 0.038476
0.353948 0.738131 0.038961
0.387972 0.738619 0.039447
0.421996 0.739107 0.039933
0.456020 0.739596 0.040419
0.490044 0.740084 0.040905
0.524068 0.740572 0.041391
0.558092 0.741060 0.041876
0.592116 0.741549 0.042362
0.626141 0.742037 0.042848
0.660165 0.742525 0.043334
0.694189 0.743013 0.043820
0.728213 0.743502 0.044305
0.762237 0.743990 0.044791
0.796261 0.744478 0.045277
0.830285 0.744966 0.045763
0.864309 0.745455 0.046249
0.898333 0.745943 0.046735
0.932357 0.746431 0.047220
0.966381 0.746919 0.047706
1.000000 0.747408 0.048192
1.000000 0.747516 0.048300
1.000000 0.759764 0.048877
0.041808 0.767689 0.036086
0.041808 0.767689 0.036086
0.049369 0.767798 0.036194
0.083393 0.768286 0.036680
0.117417 0.768774 0.037166
0.151441 0.769263 0.037652
0.185465 0.769751 0.038138
0.219489 0.770239 0.038623
0.253513 0.770727 0.039109
0.287537 0.771216 0.039595
0.321561 0.771704 0.040081
0.355585 0.772192 0.040567
0.389610 0.772680 0.041053
0.423634 0.773169 0.041538
0.457658 0.773657 0.042024
0.491682 0.774145 0.042510
0.525706 0.774634 0.042996
0.559730 0.775122 0.043482
0.593754 0.775610 0.043967
0.627778 0.776098 0.044453
0.661802 0.776587 0.044939
0.695826 0.777075 0.045425
0.729850 0.777563 0.045911
0.763874 0.778051 0.046397
0.797898 0.778540 0.046882
0.831922 0.779028 0.047368
0.865946 0.779516 0.047854
0.899970 0.780004 0.048340
0.933994 0.780493 0.048826
0.968018 0.780981 0.049312
1.000000 0.781469 0.049797
1.000000 0.781578 0.049905
1.000000 0.781578 0.049905
0.043445 0.801751 0.037692
0.043445 0.801751 0.037692
0.051006 0.801859 0.037800
0.085030 0.802348 0.038285
0.119054 0.802836 0.038771
0.153079 0.803324 0.039257
0.187103 0.803812 0.039743
0.221127 0.804301 0.040229
0.255151 0.804789 0.040715
0.289175 0.805277 0.041200
0.323199 0.805765 0.041686
0.357223 0.806254 0.042172
0.391247 0.806742 0.042658
0.425271 0.807230 0.043144
0.459295 0.807718 0.043629
0.493319 0.808207 0.044115
0.527343 0.808695 0.044601
0.561367 0.809183 0.045087
0.595391 0.809671 0.045573
0.629415 0.810160 0.046059
0.663439 0.810648 0.046544
0.697463 0.811136 0.047030
0.731487 0.811624 0.047516
0.765512 0.812113 0.048002
0.799536 0.812601 0.048488
0.833560 0.813089 0.048974
0.867584 0.813578 0.049459
0.901608 0.814066 0.049945
0.935632 0.814554 0.050431
0.969656 0.815042 0.050917
1.000000 0.815531 0.051403
1.000000 0.815639 0.051511
1.000000 0.815639 0.051511
0.045083 0.835812 0.039297
0.045083 0.835812 0.039297
0.052644 0.835921 0.039405
0.086668 0.836409 0.039891
0.120692 0.836897 0.040376
0.154716 0.837386 0.040862
0.188740 0.837874 0.041348
0.222764 0.838362 0.041834
0.256788 0.838850 0.042320
0.290812 0.839339 0.042806
0.324836 0.839827 0.043291
0.358860 0.840315 0.043777
0.392884 0.840803 0.044263
0.426908 0.841292 0.044749
0.460932 0.841780 0.045235
0.494956 0.842268 0.045721
0.528981 0.842756 0.046206
0.563005 0.843245 0.046692
0.597029 0.843733 0.047178
