library/cube/Complementary_004.cube
# CINEGRADE LAB — Premium Cinematic LUT
# Title: Complementary
# Category: Teal & Orange Modern
# Description: Complementary colors with modern cinematic teal and orange grading
# Mood: Blockbuster, cinematic, contemporary
# Variant: 5
# Generated: 2026-05-21T16:12:59.544230
TITLE "Complementary"
LUT_3D_SIZE 9
0.001048 0.016504 0.014848
0.010423 0.015602 0.014052
0.135185 0.016841 0.015389
0.263796 0.018194 0.016833
0.396041 0.019659 0.018380
0.531708 0.021229 0.020027
0.670595 0.022902 0.021768
0.811757 0.024658 0.023587
0.831334 0.024250 0.023235
0.002535 0.040666 0.013362
0.012464 0.039876 0.012700
0.143436 0.041330 0.014271
0.277785 0.042890 0.015941
0.415310 0.044554 0.017705
0.555815 0.046315 0.019558
0.699111 0.048171 0.021497
0.842842 0.050077 0.023478
0.861156 0.049750 0.023217
0.011808 0.194689 0.019874
0.022217 0.193821 0.019329
0.158615 0.195298 0.021107
0.297951 0.196885 0.022975
0.440038 0.198577 0.024927
0.584696 0.200371 0.026961
0.731748 0.202262 0.029072
0.876431 0.204163 0.031173
0.893435 0.203797 0.030990
0.021204 0.347714 0.026707
0.032042 0.346849 0.026279
0.173151 0.348416 0.028250
0.316791 0.350094 0.030301
0.462789 0.351880 0.032429
0.610980 0.353770 0.034631
0.760700 0.355749 0.036892
0.905194 0.357695 0.039090
0.920883 0.357362 0.038981
0.030747 0.500156 0.033868
0.041967 0.499366 0.033554
0.187125 0.501082 0.035703
0.334439 0.502911 0.037925
0.483752 0.504849 0.040216
0.634912 0.506890 0.042571
0.786141 0.509002 0.044958
0.929484 0.511038 0.047232
0.943884 0.510799 0.047194
0.040460 0.652394 0.041359
0.052016 0.651743 0.041154
0.200616 0.653661 0.043468
0.351031 0.655691 0.045846
0.503118 0.657829 0.048284
0.656741 0.660071 0.050780
0.808589 0.662353 0.053272
0.949736 0.664513 0.055596
0.962903 0.664419 0.055625
0.050363 0.804769 0.049174
0.062214 0.804312 0.049074
0.213705 0.806475 0.051537
0.366705 0.808749 0.054057
0.521086 0.811127 0.056629
0.676729 0.813606 0.059250
0.828458 0.816090 0.061827
0.966464 0.818397 0.064178
0.978481 0.818487 0.064266
0.060151 0.952101 0.056985
0.072286 0.952306 0.057006
0.226198 0.955099 0.059624
0.381345 0.957931 0.062287
0.537619 0.960797 0.064990
0.694921 0.963697 0.067732
0.845991 0.966496 0.070379
0.980027 0.969000 0.072735
0.991008 0.969282 0.072874
0.062971 0.977324 0.057905
0.075317 0.977547 0.058001
0.231188 0.980376 0.060721
0.388068 0.983223 0.063477
0.545870 0.986087 0.066266
0.704518 0.988966 0.069086
0.854579 0.991690 0.071763
0.983920 0.994037 0.074078
0.993998 0.994220 0.074238
0.001307 0.016415 0.059592
0.010740 0.015529 0.058659
0.136165 0.016794 0.059872
0.265390 0.018174 0.061194
0.398200 0.019662 0.062620
0.534388 0.021256 0.064148
0.673750 0.022951 0.065771
0.815241 0.024727 0.067472
0.834693 0.024330 0.066995
0.002811 0.040609 0.057650
0.012791 0.039835 0.056858
0.144346 0.041314 0.058313
0.279232 0.042899 0.059867
0.417249 0.044586 0.061515
0.558204 0.046369 0.063255
0.701907 0.048246 0.065082
0.845809 0.050170 0.066948
0.863992 0.049853 0.066569
0.012098 0.194599 0.063728
0.022553 0.193751 0.063062
0.159459 0.195256 0.064729
0.299260 0.196869 0.066486
0.441771 0.198587 0.068329
0.586812 0.200405 0.070255
0.734210 0.202320 0.072259
0.878898 0.204237 0.074248
0.895769 0.203887 0.073952
0.021509 0.347619 0.070154
0.032388 0.346777 0.069610
0.173935 0.348373 0.071475
0.317974 0.350080 0.073421
0.464333 0.351894 0.075444
0.612848 0.353810 0.077542
0.762764 0.355813 0.079698
0.907192 0.357777 0.081788
0.922750 0.357462 0.081570
0.031069 0.500081 0.076929
0.042325 0.499316 0.076504
0.187857 0.501064 0.078552
0.335509 0.502923 0.080672
0.485126 0.504889 0.082861
0.636556 0.506958 0.085115
0.787886 0.509094 0.087399
0.931053 0.511149 0.089566
0.945325 0.510929 0.089422
0.040801 0.652361 0.084051
0.052388 0.651738 0.083740
0.201304 0.653688 0.085955
0.352002 0.655749 0.088234
0.504341 0.657917 0.090573
0.658187 0.660187 0.092970
0.810053 0.662493 0.095359
0.950923 0.664671 0.097576
0.963969 0.664597 0.097500
0.050723 0.804798 0.091512
0.062602 0.804370 0.091308
0.214356 0.806565 0.093674
0.367590 0.808870 0.096095
0.522178 0.811278 0.098569
0.678003 0.813786 0.101091
0.829685 0.816293 0.103564
0.967325 0.818617 0.105806
0.979232 0.818727 0.105789
0.060541 0.952359 0.098985
0.072698 0.952569 0.098903
0.226825 0.955371 0.101422
0.382163 0.958210 0.103984
0.538605 0.961084 0.106586
0.696054 0.963989 0.109226
0.847034 0.966791 0.111767
0.980625 0.969290 0.114008
0.991507 0.969574 0.114038
0.063377 0.977587 0.099556
0.075742 0.977810 0.099548
0.231789 0.980641 0.102166
0.388825 0.983490 0.104819
0.546766 0.986356 0.107504
0.705538 0.989237 0.110218
0.855487 0.991957 0.112784
0.984320 0.994295 0.114978
0.994317 0.994476 0.115024
0.002205 0.016970 0.206458
0.011693 0.016097 0.205048
0.137771 0.017386 0.205802
0.267599 0.018789 0.206673
0.400966 0.020300 0.207656
0.537665 0.021915 0.208747
0.677493 0.023630 0.209940
0.819295 0.025423 0.211215
0.838619 0.025035 0.210312
0.003720 0.041188 0.202939
0.013749 0.040428 0.201697
0.145876 0.041930 0.202719
0.281289 0.043537 0.203847
0.419789 0.045245 0.205076
0.561185 0.047049 0.206402
0.705288 0.048945 0.207821
0.849342 0.050883 0.209282
0.867392 0.050575 0.208497
0.013013 0.195140 0.207526
0.023512 0.194309 0.206435
0.160916 0.195839 0.207692
0.301173 0.197477 0.209045
0.444100 0.199219 0.210490
0.589517 0.201060 0.212022
0.737253 0.202996 0.213638
0.881927 0.204928 0.215238
0.898664 0.204590 0.214555
0.022433 0.348149 0.212542
0.033352 0.347328 0.211596
0.175328 0.348952 0.213071
0.319757 0.350685 0.214632
0.466470 0.352525 0.216275
0.615302 0.354465 0.217996
0.765402 0.356490 0.219779
0.909751 0.358471 0.221494
0.925175 0.358170 0.220904
0.032005 0.500626 0.217980
0.043295 0.499885 0.217171
0.189193 0.501662 0.218845
0.337176 0.503549 0.220596
0.487089 0.505542 0.222419
0.638783 0.507637 0.224310
0.790202 0.509795 0.226231
0.933181 0.511866 0.228032
0.947325 0.511663 0.227527
0.041749 0.652943 0.223824
0.053366 0.652346 0.223144
0.202590 0.654326 0.224998
0.353565 0.656417 0.226918
0.506150 0.658612 0.228901
0.660212 0.660908 0.230943
0.812087 0.663237 0.232976
0.952670 0.665431 0.234833
0.965594 0.665375 0.234400
0.051686 0.805437 0.230052
0.063590 0.805036 0.229490
0.215601 0.807262 0.231502
0.369062 0.809596 0.233572
0.523852 0.812032 0.235694
0.679853 0.814566 0.237866
0.831482 0.817095 0.239984
0.968746 0.819433 0.241864
0.980542 0.819562 0.241490
0.061527 0.953213 0.236330
0.073705 0.953426 0.235894
0.228042 0.956235 0.238061
0.383565 0.959081 0.240271
0.540170 0.961960 0.242521
0.697762 0.964871 0.244806
0.848646 0.967673 0.246986
0.981783 0.970166 0.248859
0.992567 0.970449 0.248522
0.064374 0.978439 0.235706
0.076756 0.978660 0.235342
0.232975 0.981492 0.237605
0.390163 0.984342 0.239901
0.548238 0.987208 0.242226
0.707130 0.990088 0.244576
0.856965 0.992805 0.246771
0.985284 0.995131 0.248581
0.995201 0.995308 0.248245
0.003103 0.017527 0.352992
0.012646 0.016668 0.351110
0.139368 0.017981 0.351412
0.269792 0.019407 0.351838
0.403708 0.020940 0.352383
0.540910 0.022576 0.353041
0.681197 0.024311 0.353810
0.823295 0.026121 0.354664
0.842491 0.025742 0.353339
0.004628 0.041771 0.347915
0.014706 0.041024 0.346229
0.147398 0.042549 0.346823
0.283331 0.044178 0.347529
0.422307 0.045907 0.348343
0.564136 0.047730 0.349260
0.708632 0.049646 0.350276
0.852822 0.051598 0.351335
0.870739 0.051299 0.350150
0.013929 0.195685 0.351029
0.024471 0.194872 0.349517
0.162366 0.196428 0.350369
0.303073 0.198090 0.351322
0.446408 0.199855 0.352373
0.592196 0.201718 0.353516
0.740264 0.203675 0.354747
0.884907 0.205622 0.355962
0.901509 0.205296 0.354896
0.023359 0.348685 0.354651
0.034315 0.347885 0.353306
0.176714 0.349536 0.354395
0.321528 0.351296 0.355575
0.468587 0.353161 0.356841
0.617731 0.355125 0.358189
0.768006 0.357172 0.359600
0.912263 0.359168 0.360943
0.927554 0.358883 0.359985
0.032942 0.501178 0.358765
0.044264 0.500460 0.357575
0.190523 0.502266 0.358879
0.338831 0.504181 0.360263
0.489035 0.506201 0.361722
0.640987 0.508322 0.363253
0.792488 0.510502 0.364813
0.935268 0.512589 0.366250
0.949283 0.512403 0.365385
0.042699 0.653534 0.363341
0.054345 0.652962 0.362294
0.203872 0.654972 0.363789
0.355117 0.657091 0.365353
0.507943 0.659314 0.366982
0.662217 0.661637 0.368671
0.814094 0.663987 0.370348
0.954380 0.666197 0.371845
0.967184 0.666159 0.371055
0.052649 0.806084 0.368344
0.064579 0.805710 0.367424
0.216841 0.807966 0.369085
0.370526 0.810329 0.370804
0.525513 0.812792 0.372576
0.681687 0.815353 0.374397
0.833257 0.817902 0.376159
0.970137 0.820255 0.377678
0.981823 0.820402 0.376945
0.062514 0.954068 0.373432
0.074712 0.954284 0.372640
0.229254 0.957100 0.374456
0.384959 0.959951 0.376314
0.541724 0.962836 0.378210
0.699455 0.965752 0.380141
0.850241 0.968554 0.381959
0.982919 0.971040 0.383460
0.993605 0.971324 0.382756
0.065372 0.979289 0.371612
0.077771 0.979509 0.370891
0.234157 0.982341 0.372798
0.391493 0.985192 0.374736
0.549701 0.988058 0.376699
0.708712 0.990939 0.378683
0.858433 0.993651 0.380503
0.986232 0.995965 0.381925
0.996070 0.996138 0.381203
0.004001 0.018087 0.499198
0.013598 0.017242 0.496850
0.140956 0.018579 0.496705
0.271968 0.020028 0.496691
0.406425 0.021583 0.496802
0.544123 0.023240 0.497034
0.684863 0.024995 0.497383
0.827241 0.026821 0.497820
0.846307 0.026451 0.496078
0.005537 0.042357 0.492582
0.015663 0.041624 0.490456
0.148912 0.043172 0.490627
0.285357 0.044822 0.490917
0.424802 0.046571 0.491321
0.567058 0.048415 0.491833
0.711941 0.050349 0.492450
0.856250 0.052315 0.493111
0.874033 0.052025 0.491529
0.014845 0.196235 0.494238
0.025430 0.195440 0.492312
0.163809 0.197020 0.492762
0.304958 0.198707 0.493320
0.448696 0.200495 0.493980
0.594847 0.202380 0.494738
0.743198 0.204358 0.495588
0.887838 0.206320 0.496420
0.904305 0.206006 0.494974
0.024284 0.349227 0.496483
0.035278 0.348447 0.494743
0.178094 0.350126 0.495450
0.323286 0.351912 0.496251
0.470686 0.353802 0.497144
0.620135 0.355791 0.498122
0.770575 0.357858 0.499164
0.914730 0.359871 0.500138
0.929889 0.359600 0.498812
0.033879 0.501737 0.499285
0.045234 0.501043 0.497718
0.191847 0.502877 0.498654
0.340474 0.504820 0.499674
0.490964 0.506866 0.500772
0.643170 0.509012 0.501944
0.794742 0.511214 0.503145
0.937313 0.513317 0.504220
0.951201 0.513148 0.502996
0.043649 0.654132 0.502604
0.055323 0.653585 0.501192
0.205148 0.655625 0.502331
0.356659 0.657772 0.503540
0.509721 0.660022 0.504816
0.664203 0.662371 0.506153
0.816075 0.664743 0.507475
0.956055 0.666968 0.508612
0.968739 0.666948 0.507467
0.053614 0.806740 0.506389
0.065568 0.806392 0.505113
0.218077 0.808678 0.506423
0.371981 0.811069 0.507792
0.527161 0.813560 0.509213
0.683504 0.816146 0.510684
0.835011 0.818716 0.512091
0.971499 0.821083 0.513248
0.983075 0.821247 0.512156
0.063501 0.954923 0.510289
0.075719 0.955143 0.509143
0.230462 0.957965 0.510608
0.386345 0.960822 0.512113
0.543266 0.963712 0.513655
0.701135 0.966632 0.515229
0.851820 0.969435 0.516684
0.984031 0.971915 0.517812
0.994622 0.972198 0.516737
0.066370 0.980138 0.507273
0.078785 0.980356 0.506195
0.235336 0.983189 0.507745
0.392818 0.986040 0.509322
0.551156 0.988906 0.510921
0.710284 0.991787 0.512537
0.859890 0.994495 0.513979
0.987165 0.996797 0.515009
0.996928 0.996966 0.513897
0.004899 0.018651 0.645078
0.014550 0.017819 0.642270
0.142535 0.019180 0.641684
0.274128 0.020651 0.641234
0.409118 0.022228 0.640917
0.547305 0.023906 0.640728
0.688491 0.025680 0.640661
0.831134 0.027523 0.640687
0.850070 0.027162 0.638532
0.006446 0.042946 0.636941
0.016619 0.042227 0.634381
0.150418 0.043797 0.634135
0.287368 0.045469 0.634013
0.427275 0.047239 0.634010
0.569952 0.049102 0.634123
0.715215 0.051055 0.634344
0.859626 0.053034 0.634612
0.877275 0.052753 0.632637
0.015761 0.196790 0.637158
0.026389 0.196012 0.634820
0.165245 0.197618 0.634874
0.306830 0.199328 0.635041
0.450963 0.201139 0.635315
0.597472 0.203046 0.635690
0.746077 0.205044 0.636161
0.890719 0.207021 0.636615
0.907052 0.206719 0.634793
0.025211 0.349775 0.638039
0.036242 0.349016 0.635908
0.179467 0.350722 0.636236
0.325031 0.352534 0.636663
0.472767 0.354448 0.637185
0.622516 0.356461 0.637796
0.773110 0.358549 0.638473
0.917152 0.360577 0.639079
0.932178 0.360321 0.637389
0.034816 0.502303 0.639542
0.046205 0.501632 0.637600
0.193165 0.503495 0.638172
0.342106 0.505465 0.638831
0.492876 0.507538 0.639570
0.645331 0.509709 0.640385
0.796967 0.511931 0.641228
0.939319 0.514050 0.641943
0.953079 0.513897 0.640361
0.044600 0.654737 0.641613
0.056302 0.654216 0.639840
0.206419 0.656285 0.640624
0.358192 0.658461 0.641480
0.511485 0.660738 0.642404
0.666170 0.663112 0.643389
0.818030 0.665505 0.644358
0.957695 0.667744 0.645136
0.970260 0.667742 0.643635
0.054579 0.807403 0.644187
0.066557 0.807082 0.642556
0.219309 0.809398 0.643517
0.373428 0.811817 0.644536
0.528796 0.814334 0.645608
0.685305 0.816946 0.646728
0.836744 0.819536 0.647779
0.972831 0.821916 0.648572
0.984300 0.822098 0.647120
0.064489 0.955778 0.646903
0.076726 0.956001 0.645403
0.231667 0.958830 0.646516
0.387724 0.961693 0.647668
0.544798 0.964588 0.648855
0.702802 0.967513 0.650071
0.853383 0.970316 0.651161
0.985121 0.972788 0.651913
0.995618 0.973071 0.650464
0.067368 0.980986 0.642690
0.079799 0.981202 0.641253
0.236512 0.984036 0.642445
0.394137 0.986887 0.643659
0.552604 0.989753 0.644892
0.711848 0.992634 0.646136
0.861339 0.995337 0.647196
0.988084 0.997627 0.647831
0.997774 0.997793 0.646322
0.005797 0.019218 0.790636
0.015501 0.018400 0.787373
0.144106 0.019784 0.786350
0.276271 0.021278 0.785471
0.411788 0.022876 0.784731
0.550456 0.024574 0.784125
0.692080 0.026369 0.783647
0.834972 0.028227 0.783265
0.853778 0.027875 0.780702
0.007355 0.043539 0.780996
0.017575 0.042833 0.778007
0.151916 0.044426 0.777347
0.289364 0.046119 0.776818
0.429726 0.047909 0.776415
0.572817 0.049792 0.776131
0.718454 0.051763 0.775962
0.862950 0.053755 0.775839
0.880465 0.053483 0.773475
0.016678 0.197349 0.779790
0.027347 0.196589 0.777046
0.166673 0.198219 0.776707
0.308687 0.199953 0.776486
0.453210 0.201787 0.776377
0.600070 0.203716 0.776375
0.748920 0.205733 0.776471
0.893552 0.207725 0.776549
0.909750 0.207435 0.774353
0.026137 0.350329 0.779321
0.037205 0.349590 0.776804
0.180834 0.351323 0.776757
0.326763 0.353161 0.776813
0.474829 0.355100 0.776967
0.624873 0.357136 0.777213
0.775611 0.359244 0.777527
0.919529 0.361288 0.777767
0.934423 0.361046 0.775715
0.035755 0.502876 0.779537
0.047175 0.502228 0.777225
0.194478 0.504119 0.777435
0.343727 0.506116 0.777734
0.494772 0.508215 0.778117
0.647470 0.510411 0.778577
0.799162 0.512654 0.779064
0.941284 0.514788 0.779419
0.954918 0.514651 0.777481
0.045551 0.655351 0.780371
0.057282 0.654854 0.778237
0.207685 0.656953 0.778668
0.359714 0.659156 0.779173
0.513234 0.661459 0.779746
0.668119 0.663859 0.780382
0.819960 0.666273 0.780997
0.959300 0.668526 0.781416
0.971747 0.668541 0.779559
0.055545 0.808075 0.781740
0.067547 0.807780 0.779755
0.220536 0.810125 0.780367
0.374865 0.812571 0.781037
0.530419 0.815115 0.781759
0.687090 0.817752 0.782528
0.838456 0.820362 0.783223
0.974135 0.822755 0.783651
0.985498 0.822954 0.781837
0.065477 0.956634 0.783273
0.077733 0.956860 0.781419
0.232867 0.959695 0.782180
0.389095 0.962563 0.782978
0.546320 0.965463 0.783809
0.704456 0.968393 0.784665
0.854931 0.971196 0.785388
0.986189 0.973661 0.785762
0.996594 0.973943 0.783937
0.068367 0.981832 0.777862
0.080814 0.982046 0.776065
0.237684 0.984881 0.776896
0.395451 0.987732 0.777746
0.554044 0.990599 0.778610
0.713403 0.993479 0.779479
0.862779 0.996178 0.780154
0.988990 0.998456 0.780388
0.998611 0.998618 0.778478
0.006438 0.019531 0.894496
0.016211 0.018743 0.893665
0.145445 0.020168 0.894969
0.278191 0.021701 0.896305
0.414242 0.023336 0.897666
0.553400 0.025069 0.899051
0.695471 0.026897 0.900453
0.838609 0.028785 0.901841
0.857297 0.028455 0.900934
0.008063 0.043934 0.892581
0.018345 0.043257 0.891646
0.153236 0.044887 0.892937
0.291188 0.046615 0.894250
0.432012 0.048439 0.895581
0.575522 0.050354 0.896924
0.721539 0.052355 0.898278
0.866115 0.054371 0.899569
0.883507 0.054119 0.898514
0.017444 0.197762 0.897839
0.028167 0.197032 0.896783
0.167969 0.198699 0.898035
0.310416 0.200469 0.899300
0.455334 0.202336 0.900574
0.602550 0.204297 0.901853
0.751643 0.206343 0.903129
0.896262 0.208358 0.904286
0.912334 0.208088 0.903071
0.026954 0.350778 0.902628
0.038069 0.350071 0.901450
0.182105 0.351840 0.902649
0.328403 0.353713 0.903853
0.476801 0.355685 0.905057
0.627143 0.357753 0.906259
0.778024 0.359889 0.907431
0.921813 0.361954 0.908436
0.936583 0.361733 0.907059
0.036617 0.503379 0.906952
0.048078 0.502762 0.905650
0.195725 0.504689 0.906782
0.345283 0.506721 0.907910
0.496605 0.508852 0.909032
0.649549 0.511078 0.910143
0.801293 0.513348 0.911192
0.943181 0.515502 0.912021
0.956694 0.515386 0.910477
0.046454 0.655921 0.910811
0.058218 0.655456 0.909380
0.208909 0.657589 0.910431
0.361194 0.659825 0.911471
0.514941 0.662160 0.912497
0.670026 0.664590 0.913504
0.821847 0.667027 0.914410
0.960856 0.669299 0.915039
0.973190 0.669334 0.913323
0.056482 0.808725 0.914200
0.068512 0.808461 0.912634
0.221738 0.810838 0.913590
0.376277 0.813316 0.914527
0.532016 0.815889 0.915442
0.688848 0.818554 0.916332
0.840140 0.821186 0.917076
0.975406 0.823592 0.917482
0.986665 0.823810 0.915588
0.066449 0.957474 0.916838
0.078727 0.957706 0.915146
0.234054 0.960550 0.916003
0.390451 0.963426 0.916830
0.547826 0.966333 0.917624
0.706093 0.969269 0.918382
0.856462 0.972073 0.918945
0.987235 0.974532 0.919099
0.997551 0.974814 0.917011
0.069359 0.982670 0.911698
0.081823 0.982884 0.909839
0.238850 0.985721 0.910552
0.396757 0.988574 0.911227
0.555475 0.991441 0.911862
0.714949 0.994321 0.912455
0.864211 0.997016 0.912804
0.989885 0.999282 0.912667
0.999440 0.999441 0.910360
0.006631 0.019398 0.926314
0.016463 0.018632 0.926211
0.146308 0.020087 0.928219
0.279617 0.021648 0.930221
0.416187 0.023311 0.932214
0.555818 0.025071 0.934194
0.698320 0.026924 0.936159
0.841680 0.028833 0.938071
0.860242 0.028517 0.937649
0.008291 0.043851 0.926705
0.018625 0.043194 0.926380
0.154048 0.044852 0.928257
0.292490 0.046608 0.930121
0.433761 0.048457 0.931967
0.577678 0.050396 0.933794
0.724061 0.052421 0.935597
0.868694 0.054454 0.937301
0.885956 0.054215 0.936624
0.017701 0.197670 0.933875
0.028469 0.196962 0.933317
0.168732 0.198659 0.935041
0.311601 0.200457 0.936746
0.456900 0.202352 0.938427
0.604460 0.204339 0.940081
0.753782 0.206408 0.941700
0.898371 0.208441 0.943165
0.914313 0.208187 0.942227
0.027239 0.350701 0.940203
0.038393 0.350018 0.939415
0.182825 0.351818 0.940980
0.329481 0.353720 0.942517
0.478201 0.355721 0.944026
0.628831 0.357816 0.945501
0.779841 0.359976 0.946917
0.923488 0.362059 0.948131
0.938129 0.361855 0.946937
0.036929 0.503337 0.945712
0.048424 0.502747 0.944698
0.196406 0.504706 0.946095
0.346265 0.506767 0.947459
0.497855 0.508927 0.948788
0.651037 0.511182 0.950079
0.802823 0.513475 0.951278
0.944463 0.515645 0.952226
0.957855 0.515549 0.950779
0.046791 0.655934 0.950423
0.058586 0.655497 0.949186
0.209557 0.657662 0.950408
0.362091 0.659928 0.951593
0.516059 0.662292 0.952737
0.671338 0.664749 0.953838
0.823130 0.667209 0.954809
0.961799 0.669496 0.955475
0.974019 0.669550 0.953779
0.056845 0.808808 0.954355
0.068902 0.808572 0.952896
0.222358 0.810981 0.953937
0.377102 0.813488 0.954936
0.533021 0.816089 0.955890
0.690011 0.818780 0.956796
0.841224 0.821434 0.957531
0.976068 0.823854 0.957902
0.987226 0.824090 0.955961
0.066842 0.957734 0.957259
0.079141 0.957972 0.955594
0.234656 0.960824 0.956459
0.391219 0.963708 0.957273
0.548741 0.966622 0.958035
0.707138 0.969563 0.958742
0.857399 0.972369 0.959232
0.987682 0.974822 0.959290
0.997911 0.975106 0.957098
0.069770 0.982925 0.952124
0.082252 0.983139 0.950223
0.239433 0.985978 0.950878
0.397477 0.988833 0.951478
0.556320 0.991702 0.952023
0.715910 0.994584 0.952510
0.865060 0.997276 0.952737
0.990194 0.999532 0.952457
0.999688 0.999688 0.950008
