library/cube/Complementary_004.cube
# CINEGRADE LAB — Premium Cinematic LUT
# Title: Complementary
# Category: Teal & Orange Modern
# Description: Complementary colors with modern cinematic teal and orange grading
# Mood: Blockbuster, cinematic, contemporary
# Variant: 5
# Generated: 2026-05-21T16:12:59.544230
TITLE "Complementary"
LUT_3D_SIZE 33
0.001048 0.016504 0.014848
0.001031 0.016231 0.014602
0.001015 0.015961 0.014359
0.001001 0.015695 0.014119
0.010423 0.015602 0.014052
0.041241 0.015901 0.014376
0.072309 0.016207 0.014707
0.103625 0.016520 0.015044
0.135185 0.016841 0.015389
0.166986 0.017168 0.015740
0.199023 0.017503 0.016098
0.231295 0.017845 0.016462
0.263796 0.018194 0.016833
0.296525 0.018550 0.017210
0.329477 0.018913 0.017594
0.362650 0.019282 0.017984
0.396041 0.019659 0.018380
0.429645 0.020041 0.018783
0.463459 0.020431 0.019191
0.497482 0.020827 0.019606
0.531708 0.021229 0.020027
0.566136 0.021638 0.020453
0.600762 0.022053 0.020886
0.635582 0.022474 0.021324
0.670595 0.022902 0.021768
0.705796 0.023335 0.022218
0.741058 0.023772 0.022671
0.776339 0.024213 0.023127
0.811757 0.024658 0.023587
0.824334 0.024691 0.023635
0.826696 0.024542 0.023500
0.829030 0.024395 0.023366
0.831334 0.024250 0.023235
0.000996 0.015598 0.014032
0.000983 0.015335 0.013795
0.000971 0.015075 0.013560
0.000961 0.014818 0.013327
0.010516 0.014738 0.013271
0.041753 0.015053 0.013610
0.073232 0.015376 0.013956
0.104951 0.015707 0.014309
0.136907 0.016044 0.014669
0.169096 0.016388 0.015035
0.201514 0.016739 0.015407
0.234158 0.017098 0.015786
0.267026 0.017463 0.016172
0.300113 0.017834 0.016563
0.333417 0.018213 0.016961
0.366934 0.018598 0.017365
0.400661 0.018989 0.017775
0.434594 0.019387 0.018192
0.468732 0.019792 0.018614
0.503069 0.020203 0.019042
0.537605 0.020620 0.019476
0.572334 0.021043 0.019916
0.607255 0.021472 0.020361
0.642364 0.021908 0.020812
0.677658 0.022349 0.021269
0.713134 0.022797 0.021731
0.748561 0.023246 0.022195
0.784023 0.023698 0.022661
0.819608 0.024156 0.023132
0.832166 0.024197 0.023187
0.834431 0.024055 0.023058
0.836668 0.023915 0.022930
0.838875 0.023777 0.022804
0.000957 0.014725 0.013243
0.000948 0.014472 0.013014
0.000941 0.014222 0.012787
0.000934 0.013974 0.012563
0.010618 0.013906 0.012516
0.042261 0.014238 0.012871
0.074139 0.014578 0.013232
0.106249 0.014925 0.013600
0.138587 0.015278 0.013974
0.171152 0.015639 0.014355
0.203938 0.016006 0.014742
0.236944 0.016380 0.015135
0.270165 0.016761 0.015535
0.303599 0.017148 0.015941
0.337242 0.017542 0.016352
0.371091 0.017942 0.016770
0.405143 0.018348 0.017194
0.439395 0.018761 0.017623
0.473844 0.019180 0.018059
0.508486 0.019606 0.018500
0.543319 0.020037 0.018947
0.578339 0.020475 0.019400
0.613544 0.020918 0.019858
0.648930 0.021367 0.020321
0.684495 0.021823 0.020791
0.720236 0.022284 0.021265
0.755785 0.022744 0.021738
0.791406 0.023208 0.022215
0.827138 0.023677 0.022696
0.839672 0.023727 0.022758
0.841840 0.023591 0.022634
0.843980 0.023458 0.022512
0.846092 0.023326 0.022391
0.000932 0.013885 0.012481
0.000927 0.013641 0.012260
0.000923 0.013401 0.012041
0.000921 0.013163 0.011825
0.010730 0.013106 0.011788
0.042766 0.013455 0.012158
0.075029 0.013811 0.012534
0.107517 0.014174 0.012917
0.140227 0.014543 0.013305
0.173155 0.014919 0.013700
0.206297 0.015302 0.014102
0.239652 0.015692 0.014509
0.273215 0.016088 0.014923
0.306984 0.016490 0.015342
0.340954 0.016899 0.015767
0.375124 0.017314 0.016199
0.409490 0.017735 0.016636
0.444049 0.018163 0.017078
0.478798 0.018596 0.017527
0.513734 0.019036 0.017981
0.548854 0.019481 0.018440
0.584154 0.019933 0.018906
0.619633 0.020390 0.019376
0.655286 0.020853 0.019852
0.691112 0.021322 0.020333
0.727076 0.021795 0.020819
0.762731 0.022266 0.021302
0.798491 0.022741 0.021788
0.834349 0.023221 0.022279
0.846853 0.023279 0.022347
0.848926 0.023150 0.022229
0.850970 0.023024 0.022112
0.852986 0.022899 0.021997
0.002535 0.040666 0.013362
0.002533 0.040419 0.013148
0.002533 0.040175 0.012936
0.002533 0.039934 0.012726
0.012464 0.039876 0.012700
0.044879 0.040229 0.013083
0.077515 0.040589 0.013473
0.110368 0.040956 0.013869
0.143436 0.041330 0.014271
0.176715 0.041710 0.014680
0.210201 0.042097 0.015094
0.243892 0.042490 0.015515
0.277785 0.042890 0.015941
0.311876 0.043297 0.016373
0.346163 0.043709 0.016811
0.380642 0.044128 0.017255
0.415310 0.044554 0.017705
0.450165 0.044985 0.018160
0.485202 0.045422 0.018620
0.520420 0.045866 0.019086
0.555815 0.046315 0.019558
0.591385 0.046770 0.020035
0.627126 0.047232 0.020517
0.663036 0.047698 0.021004
0.699111 0.048171 0.021497
0.735215 0.048647 0.021992
0.771000 0.049119 0.022483
0.806878 0.049596 0.022979
0.842842 0.050077 0.023478
0.855310 0.050135 0.023553
0.857287 0.050004 0.023439
0.859236 0.049876 0.023327
0.861156 0.049750 0.023217
0.004843 0.079289 0.014960
0.004844 0.079035 0.014753
0.004847 0.078783 0.014548
0.004850 0.078535 0.014345
0.014897 0.078472 0.014327
0.047680 0.078825 0.014724
0.080676 0.079185 0.015128
0.113882 0.079551 0.015537
0.147296 0.079925 0.015952
0.180913 0.080305 0.016373
0.214731 0.080692 0.016801
0.248748 0.081085 0.017234
0.282958 0.081485 0.017673
0.317361 0.081892 0.018117
0.351952 0.082305 0.018567
0.386729 0.082724 0.019023
0.421688 0.083149 0.019484
0.456827 0.083581 0.019951
0.492143 0.084019 0.020423
0.527632 0.084463 0.020901
0.563292 0.084913 0.021384
0.599121 0.085369 0.021872
0.635114 0.085830 0.022365
0.671270 0.086298 0.022864
0.707585 0.086771 0.023367
0.743787 0.087245 0.023870
0.779682 0.087716 0.024370
0.815657 0.088192 0.024874
0.851708 0.088672 0.025381
0.864134 0.088725 0.025462
0.866016 0.088591 0.025353
0.867870 0.088458 0.025245
0.869696 0.088328 0.025140
0.007158 0.117829 0.016578
0.007162 0.117569 0.016378
0.007167 0.117311 0.016180
0.007174 0.117057 0.015984
0.017333 0.116990 0.015975
0.050471 0.117344 0.016385
0.083816 0.117705 0.016801
0.117363 0.118072 0.017224
0.151111 0.118447 0.017652
0.185056 0.118828 0.018086
0.219195 0.119216 0.018525
0.253525 0.119611 0.018971
0.288043 0.120012 0.019422
0.322745 0.120419 0.019878
0.357630 0.120834 0.020341
0.392694 0.121254 0.020808
0.427933 0.121681 0.021281
0.463346 0.122114 0.021760
0.498930 0.122553 0.022243
0.534680 0.122999 0.022732
0.570595 0.123450 0.023226
0.606672 0.123908 0.023725
0.642908 0.124371 0.024230
0.679300 0.124840 0.024739
0.715846 0.125315 0.025253
0.752102 0.125788 0.025764
0.788087 0.126259 0.026272
0.824141 0.126734 0.026783
0.860258 0.127213 0.027298
0.872637 0.127264 0.027384
0.874425 0.127126 0.027280
0.876186 0.126991 0.027177
0.877920 0.126858 0.027076
0.009479 0.156294 0.018216
0.009486 0.156028 0.018022
0.009495 0.155766 0.017831
0.009504 0.155507 0.017642
0.019773 0.155438 0.017642
0.053255 0.155793 0.018065
0.086936 0.156156 0.018494
0.120813 0.156526 0.018929
0.154884 0.156902 0.019370
0.189145 0.157286 0.019816
0.223593 0.157676 0.020268
0.258226 0.158073 0.020726
0.293039 0.158476 0.021189
0.328032 0.158886 0.021658
0.363199 0.159302 0.022132
0.398539 0.159725 0.022611
0.434049 0.160155 0.023096
0.469726 0.160590 0.023585
0.505567 0.161032 0.024080
0.541568 0.161480 0.024580
0.577729 0.161934 0.025085
0.614045 0.162394 0.025595
0.650513 0.162860 0.026110
0.687132 0.163332 0.026630
0.723899 0.163810 0.027154
0.760165 0.164282 0.027672
0.796221 0.164753 0.028188
0.832334 0.165229 0.028707
0.868498 0.165708 0.029229
0.880825 0.165758 0.029320
0.882520 0.165618 0.029220
0.884189 0.165480 0.029122
0.885831 0.165345 0.029026
0.011808 0.194689 0.019874
0.011818 0.194420 0.019687
0.011830 0.194154 0.019503
0.011843 0.193892 0.019321
0.022217 0.193821 0.019329
0.056031 0.194180 0.019765
0.090037 0.194546 0.020207
0.124233 0.194919 0.020654
0.158615 0.195298 0.021107
0.193181 0.195685 0.021566
0.227928 0.196078 0.022030
0.262852 0.196478 0.022500
0.297951 0.196885 0.022975
0.333222 0.197298 0.023455
0.368662 0.197718 0.023941
0.404269 0.198144 0.024431
0.440038 0.198577 0.024927
0.475969 0.199016 0.025428
0.512057 0.199462 0.025934
0.548300 0.199913 0.026445
0.584696 0.200371 0.026961
0.621241 0.200835 0.027481
0.657933 0.201304 0.028007
0.694770 0.201780 0.028537
0.731748 0.202262 0.029072
0.767979 0.202733 0.029595
0.804086 0.203206 0.030118
0.840239 0.203682 0.030644
0.876431 0.204163 0.031173
0.888701 0.204212 0.031270
0.890305 0.204071 0.031175
0.891883 0.203933 0.031081
0.893435 0.203797 0.030990
0.014144 0.233022 0.021552
0.014158 0.232750 0.021372
0.014173 0.232482 0.021194
0.014189 0.232218 0.021019
0.024666 0.232148 0.021036
0.058800 0.232511 0.021485
0.093120 0.232880 0.021939
0.127623 0.233257 0.022399
0.162306 0.233641 0.022864
0.197166 0.234032 0.023335
0.232201 0.234429 0.023811
0.267406 0.234834 0.024292
0.302780 0.235245 0.024779
0.338320 0.235663 0.025270
0.374022 0.236087 0.025767
0.409885 0.236518 0.026269
0.445904 0.236955 0.026776
0.482078 0.237398 0.027288
0.518404 0.237848 0.027805
0.554879 0.238304 0.028327
0.591501 0.238767 0.028853
0.628266 0.239235 0.029384
0.665172 0.239710 0.029920
0.702217 0.240190 0.030460
0.739398 0.240677 0.031005
0.775547 0.241148 0.031533
0.811687 0.241622 0.032063
0.847860 0.242100 0.032596
0.884062 0.242583 0.033131
0.896270 0.242633 0.033233
0.897785 0.242492 0.033143
0.899274 0.242354 0.033054
0.900736 0.242220 0.032967
0.016489 0.271300 0.023250
0.016506 0.271027 0.023077
0.016524 0.270758 0.022906
0.016543 0.270493 0.022738
0.027119 0.270424 0.022763
0.061563 0.270792 0.023224
0.096186 0.271166 0.023691
0.130986 0.271548 0.024163
0.165959 0.271937 0.024640
0.201102 0.272333 0.025122
0.236413 0.272736 0.025610
0.271890 0.273146 0.026103
0.307528 0.273562 0.026601
0.343326 0.273985 0.027104
0.379281 0.274415 0.027612
0.415389 0.274851 0.028125
0.451649 0.275294 0.028643
0.488058 0.275743 0.029166
0.524612 0.276198 0.029693
0.561309 0.276660 0.030225
0.598147 0.277128 0.030762
0.635123 0.277602 0.031303
0.672235 0.278082 0.031849
0.709479 0.278568 0.032400
0.746747 0.279058 0.032952
0.782874 0.279531 0.033487
0.819028 0.280008 0.034023
0.855203 0.280489 0.034562
0.891396 0.280974 0.035104
0.903537 0.281026 0.035210
0.904964 0.280887 0.035125
0.906365 0.280751 0.035041
0.907741 0.280617 0.034958
0.018842 0.309528 0.024968
0.018862 0.309256 0.024802
0.018884 0.308987 0.024638
0.018907 0.308722 0.024477
0.029578 0.308655 0.024511
0.064320 0.309029 0.024984
0.099236 0.309410 0.025462
0.134321 0.309798 0.025946
0.169573 0.310194 0.026435
0.204990 0.310596 0.026929
0.240568 0.311005 0.027428
0.276305 0.311421 0.027933
0.312198 0.311843 0.028442
0.348244 0.312273 0.028956
0.384441 0.312709 0.029475
0.420786 0.313151 0.029999
0.457277 0.313600 0.030527
0.493910 0.314056 0.031061
0.530683 0.314518 0.031598
0.567593 0.314986 0.032141
0.604639 0.315460 0.032688
0.641817 0.315941 0.033239
0.679125 0.316428 0.033795
0.716560 0.316920 0.034355
0.753830 0.317414 0.034914
0.789964 0.317890 0.035455
0.826113 0.318371 0.035998
0.862273 0.318855 0.036543
0.898438 0.319343 0.037090
0.910509 0.319398 0.037202
0.911849 0.319261 0.037121
0.913164 0.319127 0.037041
0.914455 0.318996 0.036963
0.021204 0.347714 0.026707
0.021228 0.347443 0.026548
0.021253 0.347176 0.026391
0.021279 0.346913 0.026236
0.032042 0.346849 0.026279
0.067073 0.347230 0.026764
0.102269 0.347618 0.027254
0.137630 0.348013 0.027749
0.173151 0.348416 0.028250
0.208831 0.348825 0.028755
0.244665 0.349241 0.029266
0.280653 0.349664 0.029781
0.316791 0.350094 0.030301
0.353076 0.350531 0.030826
0.389506 0.350974 0.031356
0.426078 0.351424 0.031890
0.462789 0.351880 0.032429
0.499638 0.352343 0.032973
0.536621 0.352812 0.033521
0.573735 0.353288 0.034074
0.610980 0.353770 0.034631
0.648351 0.354258 0.035192
0.685846 0.354752 0.035757
0.723464 0.355252 0.036327
0.760700 0.355749 0.036892
0.796822 0.356230 0.037438
0.832948 0.356715 0.037987
0.869074 0.357203 0.038538
0.905194 0.357695 0.039090
0.917190 0.357753 0.039207
0.918446 0.357619 0.039130
0.919677 0.357489 0.039055
0.920883 0.357362 0.038981
0.023575 0.385864 0.028467
0.023602 0.385595 0.028314
0.023631 0.385331 0.028164
0.023661 0.385070 0.028016
0.034513 0.385011 0.028067
0.069821 0.385400 0.028564
0.105289 0.385796 0.029065
0.140914 0.386199 0.029572
0.176694 0.386610 0.030084
0.212626 0.387027 0.030601
0.248708 0.387451 0.031122
0.284937 0.387883 0.031648
0.321309 0.388321 0.032179
0.357824 0.388765 0.032715
0.394477 0.389217 0.033255
0.431267 0.389675 0.033800
0.468190 0.390140 0.034349
0.505245 0.390611 0.034903
0.542429 0.391088 0.035461
0.579739 0.391572 0.036024
0.617174 0.392062 0.036590
0.654729 0.392558 0.037161
0.692404 0.393061 0.037736
0.730196 0.393569 0.038315
0.767361 0.394071 0.038885
0.803453 0.394556 0.039437
0.839539 0.395045 0.039991
0.875613 0.395539 0.040547
0.911670 0.396035 0.041104
0.923587 0.396097 0.041226
0.924760 0.395968 0.041154
0.925909 0.395843 0.041083
0.927034 0.395721 0.041014
0.025956 0.423983 0.030247
0.025987 0.423718 0.030101
0.026019 0.423457 0.029958
0.026052 0.423201 0.029816
0.036991 0.423147 0.029875
0.072565 0.423545 0.030384
0.108294 0.423950 0.030897
0.144174 0.424362 0.031415
0.180203 0.424782 0.031938
0.216378 0.425208 0.032465
0.252697 0.425641 0.032998
0.289157 0.426082 0.033534
0.325755 0.426529 0.034076
0.362490 0.426982 0.034622
0.399357 0.427443 0.035173
0.436356 0.427910 0.035728
0.473482 0.428384 0.036287
0.510735 0.428864 0.036851
0.548111 0.429350 0.037419
0.585608 0.429843 0.037991
0.623224 0.430343 0.038567
0.660956 0.430848 0.039147
0.698803 0.431360 0.039732
0.736761 0.431877 0.040320
0.773818 0.432383 0.040894
0.809862 0.432874 0.041451
0.845890 0.433369 0.042010
0.881895 0.433867 0.042571
0.917873 0.434369 0.043133
0.929707 0.434436 0.043258
0.930799 0.434313 0.043191
0.931867 0.434193 0.043125
0.932912 0.434076 0.043060
0.028346 0.462079 0.032047
0.028381 0.461818 0.031908
0.028417 0.461562 0.031772
0.028454 0.461311 0.031637
0.039475 0.461264 0.031704
0.075306 0.461671 0.032224
0.111286 0.462086 0.032748
0.147411 0.462508 0.033277
0.183680 0.462937 0.033811
0.220088 0.463374 0.034349
0.256635 0.463817 0.034892
0.293317 0.464267 0.035439
0.330131 0.464724 0.035991
0.367076 0.465187 0.036548
0.404149 0.465658 0.037108
0.441347 0.466135 0.037673
0.478669 0.466618 0.038242
0.516110 0.467108 0.038816
0.553670 0.467605 0.039393
0.591346 0.468108 0.039975
0.629136 0.468617 0.040560
0.667036 0.469132 0.041150
0.705046 0.469654 0.041743
0.743162 0.470182 0.042341
0.780076 0.470692 0.042918
0.816056 0.471189 0.043480
0.852008 0.471690 0.044044
0.887927 0.472194 0.044609
0.923808 0.472701 0.045175
0.935555 0.472775 0.045305
0.936569 0.472658 0.045242
0.937559 0.472544 0.045180
0.938527 0.472434 0.045120
0.030747 0.500156 0.033868
0.030786 0.499901 0.033736
0.030825 0.499651 0.033606
0.030866 0.499406 0.033479
0.041967 0.499366 0.033554
0.078045 0.499784 0.034084
0.114266 0.500210 0.034619
0.150627 0.500642 0.035159
0.187125 0.501082 0.035703
0.223757 0.501529 0.036252
0.260522 0.501983 0.036806
0.297417 0.502444 0.037363
0.334439 0.502911 0.037925
0.371586 0.503386 0.038492
0.408855 0.503867 0.039062
0.446245 0.504354 0.039637
0.483752 0.504849 0.040216
0.521375 0.505349 0.040798
0.559110 0.505857 0.041385
0.596957 0.506370 0.041976
0.634912 0.506890 0.042571
0.672973 0.507416 0.043169
0.711138 0.507948 0.043772
0.749405 0.508487 0.044378
0.786141 0.509002 0.044958
0.822039 0.509506 0.045525
0.857899 0.510013 0.046093
0.893715 0.510524 0.046662
0.929484 0.511038 0.047232
0.941141 0.511118 0.047366
0.942077 0.511008 0.047307
0.942992 0.510901 0.047250
0.943884 0.510799 0.047194
0.033159 0.538221 0.035710
0.033201 0.537973 0.035585
0.033244 0.537729 0.035461
0.033289 0.537491 0.035340
0.044467 0.537460 0.035423
0.080782 0.537889 0.035965
0.117235 0.538326 0.036510
0.153821 0.538771 0.037061
0.190540 0.539222 0.037615
0.227387 0.539680 0.038175
0.264361 0.540145 0.038738
0.301460 0.540618 0.039306
0.338681 0.541097 0.039878
0.376021 0.541583 0.040454
0.413478 0.542075 0.041034
0.451051 0.542574 0.041618
0.488736 0.543080 0.042206
0.526531 0.543592 0.042799
0.564434 0.544111 0.043395
0.602443 0.544636 0.043994
0.640556 0.545167 0.044598
0.678770 0.545705 0.045205
0.717084 0.546249 0.045816
0.755495 0.546798 0.046431
0.792018 0.547318 0.047013
0.827818 0.547829 0.047584
0.863569 0.548344 0.048156
0.899267 0.548861 0.048729
0.934907 0.549382 0.049302
0.946470 0.549470 0.049440
0.947332 0.549368 0.049386
0.948173 0.549270 0.049333
0.948992 0.549175 0.049281
0.035581 0.576278 0.037573
0.035627 0.576038 0.037454
0.035674 0.575803 0.037337
0.035723 0.575572 0.037222
0.046974 0.575550 0.037313
0.083518 0.575992 0.037865
0.120193 0.576442 0.038421
0.156996 0.576898 0.038982
0.193926 0.577361 0.039547
0.230979 0.577832 0.040116
0.268154 0.578310 0.040690
0.305448 0.578794 0.041267
0.342859 0.579285 0.041849
0.380384 0.579783 0.042434
0.418021 0.580288 0.043024
0.455768 0.580799 0.043618
0.493623 0.581317 0.044215
0.531583 0.581842 0.044816
0.569646 0.582373 0.045421
0.607810 0.582910 0.046030
0.646073 0.583453 0.046642
0.684433 0.584003 0.047258
0.722888 0.584559 0.047877
0.761435 0.585121 0.048500
0.797714 0.585646 0.049084
0.833400 0.586165 0.049659
0.869026 0.586687 0.050234
0.904589 0.587212 0.050810
0.940084 0.587740 0.051386
0.951551 0.587836 0.051528
0.952341 0.587743 0.051478
0.953110 0.587654 0.051430
0.953859 0.587568 0.051382
0.038015 0.614334 0.039456
0.038065 0.614103 0.039343
0.038116 0.613876 0.039233
0.038168 0.613655 0.039125
0.049491 0.613643 0.039223
0.086253 0.614098 0.039786
0.123141 0.614560 0.040352
0.160152 0.615030 0.040923
0.197284 0.615506 0.041498
0.234535 0.615990 0.042077
0.271902 0.616480 0.042660
0.309382 0.616978 0.043247
0.346975 0.617482 0.043838
0.384676 0.617993 0.044433
0.422485 0.618510 0.045032
0.460399 0.619035 0.045635
0.498416 0.619566 0.046241
0.536533 0.620103 0.046851
0.574749 0.620647 0.047465
0.613061 0.621197 0.048082
0.651467 0.621753 0.048703
0.689966 0.622315 0.049327
0.728554 0.622884 0.049955
0.767231 0.623459 0.050586
0.803236 0.623990 0.051170
0.838791 0.624516 0.051748
0.874277 0.625046 0.052327
0.909690 0.625580 0.052905
0.945025 0.626116 0.053485
0.956391 0.626221 0.053630
0.957112 0.626137 0.053585
0.957812 0.626057 0.053540
0.958493 0.625981 0.053497
0.040460 0.652394 0.041359
0.040514 0.652172 0.041253
0.040569 0.651955 0.041149
0.040625 0.651744 0.041048
0.052016 0.651743 0.041154
0.088988 0.652212 0.041726
0.126080 0.652688 0.042303
0.163290 0.653171 0.042883
0.200616 0.653661 0.043468
0.238055 0.654158 0.044056
0.275606 0.654662 0.044649
0.313265 0.655174 0.045246
0.351031 0.655691 0.045846
0.388901 0.656216 0.046450
0.426874 0.656747 0.047058
0.464947 0.657285 0.047669
0.503118 0.657829 0.048284
0.541385 0.658380 0.048903
0.579746 0.658937 0.049525
0.618199 0.659501 0.050151
0.656741 0.660071 0.050780
0.695372 0.660647 0.051412
0.734088 0.661229 0.052048
0.772888 0.661817 0.052687
0.808589 0.662353 0.053272
0.843998 0.662889 0.053852
0.879328 0.663427 0.054434
0.914576 0.663969 0.055015
0.949736 0.664513 0.055596
0.961000 0.664628 0.055746
0.961654 0.664554 0.055704
0.962288 0.664484 0.055664
0.962903 0.664419 0.055625
0.042917 0.690462 0.043282
0.042975 0.690251 0.043183
0.043034 0.690045 0.043086
0.043094 0.689844 0.042991
0.054551 0.689855 0.043104
0.091724 0.690339 0.043686
0.129011 0.690829 0.044272
0.166412 0.691326 0.044863
0.203923 0.691831 0.045457
0.241543 0.692342 0.046055
0.279268 0.692861 0.046657
0.317098 0.693386 0.047262
0.355030 0.693918 0.047872
0.393061 0.694457 0.048485
0.431191 0.695003 0.049101
0.469415 0.695555 0.049721
0.507733 0.696113 0.050345
0.546143 0.696678 0.050972
0.584642 0.697249 0.051602
0.623228 0.697827 0.052236
0.661900 0.698411 0.052873
0.700656 0.699001 0.053514
0.739493 0.699597 0.054157
0.778411 0.700199 0.054804
0.813781 0.700741 0.055388
0.849028 0.701286 0.055972
0.884188 0.701833 0.056555
0.919256 0.702383 0.057139
0.954227 0.702936 0.057722
0.965386 0.703061 0.057875
0.965975 0.702998 0.057837
0.966545 0.702939 0.057801
0.967097 0.702884 0.057766
0.045387 0.728545 0.045226
0.045448 0.728345 0.045133
0.045511 0.728150 0.045042
0.045576 0.727961 0.044953
0.057095 0.727985 0.045074
0.094460 0.728483 0.045666
0.131935 0.728988 0.046262
0.169518 0.729501 0.046862
0.207206 0.730020 0.047465
0.244998 0.730547 0.048072
0.282891 0.731080 0.048683
0.320884 0.731620 0.049297
0.358974 0.732167 0.049916
0.397159 0.732721 0.050537
0.435437 0.733281 0.051162
0.473806 0.733848 0.051791
0.512264 0.734421 0.052423
0.550809 0.735001 0.053058
0.589440 0.735587 0.053696
0.628153 0.736179 0.054338
0.666949 0.736778 0.054983
0.705823 0.737382 0.055631
0.744775 0.737993 0.056282
0.783653 0.738606 0.056934
0.818818 0.739157 0.057520
0.853890 0.739711 0.058105
0.888864 0.740268 0.058691
0.923738 0.740827 0.059276
0.958505 0.741389 0.059861
0.969557 0.741524 0.060017
0.970084 0.741473 0.059983
0.970593 0.741426 0.059951
0.971085 0.741382 0.059920
0.047868 0.766645 0.047190
0.047934 0.766457 0.047104
0.048001 0.766275 0.047019
0.048070 0.766098 0.046936
0.059650 0.766135 0.047064
0.097198 0.766649 0.047665
0.134852 0.767170 0.048271
0.172609 0.767699 0.048879
0.210466 0.768234 0.049492
0.248423 0.768776 0.050108
0.286476 0.769325 0.050727
0.324624 0.769880 0.051351
0.362865 0.770443 0.051977
0.401196 0.771012 0.052607
0.439616 0.771587 0.053241
0.478122 0.772170 0.053877
0.516714 0.772758 0.054517
0.555388 0.773353 0.055161
0.594143 0.773954 0.055807
0.632978 0.774561 0.056456
0.671890 0.775175 0.057109
0.710878 0.775794 0.057764
0.749939 0.776420 0.058423
0.788724 0.777045 0.059078
0.823708 0.777606 0.059666
0.858590 0.778169 0.060253
0.893365 0.778735 0.060840
0.928030 0.779304 0.061427
0.962581 0.779875 0.062013
0.973523 0.780021 0.062172
0.973991 0.779982 0.062142
0.974442 0.779947 0.062114
0.974877 0.779916 0.062087
0.050363 0.804769 0.049174
0.050433 0.804594 0.049094
0.050504 0.804425 0.049015
0.050576 0.804261 0.048939
0.062214 0.804312 0.049074
0.099938 0.804842 0.049684
0.137763 0.805380 0.050298
0.175686 0.805924 0.050916
0.213705 0.806475 0.051537
0.251819 0.807034 0.052162
0.290024 0.807598 0.052790
0.328320 0.808170 0.053422
0.366705 0.808749 0.054057
0.405175 0.809333 0.054695
0.443730 0.809925 0.055336
0.482368 0.810523 0.055981
0.521086 0.811127 0.056629
0.559883 0.811738 0.057280
0.598757 0.812355 0.057934
0.637706 0.812977 0.058591
0.676729 0.813606 0.059250
0.715824 0.814242 0.059913
0.754989 0.814883 0.060579
0.793669 0.815519 0.061237
0.828458 0.816090 0.061827
0.863136 0.816663 0.062415
0.897699 0.817239 0.063004
0.932143 0.817817 0.063591
0.966464 0.818397 0.064178
0.977294 0.818555 0.064340
0.977706 0.818529 0.064314
0.978102 0.818506 0.064290
0.978481 0.818487 0.064266
0.052835 0.842321 0.051143
0.052910 0.842182 0.051070
0.052987 0.842048 0.050999
0.053065 0.841919 0.050929
0.064760 0.842006 0.051072
0.102653 0.842573 0.051693
0.140642 0.843147 0.052317
0.178724 0.843728 0.052945
0.216899 0.844314 0.053575
0.255163 0.844908 0.054210
0.293515 0.845507 0.054847
0.331953 0.846113 0.055488
0.370475 0.846724 0.056132
0.409079 0.847342 0.056779
0.447763 0.847966 0.057429
0.486526 0.848596 0.058083
0.525366 0.849231 0.058739
0.564280 0.849873 0.059398
0.603268 0.850520 0.060060
0.642327 0.851173 0.060725
0.681457 0.851831 0.061393
0.720654 0.852495 0.062064
0.759918 0.853164 0.062737
0.798484 0.853825 0.063399
0.833065 0.854418 0.063990
0.867527 0.855012 0.064581
0.901864 0.855609 0.065171
0.936075 0.856207 0.065759
0.970154 0.856807 0.066347
0.980870 0.856987 0.066512
0.981230 0.856982 0.066491
0.981574 0.856981 0.066470
0.981903 0.856984 0.066451
0.055279 0.879203 0.053090
0.055362 0.879131 0.053026
0.055446 0.879062 0.052964
0.055531 0.878997 0.052903
0.067281 0.879148 0.053056
0.105337 0.879780 0.053688
0.143485 0.880416 0.054323
0.181721 0.881059 0.054962
0.220045 0.881706 0.055604
0.258454 0.882358 0.056248
0.296947 0.883016 0.056896
0.335521 0.883678 0.057548
0.374176 0.884345 0.058202
0.412908 0.885017 0.058859
0.451717 0.885694 0.059519
0.490600 0.886376 0.060181
0.529557 0.887063 0.060847
0.568584 0.887754 0.061515
0.607681 0.888449 0.062187
