library/cube/Complementary_004.cube
# CINEGRADE LAB — Premium Cinematic LUT
# Title: Complementary
# Category: Teal & Orange Modern
# Description: Complementary colors with modern cinematic teal and orange grading
# Mood: Blockbuster, cinematic, contemporary
# Variant: 5
# Generated: 2026-05-21T16:12:59.544230
TITLE "Complementary"
LUT_3D_SIZE 5
0.001048 0.016504 0.014848
0.135185 0.016841 0.015389
0.396041 0.019659 0.018380
0.670595 0.022902 0.021768
0.831334 0.024250 0.023235
0.011808 0.194689 0.019874
0.158615 0.195298 0.021107
0.440038 0.198577 0.024927
0.731748 0.202262 0.029072
0.893435 0.203797 0.030990
0.030747 0.500156 0.033868
0.187125 0.501082 0.035703
0.483752 0.504849 0.040216
0.786141 0.509002 0.044958
0.943884 0.510799 0.047194
0.050363 0.804769 0.049174
0.213705 0.806475 0.051537
0.521086 0.811127 0.056629
0.828458 0.816090 0.061827
0.978481 0.818487 0.064266
0.062971 0.977324 0.057905
0.231188 0.980376 0.060721
0.545870 0.986087 0.066266
0.854579 0.991690 0.071763
0.993998 0.994220 0.074238
0.002205 0.016970 0.206458
0.137771 0.017386 0.205802
0.400966 0.020300 0.207656
0.677493 0.023630 0.209940
0.838619 0.025035 0.210312
0.013013 0.195140 0.207526
0.160916 0.195839 0.207692
0.444100 0.199219 0.210490
0.737253 0.202996 0.213638
0.898664 0.204590 0.214555
0.032005 0.500626 0.217980
0.189193 0.501662 0.218845
0.487089 0.505542 0.222419
0.790202 0.509795 0.226231
0.947325 0.511663 0.227527
0.051686 0.805437 0.230052
0.215601 0.807262 0.231502
0.523852 0.812032 0.235694
0.831482 0.817095 0.239984
0.980542 0.819562 0.241490
0.064374 0.978439 0.235706
0.232975 0.981492 0.237605
0.548238 0.987208 0.242226
0.856965 0.992805 0.246771
0.995201 0.995308 0.248245
0.004001 0.018087 0.499198
0.140956 0.018579 0.496705
0.406425 0.021583 0.496802
0.684863 0.024995 0.497383
0.846307 0.026451 0.496078
0.014845 0.196235 0.494238
0.163809 0.197020 0.492762
0.448696 0.200495 0.493980
0.743198 0.204358 0.495588
0.904305 0.206006 0.494974
0.033879 0.501737 0.499285
0.191847 0.502877 0.498654
0.490964 0.506866 0.500772
0.794742 0.511214 0.503145
0.951201 0.513148 0.502996
0.053614 0.806740 0.506389
0.218077 0.808678 0.506423
0.527161 0.813560 0.509213
0.835011 0.818716 0.512091
0.983075 0.821247 0.512156
0.066370 0.980138 0.507273
0.235336 0.983189 0.507745
0.551156 0.988906 0.510921
0.859890 0.994495 0.513979
0.996928 0.996966 0.513897
0.005797 0.019218 0.790636
0.144106 0.019784 0.786350
0.411788 0.022876 0.784731
0.692080 0.026369 0.783647
0.853778 0.027875 0.780702
0.016678 0.197349 0.779790
0.166673 0.198219 0.776707
0.453210 0.201787 0.776377
0.748920 0.205733 0.776471
0.909750 0.207435 0.774353
0.035755 0.502876 0.779537
0.194478 0.504119 0.777435
0.494772 0.508215 0.778117
0.799162 0.512654 0.779064
0.954918 0.514651 0.777481
0.055545 0.808075 0.781740
0.220536 0.810125 0.780367
0.530419 0.815115 0.781759
0.838456 0.820362 0.783223
0.985498 0.822954 0.781837
0.068367 0.981832 0.777862
0.237684 0.984881 0.776896
0.554044 0.990599 0.778610
0.862779 0.996178 0.780154
0.998611 0.998618 0.778478
0.006631 0.019398 0.926314
0.146308 0.020087 0.928219
0.416187 0.023311 0.932214
0.698320 0.026924 0.936159
0.860242 0.028517 0.937649
0.017701 0.197670 0.933875
0.168732 0.198659 0.935041
0.456900 0.202352 0.938427
0.753782 0.206408 0.941700
0.914313 0.208187 0.942227
0.036929 0.503337 0.945712
0.196406 0.504706 0.946095
0.497855 0.508927 0.948788
0.802823 0.513475 0.951278
0.957855 0.515549 0.950779
0.056845 0.808808 0.954355
0.222358 0.810981 0.953937
0.533021 0.816089 0.955890
0.841224 0.821434 0.957531
0.987226 0.824090 0.955961
0.069770 0.982925 0.952124
0.239433 0.985978 0.950878
0.556320 0.991702 0.952023
0.865060 0.997276 0.952737
0.999688 0.999688 0.950008
