library/cube/Creator_Glow_001.cube
# CINEGRADE LAB — Premium Cinematic LUT
# Title: Creator Glow
# Category: Clean Creator Economy
# Description: Bright, clean, approachable, modern aesthetic for content creators
# Mood: Fresh, bright, friendly
# Variant: 2
# Generated: 2026-05-21T16:12:37.838414
TITLE "Creator Glow"
LUT_3D_SIZE 9
0.120226 0.122798 0.151162
0.211446 0.125667 0.154031
0.308886 0.128731 0.157095
0.410205 0.131918 0.160282
0.514396 0.135195 0.163559
0.620882 0.138544 0.166908
0.729288 0.141953 0.170317
0.839350 0.145415 0.173779
0.908770 0.147598 0.175962
0.130105 0.223111 0.161041
0.221324 0.225980 0.163910
0.318764 0.229045 0.166974
0.420084 0.232231 0.170161
0.524275 0.235508 0.173438
0.630761 0.238857 0.176787
0.739167 0.242267 0.180196
0.849229 0.245728 0.183658
0.918649 0.247911 0.185841
0.140520 0.328865 0.171455
0.231739 0.331734 0.174324
0.329179 0.334799 0.177389
0.430499 0.337985 0.180576
0.534690 0.341262 0.183852
0.641176 0.344611 0.187201
0.749582 0.348021 0.190611
0.859643 0.351482 0.194072
0.929063 0.353666 0.196256
0.151265 0.437976 0.182201
0.242484 0.440845 0.185070
0.339924 0.443909 0.188134
0.441244 0.447096 0.191321
0.545435 0.450373 0.194598
0.651921 0.453722 0.197947
0.760327 0.457131 0.201356
0.870389 0.460593 0.204818
0.939809 0.462776 0.207001
0.162253 0.549553 0.193189
0.253473 0.552422 0.196058
0.350912 0.555486 0.199122
0.452232 0.558673 0.202309
0.556423 0.561950 0.205586
0.662909 0.565299 0.208935
0.771315 0.568708 0.212344
0.881377 0.572170 0.215806
0.950797 0.574353 0.217989
0.173434 0.663093 0.204370
0.264654 0.665961 0.207239
0.362094 0.669026 0.210304
0.463414 0.672213 0.213490
0.567604 0.675489 0.216767
0.674090 0.678839 0.220116
0.782497 0.682248 0.223526
0.892558 0.685710 0.226987
0.961978 0.687893 0.229171
0.184777 0.778267 0.215713
0.275996 0.781136 0.218582
0.373436 0.784201 0.221646
0.474756 0.787387 0.224833
0.578947 0.790664 0.228110
0.685433 0.794013 0.231459
0.793839 0.797423 0.234868
0.903901 0.800884 0.238330
0.973321 0.803068 0.240513
0.196258 0.894847 0.227193
0.287477 0.897716 0.230062
0.384917 0.900780 0.233127
0.486237 0.903967 0.236314
0.590428 0.907244 0.239590
0.696914 0.910593 0.242939
0.805320 0.914002 0.246349
0.915381 0.917464 0.249810
0.984801 0.919647 0.251994
0.203375 0.967119 0.234311
0.294594 0.969987 0.237180
0.392034 0.973052 0.240244
0.493354 0.976239 0.243431
0.597545 0.979515 0.246708
0.704031 0.982865 0.250057
0.812437 0.986274 0.253466
0.922499 0.989736 0.256928
0.991919 0.991919 0.259111
0.121192 0.123763 0.239703
0.212411 0.126632 0.242572
0.309851 0.129697 0.245637
0.411171 0.132883 0.248823
0.515362 0.136160 0.252100
0.621848 0.139509 0.255449
0.730254 0.142919 0.258859
0.840316 0.146380 0.262320
0.909736 0.148564 0.264503
0.131071 0.224077 0.249582
0.222290 0.226946 0.252451
0.319730 0.230010 0.255515
0.421050 0.233197 0.258702
0.525241 0.236474 0.261979
0.631727 0.239823 0.265328
0.740133 0.243232 0.268737
0.850194 0.246694 0.272199
0.919615 0.248877 0.274382
0.141485 0.329831 0.259997
0.232705 0.332700 0.262866
0.330145 0.335764 0.265930
0.431465 0.338951 0.269117
0.535655 0.342228 0.272394
0.642141 0.345577 0.275743
0.750548 0.348986 0.279152
0.860609 0.352448 0.282614
0.930029 0.354631 0.284797
0.152231 0.438942 0.270742
0.243450 0.441810 0.273611
0.340890 0.444875 0.276675
0.442210 0.448062 0.279862
0.546401 0.451338 0.283139
0.652887 0.454688 0.286488
0.761293 0.458097 0.289897
0.871354 0.461559 0.293359
0.940774 0.463742 0.295542
0.163219 0.550519 0.281730
0.254438 0.553388 0.284599
0.351878 0.556452 0.287664
0.453198 0.559639 0.290850
0.557389 0.562916 0.294127
0.663875 0.566265 0.297476
0.772281 0.569674 0.300886
0.882343 0.573136 0.304347
0.951763 0.575319 0.306530
0.174400 0.664058 0.292911
0.265620 0.666927 0.295780
0.363060 0.669992 0.298845
0.464379 0.673178 0.302032
0.568570 0.676455 0.305308
0.675056 0.679804 0.308657
0.783462 0.683214 0.312067
0.893524 0.686675 0.315528
0.962944 0.688859 0.317712
0.185743 0.779233 0.304254
0.276962 0.782102 0.307123
0.374402 0.785166 0.310187
0.475722 0.788353 0.313374
0.579913 0.791630 0.316651
0.686399 0.794979 0.320000
0.794805 0.798388 0.323409
0.904866 0.801850 0.326871
0.974286 0.804033 0.329054
0.197223 0.895812 0.315735
0.288443 0.898681 0.318604
0.385883 0.901746 0.321668
0.487203 0.904932 0.324855
0.591393 0.908209 0.328132
0.697879 0.911558 0.331481
0.806286 0.914968 0.334890
0.916347 0.918429 0.338352
0.985767 0.920613 0.340535
0.204341 0.968084 0.322852
0.295560 0.970953 0.325721
0.393000 0.974018 0.328785
0.494320 0.977204 0.331972
0.598511 0.980481 0.335249
0.704997 0.983830 0.338598
0.813403 0.987240 0.342007
0.923464 0.990701 0.345469
0.992885 0.992885 0.347652
0.122216 0.124787 0.333587
0.213435 0.127656 0.336456
0.310875 0.130721 0.339520
0.412195 0.133908 0.342707
0.516386 0.137184 0.345984
0.622872 0.140533 0.349333
0.731278 0.143943 0.352742
0.841340 0.147404 0.356204
0.910760 0.149588 0.358387
0.132095 0.225101 0.343466
0.223314 0.227970 0.346335
0.320754 0.231034 0.349399
0.422074 0.234221 0.352586
0.526265 0.237498 0.355863
0.632751 0.240847 0.359212
0.741157 0.244256 0.362621
0.851218 0.247718 0.366083
0.920639 0.249901 0.368266
0.142509 0.330855 0.353880
0.233729 0.333724 0.356749
0.331169 0.336788 0.359814
0.432489 0.339975 0.363000
0.536679 0.343252 0.366277
0.643165 0.346601 0.369626
0.751572 0.350010 0.373036
0.861633 0.353472 0.376497
0.931053 0.355655 0.378681
0.153255 0.439966 0.364626
0.244474 0.442834 0.367495
0.341914 0.445899 0.370559
0.443234 0.449086 0.373746
0.547425 0.452363 0.377023
0.653911 0.455712 0.380372
0.762317 0.459121 0.383781
0.872378 0.462583 0.387243
0.941799 0.464766 0.389426
0.164243 0.551543 0.375614
0.255462 0.554412 0.378483
0.352902 0.557476 0.381547
0.454222 0.560663 0.384734
0.558413 0.563940 0.388011
0.664899 0.567289 0.391360
0.773305 0.570698 0.394769
0.883367 0.574160 0.398231
0.952787 0.576343 0.400414
0.175424 0.665082 0.386795
0.266644 0.667951 0.389664
0.364084 0.671016 0.392729
0.465404 0.674202 0.395915
0.569594 0.677479 0.399192
0.676080 0.680828 0.402541
0.784486 0.684238 0.405951
0.894548 0.687699 0.409412
0.963968 0.689883 0.411595
0.186767 0.780257 0.398138
0.277986 0.783126 0.401007
0.375426 0.786190 0.404071
0.476746 0.789377 0.407258
0.580937 0.792654 0.410535
0.687423 0.796003 0.413884
0.795829 0.799412 0.417293
0.905890 0.802874 0.420755
0.975310 0.805057 0.422938
0.198247 0.896836 0.409618
0.289467 0.899705 0.412487
0.386907 0.902770 0.415552
0.488227 0.905956 0.418738
0.592417 0.909233 0.422015
0.698903 0.912582 0.425364
0.807310 0.915992 0.428774
0.917371 0.919453 0.432235
0.986791 0.921637 0.434419
0.205365 0.969108 0.416736
0.296584 0.971977 0.419605
0.394024 0.975042 0.422669
0.495344 0.978228 0.425856
0.599535 0.981505 0.429133
0.706021 0.984854 0.432482
0.814427 0.988264 0.435891
0.924488 0.991725 0.439353
0.993909 0.993909 0.441536
0.123278 0.125849 0.430956
0.214497 0.128718 0.433825
0.311937 0.131783 0.436889
0.413257 0.134970 0.440076
0.517448 0.138246 0.443353
0.623934 0.141596 0.446702
0.732340 0.145005 0.450111
0.842402 0.148466 0.453573
0.911822 0.150650 0.455756
0.133157 0.226163 0.440835
0.224376 0.229032 0.443703
0.321816 0.232096 0.446768
0.423136 0.235283 0.449955
0.527327 0.238560 0.453231
0.633813 0.241909 0.456581
0.742219 0.245318 0.459990
0.852280 0.248780 0.463452
0.921701 0.250963 0.465635
0.143571 0.331917 0.451249
0.234791 0.334786 0.454118
0.332231 0.337851 0.457183
0.433551 0.341037 0.460369
0.537741 0.344314 0.463646
0.644227 0.347663 0.466995
0.752634 0.351073 0.470405
0.862695 0.354534 0.473866
0.932115 0.356717 0.476050
0.154317 0.441028 0.461994
0.245536 0.443897 0.464863
0.342976 0.446961 0.467928
0.444296 0.450148 0.471115
0.548487 0.453425 0.474391
0.654973 0.456774 0.477740
0.763379 0.460183 0.481150
0.873440 0.463645 0.484611
0.942861 0.465828 0.486795
0.165305 0.552605 0.472983
0.256524 0.555474 0.475852
0.353964 0.558538 0.478916
0.455284 0.561725 0.482103
0.559475 0.565002 0.485380
0.665961 0.568351 0.488729
0.774367 0.571760 0.492138
0.884429 0.575222 0.495600
0.953849 0.577405 0.497783
0.176486 0.666144 0.484164
0.267706 0.669013 0.487033
0.365146 0.672078 0.490097
0.466466 0.675264 0.493284
0.570656 0.678541 0.496561
0.677142 0.681890 0.499910
0.785549 0.685300 0.503319
0.895610 0.688761 0.506781
0.965030 0.690945 0.508964
0.187829 0.781319 0.495506
0.279048 0.784188 0.498375
0.376488 0.787253 0.501440
0.477808 0.790439 0.504626
0.581999 0.793716 0.507903
0.688485 0.797065 0.511252
0.796891 0.800475 0.514662
0.906952 0.803936 0.518123
0.976373 0.806119 0.520307
0.199309 0.897898 0.506987
0.290529 0.900767 0.509856
0.387969 0.903832 0.512921
0.489289 0.907019 0.516107
0.593479 0.910295 0.519384
0.699965 0.913644 0.522733
0.808372 0.917054 0.526143
0.918433 0.920515 0.529604
0.987853 0.922699 0.531788
0.206427 0.970170 0.514105
0.297646 0.973039 0.516973
0.395086 0.976104 0.520038
0.496406 0.979290 0.523225
0.600597 0.982567 0.526501
0.707083 0.985916 0.529851
0.815489 0.989326 0.533260
0.925551 0.992787 0.536722
0.994971 0.994971 0.538905
0.124369 0.126940 0.530949
0.215588 0.129809 0.533818
0.313028 0.132874 0.536883
0.414348 0.136060 0.540069
0.518538 0.139337 0.543346
0.625025 0.142686 0.546695
0.733431 0.146096 0.550105
0.843492 0.149557 0.553566
0.912912 0.151740 0.555749
0.134247 0.227254 0.540828
0.225467 0.230122 0.543697
0.322907 0.233187 0.546762
0.424227 0.236374 0.549948
0.528417 0.239651 0.553225
0.634903 0.243000 0.556574
0.743310 0.246409 0.559984
0.853371 0.249871 0.563445
0.922791 0.252054 0.565628
0.144662 0.333008 0.551243
0.235882 0.335877 0.554112
0.333322 0.338941 0.557176
0.434641 0.342128 0.560363
0.538832 0.345405 0.563640
0.645318 0.348754 0.566989
0.753724 0.352163 0.570398
0.863786 0.355625 0.573860
0.933206 0.357808 0.576043
0.155407 0.442118 0.561988
0.246627 0.444987 0.564857
0.344067 0.448052 0.567921
0.445387 0.451238 0.571108
0.549577 0.454515 0.574385
0.656063 0.457864 0.577734
0.764470 0.461274 0.581143
0.874531 0.464735 0.584605
0.943951 0.466919 0.586788
0.166396 0.553695 0.572976
0.257615 0.556564 0.575845
0.355055 0.559629 0.578910
0.456375 0.562816 0.582096
0.560565 0.566092 0.585373
0.667051 0.569441 0.588722
0.775458 0.572851 0.592132
0.885519 0.576312 0.595593
0.954939 0.578496 0.597776
0.177577 0.667235 0.584158
0.268796 0.670104 0.587026
0.366236 0.673169 0.590091
0.467556 0.676355 0.593278
0.571747 0.679632 0.596554
0.678233 0.682981 0.599904
0.786639 0.686391 0.603313
0.896701 0.689852 0.606775
0.966121 0.692035 0.608958
0.188919 0.782410 0.595500
0.280139 0.785279 0.598369
0.377579 0.788343 0.601433
0.478899 0.791530 0.604620
0.583089 0.794807 0.607897
0.689575 0.798156 0.611246
0.797982 0.801565 0.614655
0.908043 0.805027 0.618117
0.977463 0.807210 0.620300
0.200400 0.898989 0.606981
0.291620 0.901858 0.609850
0.389060 0.904923 0.612914
0.490379 0.908109 0.616101
0.594570 0.911386 0.619378
0.701056 0.914735 0.622727
0.809462 0.918145 0.626136
0.919524 0.921606 0.629598
0.988944 0.923789 0.631781
0.207517 0.971261 0.614098
0.298737 0.974130 0.616967
0.396177 0.977194 0.620032
0.497497 0.980381 0.623218
0.601687 0.983658 0.626495
0.708173 0.987007 0.629844
0.816580 0.990416 0.633254
0.926641 0.993878 0.636715
0.996061 0.996061 0.638898
0.125482 0.128054 0.633062
0.216702 0.130923 0.635931
0.314142 0.133987 0.638995
0.415462 0.137174 0.642182
0.519652 0.140451 0.645459
0.626138 0.143800 0.648808
0.734545 0.147209 0.652217
0.844606 0.150671 0.655679
0.914026 0.152854 0.657862
0.135361 0.228367 0.642941
0.226581 0.231236 0.645810
0.324021 0.234301 0.648874
0.425341 0.237487 0.652061
0.529531 0.240764 0.655338
0.636017 0.244113 0.658687
0.744423 0.247523 0.662096
0.854485 0.250984 0.665558
0.923905 0.253168 0.667741
0.145776 0.334121 0.653355
0.236995 0.336990 0.656224
0.334435 0.340055 0.659289
0.435755 0.343242 0.662475
0.539946 0.346518 0.665752
0.646432 0.349868 0.669101
0.754838 0.353277 0.672511
0.864900 0.356738 0.675972
0.934320 0.358922 0.678156
0.156521 0.443232 0.664101
0.247741 0.446101 0.666970
0.345181 0.449166 0.670034
0.446500 0.452352 0.673221
0.550691 0.455629 0.676498
0.657177 0.458978 0.679847
0.765583 0.462388 0.683256
0.875645 0.465849 0.686718
0.945065 0.468032 0.688901
0.167509 0.554809 0.675089
0.258729 0.557678 0.677958
0.356169 0.560743 0.681022
0.457489 0.563929 0.684209
0.561679 0.567206 0.687486
0.668165 0.570555 0.690835
0.776572 0.573965 0.694244
0.886633 0.577426 0.697706
0.956053 0.579610 0.699889
0.178691 0.668349 0.686270
0.269910 0.671218 0.689139
0.367350 0.674282 0.692204
0.468670 0.677469 0.695390
0.572861 0.680746 0.698667
0.679347 0.684095 0.702016
0.787753 0.687504 0.705426
0.897814 0.690966 0.708887
0.967235 0.693149 0.711070
0.190033 0.783523 0.697613
0.281253 0.786392 0.700482
0.378693 0.789457 0.703546
0.480012 0.792644 0.706733
0.584203 0.795920 0.710010
0.690689 0.799270 0.713359
0.799095 0.802679 0.716768
0.909157 0.806140 0.720230
0.978577 0.808324 0.722413
0.201514 0.900103 0.709093
0.292733 0.902972 0.711962
0.390173 0.906036 0.715027
0.491493 0.909223 0.718213
0.595684 0.912500 0.721490
0.702170 0.915849 0.724839
0.810576 0.919258 0.728249
0.920638 0.922720 0.731710
0.990058 0.924903 0.733894
0.208631 0.972375 0.716211
0.299851 0.975244 0.719080
0.397291 0.978308 0.722144
0.498611 0.981495 0.725331
0.602801 0.984772 0.728608
0.709287 0.988121 0.731957
0.817694 0.991530 0.735366
0.927755 0.994992 0.738828
0.997175 0.997175 0.741011
0.126616 0.129187 0.736958
0.217835 0.132056 0.739827
0.315275 0.135121 0.742892
0.416595 0.138307 0.746078
0.520786 0.141584 0.749355
0.627272 0.144933 0.752704
0.735678 0.148343 0.756114
0.845739 0.151804 0.759575
0.915159 0.153987 0.761759
0.136494 0.229501 0.746837
0.227714 0.232370 0.749706
0.325154 0.235434 0.752771
0.426474 0.238621 0.755957
0.530664 0.241898 0.759234
0.637150 0.245247 0.762583
0.745557 0.248656 0.765993
0.855618 0.252118 0.769454
0.925038 0.254301 0.771637
0.146909 0.335255 0.757252
0.238129 0.338124 0.760121
0.335569 0.341188 0.763185
0.436888 0.344375 0.766372
0.541079 0.347652 0.769649
0.647565 0.351001 0.772998
0.755971 0.354410 0.776407
0.866033 0.357872 0.779869
0.935453 0.360055 0.782052
0.157654 0.444365 0.767997
0.248874 0.447234 0.770866
0.346314 0.450299 0.773931
0.447634 0.453485 0.777117
0.551824 0.456762 0.780394
0.658310 0.460111 0.783743
0.766717 0.463521 0.787152
0.876778 0.466982 0.790614
0.946198 0.469166 0.792797
0.168643 0.555942 0.778985
0.259862 0.558811 0.781854
0.357302 0.561876 0.784919
0.458622 0.565063 0.788105
0.562812 0.568339 0.791382
0.669299 0.571689 0.794731
0.777705 0.575098 0.798141
0.887766 0.578559 0.801602
0.957186 0.580743 0.803785
0.179824 0.669482 0.790167
0.271043 0.672351 0.793035
0.368483 0.675416 0.796100
0.469803 0.678602 0.799287
0.573994 0.681879 0.802564
0.680480 0.685228 0.805913
0.788886 0.688638 0.809322
0.898948 0.692099 0.812784
0.968368 0.694282 0.814967
0.191166 0.784657 0.801509
0.282386 0.787526 0.804378
0.379826 0.790590 0.807442
0.481146 0.793777 0.810629
0.585336 0.797054 0.813906
0.691822 0.800403 0.817255
0.800229 0.803812 0.820664
0.910290 0.807274 0.824126
0.979710 0.809457 0.826309
0.202647 0.901236 0.812990
0.293867 0.904105 0.815859
0.391307 0.907170 0.818923
0.492626 0.910356 0.822110
0.596817 0.913633 0.825387
0.703303 0.916982 0.828736
0.811709 0.920392 0.832145
0.921771 0.923853 0.835607
0.991191 0.926036 0.837790
0.209765 0.973508 0.820107
0.300984 0.976377 0.822976
0.398424 0.979442 0.826041
0.499744 0.982628 0.829227
0.603934 0.985905 0.832504
0.710420 0.989254 0.835853
0.818827 0.992664 0.839263
0.928888 0.996125 0.842724
0.998308 0.998308 0.844907
0.127766 0.130337 0.842399
0.218985 0.133206 0.845268
0.316425 0.136271 0.848332
0.417745 0.139457 0.851519
0.521936 0.142734 0.854796
0.628422 0.146083 0.858145
0.736828 0.149493 0.861554
0.846889 0.152954 0.865016
0.916309 0.155138 0.867199
0.137645 0.230651 0.852278
0.228864 0.233520 0.855147
0.326304 0.236584 0.858211
0.427624 0.239771 0.861398
0.531814 0.243048 0.864675
0.638301 0.246397 0.868024
0.746707 0.249806 0.871433
0.856768 0.253268 0.874895
0.926188 0.255451 0.877078
0.148059 0.336405 0.862692
0.239279 0.339274 0.865561
0.336719 0.342338 0.868626
0.438039 0.345525 0.871812
0.542229 0.348802 0.875089
0.648715 0.352151 0.878438
0.757122 0.355560 0.881848
0.867183 0.359022 0.885309
0.936603 0.361205 0.887493
0.158804 0.445515 0.873438
0.250024 0.448384 0.876306
0.347464 0.451449 0.879371
0.448784 0.454635 0.882558
0.552974 0.457912 0.885835
0.659460 0.461261 0.889184
0.767867 0.464671 0.892593
0.877928 0.468132 0.896055
0.947348 0.470316 0.898238
0.169793 0.557093 0.884426
0.261012 0.559961 0.887295
0.358452 0.563026 0.890359
0.459772 0.566213 0.893546
0.563963 0.569490 0.896823
0.670449 0.572839 0.900172
0.778855 0.576248 0.903581
0.888916 0.579710 0.907043
0.958336 0.581893 0.909226
0.180974 0.670632 0.895607
0.272194 0.673501 0.898476
0.369633 0.676566 0.901541
0.470953 0.679752 0.904727
0.575144 0.683029 0.908004
0.681630 0.686378 0.911353
0.790036 0.689788 0.914763
0.900098 0.693249 0.918224
0.969518 0.695432 0.920407
0.192316 0.785807 0.906950
0.283536 0.788676 0.909818
0.380976 0.791740 0.912883
0.482296 0.794927 0.916070
0.586486 0.798204 0.919346
0.692972 0.801553 0.922696
0.801379 0.804962 0.926105
0.911440 0.808424 0.929567
0.980860 0.810607 0.931750
0.203797 0.902386 0.918430
0.295017 0.905255 0.921299
0.392457 0.908320 0.924364
0.493777 0.911506 0.927550
0.597967 0.914783 0.930827
0.704453 0.918132 0.934176
0.812859 0.921542 0.937586
0.922921 0.925003 0.941047
0.992341 0.927187 0.943231
0.210915 0.974658 0.925548
0.302134 0.977527 0.928417
0.399574 0.980592 0.931481
0.500894 0.983778 0.934668
0.605085 0.987055 0.937945
0.711571 0.990404 0.941294
0.819977 0.993814 0.944703
0.930038 0.997275 0.948165
0.999458 0.999458 0.950348
0.128307 0.130879 0.892051
0.219527 0.133748 0.894920
0.316967 0.136812 0.897984
0.418287 0.139999 0.901171
0.522477 0.143276 0.904448
0.628963 0.146625 0.907797
0.737369 0.150034 0.911206
0.847431 0.153496 0.914668
0.916851 0.155679 0.916851
0.138186 0.231192 0.901930
0.229406 0.234061 0.904799
0.326846 0.237126 0.907863
0.428165 0.240312 0.911050
0.532356 0.243589 0.914327
0.638842 0.246938 0.917676
0.747248 0.250348 0.921085
0.857310 0.253809 0.924547
0.926730 0.255993 0.926730
0.148601 0.336946 0.912344
0.239820 0.339815 0.915213
0.337260 0.342880 0.918278
0.438580 0.346066 0.921464
0.542771 0.349343 0.924741
0.649257 0.352692 0.928090
0.757663 0.356102 0.931500
0.867725 0.359563 0.934961
0.937145 0.361747 0.937145
0.159346 0.446057 0.923090
0.250566 0.448926 0.925958
0.348005 0.451990 0.929023
0.449325 0.455177 0.932210
0.553516 0.458454 0.935487
0.660002 0.461803 0.938836
0.768408 0.465212 0.942245
0.878470 0.468674 0.945707
0.947890 0.470857 0.947890
0.170334 0.557634 0.934078
0.261554 0.560503 0.936947
0.358994 0.563568 0.940011
0.460313 0.566754 0.943198
0.564504 0.570031 0.946475
0.670990 0.573380 0.949824
0.779396 0.576790 0.953233
0.889458 0.580251 0.956695
0.958878 0.582434 0.958878
0.181516 0.671174 0.945259
0.272735 0.674043 0.948128
0.370175 0.677107 0.951193
0.471495 0.680294 0.954379
0.575686 0.683571 0.957656
0.682172 0.686920 0.961005
0.790578 0.690329 0.964415
0.900639 0.693791 0.967876
0.970059 0.695974 0.970059
0.192858 0.786348 0.956602
0.284078 0.789217 0.959470
0.381517 0.792282 0.962535
0.482837 0.795468 0.965722
0.587028 0.798745 0.968999
0.693514 0.802094 0.972348
0.801920 0.805504 0.975757
0.911982 0.808965 0.979219
0.981402 0.811149 0.981402
0.204339 0.902928 0.968082
0.295558 0.905797 0.970951
0.392998 0.908861 0.974016
0.494318 0.912048 0.977202
0.598509 0.915325 0.980479
0.704995 0.918674 0.983828
0.813401 0.922083 0.987238
0.923463 0.925545 0.990699
0.992883 0.927728 0.992883
0.211456 0.975200 0.975200
0.302676 0.978069 0.978069
0.400116 0.981133 0.981133
0.501435 0.984320 0.984320
0.605626 0.987597 0.987597
0.712112 0.990946 0.990946
0.820518 0.994355 0.994355
0.930580 0.997817 0.997817
1.000000 1.000000 1.000000
