library/cube/Creator_Glow_001.cube
# CINEGRADE LAB — Premium Cinematic LUT
# Title: Creator Glow
# Category: Clean Creator Economy
# Description: Bright, clean, approachable, modern aesthetic for content creators
# Mood: Fresh, bright, friendly
# Variant: 2
# Generated: 2026-05-21T16:12:37.838414
TITLE "Creator Glow"
LUT_3D_SIZE 33
0.120226 0.122798 0.151162
0.142183 0.123488 0.151852
0.164787 0.124199 0.152563
0.187903 0.124926 0.153290
0.211446 0.125667 0.154031
0.235355 0.126419 0.154783
0.259587 0.127181 0.155545
0.284106 0.127952 0.156316
0.308886 0.128731 0.157095
0.333902 0.129518 0.157882
0.359138 0.130312 0.158676
0.384577 0.131112 0.159476
0.410205 0.131918 0.160282
0.436011 0.132729 0.161094
0.461984 0.133546 0.161910
0.488115 0.134368 0.162732
0.514396 0.135195 0.163559
0.540819 0.136026 0.164390
0.567379 0.136861 0.165225
0.594068 0.137700 0.166065
0.620882 0.138544 0.166908
0.647815 0.139391 0.167755
0.674864 0.140241 0.168606
0.702023 0.141096 0.169460
0.729288 0.141953 0.170317
0.756657 0.142814 0.171178
0.784126 0.143678 0.172042
0.811691 0.144545 0.172909
0.839350 0.145415 0.173779
0.867099 0.146287 0.174652
0.894937 0.147163 0.175527
0.908770 0.147598 0.175962
0.908770 0.147598 0.175962
0.122622 0.147129 0.153558
0.144579 0.147819 0.154249
0.167183 0.148530 0.154959
0.190299 0.149257 0.155686
0.213842 0.149998 0.156427
0.237751 0.150750 0.157179
0.261983 0.151512 0.157941
0.286502 0.152283 0.158712
0.311282 0.153062 0.159492
0.336299 0.153849 0.160278
0.361534 0.154643 0.161072
0.386973 0.155443 0.161872
0.412601 0.156249 0.162678
0.438407 0.157060 0.163490
0.464380 0.157877 0.164307
0.490511 0.158699 0.165128
0.516792 0.159526 0.165955
0.543216 0.160357 0.166786
0.569775 0.161192 0.167621
0.596464 0.162031 0.168461
0.623278 0.162875 0.169304
0.650212 0.163722 0.170151
0.677260 0.164573 0.171002
0.704419 0.165427 0.171856
0.731684 0.166284 0.172713
0.759053 0.167145 0.173574
0.786522 0.168009 0.174438
0.814087 0.168876 0.175305
0.841746 0.169746 0.176175
0.869496 0.170618 0.177048
0.897334 0.171494 0.177923
0.911166 0.171929 0.178358
0.911166 0.171929 0.178358
0.125075 0.172031 0.156010
0.147032 0.172722 0.156701
0.169635 0.173432 0.157412
0.192751 0.174159 0.158139
0.216294 0.174900 0.158879
0.240204 0.175652 0.159631
0.264435 0.176414 0.160393
0.288955 0.177185 0.161165
0.313734 0.177964 0.161944
0.338751 0.178751 0.162731
0.363987 0.179545 0.163524
0.389426 0.180345 0.164324
0.415054 0.181151 0.165130
0.440860 0.181963 0.165942
0.466833 0.182780 0.166759
0.492964 0.183601 0.167581
0.519245 0.184428 0.168407
0.545668 0.185259 0.169238
0.572227 0.186094 0.170074
0.598917 0.186934 0.170913
0.625731 0.187777 0.171756
0.652664 0.188624 0.172603
0.679712 0.189475 0.173454
0.706871 0.190329 0.174308
0.734137 0.191186 0.175166
0.761506 0.192047 0.176027
0.788974 0.192911 0.176891
0.816539 0.193778 0.177758
0.844198 0.194648 0.178627
0.871948 0.195521 0.179500
0.899786 0.196396 0.180376
0.913618 0.196831 0.180811
0.913618 0.196831 0.180811
0.127571 0.197384 0.158507
0.149529 0.198075 0.159198
0.172132 0.198786 0.159909
0.195248 0.199513 0.160636
0.218791 0.200253 0.161376
0.242700 0.201005 0.162128
0.266932 0.201767 0.162890
0.291451 0.202538 0.163661
0.316231 0.203318 0.164441
0.341248 0.204104 0.165227
0.366484 0.204898 0.166021
0.391922 0.205698 0.166821
0.417551 0.206504 0.167627
0.443356 0.207316 0.168439
0.469329 0.208133 0.169256
0.495460 0.208954 0.170078
0.521741 0.209781 0.170904
0.548165 0.210612 0.171735
0.574724 0.211447 0.172570
0.601413 0.212287 0.173410
0.628227 0.213130 0.174253
0.655161 0.213977 0.175100
0.682209 0.214828 0.175951
0.709368 0.215682 0.176805
0.736634 0.216540 0.177663
0.764002 0.217400 0.178523
0.791471 0.218264 0.179387
0.819036 0.219131 0.180254
0.846695 0.220001 0.181124
0.874445 0.220874 0.181997
0.902283 0.221749 0.182872
0.916115 0.222184 0.183307
0.916115 0.222184 0.183307
0.130105 0.223111 0.161041
0.152062 0.223802 0.161731
0.174666 0.224513 0.162442
0.197782 0.225240 0.163169
0.221324 0.225980 0.163910
0.245234 0.226732 0.164662
0.269466 0.227494 0.165424
0.293985 0.228265 0.166195
0.318764 0.229045 0.166974
0.343781 0.229831 0.167761
0.369017 0.230625 0.168555
0.394456 0.231425 0.169355
0.420084 0.232231 0.170161
0.445890 0.233043 0.170972
0.471863 0.233860 0.171789
0.497994 0.234681 0.172611
0.524275 0.235508 0.173438
0.550698 0.236339 0.174269
0.577258 0.237174 0.175104
0.603947 0.238014 0.175943
0.630761 0.238857 0.176787
0.657694 0.239704 0.177634
0.684743 0.240555 0.178485
0.711902 0.241409 0.179339
0.739167 0.242267 0.180196
0.766536 0.243127 0.181057
0.794005 0.243991 0.181921
0.821570 0.244858 0.182788
0.849229 0.245728 0.183658
0.876978 0.246601 0.184531
0.904816 0.247476 0.185406
0.918649 0.247911 0.185841
0.918649 0.247911 0.185841
0.132670 0.249158 0.163606
0.154627 0.249849 0.164296
0.177231 0.250560 0.165007
0.200347 0.251287 0.165734
0.223890 0.252027 0.166475
0.247799 0.252779 0.167227
0.272031 0.253541 0.167989
0.296550 0.254312 0.168760
0.321330 0.255092 0.169539
0.346347 0.255878 0.170326
0.371582 0.256672 0.171120
0.397021 0.257472 0.171920
0.422649 0.258278 0.172726
0.448455 0.259090 0.173538
0.474428 0.259907 0.174354
0.500559 0.260729 0.175176
0.526840 0.261555 0.176003
0.553263 0.262386 0.176834
0.579823 0.263222 0.177669
0.606512 0.264061 0.178509
0.633326 0.264904 0.179352
0.660259 0.265751 0.180199
0.687308 0.266602 0.181050
0.714467 0.267456 0.181904
0.741732 0.268314 0.182761
0.769101 0.269174 0.183622
0.796570 0.270038 0.184486
0.824135 0.270905 0.185353
0.851794 0.271775 0.186223
0.879543 0.272648 0.187096
0.907381 0.273523 0.187971
0.921214 0.273959 0.188406
0.921214 0.273959 0.188406
0.135263 0.275486 0.166199
0.157220 0.276176 0.166889
0.179823 0.276887 0.167600
0.202939 0.277614 0.168327
0.226482 0.278355 0.169068
0.250392 0.279107 0.169820
0.274624 0.279869 0.170582
0.299143 0.280640 0.171353
0.323922 0.281419 0.172132
0.348939 0.282206 0.172919
0.374175 0.283000 0.173713
0.399614 0.283800 0.174513
0.425242 0.284606 0.175319
0.451048 0.285417 0.176130
0.477021 0.286234 0.176947
0.503152 0.287056 0.177769
0.529433 0.287883 0.178596
0.555856 0.288714 0.179427
0.582416 0.289549 0.180262
0.609105 0.290388 0.181101
0.635919 0.291232 0.181945
0.662852 0.292079 0.182792
0.689900 0.292929 0.183642
0.717059 0.293784 0.184497
0.744325 0.294641 0.185354
0.771694 0.295502 0.186215
0.799163 0.296366 0.187079
0.826728 0.297233 0.187946
0.854387 0.298103 0.188816
0.882136 0.298975 0.189688
0.909974 0.299851 0.190564
0.923807 0.300286 0.190999
0.923807 0.300286 0.190999
0.137880 0.302063 0.168816
0.159837 0.302753 0.169507
0.182441 0.303464 0.170217
0.205557 0.304191 0.170944
0.229100 0.304932 0.171685
0.253009 0.305684 0.172437
0.277241 0.306446 0.173199
0.301760 0.307217 0.173970
0.326540 0.307996 0.174749
0.351557 0.308783 0.175536
0.376792 0.309577 0.176330
0.402231 0.310377 0.177130
0.427859 0.311183 0.177936
0.453665 0.311994 0.178748
0.479638 0.312811 0.179565
0.505769 0.313633 0.180386
0.532050 0.314460 0.181213
0.558474 0.315291 0.182044
0.585033 0.316126 0.182879
0.611722 0.316965 0.183719
0.638536 0.317809 0.184562
0.665469 0.318656 0.185409
0.692518 0.319507 0.186260
0.719677 0.320361 0.187114
0.746942 0.321218 0.187971
0.774311 0.322079 0.188832
0.801780 0.322943 0.189696
0.829345 0.323810 0.190563
0.857004 0.324680 0.191433
0.884754 0.325553 0.192306
0.912591 0.326428 0.193181
0.926424 0.326863 0.193616
0.926424 0.326863 0.193616
0.140520 0.328865 0.171455
0.162477 0.329556 0.172146
0.185080 0.330267 0.172857
0.208196 0.330994 0.173584
0.231739 0.331734 0.174324
0.255649 0.332486 0.175076
0.279880 0.333248 0.175838
0.304400 0.334019 0.176610
0.329179 0.334799 0.177389
0.354196 0.335586 0.178176
0.379432 0.336379 0.178969
0.404871 0.337179 0.179770
0.430499 0.337985 0.180576
0.456305 0.338797 0.181387
0.482278 0.339614 0.182204
0.508409 0.340436 0.183026
0.534690 0.341262 0.183852
0.561113 0.342093 0.184683
0.587672 0.342929 0.185519
0.614362 0.343768 0.186358
0.641176 0.344611 0.187201
0.668109 0.345458 0.188049
0.695157 0.346309 0.188899
0.722316 0.347163 0.189753
0.749582 0.348021 0.190611
0.776951 0.348881 0.191472
0.804419 0.349745 0.192336
0.831985 0.350612 0.193203
0.859643 0.351482 0.194072
0.887393 0.352355 0.194945
0.915231 0.353230 0.195821
0.929063 0.353666 0.196256
0.929063 0.353666 0.196256
0.143179 0.355873 0.174115
0.165137 0.356564 0.174806
0.187740 0.357275 0.175517
0.210856 0.358002 0.176244
0.234399 0.358742 0.176984
0.258308 0.359494 0.177736
0.282540 0.360256 0.178498
0.307059 0.361027 0.179269
0.331839 0.361807 0.180049
0.356856 0.362593 0.180836
0.382092 0.363387 0.181629
0.407530 0.364187 0.182429
0.433159 0.364993 0.183235
0.458964 0.365805 0.184047
0.484937 0.366622 0.184864
0.511068 0.367443 0.185686
0.537349 0.368270 0.186512
0.563773 0.369101 0.187343
0.590332 0.369936 0.188179
0.617022 0.370776 0.189018
0.643835 0.371619 0.189861
0.670769 0.372466 0.190708
0.697817 0.373317 0.191559
0.724976 0.374171 0.192413
0.752242 0.375029 0.193271
0.779611 0.375889 0.194131
0.807079 0.376753 0.194995
0.834644 0.377620 0.195862
0.862303 0.378490 0.196732
0.890053 0.379363 0.197605
0.917891 0.380238 0.198480
0.931723 0.380673 0.198916
0.931723 0.380673 0.198916
0.145858 0.383070 0.176794
0.167815 0.383760 0.177484
0.190418 0.384471 0.178195
0.213534 0.385198 0.178922
0.237077 0.385939 0.179662
0.260987 0.386691 0.180414
0.285219 0.387453 0.181177
0.309738 0.388224 0.181948
0.334517 0.389003 0.182727
0.359534 0.389790 0.183514
0.384770 0.390584 0.184308
0.410209 0.391384 0.185108
0.435837 0.392190 0.185914
0.461643 0.393001 0.186725
0.487616 0.393818 0.187542
0.513747 0.394640 0.188364
0.540028 0.395467 0.189190
0.566451 0.396298 0.190022
0.593010 0.397133 0.190857
0.619700 0.397972 0.191696
0.646514 0.398816 0.192540
0.673447 0.399663 0.193387
0.700495 0.400514 0.194237
0.727654 0.401368 0.195092
0.754920 0.402225 0.195949
0.782289 0.403086 0.196810
0.809757 0.403950 0.197674
0.837323 0.404817 0.198541
0.864981 0.405687 0.199411
0.892731 0.406559 0.200283
0.920569 0.407435 0.201159
0.934402 0.407870 0.201594
0.934402 0.407870 0.201594
0.148553 0.410441 0.179489
0.170511 0.411132 0.180180
0.193114 0.411843 0.180891
0.216230 0.412570 0.181618
0.239773 0.413310 0.182358
0.263682 0.414062 0.183110
0.287914 0.414824 0.183872
0.312433 0.415595 0.184643
0.337213 0.416375 0.185423
0.362230 0.417162 0.186209
0.387466 0.417955 0.187003
0.412904 0.418755 0.187803
0.438533 0.419561 0.188609
0.464338 0.420373 0.189421
0.490311 0.421190 0.190238
0.516442 0.422012 0.191060
0.542723 0.422838 0.191886
0.569147 0.423669 0.192717
0.595706 0.424505 0.193552
0.622395 0.425344 0.194392
0.649209 0.426187 0.195235
0.676143 0.427034 0.196082
0.703191 0.427885 0.196933
0.730350 0.428739 0.197787
0.757616 0.429597 0.198645
0.784984 0.430458 0.199505
0.812453 0.431321 0.200369
0.840018 0.432188 0.201236
0.867677 0.433058 0.202106
0.895427 0.433931 0.202979
0.923265 0.434807 0.203854
0.937097 0.435242 0.204289
0.937097 0.435242 0.204289
0.151265 0.437976 0.182201
0.173222 0.438666 0.182891
0.195825 0.439377 0.183602
0.218941 0.440104 0.184329
0.242484 0.440845 0.185070
0.266394 0.441597 0.185822
0.290626 0.442359 0.186584
0.315145 0.443130 0.187355
0.339924 0.443909 0.188134
0.364941 0.444696 0.188921
0.390177 0.445490 0.189715
0.415616 0.446290 0.190515
0.441244 0.447096 0.191321
0.467050 0.447907 0.192132
0.493023 0.448724 0.192949
0.519154 0.449546 0.193771
0.545435 0.450373 0.194598
0.571858 0.451204 0.195429
0.598418 0.452039 0.196264
0.625107 0.452878 0.197103
0.651921 0.453722 0.197947
0.678854 0.454569 0.198794
0.705902 0.455420 0.199644
0.733061 0.456274 0.200499
0.760327 0.457131 0.201356
0.787696 0.457992 0.202217
0.815165 0.458856 0.203081
0.842730 0.459723 0.203948
0.870389 0.460593 0.204818
0.898138 0.461466 0.205690
0.925976 0.462341 0.206566
0.939809 0.462776 0.207001
0.939809 0.462776 0.207001
0.153992 0.465663 0.184927
0.175949 0.466353 0.185618
0.198552 0.467064 0.186329
0.221668 0.467791 0.187056
0.245211 0.468532 0.187796
0.269121 0.469284 0.188548
0.293352 0.470046 0.189310
0.317872 0.470817 0.190081
0.342651 0.471596 0.190861
0.367668 0.472383 0.191648
0.392904 0.473177 0.192441
0.418343 0.473977 0.193241
0.443971 0.474783 0.194047
0.469777 0.475594 0.194859
0.495750 0.476411 0.195676
0.521881 0.477233 0.196498
0.548161 0.478060 0.197324
0.574585 0.478891 0.198155
0.601144 0.479726 0.198991
0.627834 0.480565 0.199830
0.654647 0.481409 0.200673
0.681581 0.482256 0.201520
0.708629 0.483107 0.202371
0.735788 0.483961 0.203225
0.763054 0.484818 0.204083
0.790423 0.485679 0.204944
0.817891 0.486543 0.205807
0.845456 0.487410 0.206674
0.873115 0.488280 0.207544
0.900865 0.489153 0.208417
0.928703 0.490028 0.209293
0.942535 0.490463 0.209728
0.942535 0.490463 0.209728
0.156732 0.493493 0.187668
0.178689 0.494184 0.188359
0.201293 0.494895 0.189070
0.224409 0.495622 0.189797
0.247952 0.496362 0.190537
0.271861 0.497114 0.191289
0.296093 0.497876 0.192051
0.320612 0.498647 0.192822
0.345392 0.499427 0.193602
0.370409 0.500213 0.194388
0.395645 0.501007 0.195182
0.421083 0.501807 0.195982
0.446712 0.502613 0.196788
0.472517 0.503425 0.197600
0.498490 0.504242 0.198417
0.524621 0.505064 0.199238
0.550902 0.505890 0.200065
0.577326 0.506721 0.200896
0.603885 0.507556 0.201731
0.630574 0.508396 0.202571
0.657388 0.509239 0.203414
0.684322 0.510086 0.204261
0.711370 0.510937 0.205112
0.738529 0.511791 0.205966
0.765795 0.512649 0.206824
0.793163 0.513509 0.207684
0.820632 0.514373 0.208548
0.848197 0.515240 0.209415
0.875856 0.516110 0.210285
0.903606 0.516983 0.211158
0.931444 0.517858 0.212033
0.945276 0.518293 0.212468
0.945276 0.518293 0.212468
0.159486 0.521459 0.190422
0.181444 0.522150 0.191113
0.204047 0.522860 0.191824
0.227163 0.523587 0.192551
0.250706 0.524328 0.193291
0.274615 0.525080 0.194043
0.298847 0.525842 0.194805
0.323366 0.526613 0.195576
0.348146 0.527392 0.196356
0.373163 0.528179 0.197142
0.398399 0.528973 0.197936
0.423837 0.529773 0.198736
0.449466 0.530579 0.199542
0.475271 0.531391 0.200354
0.501244 0.532208 0.201171
0.527375 0.533029 0.201993
0.553656 0.533856 0.202819
0.580080 0.534687 0.203650
0.606639 0.535522 0.204485
0.633328 0.536362 0.205325
0.660142 0.537205 0.206168
0.687076 0.538052 0.207015
0.714124 0.538903 0.207866
0.741283 0.539757 0.208720
0.768549 0.540614 0.209578
0.795917 0.541475 0.210438
0.823386 0.542339 0.211302
0.850951 0.543206 0.212169
0.878610 0.544076 0.213039
0.906360 0.544949 0.213912
0.934198 0.545824 0.214787
0.948030 0.546259 0.215222
0.948030 0.546259 0.215222
0.162253 0.549553 0.193189
0.184210 0.550244 0.193879
0.206814 0.550954 0.194590
0.229930 0.551681 0.195317
0.253473 0.552422 0.196058
0.277382 0.553174 0.196810
0.301614 0.553936 0.197572
0.326133 0.554707 0.198343
0.350912 0.555486 0.199122
0.375929 0.556273 0.199909
0.401165 0.557067 0.200703
0.426604 0.557867 0.201503
0.452232 0.558673 0.202309
0.478038 0.559485 0.203121
0.504011 0.560302 0.203937
0.530142 0.561123 0.204759
0.556423 0.561950 0.205586
0.582846 0.562781 0.206417
0.609406 0.563616 0.207252
0.636095 0.564456 0.208092
0.662909 0.565299 0.208935
0.689842 0.566146 0.209782
0.716891 0.566997 0.210633
0.744050 0.567851 0.211487
0.771315 0.568708 0.212344
0.798684 0.569569 0.213205
0.826153 0.570433 0.214069
0.853718 0.571300 0.214936
0.881377 0.572170 0.215806
0.909126 0.573043 0.216679
0.936964 0.573918 0.217554
0.950797 0.574353 0.217989
0.950797 0.574353 0.217989
0.165032 0.577769 0.195968
0.186989 0.578459 0.196658
0.209592 0.579170 0.197369
0.232708 0.579897 0.198096
0.256251 0.580638 0.198836
0.280161 0.581390 0.199588
0.304393 0.582152 0.200351
0.328912 0.582923 0.201122
0.353691 0.583702 0.201901
0.378708 0.584489 0.202688
0.403944 0.585283 0.203482
0.429383 0.586083 0.204282
0.455011 0.586889 0.205088
0.480817 0.587701 0.205899
0.506790 0.588517 0.206716
0.532921 0.589339 0.207538
0.559202 0.590166 0.208365
0.585625 0.590997 0.209196
0.612185 0.591832 0.210031
0.638874 0.592672 0.210870
0.665688 0.593515 0.211714
0.692621 0.594362 0.212561
0.719669 0.595213 0.213411
0.746828 0.596067 0.214266
0.774094 0.596924 0.215123
0.801463 0.597785 0.215984
0.828931 0.598649 0.216848
0.856497 0.599516 0.217715
0.884155 0.600386 0.218585
0.911905 0.601259 0.219457
0.939743 0.602134 0.220333
0.953576 0.602569 0.220768
0.953576 0.602569 0.220768
0.167822 0.606101 0.198758
0.189779 0.606791 0.199448
0.212382 0.607502 0.200159
0.235498 0.608229 0.200886
0.259041 0.608970 0.201627
0.282951 0.609722 0.202379
0.307183 0.610484 0.203141
0.331702 0.611255 0.203912
0.356481 0.612034 0.204691
0.381498 0.612821 0.205478
0.406734 0.613615 0.206272
0.432173 0.614415 0.207072
0.457801 0.615221 0.207878
0.483607 0.616033 0.208689
0.509580 0.616849 0.209506
0.535711 0.617671 0.210328
0.561992 0.618498 0.211155
0.588415 0.619329 0.211986
0.614975 0.620164 0.212821
0.641664 0.621004 0.213660
0.668478 0.621847 0.214504
0.695411 0.622694 0.215351
0.722459 0.623545 0.216201
0.749618 0.624399 0.217056
0.776884 0.625256 0.217913
0.804253 0.626117 0.218774
0.831722 0.626981 0.219638
0.859287 0.627848 0.220505
0.886946 0.628718 0.221375
0.914695 0.629591 0.222247
0.942533 0.630466 0.223123
0.956366 0.630901 0.223558
0.956366 0.630901 0.223558
0.170623 0.634544 0.201559
0.192580 0.635234 0.202249
0.215184 0.635945 0.202960
0.238300 0.636672 0.203687
0.261842 0.637413 0.204428
0.285752 0.638165 0.205180
0.309984 0.638927 0.205942
0.334503 0.639698 0.206713
0.359282 0.640477 0.207492
0.384299 0.641264 0.208279
0.409535 0.642058 0.209073
0.434974 0.642858 0.209873
0.460602 0.643664 0.210679
0.486408 0.644475 0.211490
0.512381 0.645292 0.212307
0.538512 0.646114 0.213129
0.564793 0.646941 0.213956
0.591216 0.647772 0.214787
0.617776 0.648607 0.215622
0.644465 0.649446 0.216461
0.671279 0.650290 0.217305
0.698212 0.651137 0.218152
0.725261 0.651987 0.219003
0.752419 0.652842 0.219857
0.779685 0.653699 0.220714
0.807054 0.654560 0.221575
0.834523 0.655424 0.222439
0.862088 0.656291 0.223306
0.889747 0.657161 0.224176
0.917496 0.658033 0.225049
0.945334 0.658909 0.225924
0.959167 0.659344 0.226359
0.959167 0.659344 0.226359
0.173434 0.663093 0.204370
0.195392 0.663783 0.205061
0.217995 0.664494 0.205772
0.241111 0.665221 0.206499
0.264654 0.665961 0.207239
0.288564 0.666713 0.207991
0.312795 0.667476 0.208753
0.337315 0.668247 0.209524
0.362094 0.669026 0.210304
0.387111 0.669813 0.211091
0.412347 0.670607 0.211884
0.437786 0.671407 0.212684
0.463414 0.672213 0.213490
0.489220 0.673024 0.214302
0.515192 0.673841 0.215119
0.541323 0.674663 0.215941
0.567604 0.675489 0.216767
0.594028 0.676321 0.217598
0.620587 0.677156 0.218434
0.647277 0.677995 0.219273
0.674090 0.678839 0.220116
0.701024 0.679686 0.220963
0.728072 0.680536 0.221814
0.755231 0.681390 0.222668
0.782497 0.682248 0.223526
0.809866 0.683109 0.224387
0.837334 0.683973 0.225250
0.864899 0.684840 0.226117
0.892558 0.685710 0.226987
0.920308 0.686582 0.227860
0.948146 0.687458 0.228736
0.961978 0.687893 0.229171
0.961978 0.687893 0.229171
0.176256 0.691743 0.207192
0.198213 0.692434 0.207882
0.220817 0.693145 0.208593
0.243933 0.693872 0.209320
0.267475 0.694612 0.210061
0.291385 0.695364 0.210813
0.315617 0.696126 0.211575
0.340136 0.696897 0.212346
0.364915 0.697677 0.213125
0.389932 0.698463 0.213912
0.415168 0.699257 0.214706
0.440607 0.700057 0.215506
0.466235 0.700863 0.216312
0.492041 0.701675 0.217123
0.518014 0.702492 0.217940
0.544145 0.703314 0.218762
0.570426 0.704140 0.219589
0.596849 0.704971 0.220420
0.623409 0.705806 0.221255
0.650098 0.706646 0.222094
0.676912 0.707489 0.222938
0.703845 0.708336 0.223785
0.730894 0.709187 0.224636
0.758053 0.710041 0.225490
0.785318 0.710899 0.226347
0.812687 0.711759 0.227208
0.840156 0.712623 0.228072
0.867721 0.713490 0.228939
0.895380 0.714360 0.229809
0.923129 0.715233 0.230682
0.950967 0.716108 0.231557
0.964800 0.716544 0.231992
0.964800 0.716544 0.231992
0.179087 0.720492 0.210023
0.201044 0.721182 0.210714
0.223648 0.721893 0.211424
0.246764 0.722620 0.212151
0.270307 0.723361 0.212892
0.294216 0.724112 0.213644
0.318448 0.724875 0.214406
0.342967 0.725646 0.215177
0.367747 0.726425 0.215956
0.392764 0.727212 0.216743
0.417999 0.728006 0.217537
0.443438 0.728806 0.218337
0.469066 0.729612 0.219143
0.494872 0.730423 0.219955
0.520845 0.731240 0.220771
0.546976 0.732062 0.221593
0.573257 0.732889 0.222420
0.599680 0.733720 0.223251
0.626240 0.734555 0.224086
0.652929 0.735394 0.224926
0.679743 0.736238 0.225769
0.706676 0.737085 0.226616
0.733725 0.737935 0.227467
0.760884 0.738790 0.228321
0.788149 0.739647 0.229178
0.815518 0.740508 0.230039
0.842987 0.741372 0.230903
0.870552 0.742239 0.231770
0.898211 0.743109 0.232640
0.925961 0.743981 0.233513
0.953798 0.744857 0.234388
0.967631 0.745292 0.234823
0.967631 0.745292 0.234823
0.181928 0.749334 0.212863
0.203885 0.750025 0.213554
0.226488 0.750736 0.214265
0.249604 0.751463 0.214992
0.273147 0.752203 0.215732
0.297057 0.752955 0.216484
0.321288 0.753717 0.217246
0.345808 0.754488 0.218018
0.370587 0.755268 0.218797
0.395604 0.756054 0.219584
0.420840 0.756848 0.220377
0.446279 0.757648 0.221177
0.471907 0.758454 0.221983
0.497713 0.759266 0.222795
0.523686 0.760083 0.223612
0.549817 0.760904 0.224434
0.576097 0.761731 0.225260
0.602521 0.762562 0.226091
0.629080 0.763397 0.226927
0.655770 0.764237 0.227766
0.682583 0.765080 0.228609
0.709517 0.765927 0.229456
0.736565 0.766778 0.230307
0.763724 0.767632 0.231161
0.790990 0.768490 0.232019
0.818359 0.769350 0.232880
0.845827 0.770214 0.233744
0.873392 0.771081 0.234610
0.901051 0.771951 0.235480
0.928801 0.772824 0.236353
0.956639 0.773699 0.237229
0.970471 0.774134 0.237664
0.970471 0.774134 0.237664
0.184777 0.778267 0.215713
0.206734 0.778958 0.216403
0.229337 0.779669 0.217114
0.252453 0.780396 0.217841
0.275996 0.781136 0.218582
0.299906 0.781888 0.219334
0.324138 0.782650 0.220096
0.348657 0.783421 0.220867
0.373436 0.784201 0.221646
0.398453 0.784988 0.222433
0.423689 0.785781 0.223227
0.449128 0.786581 0.224027
0.474756 0.787387 0.224833
0.500562 0.788199 0.225644
0.526535 0.789016 0.226461
0.552666 0.789838 0.227283
0.578947 0.790664 0.228110
0.605370 0.791495 0.228941
0.631930 0.792331 0.229776
0.658619 0.793170 0.230615
0.685433 0.794013 0.231459
0.712366 0.794860 0.232306
0.739414 0.795711 0.233156
0.766573 0.796565 0.234011
0.793839 0.797423 0.234868
0.821208 0.798283 0.235729
0.848677 0.799147 0.236593
0.876242 0.800014 0.237460
0.903901 0.800884 0.238330
0.931650 0.801757 0.239202
0.959488 0.802633 0.240078
0.973321 0.803068 0.240513
0.973321 0.803068 0.240513
0.187635 0.807288 0.218571
0.209592 0.807978 0.219261
0.232195 0.808689 0.219972
0.255311 0.809416 0.220699
0.278854 0.810157 0.221440
0.302764 0.810909 0.222192
0.326996 0.811671 0.222954
0.351515 0.812442 0.223725
0.376294 0.813221 0.224504
0.401311 0.814008 0.225291
0.426547 0.814802 0.226085
0.451986 0.815602 0.226885
0.477614 0.816408 0.227691
0.503420 0.817220 0.228502
0.529393 0.818036 0.229319
0.555524 0.818858 0.230141
0.581805 0.819685 0.230968
0.608228 0.820516 0.231799
0.634788 0.821351 0.232634
0.661477 0.822191 0.233473
0.688291 0.823034 0.234317
0.715224 0.823881 0.235164
0.742272 0.824732 0.236014
0.769431 0.825586 0.236869
0.796697 0.826443 0.237726
0.824066 0.827304 0.238587
0.851535 0.828168 0.239451
0.879100 0.829035 0.240318
0.906759 0.829905 0.241188
0.934508 0.830778 0.242060
0.962346 0.831653 0.242936
0.976179 0.832088 0.243371
0.976179 0.832088 0.243371
0.190501 0.836393 0.221437
0.212458 0.837084 0.222128
0.235062 0.837795 0.222838
0.258178 0.838522 0.223565
0.281721 0.839262 0.224306
0.305630 0.840014 0.225058
0.329862 0.840776 0.225820
0.354381 0.841547 0.226591
0.379161 0.842327 0.227370
0.404178 0.843113 0.228157
0.429413 0.843907 0.228951
0.454852 0.844707 0.229751
0.480480 0.845513 0.230557
0.506286 0.846325 0.231369
0.532259 0.847142 0.232186
0.558390 0.847964 0.233007
0.584671 0.848790 0.233834
0.611095 0.849621 0.234665
0.637654 0.850456 0.235500
