library/cube/Creator_Glow_001.cube
# CINEGRADE LAB — Premium Cinematic LUT
# Title: Creator Glow
# Category: Clean Creator Economy
# Description: Bright, clean, approachable, modern aesthetic for content creators
# Mood: Fresh, bright, friendly
# Variant: 2
# Generated: 2026-05-21T16:12:37.838414
TITLE "Creator Glow"
LUT_3D_SIZE 5
0.120226 0.122798 0.151162
0.308886 0.128731 0.157095
0.514396 0.135195 0.163559
0.729288 0.141953 0.170317
0.908770 0.147598 0.175962
0.140520 0.328865 0.171455
0.329179 0.334799 0.177389
0.534690 0.341262 0.183852
0.749582 0.348021 0.190611
0.929063 0.353666 0.196256
0.162253 0.549553 0.193189
0.350912 0.555486 0.199122
0.556423 0.561950 0.205586
0.771315 0.568708 0.212344
0.950797 0.574353 0.217989
0.184777 0.778267 0.215713
0.373436 0.784201 0.221646
0.578947 0.790664 0.228110
0.793839 0.797423 0.234868
0.973321 0.803068 0.240513
0.203375 0.967119 0.234311
0.392034 0.973052 0.240244
0.597545 0.979515 0.246708
0.812437 0.986274 0.253466
0.991919 0.991919 0.259111
0.122216 0.124787 0.333587
0.310875 0.130721 0.339520
0.516386 0.137184 0.345984
0.731278 0.143943 0.352742
0.910760 0.149588 0.358387
0.142509 0.330855 0.353880
0.331169 0.336788 0.359814
0.536679 0.343252 0.366277
0.751572 0.350010 0.373036
0.931053 0.355655 0.378681
0.164243 0.551543 0.375614
0.352902 0.557476 0.381547
0.558413 0.563940 0.388011
0.773305 0.570698 0.394769
0.952787 0.576343 0.400414
0.186767 0.780257 0.398138
0.375426 0.786190 0.404071
0.580937 0.792654 0.410535
0.795829 0.799412 0.417293
0.975310 0.805057 0.422938
0.205365 0.969108 0.416736
0.394024 0.975042 0.422669
0.599535 0.981505 0.429133
0.814427 0.988264 0.435891
0.993909 0.993909 0.441536
0.124369 0.126940 0.530949
0.313028 0.132874 0.536883
0.518538 0.139337 0.543346
0.733431 0.146096 0.550105
0.912912 0.151740 0.555749
0.144662 0.333008 0.551243
0.333322 0.338941 0.557176
0.538832 0.345405 0.563640
0.753724 0.352163 0.570398
0.933206 0.357808 0.576043
0.166396 0.553695 0.572976
0.355055 0.559629 0.578910
0.560565 0.566092 0.585373
0.775458 0.572851 0.592132
0.954939 0.578496 0.597776
0.188919 0.782410 0.595500
0.377579 0.788343 0.601433
0.583089 0.794807 0.607897
0.797982 0.801565 0.614655
0.977463 0.807210 0.620300
0.207517 0.971261 0.614098
0.396177 0.977194 0.620032
0.601687 0.983658 0.626495
0.816580 0.990416 0.633254
0.996061 0.996061 0.638898
0.126616 0.129187 0.736958
0.315275 0.135121 0.742892
0.520786 0.141584 0.749355
0.735678 0.148343 0.756114
0.915159 0.153987 0.761759
0.146909 0.335255 0.757252
0.335569 0.341188 0.763185
0.541079 0.347652 0.769649
0.755971 0.354410 0.776407
0.935453 0.360055 0.782052
0.168643 0.555942 0.778985
0.357302 0.561876 0.784919
0.562812 0.568339 0.791382
0.777705 0.575098 0.798141
0.957186 0.580743 0.803785
0.191166 0.784657 0.801509
0.379826 0.790590 0.807442
0.585336 0.797054 0.813906
0.800229 0.803812 0.820664
0.979710 0.809457 0.826309
0.209765 0.973508 0.820107
0.398424 0.979442 0.826041
0.603934 0.985905 0.832504
0.818827 0.992664 0.839263
0.998308 0.998308 0.844907
0.128307 0.130879 0.892051
0.316967 0.136812 0.897984
0.522477 0.143276 0.904448
0.737369 0.150034 0.911206
0.916851 0.155679 0.916851
0.148601 0.336946 0.912344
0.337260 0.342880 0.918278
0.542771 0.349343 0.924741
0.757663 0.356102 0.931500
0.937145 0.361747 0.937145
0.170334 0.557634 0.934078
0.358994 0.563568 0.940011
0.564504 0.570031 0.946475
0.779396 0.576790 0.953233
0.958878 0.582434 0.958878
0.192858 0.786348 0.956602
0.381517 0.792282 0.962535
0.587028 0.798745 0.968999
0.801920 0.805504 0.975757
0.981402 0.811149 0.981402
0.211456 0.975200 0.975200
0.400116 0.981133 0.981133
0.605626 0.987597 0.987597
0.820518 0.994355 0.994355
1.000000 1.000000 1.000000
