library/cube/Crimson_Shadow_001.cube
# CINEGRADE LAB — Premium Cinematic LUT
# Title: Crimson Shadow
# Category: Cinematic Shadows
# Description: Crushed blacks with teal shadows and warm highlights for cinema-inspired images
# Mood: Dramatic, cinematic, bold
# Variant: 2
# Generated: 2026-05-21T16:12:12.359545
TITLE "Crimson Shadow"
LUT_3D_SIZE 33
0.000000 0.000000 0.000000
0.000000 0.000000 0.000000
0.004434 0.000139 0.000139
0.034427 0.001083 0.001083
0.064527 0.002029 0.002029
0.094734 0.002979 0.002979
0.125044 0.003933 0.003933
0.155457 0.004889 0.004889
0.185970 0.005849 0.005849
0.216581 0.006812 0.006812
0.247289 0.007777 0.007777
0.278090 0.008746 0.008746
0.308985 0.009718 0.009718
0.339970 0.010692 0.010692
0.371044 0.011670 0.011670
0.402205 0.012650 0.012650
0.433451 0.013632 0.013632
0.464782 0.014618 0.014618
0.496193 0.015606 0.015606
0.527686 0.016596 0.016596
0.559256 0.017589 0.017589
0.590904 0.018584 0.018584
0.622627 0.019582 0.019582
0.654423 0.020582 0.020582
0.686292 0.021584 0.021584
0.718231 0.022589 0.022589
0.750239 0.023596 0.023596
0.782315 0.024604 0.024604
0.814392 0.025613 0.025613
0.846495 0.026623 0.026623
0.878642 0.027634 0.027634
0.895670 0.028169 0.028169
0.895670 0.028169 0.028169
0.000000 0.000000 0.000000
0.000000 0.000000 0.000000
0.003305 0.000104 0.000104
0.033485 0.001053 0.001053
0.063768 0.002006 0.002006
0.094153 0.002961 0.002961
0.124638 0.003920 0.003920
0.155220 0.004882 0.004882
0.185899 0.005847 0.005847
0.216671 0.006814 0.006814
0.247536 0.007785 0.007785
0.278490 0.008759 0.008759
0.309534 0.009735 0.009735
0.340664 0.010714 0.010714
0.371879 0.011696 0.011696
0.403177 0.012680 0.012680
0.434557 0.013667 0.013667
0.466017 0.014657 0.014657
0.497555 0.015648 0.015648
0.529169 0.016643 0.016643
0.560859 0.017639 0.017639
0.592622 0.018638 0.018638
0.624457 0.019640 0.019640
0.656362 0.020643 0.020643
0.688335 0.021649 0.021649
0.720376 0.022656 0.022656
0.752483 0.023666 0.023666
0.784654 0.024678 0.024678
0.816795 0.025689 0.025689
0.848954 0.026700 0.026700
0.881152 0.027713 0.027713
0.895670 0.028169 0.028169
0.895670 0.028169 0.028169
0.000000 0.000000 0.000000
0.000000 0.000000 0.000000
0.002231 0.000070 0.000070
0.032591 0.001025 0.001025
0.063050 0.001983 0.001983
0.093606 0.002944 0.002944
0.124257 0.003908 0.003908
0.155002 0.004875 0.004875
0.185839 0.005845 0.005845
0.216766 0.006817 0.006817
0.247781 0.007793 0.007793
0.278882 0.008771 0.008771
0.310068 0.009752 0.009752
0.341337 0.010735 0.010735
0.372687 0.011721 0.011721
0.404116 0.012710 0.012710
0.435624 0.013701 0.013701
0.467208 0.014694 0.014694
0.498866 0.015690 0.015690
0.530597 0.016688 0.016688
0.562401 0.017688 0.017688
0.594274 0.018690 0.018690
0.626215 0.019695 0.019695
0.658224 0.020702 0.020702
0.690298 0.021710 0.021710
0.722436 0.022721 0.022721
0.754637 0.023734 0.023734
0.786899 0.024749 0.024749
0.819091 0.025761 0.025761
0.851296 0.026774 0.026774
0.883534 0.027788 0.027788
0.895670 0.028169 0.028169
0.895670 0.028169 0.028169
0.003355 0.034071 0.003355
0.003330 0.033811 0.003330
0.004517 0.033594 0.003343
0.035024 0.034303 0.004278
0.065627 0.035018 0.005217
0.096323 0.035740 0.006159
0.127110 0.036469 0.007105
0.157988 0.037205 0.008053
0.188954 0.037946 0.009005
0.220006 0.038695 0.009960
0.251143 0.039449 0.010917
0.282362 0.040210 0.011878
0.313663 0.040977 0.012842
0.345043 0.041750 0.013808
0.376502 0.042529 0.014777
0.408036 0.043314 0.015749
0.439646 0.044105 0.016724
0.471328 0.044902 0.017702
0.503082 0.045704 0.018681
0.534906 0.046512 0.019664
0.566799 0.047326 0.020649
0.598759 0.048145 0.021636
0.630784 0.048970 0.022626
0.662874 0.049800 0.023618
0.695027 0.050636 0.024612
0.727240 0.051476 0.025609
0.759515 0.052322 0.026608
0.791847 0.053173 0.027609
0.824060 0.054023 0.028606
0.856286 0.054877 0.029605
0.888540 0.055736 0.030604
0.898400 0.055893 0.030900
0.898385 0.055742 0.030885
0.006810 0.069148 0.006810
0.006784 0.068888 0.006784
0.007006 0.068641 0.006767
0.037679 0.069355 0.007707
0.068443 0.070076 0.008651
0.099296 0.070803 0.009599
0.130237 0.071537 0.010549
0.161264 0.072278 0.011502
0.192375 0.073025 0.012458
0.223569 0.073779 0.013418
0.254844 0.074539 0.014380
0.286197 0.075305 0.015345
0.317629 0.076077 0.016313
0.349136 0.076855 0.017283
0.380718 0.077640 0.018257
0.412373 0.078430 0.019233
0.444099 0.079226 0.020211
0.475894 0.080029 0.021192
0.507758 0.080836 0.022176
0.539689 0.081650 0.023162
0.571686 0.082469 0.024150
0.603746 0.083293 0.025141
0.635869 0.084123 0.026134
0.668053 0.084959 0.027129
0.700297 0.085800 0.028127
0.732600 0.086646 0.029126
0.764960 0.087497 0.030128
0.797376 0.088353 0.031132
0.829613 0.089207 0.032131
0.861866 0.090065 0.033130
0.894140 0.090927 0.034131
0.901859 0.091020 0.034359
0.901844 0.090872 0.034344
0.010260 0.104182 0.010260
0.010234 0.103924 0.010234
0.010209 0.103669 0.010209
0.040377 0.104369 0.011134
0.071295 0.105096 0.012083
0.102299 0.105830 0.013035
0.133387 0.106570 0.013990
0.164557 0.107317 0.014948
0.195808 0.108070 0.015909
0.227137 0.108830 0.016873
0.258543 0.109596 0.017839
0.290026 0.110368 0.018809
0.321582 0.111147 0.019781
0.353211 0.111931 0.020755
0.384911 0.112722 0.021733
0.416680 0.113518 0.022712
0.448518 0.114321 0.023695
0.480422 0.115129 0.024679
0.512391 0.115943 0.025667
0.544424 0.116762 0.026656
0.576519 0.117587 0.027648
0.608676 0.118418 0.028642
0.640892 0.119254 0.029638
0.673166 0.120096 0.030637
0.705498 0.120943 0.031637
0.737885 0.121795 0.032640
0.770327 0.122652 0.033645
0.802816 0.123514 0.034651
0.835069 0.124373 0.035651
0.867340 0.125235 0.036651
0.899625 0.126101 0.037652
0.905317 0.126134 0.037817
0.905303 0.125991 0.037803
0.013706 0.139180 0.013706
0.013681 0.138923 0.013681
0.013656 0.138671 0.013656
0.043118 0.139351 0.014559
0.074185 0.140085 0.015513
0.105333 0.140825 0.016470
0.136561 0.141573 0.017430
0.167868 0.142327 0.018392
0.199252 0.143087 0.019358
0.230711 0.143854 0.020326
0.262244 0.144627 0.021296
0.293849 0.145406 0.022270
0.325525 0.146191 0.023246
0.357270 0.146983 0.024225
0.389083 0.147780 0.025206
0.420962 0.148584 0.026189
0.452906 0.149393 0.027175
0.484914 0.150208 0.028164
0.516983 0.151029 0.029154
0.549114 0.151855 0.030147
0.581304 0.152687 0.031142
0.613552 0.153525 0.032140
0.645857 0.154368 0.033139
0.678217 0.155216 0.034141
0.710632 0.156070 0.035144
0.743101 0.156929 0.036150
0.775621 0.157793 0.037157
0.808167 0.158661 0.038166
0.840434 0.159525 0.039166
0.872712 0.160392 0.040167
0.904998 0.161262 0.041169
0.908774 0.161240 0.041274
0.908761 0.161101 0.041261
0.017150 0.174146 0.017150
0.017125 0.173893 0.017125
0.017101 0.173644 0.017101
0.045903 0.174306 0.017983
0.077111 0.175048 0.018942
0.108398 0.175796 0.019903
0.139761 0.176552 0.020867
0.171198 0.177313 0.021834
0.202710 0.178081 0.022804
0.234293 0.178856 0.023776
0.265947 0.179636 0.024751
0.297669 0.180423 0.025729
0.329460 0.181216 0.026709
0.361316 0.182015 0.027692
0.393236 0.182821 0.028676
0.425220 0.183632 0.029664
0.457266 0.184448 0.030653
0.489373 0.185271 0.031645
0.521538 0.186100 0.032639
0.553762 0.186934 0.033636
0.586042 0.187773 0.034634
0.618378 0.188618 0.035635
0.650768 0.189469 0.036637
0.683211 0.190325 0.037642
0.715706 0.191186 0.038648
0.748251 0.192052 0.039657
0.780846 0.192924 0.040667
0.813441 0.193799 0.041678
0.845712 0.194668 0.042679
0.877987 0.195540 0.043681
0.910264 0.196416 0.044682
0.912231 0.196342 0.044731
0.912218 0.196209 0.044718
0.020591 0.209087 0.020591
0.020566 0.208838 0.020566
0.020542 0.208593 0.020542
0.048731 0.209240 0.021406
0.080075 0.209991 0.022369
0.111494 0.210748 0.023335
0.142985 0.211511 0.024304
0.174549 0.212281 0.025275
0.206182 0.213058 0.026249
0.237884 0.213841 0.027226
0.269653 0.214630 0.028205
0.301488 0.215425 0.029187
0.333388 0.216227 0.030170
0.365350 0.217034 0.031157
0.397374 0.217848 0.032145
0.429458 0.218667 0.033136
0.461601 0.219492 0.034130
0.493802 0.220323 0.035125
0.526060 0.221160 0.036122
0.558372 0.222002 0.037122
0.590739 0.222850 0.038124
0.623158 0.223703 0.039127
0.655629 0.224562 0.040133
0.688151 0.225426 0.041141
0.720722 0.226296 0.042150
0.753341 0.227170 0.043162
0.786007 0.228050 0.044175
0.818643 0.228932 0.045188
0.850907 0.229807 0.046189
0.883170 0.230685 0.047191
0.915428 0.231566 0.048192
0.915688 0.231445 0.048188
0.915676 0.231318 0.048176
0.024030 0.244008 0.024030
0.024006 0.243764 0.024006
0.023982 0.243524 0.023982
0.051602 0.244158 0.024829
0.083076 0.244918 0.025796
0.114622 0.245684 0.026767
0.146237 0.246457 0.027740
0.177920 0.247236 0.028716
0.209670 0.248022 0.029694
0.241486 0.248814 0.030675
0.273365 0.249612 0.031658
0.305308 0.250417 0.032643
0.337311 0.251227 0.033631
0.369375 0.252044 0.034621
0.401497 0.252866 0.035613
0.433677 0.253695 0.036608
0.465914 0.254529 0.037604
0.498205 0.255369 0.038603
0.530550 0.256214 0.039604
0.562948 0.257065 0.040607
0.595397 0.257922 0.041612
0.627896 0.258784 0.042619
0.660445 0.259652 0.043627
0.693041 0.260525 0.044638
0.725685 0.261403 0.045651
0.758375 0.262287 0.046665
0.791110 0.263175 0.047681
0.823777 0.264065 0.048695
0.856025 0.264946 0.049697
0.888264 0.265830 0.050698
0.919158 0.266675 0.051658
0.919145 0.266552 0.051645
0.919134 0.266432 0.051634
0.027468 0.278914 0.027468
0.027444 0.278676 0.027444
0.027421 0.278442 0.027421
0.054518 0.279065 0.028251
0.086116 0.279835 0.029224
0.117782 0.280611 0.030199
0.149515 0.281394 0.031176
0.181313 0.282183 0.032156
0.213175 0.282979 0.033138
0.245099 0.283780 0.034123
0.277084 0.284588 0.035110
0.309129 0.285402 0.036099
0.341232 0.286223 0.037091
0.373393 0.287049 0.038085
0.405610 0.287881 0.039080
0.437881 0.288719 0.040078
0.470206 0.289563 0.041079
0.502584 0.290412 0.042081
0.535012 0.291267 0.043085
0.567491 0.292128 0.044091
0.600019 0.292994 0.045099
0.632595 0.293866 0.046109
0.665218 0.294743 0.047121
0.697887 0.295625 0.048134
0.730600 0.296513 0.049150
0.763357 0.297406 0.050167
0.796158 0.298304 0.051185
0.828847 0.299202 0.052201
0.861069 0.300089 0.053202
0.893275 0.300979 0.054204
0.922615 0.301783 0.055115
0.922604 0.301667 0.055104
0.922593 0.301555 0.055093
0.030904 0.313810 0.030904
0.030881 0.313578 0.030881
0.030859 0.313351 0.030859
0.057476 0.313966 0.031675
0.089193 0.314746 0.032652
0.120975 0.315533 0.033631
0.152821 0.316326 0.034612
0.184728 0.317126 0.035596
0.216696 0.317932 0.036583
0.248724 0.318744 0.037571
0.280810 0.319563 0.038562
0.312953 0.320387 0.039555
0.345152 0.321218 0.040551
0.377406 0.322054 0.041548
0.409712 0.322896 0.042547
0.442071 0.323745 0.043549
0.474481 0.324598 0.044552
0.506941 0.325458 0.045558
0.539450 0.326323 0.046565
0.572006 0.327194 0.047574
0.604610 0.328070 0.048586
0.637259 0.328952 0.049599
0.669953 0.329839 0.050613
0.702690 0.330731 0.051630
0.735470 0.331629 0.052648
0.768293 0.332532 0.053668
0.801155 0.333439 0.054689
0.833859 0.334346 0.055706
0.866043 0.335240 0.056707
0.898207 0.336137 0.057708
0.926074 0.336902 0.058574
0.926063 0.336795 0.058563
0.926053 0.336691 0.058553
0.034340 0.348700 0.034340
0.034318 0.348476 0.034318
0.034296 0.348256 0.034296
0.060478 0.348866 0.035099
0.092309 0.349657 0.036080
0.124201 0.350455 0.037064
0.156154 0.351259 0.038050
0.188167 0.352070 0.039038
0.220237 0.352887 0.040028
0.252364 0.353710 0.041020
0.284546 0.354539 0.042015
0.316783 0.355375 0.043012
0.349073 0.356216 0.044011
0.381415 0.357063 0.045012
0.413808 0.357916 0.046015
0.446250 0.358775 0.047019
0.478741 0.359640 0.048026
0.511280 0.360510 0.049035
0.543865 0.361386 0.050046
0.576496 0.362268 0.051058
0.609172 0.363154 0.052072
0.641891 0.364047 0.053088
0.674653 0.364944 0.054106
0.707456 0.365847 0.055125
0.740301 0.366755 0.056146
0.773185 0.367668 0.057169
0.806108 0.368586 0.058193
0.838815 0.369501 0.059211
0.870954 0.370402 0.060211
0.903065 0.371306 0.061211
0.929534 0.372036 0.062034
0.929524 0.371937 0.062024
0.929514 0.371842 0.062014
0.037776 0.383590 0.037776
0.037755 0.383374 0.037755
0.037734 0.383163 0.037734
0.063523 0.383768 0.038525
0.095462 0.384571 0.039511
0.127460 0.385380 0.040498
0.159516 0.386196 0.041488
0.191629 0.387019 0.042480
0.223797 0.387847 0.043474
0.256018 0.388682 0.044470
0.288293 0.389523 0.045469
0.320619 0.390369 0.046469
0.352996 0.391222 0.047472
0.385423 0.392081 0.048476
0.417898 0.392945 0.049482
0.450420 0.393816 0.050491
0.482989 0.394691 0.051501
0.515603 0.395573 0.052513
0.548262 0.396460 0.053526
0.580964 0.397352 0.054542
0.613709 0.398250 0.055559
0.646495 0.399154 0.056578
0.679322 0.400062 0.057599
0.712189 0.400976 0.058621
0.745094 0.401895 0.059645
0.778038 0.402819 0.060670
0.811019 0.403748 0.061697
0.843722 0.404672 0.062716
0.875804 0.405580 0.063715
0.907853 0.406491 0.064714
0.932995 0.407189 0.065495
0.932987 0.407099 0.065487
0.932978 0.407012 0.065478
0.041212 0.418483 0.041212
0.041192 0.418276 0.041192
0.041172 0.418074 0.041172
0.066611 0.418677 0.041953
0.098654 0.419492 0.042943
0.130753 0.420314 0.043934
0.162908 0.421142 0.044928
0.195116 0.421977 0.045924
0.227376 0.422817 0.046922
0.259689 0.423664 0.047922
0.292051 0.424517 0.048924
0.324463 0.425375 0.049928
0.356924 0.426240 0.050934
0.389431 0.427111 0.051942
0.421985 0.427987 0.052951
0.454584 0.428869 0.053963
0.487227 0.429756 0.054976
0.519914 0.430650 0.055991
0.552642 0.431548 0.057008
0.585413 0.432452 0.058027
0.618224 0.433362 0.059047
0.651074 0.434276 0.060069
0.683964 0.435196 0.061092
0.716891 0.436121 0.062117
0.749856 0.437052 0.063144
0.782857 0.437987 0.064172
0.815894 0.438927 0.065202
0.848584 0.439860 0.066221
0.880599 0.440776 0.067219
0.912575 0.441694 0.068216
0.936459 0.442362 0.068959
0.936451 0.442282 0.068951
0.936444 0.442205 0.068944
0.044649 0.453384 0.044649
0.044630 0.453187 0.044630
0.044611 0.452994 0.044611
0.069741 0.453597 0.045383
0.101884 0.454425 0.046377
0.134080 0.455260 0.047372
0.166328 0.456101 0.048370
0.198628 0.456948 0.049370
0.230977 0.457801 0.050371
0.263376 0.458660 0.051375
0.295823 0.459525 0.052381
0.328317 0.460396 0.053388
0.360857 0.461273 0.054398
0.393442 0.462156 0.055409
0.426071 0.463045 0.056422
0.458743 0.463939 0.057437
0.491457 0.464839 0.058453
0.524213 0.465744 0.059472
0.557009 0.466654 0.060491
0.589845 0.467571 0.061513
0.622720 0.468492 0.062536
0.655632 0.469419 0.063561
0.688582 0.470350 0.064587
0.721568 0.471287 0.065615
0.754590 0.472229 0.066644
0.787646 0.473176 0.067675
0.820737 0.474128 0.068707
0.853405 0.475070 0.069727
0.885344 0.475994 0.070723
0.917237 0.476919 0.071719
0.939926 0.477559 0.072426
0.939919 0.477489 0.072419
0.939912 0.477422 0.072412
0.048088 0.488297 0.048088
0.048069 0.488110 0.048069
0.048051 0.487927 0.048051
0.072914 0.488532 0.048816
0.105152 0.489374 0.049814
0.137440 0.490221 0.050813
0.169778 0.491075 0.051815
0.202165 0.491935 0.052818
0.234600 0.492802 0.053823
0.267081 0.493674 0.054831
0.299609 0.494552 0.055840
0.332181 0.495436 0.056851
0.364797 0.496326 0.057864
0.397457 0.497221 0.058878
0.430158 0.498122 0.059894
0.462900 0.499029 0.060912
0.495683 0.499941 0.061932
0.528505 0.500859 0.062953
0.561366 0.501782 0.063976
0.594264 0.502711 0.065001
0.627200 0.503644 0.066027
0.660172 0.504583 0.067055
0.693180 0.505527 0.068084
0.726222 0.506476 0.069114
0.759299 0.507430 0.070146
0.792409 0.508389 0.071180
0.825552 0.509353 0.072215
0.858189 0.510305 0.073234
0.890042 0.511236 0.074229
0.921842 0.512169 0.075223
0.943394 0.512783 0.075894
0.943388 0.512723 0.075888
0.943383 0.512667 0.075883
0.051527 0.523226 0.051527
0.051510 0.523049 0.051510
0.051493 0.522877 0.051493
0.076130 0.523486 0.052252
0.108458 0.524341 0.053253
0.140834 0.525202 0.054257
0.173258 0.526070 0.055262
0.205729 0.526943 0.056269
0.238245 0.527823 0.057278
0.270806 0.528708 0.058289
0.303410 0.529600 0.059301
0.336058 0.530497 0.060316
0.368747 0.531400 0.061332
0.401477 0.532309 0.062350
0.434247 0.533223 0.063369
0.467057 0.534142 0.064390
0.499905 0.535068 0.065413
0.532791 0.535998 0.066437
0.565714 0.536934 0.067463
0.598673 0.537875 0.068491
0.631668 0.538822 0.069520
0.664697 0.539773 0.070550
0.697761 0.540730 0.071582
0.730858 0.541691 0.072615
0.763987 0.542658 0.073650
0.797149 0.543629 0.074686
0.830343 0.544605 0.075724
0.862942 0.545567 0.076743
0.894699 0.546505 0.077736
0.926397 0.547446 0.078727
0.946866 0.548037 0.079366
0.946861 0.547987 0.079361
0.946857 0.547941 0.079357
0.054969 0.558173 0.054969
0.054953 0.558008 0.054953
0.054937 0.557848 0.054937
0.079387 0.558462 0.055691
0.111802 0.559331 0.056696
0.144262 0.560206 0.057703
0.176769 0.561088 0.058712
0.209319 0.561975 0.059723
0.241913 0.562868 0.060735
0.274550 0.563768 0.061750
0.307228 0.564673 0.062766
0.339947 0.565583 0.063783
0.372707 0.566500 0.064803
0.405505 0.567422 0.065824
0.438342 0.568349 0.066846
0.471216 0.569282 0.067871
0.504127 0.570221 0.068897
0.537075 0.571164 0.069924
0.570057 0.572113 0.070953
0.603075 0.573068 0.071983
0.636126 0.574027 0.073015
0.669211 0.574991 0.074048
0.702329 0.575961 0.075083
0.735478 0.576935 0.076119
0.768660 0.577914 0.077156
0.801872 0.578898 0.078195
0.835115 0.579887 0.079235
0.867668 0.580858 0.080254
0.899319 0.581804 0.081245
0.930904 0.582752 0.082234
0.950341 0.583322 0.082841
0.950337 0.583283 0.082837
0.950334 0.583248 0.082834
0.058413 0.593144 0.058413
0.058398 0.592990 0.058398
0.058383 0.592842 0.058383
0.082686 0.593463 0.059134
0.115183 0.594347 0.060143
0.147725 0.595236 0.061153
0.180310 0.596132 0.062166
0.212937 0.597033 0.063180
0.245605 0.597941 0.064196
0.278315 0.598854 0.065214
0.311064 0.599773 0.066233
0.343852 0.600698 0.067254
0.376678 0.601628 0.068277
0.409542 0.602564 0.069301
0.442443 0.603505 0.070327
0.475379 0.604451 0.071354
0.508351 0.605403 0.072383
0.541357 0.606360 0.073413
0.574398 0.607323 0.074445
0.607472 0.608290 0.075478
0.640578 0.609263 0.076513
0.673717 0.610240 0.077549
0.706887 0.611223 0.078586
0.740088 0.612210 0.079625
0.773319 0.613203 0.080665
0.806580 0.614199 0.081707
0.839871 0.615201 0.082749
0.872371 0.616182 0.083767
0.903906 0.617135 0.084756
0.935370 0.618091 0.085742
0.953819 0.618640 0.086319
0.953817 0.618613 0.086317
0.953814 0.618589 0.086314
0.061859 0.628140 0.061859
0.061846 0.627999 0.061846
0.061832 0.627863 0.061832
0.086026 0.628493 0.062580
0.118603 0.629391 0.063593
0.151221 0.630295 0.064607
0.183881 0.631205 0.065623
0.216582 0.632121 0.066641
0.249322 0.633043 0.067660
0.282101 0.633971 0.068681
0.314918 0.634904 0.069704
0.347772 0.635843 0.070728
0.380663 0.636787 0.071754
0.413590 0.637737 0.072781
0.446552 0.638692 0.073810
0.479548 0.639652 0.074841
0.512579 0.640618 0.075872
0.545642 0.641589 0.076906
0.578738 0.642565 0.077940
0.611867 0.643546 0.078976
0.645026 0.644532 0.080014
0.678217 0.645523 0.081053
0.711438 0.646519 0.082093
0.744689 0.647519 0.083134
0.777970 0.648525 0.084177
0.811279 0.649535 0.085221
0.844617 0.650549 0.086266
0.877056 0.651539 0.087284
0.908465 0.652501 0.088269
0.939797 0.653463 0.089252
0.957301 0.653994 0.089801
0.957299 0.653979 0.089799
0.957298 0.653966 0.089798
0.065309 0.663165 0.065309
0.065296 0.663037 0.065296
0.065284 0.662913 0.065284
0.089407 0.663554 0.066031
0.122060 0.664467 0.067047
0.154752 0.665386 0.068065
0.187484 0.666311 0.069085
0.220255 0.667242 0.070106
0.253064 0.668178 0.071128
0.285909 0.669120 0.072153
0.318792 0.670068 0.073179
0.351710 0.671021 0.074206
0.384663 0.671980 0.075235
0.417650 0.672944 0.076265
0.450671 0.673913 0.077297
0.483726 0.674887 0.078331
0.516812 0.675867 0.079365
0.549931 0.676852 0.080402
0.583082 0.677842 0.081439
0.616263 0.678836 0.082478
0.649474 0.679836 0.083518
0.682716 0.680841 0.084560
0.715987 0.681850 0.085603
0.749286 0.682864 0.086647
0.782615 0.683883 0.087692
0.815971 0.684906 0.088739
0.849355 0.685934 0.089787
0.881727 0.686934 0.090803
0.913001 0.687902 0.091785
0.944192 0.688872 0.092765
0.960786 0.689386 0.093286
0.960786 0.689382 0.093286
0.960786 0.689381 0.093286
0.068761 0.698222 0.068761
0.068750 0.698107 0.068750
0.068739 0.697996 0.068739
0.092829 0.698649 0.069486
0.125554 0.699577 0.070506
0.158317 0.700511 0.071527
0.191119 0.701451 0.072550
0.223957 0.702397 0.073575
0.256831 0.703348 0.074601
0.289741 0.704305 0.075628
0.322686 0.705267 0.076657
0.355665 0.706235 0.077688
0.388678 0.707208 0.078720
0.421724 0.708187 0.079753
0.454803 0.709170 0.080788
0.487913 0.710159 0.081825
0.521055 0.711153 0.082862
0.554227 0.712152 0.083901
0.587430 0.713156 0.084942
0.620663 0.714164 0.085983
0.653925 0.715178 0.087026
0.687216 0.716196 0.088071
0.720535 0.717219 0.089116
0.753883 0.718247 0.090163
0.787258 0.719279 0.091211
0.820661 0.720316 0.092260
0.854091 0.721357 0.093311
0.886389 0.722366 0.094326
0.917519 0.723342 0.095305
0.948558 0.724319 0.096281
0.964275 0.724817 0.096775
0.964276 0.724824 0.096776
0.964277 0.724834 0.096777
0.072217 0.733314 0.072217
0.072207 0.733212 0.072207
0.072197 0.733114 0.072197
0.096291 0.733780 0.072946
0.129085 0.734724 0.073969
0.161917 0.735673 0.074994
0.194784 0.736629 0.076020
0.227687 0.737589 0.077048
0.260625 0.738556 0.078077
0.293597 0.739528 0.079108
0.326602 0.740505 0.080140
0.359641 0.741487 0.081174
0.392711 0.742475 0.082209
0.425814 0.743468 0.083245
0.458948 0.744466 0.084283
0.492112 0.745469 0.085322
0.525307 0.746477 0.086363
0.558532 0.747491 0.087405
0.591786 0.748508 0.088448
0.625069 0.749531 0.089493
0.658380 0.750559 0.090538
0.691720 0.751591 0.091585
0.725087 0.752628 0.092634
0.758482 0.753669 0.093683
0.791904 0.754715 0.094734
0.825353 0.755765 0.095785
0.858828 0.756820 0.096838
0.891047 0.757838 0.097852
0.922022 0.758821 0.098827
0.952901 0.759804 0.099800
0.967769 0.760288 0.100269
0.967771 0.760306 0.100271
0.967773 0.760328 0.100273
0.075676 0.768442 0.075676
0.075668 0.768354 0.075668
0.075659 0.768270 0.075659
0.099792 0.768950 0.076411
0.132653 0.769910 0.077437
0.165550 0.770875 0.078465
0.198481 0.771845 0.079495
0.231447 0.772821 0.080526
0.264445 0.773803 0.081558
0.297477 0.774790 0.082592
0.330541 0.775782 0.083627
0.363636 0.776779 0.084664
0.396763 0.777782 0.085702
0.429920 0.778790 0.086742
0.463108 0.779802 0.087782
0.496325 0.780820 0.088825
0.529572 0.781843 0.089868
0.562848 0.782870 0.090913
0.596152 0.783902 0.091959
0.629484 0.784939 0.093006
0.662844 0.785980 0.094054
0.696231 0.787027 0.095104
0.729646 0.788077 0.096155
0.763087 0.789132 0.097207
0.796555 0.790192 0.098260
0.830050 0.791256 0.099315
0.863570 0.792324 0.100370
0.895704 0.793352 0.101383
0.926515 0.794341 0.102354
0.957224 0.795331 0.103322
0.971266 0.795800 0.103766
0.971269 0.795830 0.103769
0.971272 0.795864 0.103772
0.079140 0.803609 0.079140
0.079132 0.803535 0.079132
0.079125 0.803465 0.079125
0.103332 0.804161 0.079881
0.136258 0.805137 0.080910
0.169217 0.806117 0.081942
0.202210 0.807103 0.082974
0.235236 0.808095 0.084008
0.268293 0.809092 0.085044
0.301383 0.810094 0.086081
0.334503 0.811101 0.087119
0.367654 0.812113 0.088159
0.400835 0.813131 0.089200
0.434046 0.814153 0.090243
0.467286 0.815181 0.091286
0.500554 0.816213 0.092331
0.533852 0.817250 0.093377
0.567177 0.818292 0.094425
0.600530 0.819338 0.095474
0.633911 0.820389 0.096524
0.667319 0.821445 0.097575
0.700753 0.822505 0.098627
0.734215 0.823569 0.099681
0.767702 0.824638 0.100735
0.801216 0.825711 0.101791
0.834756 0.826789 0.102848
0.868322 0.827870 0.103906
0.900365 0.828907 0.104917
0.931003 0.829903 0.105884
0.961533 0.830899 0.106847
0.974767 0.831354 0.107267
0.974771 0.831396 0.107271
0.974776 0.831442 0.107276
0.082607 0.838818 0.082607
0.082601 0.838758 0.082601
0.082596 0.838702 0.082596
0.106911 0.839416 0.083355
0.139899 0.840406 0.084388
0.172919 0.841403 0.085423
0.205971 0.842404 0.086459
0.239054 0.843411 0.087496
0.272169 0.844423 0.088535
0.305314 0.845441 0.089575
0.338489 0.846463 0.090616
0.371694 0.847491 0.091659
0.404928 0.848523 0.092703
0.438191 0.849560 0.093748
0.471482 0.850602 0.094795
0.504801 0.851649 0.095843
0.538148 0.852701 0.096892
0.571522 0.853757 0.097942
0.604924 0.854818 0.098993
