library/cube/Crimson_Shadow_001.cube
# CINEGRADE LAB — Premium Cinematic LUT
# Title: Crimson Shadow
# Category: Cinematic Shadows
# Description: Crushed blacks with teal shadows and warm highlights for cinema-inspired images
# Mood: Dramatic, cinematic, bold
# Variant: 2
# Generated: 2026-05-21T16:12:12.359545
TITLE "Crimson Shadow"
LUT_3D_SIZE 9
0.000000 0.000000 0.000000
0.064527 0.002029 0.002029
0.185970 0.005849 0.005849
0.308985 0.009718 0.009718
0.433451 0.013632 0.013632
0.559256 0.017589 0.017589
0.686292 0.021584 0.021584
0.814392 0.025613 0.025613
0.895670 0.028169 0.028169
0.006810 0.069148 0.006810
0.068443 0.070076 0.008651
0.192375 0.073025 0.012458
0.317629 0.076077 0.016313
0.444099 0.079226 0.020211
0.571686 0.082469 0.024150
0.700297 0.085800 0.028127
0.829613 0.089207 0.032131
0.901844 0.090872 0.034344
0.020591 0.209087 0.020591
0.080075 0.209991 0.022369
0.206182 0.213058 0.026249
0.333388 0.216227 0.030170
0.461601 0.219492 0.034130
0.590739 0.222850 0.038124
0.720722 0.226296 0.042150
0.850907 0.229807 0.046189
0.915676 0.231318 0.048176
0.034340 0.348700 0.034340
0.092309 0.349657 0.036080
0.220237 0.352887 0.040028
0.349073 0.356216 0.044011
0.478741 0.359640 0.048026
0.609172 0.363154 0.052072
0.740301 0.366755 0.056146
0.870954 0.370402 0.060211
0.929514 0.371842 0.062014
0.048088 0.488297 0.048088
0.105152 0.489374 0.049814
0.234600 0.492802 0.053823
0.364797 0.496326 0.057864
0.495683 0.499941 0.061932
0.627200 0.503644 0.066027
0.759299 0.507430 0.070146
0.890042 0.511236 0.074229
0.943383 0.512667 0.075883
0.061859 0.628140 0.061859
0.118603 0.629391 0.063593
0.249322 0.633043 0.067660
0.380663 0.636787 0.071754
0.512579 0.640618 0.075872
0.645026 0.644532 0.080014
0.777970 0.648525 0.084177
0.908465 0.652501 0.088269
0.957298 0.653966 0.089798
0.075676 0.768442 0.075676
0.132653 0.769910 0.077437
0.264445 0.773803 0.081558
0.396763 0.777782 0.085702
0.529572 0.781843 0.089868
0.662844 0.785980 0.094054
0.796555 0.790192 0.098260
0.926515 0.794341 0.102354
0.971272 0.795864 0.103772
0.089538 0.909199 0.089538
0.147275 0.910948 0.091348
0.279995 0.915117 0.095521
0.413174 0.919362 0.099715
0.546792 0.923677 0.103928
0.680833 0.928058 0.108160
0.815287 0.932503 0.112409
0.944477 0.936830 0.116498
0.985311 0.938421 0.117811
0.094764 0.962264 0.094764
0.153730 0.964119 0.096619
0.287258 0.968318 0.100818
0.421202 0.972531 0.105031
0.555558 0.976756 0.109256
0.690322 0.980995 0.113495
0.825500 0.985246 0.117746
0.953691 0.989278 0.121778
0.990433 0.990433 0.122933
0.000857 0.000857 0.078559
0.065050 0.002854 0.078504
0.186753 0.006661 0.080367
0.310001 0.010517 0.082385
0.434676 0.014420 0.084551
0.560666 0.018365 0.086858
0.687865 0.022349 0.089299
0.816098 0.026366 0.091866
0.896377 0.028877 0.093014
0.007561 0.069582 0.078785
0.068931 0.070505 0.078901
0.193084 0.073465 0.081097
0.318536 0.076527 0.083435
0.445183 0.079687 0.085907
0.572926 0.082939 0.088508
0.701676 0.086280 0.091231
0.831086 0.089696 0.094062
0.902489 0.091341 0.095153
0.021284 0.209476 0.087169
0.080573 0.210382 0.087542
0.206867 0.213464 0.090117
0.334238 0.216648 0.092817
0.462600 0.219927 0.095634
0.591868 0.223299 0.098564
0.721966 0.226758 0.101600
0.852208 0.230281 0.104718
0.916288 0.231781 0.105829
0.034989 0.349076 0.096549
0.092828 0.350041 0.097168
0.220912 0.353289 0.100080
0.349887 0.356636 0.103100
0.479680 0.360078 0.106223
0.610220 0.363609 0.109442
0.741446 0.367225 0.112753
0.872118 0.370886 0.116113
0.930105 0.372321 0.117250
0.048704 0.488685 0.106833
0.105701 0.489776 0.107685
0.235280 0.493224 0.110893
0.365594 0.496768 0.114193
0.496584 0.500403 0.117581
0.628195 0.504124 0.121051
0.760378 0.507928 0.124598
0.891106 0.511749 0.128155
0.943959 0.513179 0.129315
0.062452 0.628561 0.117925
0.119188 0.629831 0.118995
0.250017 0.633505 0.122458
0.381458 0.637270 0.125999
0.513464 0.641121 0.129613
0.645994 0.645054 0.133294
0.779013 0.649066 0.137040
0.909463 0.653056 0.140750
0.957866 0.654523 0.141920
0.076254 0.768913 0.129723
0.133279 0.770402 0.130995
0.265166 0.774317 0.134673
0.397571 0.778318 0.138414
0.530460 0.782398 0.142215
0.663808 0.786556 0.146071
0.797591 0.790785 0.149978
0.927479 0.794948 0.153796
0.971835 0.796473 0.154954
0.090109 0.909742 0.142106
0.147945 0.911512 0.143564
0.280749 0.915702 0.147419
0.414007 0.919965 0.151325
0.547700 0.924298 0.155277
0.681814 0.928697 0.159271
0.816341 0.933158 0.163304
0.945439 0.937495 0.167187
0.985873 0.939085 0.168301
0.095326 0.962826 0.146263
0.154439 0.964682 0.147866
0.288041 0.968882 0.151834
0.422060 0.973094 0.155835
0.556488 0.977320 0.159865
0.691327 0.981559 0.163922
0.826582 0.985811 0.168002
0.954665 0.989838 0.171863
0.990978 0.990978 0.172841
0.002362 0.002362 0.216571
0.066243 0.004342 0.215760
0.188214 0.008149 0.216925
0.311704 0.012007 0.218282
0.436596 0.015909 0.219824
0.562779 0.019854 0.221540
0.690150 0.023837 0.223424
0.818520 0.027854 0.225465
0.897828 0.030328 0.226083
0.009006 0.070717 0.214407
0.070132 0.071647 0.213899
0.194514 0.074629 0.215520
0.320171 0.077712 0.217315
0.447000 0.080892 0.219277
0.574907 0.084163 0.221397
0.703800 0.087522 0.223668
0.833309 0.090954 0.226073
0.903906 0.092588 0.226736
0.022710 0.210606 0.220846
0.081820 0.211524 0.220709
0.208305 0.214630 0.222815
0.335848 0.217836 0.225074
0.464362 0.221137 0.227477
0.593766 0.224530 0.230018
0.723984 0.228009 0.232691
0.854284 0.231549 0.235466
0.917695 0.233044 0.236233
0.036401 0.350222 0.228640
0.094124 0.351204 0.228847
0.222368 0.354477 0.231381
0.351487 0.357848 0.234046
0.481407 0.361312 0.236837
0.612061 0.364866 0.239745
0.743387 0.368503 0.242765
0.874078 0.372182 0.245850
0.931506 0.373616 0.246712
0.050107 0.489868 0.237645
0.107048 0.490979 0.238168
0.236761 0.494453 0.241073
0.367195 0.498021 0.244090
0.498293 0.501679 0.247213
0.630000 0.505423 0.250435
0.762270 0.509249 0.253749
0.892981 0.513086 0.257085
0.945356 0.514518 0.258022
0.063850 0.629796 0.247714
0.120588 0.631088 0.248522
0.251530 0.634787 0.251744
0.383072 0.638576 0.255058
0.515170 0.642450 0.258459
0.647784 0.646406 0.261941
0.780881 0.650438 0.265497
0.911283 0.654445 0.269024
0.959262 0.655915 0.270008
0.077650 0.770209 0.258694
0.134732 0.771723 0.259757
0.266714 0.775662 0.263240
0.399207 0.779686 0.266797
0.532178 0.783789 0.270422
0.665603 0.787967 0.274112
0.799459 0.792216 0.277858
0.929275 0.796393 0.281517
0.973232 0.797920 0.282511
0.091506 0.911119 0.270416
0.149449 0.912912 0.271703
0.282338 0.917123 0.275394
0.415675 0.921406 0.279142
0.549444 0.925758 0.282942
0.683633 0.930175 0.286788
0.818233 0.934652 0.290674
0.947239 0.938999 0.294409
0.987271 0.940590 0.295363
0.096719 0.964219 0.274010
0.155984 0.966079 0.275463
0.289663 0.970279 0.279282
0.423756 0.974492 0.283137
0.558258 0.978719 0.287022
0.693173 0.982959 0.290933
0.828505 0.987212 0.294865
0.956478 0.991233 0.298571
0.992358 0.992358 0.299379
0.003862 0.003862 0.354053
0.067436 0.005824 0.352514
0.189672 0.009633 0.353008
0.313400 0.013491 0.353731
0.438505 0.017394 0.354671
0.564878 0.021338 0.355821
0.692416 0.025321 0.357170
0.820921 0.029337 0.358707
0.899276 0.031776 0.358818
0.010448 0.071855 0.349590
0.071336 0.072792 0.348482
0.195943 0.075796 0.349552
0.321801 0.078900 0.350827
0.448810 0.082099 0.352299
0.576876 0.085389 0.353958
0.705911 0.088766 0.355796
0.835514 0.092216 0.357795
0.905320 0.093837 0.358048
0.024133 0.211739 0.354163
0.083070 0.212669 0.353536
0.209744 0.215799 0.355193
0.337455 0.219028 0.357030
0.466120 0.222351 0.359038
0.595657 0.225764 0.361208
0.725992 0.229263 0.363533
0.856346 0.232821 0.365980
0.919100 0.234310 0.366419
0.037811 0.351373 0.360438
0.095424 0.352373 0.360250
0.223826 0.355671 0.362423
0.353085 0.359065 0.364750
0.483130 0.362552 0.367224
0.613895 0.366127 0.369836
0.745321 0.369786 0.372578
0.876028 0.373483 0.375401
0.932905 0.374916 0.375999
0.051508 0.491056 0.368221
0.108400 0.492188 0.368429
0.238244 0.495687 0.371046
0.368796 0.499280 0.373793
0.499999 0.502961 0.376663
0.631802 0.506727 0.379648
0.764157 0.510574 0.382740
0.894849 0.514428 0.385864
0.946753 0.515863 0.386588
0.065247 0.631037 0.377314
0.121993 0.632351 0.377873
0.253045 0.636076 0.380863
0.384687 0.639889 0.383961
0.516876 0.643786 0.387159
0.649573 0.647763 0.390449
0.782746 0.651816 0.393824
0.913100 0.655838 0.397174
0.960658 0.657312 0.397979
0.079045 0.771513 0.387513
0.136189 0.773050 0.388377
0.268266 0.777014 0.391672
0.400845 0.781060 0.395051
0.533898 0.785185 0.398508
0.667398 0.789383 0.402036
0.801328 0.793652 0.405627
0.931069 0.797843 0.409131
0.974628 0.799372 0.409962
0.092903 0.912502 0.398600
0.150958 0.914317 0.399722
0.283930 0.918549 0.403255
0.417346 0.922852 0.406850
0.551191 0.927223 0.410501
0.685454 0.931657 0.414200
0.820128 0.936151 0.417943
0.949039 0.940508 0.421528
0.988667 0.942097 0.422324
0.098111 0.965611 0.401648
0.157534 0.967474 0.402954
0.291288 0.971675 0.406627
0.425455 0.975890 0.410337
0.560032 0.980117 0.414077
0.695022 0.984357 0.417841
0.830432 0.988611 0.421626
0.958294 0.992627 0.425173
0.993737 0.993737 0.425809
0.005356 0.005356 0.491022
0.068631 0.007301 0.488782
0.191127 0.011111 0.488630
0.315089 0.014970 0.488742
0.440403 0.018874 0.489107
0.566963 0.022818 0.489713
0.694666 0.026801 0.490550
0.823301 0.030815 0.491604
0.900720 0.033220 0.491228
0.011886 0.072996 0.484346
0.072543 0.073941 0.482663
0.197370 0.076966 0.483204
0.323426 0.080090 0.483981
0.450613 0.083309 0.484984
0.578836 0.086618 0.486203
0.708008 0.090013 0.487627
0.837703 0.093479 0.489236
0.906732 0.095089 0.489098
0.025553 0.212876 0.487129
0.084324 0.213819 0.486034
0.211183 0.216972 0.487262
0.339060 0.220224 0.488696
0.467871 0.223568 0.490326
0.597539 0.227002 0.492142
0.727990 0.230521 0.494135
0.858395 0.234097 0.496270
0.920503 0.235581 0.496395
0.039218 0.352530 0.491952
0.096729 0.353547 0.491388
0.225284 0.356869 0.493215
0.354681 0.360287 0.495220
0.484850 0.363797 0.497392
0.615725 0.367394 0.499721
0.747248 0.371073 0.502199
0.877967 0.374787 0.504772
0.934303 0.376220 0.505119
0.052908 0.492251 0.498568
0.109757 0.493403 0.498477
0.239729 0.496928 0.500819
0.370397 0.500544 0.503309
0.501704 0.504249 0.505938
0.633600 0.508037 0.508697
0.766040 0.511904 0.511577
0.896709 0.515775 0.514498
0.948149 0.517212 0.515017
0.066643 0.632284 0.506730
0.123402 0.633621 0.507052
0.254562 0.637371 0.509823
0.386303 0.641207 0.512714
0.518581 0.645127 0.515717
0.651361 0.649126 0.518823
0.784611 0.653199 0.522024
0.914912 0.657237 0.525204
0.962053 0.658713 0.525834
0.080440 0.772823 0.516185
0.137650 0.774384 0.516858
0.269820 0.778372 0.519973
0.402486 0.782441 0.523182
0.535619 0.786587 0.526476
0.669195 0.790805 0.529847
0.803197 0.795093 0.533287
0.932862 0.799297 0.536639
0.976024 0.800829 0.537311
0.094299 0.913891 0.526663
0.152471 0.915729 0.527626
0.285525 0.919981 0.531004
0.419020 0.924304 0.534450
0.552941 0.928692 0.537954
0.687278 0.933144 0.541510
0.822026 0.937654 0.545110
0.950841 0.942020 0.548547
0.990063 0.943608 0.549182
0.099502 0.967002 0.529180
0.159086 0.968869 0.530342
0.292915 0.973071 0.533870
0.427157 0.977286 0.537435
0.561808 0.981514 0.541030
0.696875 0.985755 0.544648
0.832365 0.990010 0.548282
0.960114 0.994021 0.551669
0.995115 0.995115 0.552128
0.006844 0.006844 0.627490
0.069827 0.008773 0.624576
0.192579 0.012585 0.623804
0.316771 0.016445 0.623331
0.442291 0.020349 0.623142
0.569034 0.024294 0.623227
0.696899 0.028276 0.623574
0.825660 0.032289 0.624166
0.902161 0.034661 0.623323
0.013320 0.074139 0.618688
0.073752 0.075092 0.616453
0.198797 0.078138 0.616487
0.325048 0.081283 0.616787
0.452407 0.084522 0.617342
0.580785 0.087850 0.618140
0.710093 0.091263 0.619169
0.839874 0.094745 0.620407
0.908142 0.096345 0.619895
0.026970 0.214017 0.619755
0.085582 0.214974 0.618212
0.212622 0.218150 0.619030
0.340661 0.221424 0.620080
0.469618 0.224790 0.621349
0.599414 0.228244 0.622828
0.729979 0.231783 0.624504
0.860430 0.235376 0.626343
0.921905 0.236855 0.626168
0.040623 0.353692 0.623190
0.098037 0.354726 0.622267
0.226744 0.358073 0.623767
0.356277 0.361515 0.625464
0.486566 0.365047 0.627348
0.617549 0.368665 0.629408
0.749169 0.372365 0.631634
0.879896 0.376096 0.633969
0.935700 0.377528 0.634075
0.054306 0.493453 0.628695
0.111117 0.494625 0.628318
0.241217 0.498174 0.630399
0.371998 0.501815 0.632644
0.503408 0.505542 0.635043
0.635396 0.509351 0.637587
0.767919 0.513239 0.640265
0.898563 0.517127 0.642992
0.949544 0.518566 0.643314
0.068037 0.633538 0.635971
0.124815 0.634898 0.636065
0.256083 0.638672 0.638627
0.387920 0.642532 0.641321
0.520287 0.646474 0.644138
0.653149 0.650494 0.647067
0.786474 0.654587 0.650100
0.916720 0.658640 0.653117
0.963448 0.660119 0.653577
0.081833 0.774140 0.644714
0.139116 0.775725 0.645204
0.271378 0.779736 0.648147
0.404129 0.783827 0.651192
0.537341 0.787994 0.654328
0.670993 0.792233 0.657547
0.805068 0.796539 0.660840
0.934654 0.800755 0.664042
0.977419 0.802289 0.664557
0.095694 0.915285 0.654607
0.153988 0.917146 0.655416
0.287124 0.921419 0.658644
0.420697 0.925760 0.661944
0.554693 0.930167 0.665305
0.689104 0.934634 0.668718
0.823927 0.939160 0.672176
0.952645 0.943536 0.675464
0.991459 0.945122 0.675939
0.100892 0.968392 0.656605
0.160642 0.970262 0.657625
0.294546 0.974465 0.661010
0.428862 0.978681 0.664431
0.563588 0.982910 0.667881
0.698732 0.987152 0.671351
0.834302 0.991407 0.674833
0.961937 0.995413 0.678056
0.996491 0.996491 0.678335
0.008327 0.008327 0.763471
0.071025 0.010241 0.759910
0.194028 0.014054 0.758543
0.318446 0.017915 0.757507
0.444169 0.021820 0.756789
0.571092 0.025765 0.756376
0.699116 0.029747 0.756253
0.827999 0.033760 0.756403
0.903599 0.036099 0.755113
0.014750 0.075285 0.752628
0.074965 0.076246 0.749864
0.200223 0.079314 0.749413
0.326665 0.082479 0.749257
0.454195 0.085738 0.749384
0.582724 0.089085 0.749780
0.712166 0.092516 0.750432
0.842030 0.096014 0.751315
0.909550 0.097603 0.750446
0.028384 0.215163 0.752053
0.086843 0.216133 0.750082
0.214061 0.219332 0.750509
0.342261 0.222628 0.751192
0.471360 0.226016 0.752117
0.601282 0.229491 0.753274
0.731959 0.233049 0.754650
0.862451 0.236658 0.756205
0.923305 0.238133 0.755745
0.042026 0.354860 0.754163
0.099349 0.355911 0.752897
0.228206 0.359282 0.754084
0.357872 0.362747 0.755489
0.488280 0.366302 0.757099
0.619369 0.369941 0.758903
0.751083 0.373661 0.760890
0.881815 0.377410 0.762997
0.937096 0.378841 0.762874
0.055702 0.494660 0.758608
0.112482 0.495852 0.757960
0.242706 0.499426 0.759792
0.373600 0.503090 0.761804
0.505110 0.506840 0.763985
0.637189 0.510671 0.766323
0.769795 0.514580 0.768807
0.900410 0.518484 0.771349
0.950938 0.519924 0.771481
0.069431 0.634799 0.765040
0.126233 0.636182 0.764919
0.257606 0.639980 0.767281
0.389539 0.643863 0.769786
0.521994 0.647827 0.772425
0.654935 0.651867 0.775185
0.788336 0.655980 0.778057
0.918524 0.660048 0.780914
0.964842 0.661529 0.781210
0.083226 0.775464 0.773104
0.140586 0.777072 0.773420
0.272939 0.781107 0.776197
0.405774 0.785219 0.779083
0.539065 0.789407 0.782067
0.672792 0.793665 0.785139
0.806940 0.797989 0.788287
0.936445 0.802218 0.791342
0.978813 0.803753 0.791701
0.097089 0.916686 0.782434
0.155509 0.918569 0.783094
0.288726 0.922861 0.786177
0.422377 0.927221 0.789333
0.556448 0.931645 0.792553
0.690934 0.936130 0.795825
0.825833 0.940671 0.799141
0.954450 0.945055 0.802280
0.992853 0.946639 0.802592
0.102281 0.969781 0.783926
0.162201 0.971655 0.784807
0.296180 0.975858 0.788049
0.430570 0.980075 0.791327
0.565372 0.984305 0.794630
0.700593 0.988548 0.797950
0.836245 0.992804 0.801278
0.963765 0.996805 0.804334
0.997867 0.997867 0.804428
0.009374 0.009374 0.859394
0.071828 0.011308 0.858486
0.195112 0.015156 0.859638
0.319785 0.019050 0.860975
0.445736 0.022985 0.862485
0.572864 0.026959 0.864160
0.701070 0.030968 0.865990
0.830096 0.035004 0.867961
0.904834 0.037334 0.868335
0.015857 0.076115 0.856884
0.075891 0.077112 0.856285
0.201385 0.080229 0.857876
0.328041 0.083441 0.859629
0.455762 0.086743 0.861534
0.584462 0.090130 0.863582
0.714056 0.093600 0.865764
0.844017 0.097133 0.868059
0.910822 0.098730 0.868462
0.029566 0.216084 0.863074
0.087903 0.217090 0.862826
0.215318 0.220335 0.864861
0.343694 0.223673 0.867032
0.472951 0.227100 0.869330
0.603015 0.230613 0.871747
0.733817 0.234206 0.874275
0.864363 0.237846 0.876876
0.924619 0.239330 0.877342
0.043271 0.355876 0.870505
0.100527 0.356962 0.870564
0.229546 0.360374 0.872972
0.359358 0.363878 0.875491
0.489898 0.367468 0.878114
0.621104 0.371141 0.880832
0.752923 0.374893 0.883638
0.883666 0.378668 0.886472
0.938441 0.380109 0.886975
0.056996 0.495772 0.878981
0.113764 0.496998 0.879305
0.244122 0.500609 0.882016
0.375137 0.504307 0.884815
0.506756 0.508089 0.887695
0.638933 0.511950 0.890648
0.771628 0.515886 0.893667
0.902218 0.519813 0.896663
0.952306 0.521262 0.897166
0.070762 0.636005 0.888307
0.127604 0.637419 0.888852
0.259088 0.641250 0.891799
0.391123 0.645163 0.894812
0.523671 0.649155 0.897883
0.656698 0.653222 0.901005
0.790178 0.657360 0.904173
0.920311 0.661445 0.907260
0.966224 0.662933 0.907718
0.084585 0.776760 0.898287
0.142033 0.778399 0.899009
0.274481 0.782461 0.902124
0.407404 0.786600 0.905284
0.540778 0.790812 0.908481
0.674583 0.795092 0.911710
0.808807 0.799437 0.914963
0.938231 0.803680 0.918071
0.980204 0.805218 0.918429
0.098468 0.918076 0.908711
0.157023 0.919985 0.909566
0.290323 0.924300 0.912786
0.424054 0.928681 0.916030
0.558202 0.933124 0.919291
0.692765 0.937626 0.922563
0.827740 0.942183 0.925840
0.956257 0.946576 0.928902
0.994247 0.948158 0.929097
0.103663 0.971163 0.910626
0.163760 0.973043 0.911534
0.297815 0.977248 0.914759
0.432280 0.981467 0.917984
0.567159 0.985698 0.921204
0.702459 0.989942 0.924412
0.838193 0.994200 0.927603
0.965596 0.998195 0.930498
0.999241 0.999241 0.930404
0.009566 0.009566 0.877067
0.071787 0.011523 0.879023
0.195350 0.015410 0.882910
0.320275 0.019339 0.886839
0.446454 0.023307 0.890807
0.573786 0.027312 0.894812
0.702174 0.031350 0.898850
0.831341 0.035412 0.902912
0.905236 0.037736 0.905236
0.016119 0.076105 0.883619
0.075980 0.077143 0.885421
0.201711 0.080311 0.889300
0.328579 0.083571 0.893220
0.456492 0.086919 0.897179
0.585362 0.090351 0.901172
0.715110 0.093862 0.905199
0.845168 0.097433 0.909239
0.911273 0.099042 0.911273
0.029914 0.216177 0.897414
0.088136 0.217223 0.899170
0.215748 0.220515 0.903114
0.344302 0.223898 0.907094
0.473718 0.227369 0.911107
0.603925 0.230922 0.915150
0.734854 0.234554 0.919222
0.865453 0.238230 0.923288
0.925128 0.239728 0.925128
0.043691 0.356075 0.911191
0.100890 0.357200 0.912925
0.230074 0.360657 0.916930
0.360034 0.364203 0.920966
0.490706 0.367833 0.925030
0.622033 0.371545 0.929120
0.753960 0.375334 0.933235
0.884717 0.379141 0.937318
0.939001 0.380597 0.939001
0.057478 0.496080 0.924978
0.114245 0.497345 0.926714
0.244741 0.500997 0.930775
0.375880 0.504735 0.934862
0.507613 0.508554 0.938975
0.639894 0.512451 0.943110
0.772684 0.516422 0.947266
0.903252 0.520378 0.951358
0.952911 0.521843 0.952911
0.071300 0.636425 0.938800
0.128193 0.637877 0.940557
0.259794 0.641746 0.944670
0.391936 0.645696 0.948806
0.524583 0.649723 0.952964
0.657702 0.653824 0.957143
0.791270 0.657993 0.961340
0.921352 0.662105 0.965434
0.966872 0.663608 0.966872
0.085172 0.777293 0.952672
0.142722 0.778968 0.954469
0.275271 0.783066 0.958631
0.408289 0.787239 0.962814
0.541754 0.791483 0.967016
0.675646 0.795794 0.971237
0.809955 0.800169 0.975475
0.939306 0.804436 0.979562
0.980893 0.805986 0.980893
0.099101 0.918728 0.966601
0.157805 0.920671 0.968456
0.291197 0.925017 0.972666
0.425017 0.929428 0.976894
0.559253 0.933900 0.981140
0.693903 0.938430 0.985403
0.828966 0.943014 0.989683
0.957394 0.947428 0.993758
0.994979 0.949020 0.994979
0.104330 0.971831 0.971831
0.164619 0.973727 0.973727
0.298761 0.977945 0.977945
0.433314 0.982177 0.982177
0.568281 0.986422 0.986422
0.703674 0.990680 0.990680
0.839505 0.994952 0.994952
0.966804 0.998956 0.998956
1.000000 1.000000 1.000000
