library/cube/Crimson_Shadow_001.cube
# CINEGRADE LAB — Premium Cinematic LUT
# Title: Crimson Shadow
# Category: Cinematic Shadows
# Description: Crushed blacks with teal shadows and warm highlights for cinema-inspired images
# Mood: Dramatic, cinematic, bold
# Variant: 2
# Generated: 2026-05-21T16:12:12.359545
TITLE "Crimson Shadow"
LUT_3D_SIZE 5
0.000000 0.000000 0.000000
0.185970 0.005849 0.005849
0.433451 0.013632 0.013632
0.686292 0.021584 0.021584
0.895670 0.028169 0.028169
0.020591 0.209087 0.020591
0.206182 0.213058 0.026249
0.461601 0.219492 0.034130
0.720722 0.226296 0.042150
0.915676 0.231318 0.048176
0.048088 0.488297 0.048088
0.234600 0.492802 0.053823
0.495683 0.499941 0.061932
0.759299 0.507430 0.070146
0.943383 0.512667 0.075883
0.075676 0.768442 0.075676
0.264445 0.773803 0.081558
0.529572 0.781843 0.089868
0.796555 0.790192 0.098260
0.971272 0.795864 0.103772
0.094764 0.962264 0.094764
0.287258 0.968318 0.100818
0.555558 0.976756 0.109256
0.825500 0.985246 0.117746
0.990433 0.990433 0.122933
0.002362 0.002362 0.216571
0.188214 0.008149 0.216925
0.436596 0.015909 0.219824
0.690150 0.023837 0.223424
0.897828 0.030328 0.226083
0.022710 0.210606 0.220846
0.208305 0.214630 0.222815
0.464362 0.221137 0.227477
0.723984 0.228009 0.232691
0.917695 0.233044 0.236233
0.050107 0.489868 0.237645
0.236761 0.494453 0.241073
0.498293 0.501679 0.247213
0.762270 0.509249 0.253749
0.945356 0.514518 0.258022
0.077650 0.770209 0.258694
0.266714 0.775662 0.263240
0.532178 0.783789 0.270422
0.799459 0.792216 0.277858
0.973232 0.797920 0.282511
0.096719 0.964219 0.274010
0.289663 0.970279 0.279282
0.558258 0.978719 0.287022
0.828505 0.987212 0.294865
0.992358 0.992358 0.299379
0.005356 0.005356 0.491022
0.191127 0.011111 0.488630
0.440403 0.018874 0.489107
0.694666 0.026801 0.490550
0.900720 0.033220 0.491228
0.025553 0.212876 0.487129
0.211183 0.216972 0.487262
0.467871 0.223568 0.490326
0.727990 0.230521 0.494135
0.920503 0.235581 0.496395
0.052908 0.492251 0.498568
0.239729 0.496928 0.500819
0.501704 0.504249 0.505938
0.766040 0.511904 0.511577
0.948149 0.517212 0.515017
0.080440 0.772823 0.516185
0.269820 0.778372 0.519973
0.535619 0.786587 0.526476
0.803197 0.795093 0.533287
0.976024 0.800829 0.537311
0.099502 0.967002 0.529180
0.292915 0.973071 0.533870
0.561808 0.981514 0.541030
0.832365 0.990010 0.548282
0.995115 0.995115 0.552128
0.008327 0.008327 0.763471
0.194028 0.014054 0.758543
0.444169 0.021820 0.756789
0.699116 0.029747 0.756253
0.903599 0.036099 0.755113
0.028384 0.215163 0.752053
0.214061 0.219332 0.750509
0.471360 0.226016 0.752117
0.731959 0.233049 0.754650
0.923305 0.238133 0.755745
0.055702 0.494660 0.758608
0.242706 0.499426 0.759792
0.505110 0.506840 0.763985
0.769795 0.514580 0.768807
0.950938 0.519924 0.771481
0.083226 0.775464 0.773104
0.272939 0.781107 0.776197
0.539065 0.789407 0.782067
0.806940 0.797989 0.788287
0.978813 0.803753 0.791701
0.102281 0.969781 0.783926
0.296180 0.975858 0.788049
0.565372 0.984305 0.794630
0.836245 0.992804 0.801278
0.997867 0.997867 0.804428
0.009566 0.009566 0.877067
0.195350 0.015410 0.882910
0.446454 0.023307 0.890807
0.702174 0.031350 0.898850
0.905236 0.037736 0.905236
0.029914 0.216177 0.897414
0.215748 0.220515 0.903114
0.473718 0.227369 0.911107
0.734854 0.234554 0.919222
0.925128 0.239728 0.925128
0.057478 0.496080 0.924978
0.244741 0.500997 0.930775
0.507613 0.508554 0.938975
0.772684 0.516422 0.947266
0.952911 0.521843 0.952911
0.085172 0.777293 0.952672
0.275271 0.783066 0.958631
0.541754 0.791483 0.967016
0.809955 0.800169 0.975475
0.980893 0.805986 0.980893
0.104330 0.971831 0.971831
0.298761 0.977945 0.977945
0.568281 0.986422 0.986422
0.839505 0.994952 0.994952
1.000000 1.000000 1.000000
