library/cube/Cross_Processed_003.cube
# CINEGRADE LAB — Premium Cinematic LUT
# Title: Cross Processed
# Category: Vintage Film Lab
# Description: Faded, grainy, color-shifted retro film lab aesthetic
# Mood: Retro, faded, nostalgic
# Variant: 4
# Generated: 2026-05-21T16:12:33.056652
TITLE "Cross Processed"
LUT_3D_SIZE 5
0.190418 0.175155 0.165693
0.336843 0.189206 0.179993
0.497443 0.204695 0.195757
0.667019 0.221118 0.212488
0.785555 0.232613 0.224342
0.235444 0.353290 0.213940
0.380998 0.367298 0.228367
0.540763 0.382750 0.244270
0.709591 0.399142 0.261150
0.827808 0.410621 0.273159
0.285496 0.549044 0.267473
0.430422 0.563042 0.282062
0.589616 0.578490 0.298140
0.757972 0.594887 0.315208
0.874644 0.606383 0.327406
0.339022 0.756261 0.324736
0.483569 0.770288 0.339526
0.642464 0.785773 0.355817
0.810634 0.802214 0.373112
0.927743 0.813767 0.385535
0.376528 0.902066 0.366098
0.520963 0.916174 0.381109
0.679843 0.931747 0.397635
0.848065 0.948257 0.415178
0.966529 0.959923 0.427840
0.194962 0.179927 0.300961
0.341287 0.193978 0.315280
0.501790 0.209468 0.331073
0.671278 0.225892 0.347842
0.789773 0.237389 0.359744
0.239996 0.358046 0.349311
0.385476 0.372057 0.363789
0.545172 0.387513 0.379754
0.713939 0.403909 0.396706
0.832136 0.415392 0.408796
0.290074 0.553796 0.403057
0.434951 0.567800 0.417732
0.594104 0.583255 0.433905
0.762429 0.599657 0.451079
0.879077 0.611161 0.463390
0.343647 0.761022 0.460648
0.488171 0.775058 0.475556
0.647052 0.790552 0.491976
0.815220 0.807002 0.509410
0.932459 0.818566 0.521979
0.381227 0.906854 0.502444
0.525664 0.920973 0.517606
0.684557 0.936549 0.534294
0.852812 0.953081 0.552009
0.971366 0.964763 0.564851
0.200001 0.185186 0.449779
0.346229 0.199239 0.464123
0.506637 0.214729 0.479953
0.676038 0.231154 0.496770
0.794492 0.242653 0.508731
0.245042 0.363290 0.498259
0.390449 0.377305 0.512800
0.550078 0.392764 0.528838
0.718787 0.409164 0.545875
0.836834 0.420652 0.558059
0.295146 0.559036 0.552259
0.439976 0.573046 0.567033
0.599089 0.588507 0.583315
0.767385 0.604917 0.600609
0.884019 0.616428 0.613051
0.348766 0.766272 0.610226
0.493270 0.780317 0.625269
0.652138 0.795820 0.641835
0.820307 0.812280 0.659426
0.937676 0.823854 0.672162
0.386422 0.912131 0.652516
0.530863 0.926262 0.667849
0.689771 0.941840 0.684719
0.858063 0.958396 0.702627
0.976694 0.970093 0.715671
0.205361 0.190763 0.607398
0.351493 0.204815 0.621776
0.511809 0.220307 0.637652
0.681126 0.236732 0.654526
0.799541 0.248234 0.666555
0.250408 0.368852 0.656038
0.395746 0.382870 0.670651
0.555309 0.398332 0.686773
0.723963 0.414736 0.703905
0.841702 0.426229 0.716195
0.300539 0.564594 0.710327
0.445324 0.578611 0.725211
0.604400 0.594078 0.741616
0.772670 0.610494 0.759044
0.889303 0.622013 0.771629
0.354208 0.771840 0.768712
0.498693 0.785894 0.783904
0.657552 0.801407 0.800631
0.825724 0.817877 0.818395
0.943224 0.829461 0.831313
0.391940 0.917727 0.811546
0.536387 0.931870 0.827066
0.695314 0.947454 0.844135
0.863649 0.964033 0.862253
0.982342 0.975742 0.875517
0.209019 0.194663 0.718482
0.355061 0.208717 0.732896
0.515290 0.224210 0.748815
0.684529 0.240638 0.765742
0.802910 0.252142 0.777830
0.254086 0.372740 0.767274
0.399359 0.386762 0.781950
0.558863 0.402229 0.798144
0.727467 0.418637 0.815356
0.845022 0.430136 0.827733
0.304254 0.568482 0.821809
0.449000 0.582505 0.836784
0.608043 0.597980 0.853288
0.776292 0.614403 0.870824
0.892985 0.625930 0.883524
0.357982 0.775741 0.880535
0.502451 0.789804 0.895396
0.661306 0.805327 0.911114
0.829466 0.821807 0.927474
0.947130 0.833402 0.939042
0.395796 0.921658 0.921101
0.540253 0.935806 0.935058
0.699201 0.951410 0.950050
0.867583 0.968006 0.965550
0.986323 0.979723 0.976348
