library/cube/Cross_Processed_003.cube
# CINEGRADE LAB — Premium Cinematic LUT
# Title: Cross Processed
# Category: Vintage Film Lab
# Description: Faded, grainy, color-shifted retro film lab aesthetic
# Mood: Retro, faded, nostalgic
# Variant: 4
# Generated: 2026-05-21T16:12:33.056652
TITLE "Cross Processed"
LUT_3D_SIZE 33
0.190418 0.175155 0.165693
0.207572 0.176796 0.167365
0.225130 0.178478 0.169077
0.243043 0.180195 0.170824
0.261273 0.181944 0.172604
0.279791 0.183722 0.174413
0.298572 0.185526 0.176248
0.317595 0.187355 0.178109
0.336843 0.189206 0.179993
0.356301 0.191079 0.181898
0.375955 0.192972 0.183824
0.395794 0.194883 0.185770
0.415807 0.196813 0.187734
0.435987 0.198760 0.189715
0.456324 0.200723 0.191713
0.476812 0.202702 0.193727
0.497443 0.204695 0.195757
0.518211 0.206703 0.197801
0.539111 0.208724 0.199860
0.560138 0.210759 0.201933
0.581287 0.212807 0.204019
0.602553 0.214867 0.206117
0.623933 0.216939 0.208229
0.645423 0.219023 0.210352
0.667019 0.221118 0.212488
0.688718 0.223224 0.214634
0.710516 0.225340 0.216792
0.732412 0.227467 0.218962
0.754402 0.229604 0.221141
0.776483 0.231750 0.223331
0.786079 0.232679 0.224307
0.785816 0.232646 0.224324
0.785555 0.232613 0.224342
0.195652 0.196009 0.171318
0.212791 0.197650 0.172991
0.230333 0.199331 0.174705
0.248231 0.201047 0.176454
0.266446 0.202795 0.178236
0.284949 0.204572 0.180046
0.303715 0.206375 0.181884
0.322722 0.208203 0.183746
0.341955 0.210054 0.185632
0.361397 0.211926 0.187539
0.381036 0.213818 0.189467
0.400860 0.215729 0.191414
0.420859 0.217658 0.193380
0.441024 0.219604 0.195364
0.461347 0.221566 0.197364
0.481820 0.223544 0.199380
0.502436 0.225537 0.201411
0.523190 0.227544 0.203458
0.544077 0.229565 0.205519
0.565090 0.231599 0.207593
0.586225 0.233646 0.209681
0.607478 0.235705 0.211782
0.628844 0.237777 0.213896
0.650321 0.239860 0.216021
0.671904 0.241954 0.218159
0.693590 0.244059 0.220308
0.715376 0.246175 0.222468
0.737260 0.248301 0.224639
0.759238 0.250438 0.226821
0.781307 0.252584 0.229014
0.790901 0.253512 0.229992
0.790644 0.253479 0.230011
0.790390 0.253446 0.230031
0.201023 0.217358 0.177083
0.218147 0.218998 0.178758
0.235675 0.220678 0.180473
0.253558 0.222394 0.182224
0.271758 0.224141 0.184008
0.290246 0.225917 0.185820
0.308997 0.227719 0.187659
0.327990 0.229546 0.189524
0.347208 0.231396 0.191411
0.366636 0.233267 0.193321
0.386260 0.235159 0.195250
0.406070 0.237069 0.197200
0.426054 0.238997 0.199167
0.446205 0.240943 0.201153
0.466513 0.242904 0.203155
0.486972 0.244881 0.205173
0.507575 0.246873 0.207207
0.528315 0.248880 0.209255
0.549188 0.250900 0.211318
0.570188 0.252934 0.213395
0.591310 0.254980 0.215485
0.612550 0.257039 0.217588
0.633904 0.259110 0.219704
0.655368 0.261192 0.221832
0.676939 0.263286 0.223971
0.698613 0.265391 0.226123
0.720387 0.267506 0.228285
0.742258 0.269632 0.230459
0.764225 0.271767 0.232643
0.786283 0.273913 0.234838
0.795876 0.274841 0.235818
0.795625 0.274808 0.235840
0.795376 0.274774 0.235861
0.206516 0.239143 0.182972
0.223626 0.240782 0.184649
0.241139 0.242461 0.186366
0.259008 0.244176 0.188119
0.277194 0.245923 0.189904
0.295667 0.247698 0.191719
0.314404 0.249500 0.193560
0.333383 0.251326 0.195426
0.352586 0.253175 0.197316
0.372000 0.255046 0.199227
0.391610 0.256936 0.201159
0.411405 0.258846 0.203110
0.431376 0.260773 0.205080
0.451513 0.262718 0.207067
0.471808 0.264679 0.209072
0.492253 0.266655 0.211092
0.512843 0.268647 0.213128
0.533570 0.270653 0.215178
0.554430 0.272672 0.217243
0.575417 0.274705 0.219322
0.596526 0.276751 0.221415
0.617754 0.278809 0.223520
0.639095 0.280880 0.225638
0.660547 0.282962 0.227768
0.682106 0.285055 0.229910
0.703769 0.287159 0.232064
0.725532 0.289274 0.234229
0.747392 0.291399 0.236405
0.769347 0.293534 0.238591
0.791395 0.295680 0.240789
0.800987 0.296608 0.241771
0.800742 0.296574 0.241795
0.800499 0.296540 0.241819
0.212117 0.261319 0.188974
0.229214 0.262957 0.190653
0.246713 0.264635 0.192372
0.264568 0.266349 0.194127
0.282740 0.268095 0.195914
0.301200 0.269870 0.197730
0.319922 0.271671 0.199573
0.338887 0.273496 0.201442
0.358077 0.275345 0.203333
0.377477 0.277215 0.205247
0.397073 0.279105 0.207180
0.416855 0.281014 0.209134
0.436813 0.282940 0.211106
0.456936 0.284884 0.213095
0.477218 0.286845 0.215102
0.497651 0.288821 0.217124
0.518227 0.290812 0.219162
0.538942 0.292817 0.221215
0.559789 0.294836 0.223282
0.580764 0.296869 0.225364
0.601861 0.298914 0.227458
0.623077 0.300972 0.229566
0.644407 0.303041 0.231686
0.665847 0.305123 0.233819
0.687395 0.307215 0.235963
0.709046 0.309319 0.238119
0.730798 0.311434 0.240287
0.752648 0.313558 0.242465
0.774593 0.315693 0.244654
0.796631 0.317838 0.246854
0.806221 0.318766 0.247839
0.805983 0.318732 0.247864
0.805747 0.318699 0.247891
0.217818 0.283848 0.195079
0.234901 0.285486 0.196760
0.252388 0.287164 0.198481
0.270229 0.288877 0.200237
0.288388 0.290622 0.202027
0.306834 0.292396 0.203845
0.325543 0.294196 0.205690
0.344495 0.296021 0.207561
0.363671 0.297869 0.209454
0.383058 0.299738 0.211370
0.402641 0.301628 0.213306
0.422410 0.303536 0.215261
0.442354 0.305462 0.217235
0.462465 0.307406 0.219227
0.482734 0.309366 0.221236
0.503154 0.311341 0.223260
0.523719 0.313332 0.225301
0.544421 0.315336 0.227356
0.565257 0.317355 0.229426
0.586220 0.319387 0.231509
0.607305 0.321432 0.233606
0.628510 0.323489 0.235716
0.649829 0.325558 0.237839
0.671258 0.327639 0.239974
0.692795 0.329732 0.242121
0.714436 0.331835 0.244279
0.736178 0.333949 0.246449
0.758017 0.336074 0.248630
0.779952 0.338208 0.250822
0.801980 0.340353 0.253024
0.811570 0.341280 0.254012
0.811338 0.341247 0.254039
0.811108 0.341213 0.254068
0.223611 0.306702 0.201279
0.240681 0.308339 0.202962
0.258155 0.310017 0.204685
0.275983 0.311729 0.206444
0.294129 0.313474 0.208235
0.312562 0.315247 0.210055
0.331258 0.317047 0.211903
0.350196 0.318871 0.213775
0.369360 0.320719 0.215671
0.388734 0.322587 0.217589
0.408305 0.324476 0.219527
0.428061 0.326384 0.221485
0.447993 0.328310 0.223461
0.468092 0.330253 0.225455
0.488349 0.332212 0.227466
0.508757 0.334187 0.229493
0.529310 0.336177 0.231536
0.550001 0.338181 0.233593
0.570824 0.340200 0.235665
0.591776 0.342231 0.237751
0.612851 0.344276 0.239851
0.634044 0.346332 0.241963
0.655353 0.348401 0.244088
0.676772 0.350482 0.246226
0.698298 0.352574 0.248375
0.719929 0.354677 0.250536
0.741661 0.356791 0.252709
0.763492 0.358915 0.254892
0.785417 0.361049 0.257087
0.807436 0.363194 0.259292
0.817026 0.364121 0.260282
0.816800 0.364087 0.260312
0.816576 0.364054 0.260342
0.229488 0.329857 0.207568
0.246546 0.331493 0.209253
0.264007 0.333170 0.210978
0.281823 0.334882 0.212739
0.299956 0.336626 0.214532
0.318377 0.338398 0.216355
0.337060 0.340198 0.218204
0.355986 0.342022 0.220079
0.375138 0.343869 0.221977
0.394499 0.345737 0.223897
0.414058 0.347625 0.225838
0.433802 0.349532 0.227798
0.453723 0.351458 0.229776
0.473809 0.353400 0.231773
0.494055 0.355359 0.233786
0.514452 0.357334 0.235815
0.534993 0.359323 0.237860
0.555673 0.361327 0.239921
0.576486 0.363345 0.241995
0.597427 0.365376 0.244083
0.618491 0.367420 0.246185
0.639674 0.369477 0.248300
0.660972 0.371546 0.250428
0.682382 0.373626 0.252568
0.703899 0.375718 0.254720
0.725520 0.377821 0.256884
0.747243 0.379934 0.259059
0.769064 0.382058 0.261245
0.790981 0.384192 0.263442
0.812992 0.386336 0.265650
0.822581 0.387264 0.266642
0.822362 0.387230 0.266675
0.822145 0.387197 0.266708
0.235444 0.353290 0.213940
0.252490 0.354926 0.215627
0.269939 0.356602 0.217354
0.287743 0.358313 0.219118
0.305864 0.360057 0.220913
0.324273 0.361829 0.222738
0.342945 0.363628 0.224590
0.361859 0.365451 0.226467
0.380998 0.367298 0.228367
0.400348 0.369166 0.230289
0.419895 0.371054 0.232232
0.439628 0.372961 0.234195
0.459537 0.374886 0.236176
0.479613 0.376828 0.238175
0.499847 0.378786 0.240190
0.520233 0.380760 0.242222
0.540763 0.382750 0.244270
0.561433 0.384753 0.246332
0.582235 0.386771 0.248409
0.603166 0.388802 0.250500
0.624221 0.390846 0.252605
0.645394 0.392902 0.254723
0.666683 0.394970 0.256853
0.688083 0.397050 0.258996
0.709591 0.399142 0.261150
0.731203 0.401244 0.263317
0.752917 0.403358 0.265495
0.774730 0.405482 0.267683
0.796639 0.407616 0.269883
0.818642 0.409759 0.272094
0.828231 0.410687 0.273089
0.828018 0.410654 0.273124
0.827808 0.410621 0.273159
0.241475 0.376984 0.220391
0.258510 0.378619 0.222080
0.275947 0.380295 0.223810
0.293739 0.382006 0.225575
0.311849 0.383749 0.227373
0.330246 0.385521 0.229200
0.348906 0.387319 0.231055
0.367809 0.389143 0.232934
0.386937 0.390989 0.234837
0.406276 0.392856 0.236761
0.425812 0.394744 0.238706
0.445534 0.396650 0.240671
0.465432 0.398575 0.242655
0.485497 0.400517 0.244656
0.505720 0.402475 0.246674
0.526096 0.404449 0.248709
0.546616 0.406438 0.250759
0.567276 0.408441 0.252824
0.588069 0.410459 0.254904
0.608990 0.412489 0.256997
0.630035 0.414533 0.259105
0.651199 0.416589 0.261225
0.672479 0.418657 0.263358
0.693870 0.420737 0.265503
0.715369 0.422829 0.267661
0.736973 0.424931 0.269830
0.758680 0.427044 0.272011
0.780485 0.429168 0.274202
0.802386 0.431302 0.276405
0.824381 0.433446 0.278618
0.833971 0.434373 0.279616
0.833765 0.434340 0.279653
0.833561 0.434308 0.279691
0.247577 0.400923 0.226917
0.264600 0.402558 0.228608
0.282027 0.404233 0.230340
0.299808 0.405944 0.232108
0.317906 0.407687 0.233908
0.336292 0.409458 0.235738
0.354941 0.411257 0.237594
0.373833 0.413080 0.239476
0.392950 0.414925 0.241381
0.412278 0.416792 0.243308
0.431804 0.418680 0.245256
0.451515 0.420586 0.247224
0.471403 0.422510 0.249210
0.491457 0.424452 0.251213
0.511671 0.426410 0.253234
0.532037 0.428384 0.255271
0.552548 0.430373 0.257324
0.573198 0.432376 0.259392
0.593981 0.434393 0.261474
0.614893 0.436424 0.263571
0.635929 0.438467 0.265680
0.657085 0.440523 0.267803
0.678356 0.442591 0.269939
0.699739 0.444671 0.272088
0.721231 0.446762 0.274248
0.742827 0.448865 0.276420
0.764526 0.450978 0.278603
0.786324 0.453102 0.280798
0.808218 0.455235 0.283004
0.830206 0.457379 0.285220
0.839511 0.458307 0.286220
0.839318 0.458274 0.286260
0.839127 0.458242 0.286300
0.253745 0.425094 0.233514
0.270758 0.426729 0.235208
0.288174 0.428404 0.236942
0.305944 0.430114 0.238712
0.324032 0.431857 0.240515
0.342407 0.433628 0.242347
0.361046 0.435426 0.244206
0.379927 0.437249 0.246090
0.399034 0.439094 0.247998
0.418352 0.440961 0.249927
0.437867 0.442848 0.251878
0.457569 0.444754 0.253848
0.477447 0.446679 0.255836
0.497492 0.448620 0.257843
0.517696 0.450578 0.259866
0.538052 0.452551 0.261906
0.558554 0.454540 0.263962
0.579195 0.456543 0.266032
0.599970 0.458560 0.268117
0.620873 0.460591 0.270216
0.641901 0.462634 0.272329
0.663049 0.464690 0.274455
0.684312 0.466758 0.276594
0.705687 0.468838 0.278745
0.727171 0.470929 0.280908
0.748761 0.473032 0.283083
0.770452 0.475145 0.285269
0.792243 0.477269 0.287467
0.814131 0.479403 0.289676
0.836016 0.481547 0.291895
0.845094 0.482475 0.292898
0.844916 0.482442 0.292940
0.844740 0.482411 0.292983
0.259977 0.449484 0.240179
0.276980 0.451119 0.241875
0.294386 0.452794 0.243612
0.312146 0.454504 0.245385
0.330224 0.456246 0.247190
0.348589 0.458018 0.249024
0.367218 0.459815 0.250886
0.386089 0.461638 0.252773
0.405186 0.463483 0.254683
0.424494 0.465350 0.256615
0.444000 0.467237 0.258568
0.463692 0.469143 0.260541
0.483560 0.471067 0.262532
0.503596 0.473008 0.264541
0.523792 0.474966 0.266568
0.544139 0.476940 0.268610
0.564632 0.478928 0.270668
0.585265 0.480931 0.272742
0.606032 0.482949 0.274830
0.626927 0.484979 0.276932
0.647947 0.487022 0.279047
0.669087 0.489078 0.281176
0.690343 0.491147 0.283318
0.711711 0.493226 0.285472
0.733189 0.495318 0.287638
0.754771 0.497420 0.289816
0.776456 0.499534 0.292005
0.798241 0.501657 0.294206
0.820123 0.503791 0.296418
0.841680 0.505936 0.298640
0.850808 0.506864 0.299646
0.850644 0.506832 0.299691
0.850482 0.506801 0.299737
0.266271 0.474084 0.246910
0.283264 0.475718 0.248608
0.300660 0.477393 0.250348
0.318410 0.479103 0.252123
0.336478 0.480845 0.253931
0.354834 0.482616 0.255768
0.373453 0.484414 0.257632
0.392315 0.486236 0.259521
0.411403 0.488081 0.261434
0.430702 0.489948 0.263369
0.450198 0.491835 0.265325
0.469881 0.493741 0.267300
0.489741 0.495665 0.269295
0.509768 0.497607 0.271307
0.529955 0.499564 0.273336
0.550295 0.501538 0.275381
0.570780 0.503527 0.277442
0.591405 0.505530 0.279518
0.612164 0.507547 0.281609
0.633052 0.509577 0.283714
0.654065 0.511621 0.285833
0.675198 0.513677 0.287964
0.696447 0.515745 0.290109
0.717809 0.517825 0.292266
0.739279 0.519917 0.294435
0.760856 0.522020 0.296616
0.782535 0.524133 0.298809
0.804315 0.526257 0.301013
0.826191 0.528391 0.303228
0.847471 0.530536 0.305453
0.856648 0.531464 0.306462
0.856497 0.531433 0.306510
0.856348 0.531402 0.306558
0.272623 0.498883 0.253704
0.289607 0.500517 0.255405
0.306994 0.502192 0.257147
0.324735 0.503902 0.258925
0.342794 0.505644 0.260735
0.361141 0.507415 0.262575
0.379751 0.509212 0.264442
0.398604 0.511035 0.266334
0.417683 0.512880 0.268249
0.436972 0.514746 0.270187
0.456460 0.516633 0.272146
0.476135 0.518539 0.274124
0.495987 0.520464 0.276121
0.516006 0.522405 0.278136
0.536185 0.524363 0.280168
0.556517 0.526337 0.282216
0.576994 0.528325 0.284280
0.597612 0.530329 0.286359
0.618364 0.532346 0.288453
0.639245 0.534377 0.290561
0.660251 0.536420 0.292682
0.681378 0.538476 0.294817
0.702621 0.540545 0.296965
0.723977 0.542625 0.299125
0.745442 0.544717 0.301297
0.767013 0.546820 0.303482
0.788687 0.548934 0.305677
0.810461 0.551058 0.307884
0.832333 0.553192 0.310103
0.853384 0.555337 0.312331
0.862607 0.556266 0.313343
0.862469 0.556236 0.313393
0.862334 0.556205 0.313444
0.279032 0.523872 0.260559
0.296008 0.525506 0.262262
0.313386 0.527181 0.264007
0.331118 0.528891 0.265787
0.349168 0.530633 0.267600
0.367506 0.532404 0.269443
0.386108 0.534202 0.271313
0.404952 0.536024 0.273208
0.424023 0.537869 0.275126
0.443305 0.539736 0.277067
0.462785 0.541623 0.279028
0.482451 0.543529 0.281009
0.502295 0.545453 0.283009
0.522307 0.547395 0.285027
0.542479 0.549353 0.287062
0.562803 0.551327 0.289113
0.583274 0.553316 0.291180
0.603884 0.555319 0.293262
0.624630 0.557337 0.295359
0.645505 0.559368 0.297470
0.666505 0.561412 0.299595
0.687626 0.563468 0.301733
0.708863 0.565537 0.303884
0.730213 0.567617 0.306047
0.751673 0.569709 0.308222
0.773239 0.571813 0.310410
0.794909 0.573927 0.312609
0.816679 0.576051 0.314819
0.838292 0.578186 0.317041
0.859415 0.580331 0.319273
0.868682 0.581261 0.320288
0.868557 0.581231 0.320341
0.868434 0.581201 0.320394
0.285496 0.549044 0.267473
0.302463 0.550678 0.269179
0.319833 0.552353 0.270926
0.337557 0.554063 0.272710
0.355599 0.555805 0.274525
0.373929 0.557576 0.276371
0.392523 0.559374 0.278243
0.411359 0.561197 0.280141
0.430422 0.563042 0.282062
0.449696 0.564909 0.284006
0.469168 0.566796 0.285970
0.488828 0.568703 0.287954
0.508665 0.570627 0.289957
0.528669 0.572569 0.291978
0.548834 0.574527 0.294016
0.569152 0.576501 0.296070
0.589616 0.578490 0.298140
0.610221 0.580494 0.300226
0.630960 0.582512 0.302326
0.651829 0.584543 0.304440
0.672824 0.586587 0.306568
0.693939 0.588644 0.308709
0.715171 0.590713 0.310863
0.736517 0.592794 0.313030
0.757972 0.594887 0.315208
0.779534 0.596990 0.317399
0.801199 0.599105 0.319601
0.822966 0.601230 0.321815
0.844354 0.603365 0.324040
0.865559 0.605511 0.326275
0.874868 0.606441 0.327293
0.874755 0.606412 0.327349
0.874644 0.606383 0.327406
0.292014 0.574392 0.274444
0.308973 0.576026 0.276153
0.326335 0.577701 0.277903
0.344051 0.579411 0.279689
0.362086 0.581154 0.281508
0.380408 0.582925 0.283356
0.398994 0.584723 0.285232
0.417823 0.586546 0.287132
0.436878 0.588391 0.289057
0.456145 0.590258 0.291003
0.475611 0.592146 0.292971
0.495263 0.594052 0.294958
0.515093 0.595977 0.296964
0.535092 0.597919 0.298987
0.555250 0.599878 0.301028
0.575562 0.601852 0.303086
0.596020 0.603842 0.305159
0.616619 0.605846 0.307248
0.637353 0.607864 0.309351
0.658217 0.609896 0.311468
0.679206 0.611940 0.313599
0.700317 0.613997 0.315744
0.721545 0.616067 0.317901
0.742886 0.618148 0.320071
0.764337 0.620241 0.322253
0.785895 0.622345 0.324448
0.807557 0.624460 0.326653
0.829320 0.626586 0.328870
0.850528 0.628722 0.331099
0.871811 0.630868 0.333338
0.881160 0.631799 0.334359
0.881059 0.631770 0.334418
0.880959 0.631742 0.334477
0.298583 0.599909 0.281471
0.315535 0.601543 0.283183
0.332889 0.603218 0.284936
0.350599 0.604929 0.286725
0.368626 0.606671 0.288547
0.386941 0.608443 0.290398
0.405519 0.610241 0.292276
0.424342 0.612064 0.294180
0.443390 0.613910 0.296107
0.462651 0.615778 0.298057
0.482110 0.617665 0.300027
0.501756 0.619572 0.302018
0.521580 0.621497 0.304027
0.541572 0.623440 0.306054
0.561725 0.625399 0.308098
0.582031 0.627374 0.310159
0.602484 0.629364 0.312235
0.623078 0.631368 0.314327
0.643807 0.633387 0.316433
0.664666 0.635419 0.318554
0.685651 0.637464 0.320688
0.706758 0.639522 0.322836
0.727981 0.641592 0.324997
0.749319 0.643674 0.327170
0.770767 0.645767 0.329356
0.792322 0.647872 0.331554
0.813980 0.649987 0.333763
0.835587 0.652113 0.335984
0.856810 0.654250 0.338215
0.878167 0.656397 0.340458
0.887554 0.657328 0.341482
0.887464 0.657301 0.341544
0.887374 0.657273 0.341606
0.305203 0.625589 0.288553
0.322148 0.627224 0.290268
0.339495 0.628899 0.292024
0.357198 0.630610 0.293816
0.375218 0.632353 0.295640
0.393526 0.634125 0.297494
0.412099 0.635923 0.299376
0.430914 0.637747 0.301283
0.449957 0.639593 0.303213
0.469211 0.641461 0.305166
0.488664 0.643349 0.307139
0.508305 0.645256 0.309133
0.528123 0.647182 0.311145
0.548110 0.649125 0.313175
0.568257 0.651084 0.315223
0.588559 0.653059 0.317287
0.609007 0.655050 0.319366
0.629596 0.657055 0.321462
0.650321 0.659074 0.323571
0.671176 0.661107 0.325696
0.692157 0.663152 0.327833
0.713260 0.665211 0.329985
0.734480 0.667281 0.332149
0.755814 0.669364 0.334326
0.777259 0.671458 0.336515
0.798811 0.673563 0.338716
0.820468 0.675679 0.340929
0.841901 0.677806 0.343153
0.863196 0.679944 0.345389
0.884623 0.682091 0.347635
0.894046 0.683024 0.348663
0.893965 0.682997 0.348727
0.893886 0.682970 0.348792
0.311872 0.651427 0.295687
0.328810 0.653062 0.297405
0.346152 0.654738 0.299164
0.363848 0.656449 0.300959
0.381862 0.658192 0.302787
0.400164 0.659965 0.304644
0.418730 0.661764 0.306529
0.437540 0.663587 0.308439
0.456577 0.665434 0.310373
0.475825 0.667302 0.312328
0.495273 0.669191 0.314305
0.514908 0.671099 0.316302
0.534721 0.673025 0.318317
0.554703 0.674968 0.320351
0.574846 0.676928 0.322402
0.595143 0.678904 0.324469
0.615587 0.680895 0.326552
0.636172 0.682901 0.328651
0.656893 0.684921 0.330764
0.677745 0.686954 0.332892
0.698722 0.689000 0.335033
0.719822 0.691059 0.337188
0.741040 0.693131 0.339356
0.762371 0.695214 0.341536
0.783814 0.697309 0.343729
0.805364 0.699415 0.345934
0.827019 0.701532 0.348150
0.848318 0.703659 0.350378
0.869680 0.705797 0.352617
0.891173 0.707945 0.354867
0.900631 0.708879 0.355898
0.900560 0.708853 0.355966
0.900491 0.708828 0.356034
0.318589 0.677417 0.302874
0.335522 0.679053 0.304595
0.352857 0.680729 0.306357
0.370547 0.682441 0.308155
0.388556 0.684185 0.309986
0.406852 0.685958 0.311847
0.425413 0.687757 0.313734
0.444217 0.689581 0.315648
0.463249 0.691429 0.317584
0.482492 0.693298 0.319544
0.501935 0.695187 0.321524
0.521565 0.697095 0.323524
0.541374 0.699022 0.325543
0.561352 0.700966 0.327580
0.581491 0.702927 0.329634
0.601783 0.704903 0.331705
0.622224 0.706895 0.333791
0.642805 0.708901 0.335893
0.663523 0.710921 0.338010
0.684372 0.712955 0.340141
0.705347 0.715002 0.342286
0.726444 0.717062 0.344445
0.747659 0.719134 0.346616
0.768989 0.721218 0.348800
0.790430 0.723314 0.350997
0.811978 0.725421 0.353205
0.833539 0.727539 0.355425
0.854834 0.729667 0.357657
0.876260 0.731806 0.359900
0.897815 0.733955 0.362154
0.907305 0.734890 0.363188
0.907243 0.734865 0.363259
0.907183 0.734841 0.363330
0.325354 0.703556 0.310112
0.342281 0.705193 0.311836
0.359611 0.706869 0.313601
0.377296 0.708581 0.315402
0.395299 0.710326 0.317236
0.413590 0.712099 0.319100
0.432146 0.713899 0.320991
0.450945 0.715724 0.322908
0.469972 0.717572 0.324848
0.489211 0.719442 0.326810
0.508649 0.721331 0.328794
0.528276 0.723241 0.330797
0.548080 0.725168 0.332820
0.568054 0.727113 0.334860
0.588189 0.729074 0.336918
0.608479 0.731051 0.338992
0.628916 0.733044 0.341082
0.649495 0.735051 0.343188
0.670210 0.737072 0.345308
0.691056 0.739107 0.347443
0.712029 0.741155 0.349592
0.733124 0.743215 0.351754
0.754338 0.745288 0.353929
0.775666 0.747373 0.356117
0.797105 0.749469 0.358317
0.818653 0.751577 0.360529
0.840087 0.753696 0.362753
0.861444 0.755825 0.364989
0.882930 0.757965 0.367236
0.904544 0.760115 0.369493
0.914063 0.761051 0.370531
0.914010 0.761027 0.370605
0.913958 0.761004 0.370680
0.332165 0.729839 0.317399
0.349087 0.731476 0.319127
0.366412 0.733153 0.320895
0.384092 0.734866 0.322700
0.402090 0.736611 0.324537
0.420377 0.738385 0.326404
0.438928 0.740186 0.328298
0.457723 0.742011 0.330218
0.476746 0.743860 0.332162
0.495981 0.745730 0.334128
0.515415 0.747621 0.336115
0.535038 0.749531 0.338122
0.554839 0.751459 0.340148
0.574810 0.753404 0.342192
0.594942 0.755366 0.344253
0.615228 0.757344 0.346331
0.635663 0.759338 0.348425
0.656239 0.761346 0.350534
0.676952 0.763368 0.352658
0.697797 0.765403 0.354796
0.718768 0.767452 0.356949
0.739862 0.769514 0.359115
0.761074 0.771587 0.361294
0.782401 0.773673 0.363485
0.803840 0.775771 0.365689
0.825388 0.777879 0.367905
0.846730 0.779999 0.370133
0.868144 0.782129 0.372373
0.889687 0.784270 0.374624
0.911356 0.786421 0.376885
0.920903 0.787358 0.377927
0.920857 0.787336 0.378004
0.920813 0.787314 0.378081
0.339022 0.756261 0.324736
0.355940 0.757899 0.326466
0.373260 0.759577 0.328238
0.390936 0.761291 0.330046
0.408929 0.763036 0.331887
0.427212 0.764811 0.333757
0.445759 0.766613 0.335655
0.464551 0.768439 0.337578
0.483569 0.770288 0.339526
0.502801 0.772159 0.341495
0.522232 0.774051 0.343486
0.541851 0.775961 0.345496
0.561650 0.777890 0.347526
0.581617 0.779837 0.349573
0.601747 0.781800 0.351638
0.622032 0.783779 0.353720
0.642464 0.785773 0.355817
0.663039 0.787782 0.357930
0.683750 0.789805 0.360058
0.704593 0.791841 0.362200
0.725563 0.793891 0.364356
0.746656 0.795954 0.366526
0.767868 0.798028 0.368709
0.789195 0.800115 0.370905
0.810634 0.802214 0.373112
0.832124 0.804324 0.375333
0.853463 0.806444 0.377564
0.874932 0.808576 0.379808
0.896527 0.810718 0.382063
0.918246 0.812870 0.384328
0.927818 0.813808 0.385373
0.927780 0.813787 0.385454
0.927743 0.813767 0.385535
0.345924 0.782820 0.332121
0.362838 0.784458 0.333855
0.380154 0.786137 0.335630
0.397826 0.787851 0.337441
0.415816 0.789598 0.339285
0.434095 0.791374 0.341159
0.452638 0.793176 0.343061
0.471426 0.795003 0.344987
0.490442 0.796853 0.346938
0.509670 0.798725 0.348911
0.529098 0.800618 0.350905
0.548715 0.802529 0.352919
0.568511 0.804459 0.354953
0.588477 0.806407 0.357004
0.608605 0.808371 0.359073
0.628888 0.810350 0.361158
0.649319 0.812346 0.363259
0.669892 0.814355 0.365376
0.690602 0.816379 0.367508
0.711444 0.818417 0.369654
0.732414 0.820468 0.371814
0.753507 0.822532 0.373987
0.774719 0.824608 0.376174
0.796046 0.826695 0.378374
0.817486 0.828795 0.380586
0.838891 0.830906 0.382810
0.860282 0.833028 0.385046
0.881801 0.835161 0.387293
0.903445 0.837304 0.389552
0.925210 0.839457 0.391822
0.934807 0.840397 0.392871
0.934775 0.840377 0.392954
0.934745 0.840358 0.393038
0.352870 0.809511 0.339553
0.369781 0.811150 0.341290
0.387094 0.812830 0.343069
0.404762 0.814545 0.344884
0.422748 0.816293 0.346731
0.441024 0.818069 0.348609
0.459565 0.819873 0.350514
0.478350 0.821701 0.352444
0.497363 0.823552 0.354399
0.516589 0.825425 0.356375
0.536015 0.827318 0.358373
0.555630 0.829231 0.360391
0.575424 0.831162 0.362428
0.595388 0.833110 0.364483
0.615514 0.835075 0.366556
0.635796 0.837056 0.368645
0.656226 0.839052 0.370750
0.676798 0.841063 0.372871
0.697508 0.843088 0.375006
0.718350 0.845127 0.377156
