library/cube/Cross_Processed_003.cube
# CINEGRADE LAB — Premium Cinematic LUT
# Title: Cross Processed
# Category: Vintage Film Lab
# Description: Faded, grainy, color-shifted retro film lab aesthetic
# Mood: Retro, faded, nostalgic
# Variant: 4
# Generated: 2026-05-21T16:12:33.056652
TITLE "Cross Processed"
LUT_3D_SIZE 9
0.190418 0.175155 0.165693
0.261273 0.181944 0.172604
0.336843 0.189206 0.179993
0.415807 0.196813 0.187734
0.497443 0.204695 0.195757
0.581287 0.212807 0.204019
0.667019 0.221118 0.212488
0.754402 0.229604 0.221141
0.785555 0.232613 0.224342
0.212117 0.261319 0.188974
0.282740 0.268095 0.195914
0.358077 0.275345 0.203333
0.436813 0.282940 0.211106
0.518227 0.290812 0.219162
0.601861 0.298914 0.227458
0.687395 0.307215 0.235963
0.774593 0.315693 0.244654
0.805747 0.318699 0.247891
0.235444 0.353290 0.213940
0.305864 0.360057 0.220913
0.380998 0.367298 0.228367
0.459537 0.374886 0.236176
0.540763 0.382750 0.244270
0.624221 0.390846 0.252605
0.709591 0.399142 0.261150
0.796639 0.407616 0.269883
0.827808 0.410621 0.273159
0.259977 0.449484 0.240179
0.330224 0.456246 0.247190
0.405186 0.463483 0.254683
0.483560 0.471067 0.262532
0.564632 0.478928 0.270668
0.647947 0.487022 0.279047
0.733189 0.495318 0.287638
0.820123 0.503791 0.296418
0.850482 0.506801 0.299737
0.285496 0.549044 0.267473
0.355599 0.555805 0.274525
0.430422 0.563042 0.282062
0.508665 0.570627 0.289957
0.589616 0.578490 0.298140
0.672824 0.586587 0.306568
0.757972 0.594887 0.315208
0.844354 0.603365 0.324040
0.874644 0.606383 0.327406
0.311872 0.651427 0.295687
0.381862 0.658192 0.302787
0.456577 0.665434 0.310373
0.534721 0.673025 0.318317
0.615587 0.680895 0.326552
0.698722 0.689000 0.335033
0.783814 0.697309 0.343729
0.869680 0.705797 0.352617
0.900491 0.708828 0.356034
0.339022 0.756261 0.324736
0.408929 0.763036 0.331887
0.483569 0.770288 0.339526
0.561650 0.777890 0.347526
0.642464 0.785773 0.355817
0.725563 0.793891 0.364356
0.810634 0.802214 0.373112
0.896527 0.810718 0.382063
0.927743 0.813767 0.385535
0.366895 0.863279 0.354557
0.436751 0.870069 0.361765
0.511348 0.877336 0.369462
0.589398 0.884955 0.377522
0.670197 0.892855 0.385875
0.753295 0.900992 0.394478
0.838294 0.909335 0.403299
0.924629 0.917860 0.412316
0.956136 0.920932 0.415848
0.376528 0.902066 0.366098
0.446370 0.908881 0.373358
0.520963 0.916174 0.381109
0.599022 0.923820 0.389225
0.679843 0.931747 0.397635
0.762981 0.939896 0.406297
0.848065 0.948257 0.415178
0.934861 0.956812 0.424257
0.966529 0.959923 0.427840
0.192609 0.177460 0.231100
0.263439 0.184250 0.238014
0.338984 0.191512 0.245408
0.417923 0.199119 0.253155
0.499535 0.207001 0.261186
0.583356 0.215114 0.269456
0.669066 0.223425 0.277934
0.756429 0.231911 0.286599
0.787582 0.234921 0.289811
0.214309 0.263620 0.254398
0.284910 0.270397 0.261345
0.360225 0.277647 0.268774
0.438939 0.285243 0.276556
0.520333 0.293115 0.284624
0.603948 0.301218 0.292932
0.689464 0.309520 0.301451
0.776645 0.317998 0.310157
0.807800 0.321005 0.313409
0.237639 0.355587 0.279395
0.308040 0.362355 0.286379
0.383156 0.369597 0.293846
0.461676 0.377186 0.301669
0.542886 0.385051 0.309778
0.626327 0.393148 0.318130
0.711683 0.401445 0.326693
0.798719 0.409920 0.335445
0.829890 0.412926 0.338740
0.262177 0.451780 0.305678
0.332408 0.458544 0.312704
0.407355 0.465781 0.320214
0.485715 0.473367 0.328081
0.566773 0.481229 0.336237
0.650076 0.489324 0.344636
0.735307 0.497621 0.353249
0.822232 0.506096 0.362052
0.852519 0.509107 0.365394
0.287704 0.551340 0.333029
0.357795 0.558102 0.340101
0.432605 0.565341 0.347659
0.510837 0.572927 0.355576
0.591778 0.580792 0.363783
0.674977 0.588891 0.372235
0.760119 0.597192 0.380901
0.846432 0.605672 0.389760
0.876778 0.608692 0.393153
0.314090 0.653724 0.361315
0.384071 0.660491 0.368438
0.458777 0.667735 0.376049
0.536914 0.675328 0.384020
0.617773 0.683200 0.392282
0.700903 0.691307 0.400792
0.785991 0.699617 0.409517
0.871850 0.708108 0.418437
0.902705 0.711141 0.421885
0.341253 0.758561 0.390448
0.411155 0.765338 0.397627
0.485789 0.772593 0.405295
0.563865 0.780197 0.413325
0.644677 0.788082 0.421648
0.727774 0.796203 0.430220
0.812845 0.804528 0.439010
0.898770 0.813034 0.447996
0.930020 0.816086 0.451503
0.369143 0.865584 0.420369
0.438996 0.872376 0.427608
0.513591 0.879646 0.435338
0.591640 0.887268 0.443432
0.672438 0.895171 0.451821
0.755539 0.903311 0.460461
0.840532 0.911656 0.469320
0.926926 0.920184 0.478377
0.958455 0.923259 0.481947
0.378796 0.904379 0.432019
0.448638 0.911197 0.439315
0.523232 0.918494 0.447103
0.601293 0.926142 0.455257
0.682119 0.934070 0.463707
0.765262 0.942220 0.472409
0.850356 0.950588 0.481332
0.937187 0.959148 0.490454
0.968867 0.962263 0.494081
0.194962 0.179927 0.300961
0.265767 0.186716 0.307880
0.341287 0.193978 0.315280
0.420203 0.201586 0.323034
0.501790 0.209468 0.331073
0.585589 0.217581 0.339352
0.671278 0.225892 0.347842
0.758621 0.234379 0.356519
0.789773 0.237389 0.359744
0.216663 0.266081 0.324279
0.287242 0.272859 0.331236
0.362536 0.280110 0.338674
0.441229 0.287706 0.346468
0.522603 0.295578 0.354548
0.606199 0.303682 0.362871
0.691697 0.311985 0.371404
0.778862 0.320464 0.380127
0.810017 0.323472 0.383396
0.239996 0.358046 0.349311
0.310379 0.364815 0.356308
0.385476 0.372057 0.363789
0.463979 0.379647 0.371628
0.545172 0.387513 0.379754
0.628598 0.395610 0.388124
0.713939 0.403909 0.396706
0.800962 0.412384 0.405479
0.832136 0.415392 0.408796
0.264539 0.454237 0.375643
0.334755 0.461001 0.382686
0.409687 0.468240 0.390215
0.488032 0.475827 0.398102
0.569077 0.483690 0.406279
0.652368 0.491787 0.414701
0.737588 0.500085 0.423337
0.824505 0.508561 0.432165
0.854719 0.511574 0.435533
0.290074 0.553796 0.403057
0.360152 0.560560 0.410151
0.434951 0.567800 0.417732
0.513172 0.575388 0.425673
0.594104 0.583255 0.433905
0.677294 0.591355 0.442384
0.762429 0.599657 0.451079
0.848675 0.608140 0.459967
0.879077 0.611161 0.463390
0.316470 0.656181 0.431422
0.386442 0.662951 0.438571
0.461139 0.670196 0.446208
0.539269 0.677791 0.454208
0.620122 0.685665 0.462500
0.703247 0.693774 0.471040
0.788332 0.702086 0.479799
0.874185 0.710579 0.488752
0.905084 0.713615 0.492234
0.343647 0.761022 0.460648
0.413542 0.767801 0.467856
0.488171 0.775058 0.475556
0.566243 0.782665 0.483619
0.647052 0.790552 0.491976
0.730148 0.798675 0.500583
0.815220 0.807002 0.509410
0.901176 0.815511 0.518433
0.932459 0.818566 0.521979
0.371552 0.868050 0.490675
0.441402 0.874844 0.497949
0.515995 0.882117 0.505714
0.594044 0.889741 0.513846
0.674843 0.897647 0.522273
0.757946 0.905790 0.530952
0.842935 0.914138 0.539853
0.929385 0.922669 0.548951
0.960935 0.925747 0.552565
0.381227 0.906854 0.502444
0.451069 0.913674 0.509778
0.525664 0.920973 0.517606
0.603728 0.928624 0.525801
0.684557 0.936549 0.534294
0.767706 0.944706 0.543040
0.852812 0.953081 0.552009
0.939675 0.961645 0.561177
0.971366 0.964763 0.564851
0.197434 0.182510 0.374074
0.268215 0.189299 0.380998
0.343711 0.196562 0.388405
0.422602 0.204169 0.396167
0.504166 0.212052 0.404215
0.587942 0.220165 0.412506
0.673610 0.228476 0.421007
0.760933 0.236963 0.429697
0.792084 0.239975 0.432938
0.219136 0.268660 0.397416
0.289694 0.275438 0.404382
0.364966 0.282689 0.411831
0.443639 0.290286 0.419638
0.524992 0.298159 0.427732
0.608569 0.306263 0.436070
0.694050 0.314567 0.444620
0.781199 0.323046 0.453360
0.812355 0.326055 0.456649
0.242471 0.360621 0.422485
0.312836 0.367391 0.429497
0.387915 0.374634 0.436994
0.466401 0.382225 0.444850
0.547577 0.390091 0.452994
0.630988 0.398190 0.461384
0.716315 0.406489 0.469987
0.803326 0.414966 0.478782
0.834502 0.417976 0.482123
0.267020 0.456811 0.448871
0.337220 0.463576 0.455933
0.412138 0.470816 0.463482
0.490469 0.478404 0.471391
0.571501 0.486269 0.479590
0.654780 0.494367 0.488036
0.739990 0.502666 0.496698
0.826898 0.511144 0.505553
0.857043 0.514158 0.508949
0.292563 0.556369 0.476354
0.362629 0.563135 0.483472
0.437416 0.570376 0.491077
0.515626 0.577966 0.499044
0.596548 0.585834 0.507303
0.679731 0.593936 0.515811
0.764859 0.602240 0.524535
0.851042 0.610724 0.533455
0.881498 0.613748 0.536910
0.318969 0.658756 0.504802
0.388932 0.665527 0.511979
0.463621 0.672775 0.519646
0.541743 0.680371 0.527676
0.622590 0.688248 0.536000
0.705712 0.696359 0.544573
0.790793 0.704673 0.553366
0.876641 0.713168 0.562355
0.907584 0.716206 0.565874
0.346159 0.763600 0.534127
0.416049 0.770382 0.541368
0.490673 0.777640 0.549101
0.568741 0.785250 0.557199
0.649547 0.793139 0.565592
0.732643 0.801264 0.574237
0.817715 0.809594 0.583103
0.903704 0.818106 0.592166
0.935019 0.821163 0.595753
0.374081 0.870633 0.564269
0.443928 0.877430 0.571579
0.518520 0.884706 0.579383
0.596567 0.892333 0.587553
0.677368 0.900241 0.596022
0.760474 0.908386 0.604743
0.845461 0.916737 0.613687
0.931965 0.925271 0.622830
0.963535 0.928352 0.626489
0.383777 0.909445 0.576164
0.453619 0.916269 0.583539
0.528216 0.923571 0.591410
0.606282 0.931224 0.599649
0.687116 0.939147 0.608186
0.770271 0.947311 0.616979
0.855388 0.955691 0.625995
0.942282 0.964260 0.635213
0.973983 0.967381 0.638936
0.200001 0.185186 0.449779
0.270758 0.191976 0.456709
0.346229 0.199239 0.464123
0.425096 0.206846 0.471894
0.506637 0.214729 0.479953
0.590391 0.222842 0.488255
0.676038 0.231154 0.496770
0.763341 0.239641 0.505475
0.794492 0.242653 0.508731
0.221703 0.271332 0.473147
0.292240 0.278110 0.480124
0.367491 0.285362 0.487586
0.446143 0.292960 0.495406
0.527477 0.300833 0.503515
0.611035 0.308938 0.511869
0.696499 0.317242 0.520437
0.783632 0.325722 0.529197
0.814789 0.328732 0.532506
0.245042 0.363290 0.498259
0.315388 0.370061 0.505286
0.390449 0.377305 0.512800
0.468918 0.384896 0.520674
0.550078 0.392764 0.528838
0.633473 0.400863 0.537248
0.718787 0.409164 0.545875
0.805786 0.417641 0.554694
0.836834 0.420652 0.558059
0.269595 0.459478 0.524702
0.339781 0.466244 0.531785
0.414683 0.473486 0.539355
0.493001 0.481074 0.547287
0.574020 0.488941 0.555511
0.657288 0.497040 0.563982
0.742488 0.505341 0.572671
0.829388 0.513820 0.581554
0.859466 0.516836 0.584979
0.295146 0.559036 0.552259
0.365200 0.565803 0.559401
0.439976 0.573046 0.567033
0.518175 0.580638 0.575027
0.599089 0.588507 0.583315
0.682263 0.596611 0.591853
0.767385 0.604917 0.600609
0.853508 0.613402 0.609562
0.884019 0.616428 0.613051
0.321563 0.661425 0.580796
0.391517 0.668198 0.588002
0.466198 0.675447 0.595700
0.544313 0.683046 0.603762
0.625155 0.690924 0.612119
0.708272 0.699037 0.620728
0.793351 0.707353 0.629557
0.879197 0.715850 0.638583
0.910183 0.718891 0.642141
0.348766 0.766272 0.610226
0.418650 0.773056 0.617501
0.493270 0.780317 0.625269
0.571334 0.787928 0.633403
0.652138 0.795820 0.641835
0.735233 0.803948 0.650520
0.820307 0.812280 0.659426
0.906331 0.820794 0.668532
0.937676 0.823854 0.672162
0.376704 0.873309 0.640488
0.446549 0.880109 0.647837
0.521139 0.887388 0.655680
0.599187 0.895017 0.663892
0.679989 0.902928 0.672403
0.763098 0.911077 0.681169
0.848085 0.919430 0.690158
0.934641 0.927967 0.699349
0.966230 0.931051 0.703055
0.386422 0.912131 0.652516
0.456264 0.918957 0.659934
0.530863 0.926262 0.667849
0.608932 0.933917 0.676134
0.689771 0.941840 0.684719
0.772933 0.950011 0.693561
0.858063 0.958396 0.702627
0.944985 0.966970 0.711897
0.976694 0.970093 0.715671
0.202647 0.187941 0.527652
0.273380 0.194731 0.534590
0.348827 0.201993 0.542012
0.427670 0.209601 0.549794
0.509188 0.217484 0.557864
0.592921 0.225597 0.566179
0.678547 0.233909 0.574708
0.765831 0.242397 0.583429
0.796981 0.245410 0.586702
0.224350 0.274082 0.551050
0.294866 0.280861 0.558039
0.370096 0.288113 0.565514
0.448727 0.295711 0.573349
0.530042 0.303585 0.581475
0.613582 0.311690 0.589847
0.699028 0.319995 0.598434
0.786146 0.328476 0.607214
0.817305 0.331487 0.610544
0.247691 0.366037 0.576208
0.318019 0.372808 0.583252
0.393063 0.380054 0.590784
0.471514 0.387645 0.598678
0.552659 0.395514 0.606863
0.636040 0.403615 0.615296
0.721340 0.411916 0.623946
0.808327 0.420394 0.632790
0.839230 0.423407 0.636181
0.272250 0.462223 0.602714
0.342420 0.468991 0.609817
0.417309 0.476233 0.617411
0.495613 0.483823 0.625367
0.576620 0.491691 0.633616
0.659877 0.499791 0.642115
0.745067 0.508093 0.650833
0.831958 0.516574 0.659746
0.861976 0.519592 0.663202
0.297808 0.561781 0.630349
0.367851 0.568550 0.637517
0.442616 0.575795 0.645176
0.520805 0.583387 0.653199
0.601710 0.591259 0.661518
0.684877 0.599364 0.670088
0.769992 0.607672 0.678878
0.856060 0.616159 0.687865
0.886624 0.619187 0.691390
0.324236 0.664171 0.658980
0.394181 0.670946 0.666217
0.468855 0.678198 0.673947
0.546963 0.685798 0.682042
0.627800 0.693678 0.690435
0.710913 0.701793 0.699080
0.795990 0.710112 0.707948
0.881838 0.718611 0.717014
0.912864 0.721654 0.720611
0.351453 0.769022 0.688520
0.421331 0.775808 0.695830
0.495946 0.783071 0.703635
0.574008 0.790685 0.711809
0.654810 0.798579 0.720280
0.737905 0.806710 0.729006
0.822980 0.815045 0.737956
0.909040 0.823561 0.747106
0.940414 0.826623 0.750781
0.379407 0.876065 0.718908
0.449250 0.882868 0.726297
0.523839 0.890148 0.734183
0.601887 0.897781 0.742438
0.682691 0.905695 0.750994
0.765803 0.913846 0.759806
0.850793 0.922202 0.768843
0.937399 0.930742 0.778083
0.969006 0.933828 0.781838
0.389146 0.914895 0.731076
0.458990 0.921724 0.738539
0.533590 0.929032 0.746501
0.611663 0.936683 0.754833
0.692507 0.944612 0.763468
0.775676 0.952790 0.772360
0.860820 0.961180 0.781479
0.947767 0.969758 0.790802
0.979484 0.972884 0.794631
0.205361 0.190763 0.607398
0.276070 0.197553 0.614344
0.351493 0.204815 0.621776
0.430313 0.212423 0.629569
0.511809 0.220307 0.637652
0.595520 0.228420 0.645981
0.681126 0.236732 0.654526
0.768391 0.245221 0.663264
0.799541 0.248234 0.666555
0.227064 0.276900 0.630830
0.297560 0.283679 0.637832
0.372769 0.290932 0.645322
0.451381 0.298530 0.653173
0.532677 0.306405 0.661316
0.616198 0.314510 0.669706
0.701628 0.322816 0.678314
0.788731 0.331298 0.687116
0.819891 0.334310 0.690469
0.250408 0.368852 0.656038
0.320719 0.375624 0.663100
0.395746 0.382870 0.670651
0.474180 0.390462 0.678565
0.555309 0.398332 0.686773
0.638676 0.406433 0.695230
0.723963 0.414736 0.703905
0.810939 0.423215 0.712776
0.841702 0.426229 0.716195
0.274973 0.465036 0.682609
0.345129 0.471805 0.689736
0.420003 0.479048 0.697354
0.498294 0.486640 0.705335
0.579289 0.494508 0.713612
0.662535 0.502610 0.722140
0.747716 0.510914 0.730887
0.834508 0.519396 0.739832
0.864561 0.522415 0.743321
0.300539 0.564594 0.710327
0.370570 0.571365 0.717523
0.445324 0.578611 0.725211
0.523504 0.586205 0.733265
0.604400 0.594078 0.741616
0.687560 0.602185 0.750219
0.772670 0.610494 0.759044
0.858687 0.618983 0.768067
0.889303 0.622013 0.771629
0.326978 0.666986 0.739057
0.396915 0.673763 0.746327
0.471581 0.681016 0.754090
0.549683 0.688618 0.762222
0.630514 0.696501 0.770651
0.713624 0.704618 0.779335
0.798699 0.712938 0.788242
0.884552 0.721440 0.797350
0.915619 0.724485 0.800989
0.354208 0.771840 0.768712
0.424082 0.778628 0.776060
0.498693 0.785894 0.783904
0.576751 0.793510 0.792118
0.657552 0.801407 0.800631
0.740647 0.809539 0.809401
0.825724 0.817877 0.818395
0.911821 0.826396 0.827592
0.943224 0.829461 0.831313
0.382179 0.878888 0.799233
0.452020 0.885694 0.806664
0.526609 0.892977 0.814594
0.604657 0.900612 0.822894
0.685463 0.908529 0.831496
0.768579 0.916683 0.840356
0.853575 0.925042 0.849443
0.940227 0.933585 0.858734
0.971851 0.936671 0.862541
0.391940 0.917727 0.811546
0.461785 0.924559 0.819056
0.536387 0.931870 0.827066
0.614464 0.939518 0.835449
0.695314 0.947454 0.844135
0.778489 0.955637 0.853080
0.863649 0.964033 0.862253
0.950619 0.972614 0.871632
0.982342 0.975742 0.875517
0.208136 0.193644 0.688797
0.278821 0.200434 0.695753
0.354220 0.207697 0.703196
0.433017 0.215305 0.711001
0.514490 0.223189 0.719097
0.598180 0.231302 0.727442
0.683766 0.239615 0.736003
0.771013 0.248103 0.744759
0.802162 0.251118 0.748070
0.229839 0.279777 0.712266
0.300314 0.286557 0.719283
0.375503 0.293810 0.726788
0.454095 0.301409 0.734656
0.535372 0.309284 0.742818
0.618876 0.317390 0.751229
0.704290 0.325696 0.759858
0.791377 0.334179 0.768683
0.822539 0.337192 0.772061
0.253186 0.371726 0.737528
0.323480 0.378499 0.744609
0.398489 0.385745 0.752181
0.476907 0.393339 0.760117
0.558021 0.401209 0.768349
0.641373 0.409312 0.776830
0.726649 0.417615 0.785532
0.813613 0.426096 0.794431
0.844243 0.429111 0.797879
0.277756 0.467909 0.764170
0.347898 0.474678 0.771321
0.422758 0.481923 0.778964
0.501036 0.489516 0.786973
0.582020 0.497386 0.795278
0.665255 0.505489 0.803836
0.750427 0.513794 0.812615
0.837098 0.522277 0.821593
0.867214 0.525298 0.825115
0.303330 0.567467 0.791975
0.373351 0.574239 0.799199
0.448094 0.581486 0.806918
0.526265 0.589082 0.815004
0.607152 0.596957 0.823389
0.690306 0.605065 0.832027
0.775410 0.613377 0.840888
0.861382 0.621868 0.849950
0.892049 0.624899 0.853550
0.329780 0.669860 0.820809
0.399709 0.676639 0.828112
0.474368 0.683894 0.835911
0.552465 0.691499 0.844080
0.633291 0.699383 0.852548
0.716398 0.707502 0.861271
0.801471 0.715825 0.870220
0.887332 0.724329 0.879370
0.918439 0.727376 0.883053
0.357025 0.774718 0.850585
0.426893 0.781509 0.857971
0.501500 0.788777 0.865856
0.579556 0.796395 0.874111
0.660356 0.804294 0.882668
0.743452 0.812429 0.891338
0.828522 0.820769 0.899727
0.914666 0.829291 0.908215
0.946098 0.832359 0.911605
0.385013 0.881772 0.881243
0.454852 0.888580 0.888718
0.529440 0.895866 0.896182
0.607489 0.903504 0.903890
0.688298 0.911423 0.911793
0.771418 0.919580 0.919841
0.856421 0.927942 0.927997
0.943117 0.936483 0.936235
0.974757 0.939575 0.939460
0.394795 0.920619 0.893445
0.464641 0.927454 0.900395
0.539247 0.934764 0.907723
0.617328 0.942414 0.915303
0.698183 0.950358 0.923062
0.781366 0.958546 0.930951
0.866541 0.966946 0.938934
0.953531 0.975530 0.946983
0.985259 0.978659 0.950119
0.209019 0.194663 0.718482
0.279683 0.201453 0.725444
0.355061 0.208717 0.732896
0.433837 0.216326 0.740709
0.515290 0.224210 0.748815
0.598961 0.232324 0.757170
0.684529 0.240638 0.765742
0.771759 0.249127 0.774508
0.802910 0.252142 0.777830
0.230730 0.280793 0.741978
0.301187 0.287574 0.749004
0.376358 0.294828 0.756519
0.454932 0.302428 0.764398
0.536192 0.310304 0.772571
0.619681 0.318411 0.780994
0.705080 0.326718 0.789636
0.792154 0.335202 0.798474
0.823319 0.338216 0.801864
0.254086 0.372740 0.767274
0.324365 0.379514 0.774366
0.399359 0.386762 0.781950
0.477763 0.394357 0.789899
0.558863 0.402229 0.798144
0.642203 0.410332 0.806639
0.727467 0.418637 0.815356
0.814422 0.427119 0.824270
0.845022 0.430136 0.827733
0.278667 0.468923 0.793957
0.348797 0.475694 0.801121
0.423645 0.482941 0.808778
0.501912 0.490535 0.816801
0.582885 0.498406 0.825122
0.666112 0.506511 0.833695
0.751276 0.514817 0.842491
0.837908 0.523302 0.851486
0.868078 0.526325 0.855025
0.304254 0.568482 0.821809
0.374265 0.575256 0.829049
0.449000 0.582505 0.836784
0.527162 0.590103 0.844886
0.608043 0.597980 0.853288
0.691191 0.606090 0.861944
0.776292 0.614403 0.870824
0.862273 0.622896 0.879904
0.892985 0.625930 0.883524
0.330719 0.670879 0.850697
0.400642 0.677659 0.858018
0.475295 0.684917 0.865835
0.553387 0.692523 0.874022
0.634210 0.700410 0.882509
0.717315 0.708531 0.891063
0.802388 0.716857 0.899504
0.888290 0.725363 0.908054
0.919430 0.728412 0.911434
0.357982 0.775741 0.880535
0.427847 0.782534 0.887919
0.502451 0.789804 0.895396
0.580506 0.797425 0.903152
0.661306 0.805327 0.911114
0.744403 0.813465 0.919234
0.829466 0.821807 0.927474
0.915675 0.830332 0.935805
0.947130 0.833402 0.939042
0.385990 0.882801 0.909820
0.455828 0.889611 0.916726
0.530417 0.896901 0.924021
0.608468 0.904541 0.931578
0.689280 0.912464 0.939323
0.772405 0.920623 0.947207
0.857424 0.928989 0.955194
0.944160 0.937532 0.963254
0.975813 0.940628 0.966307
0.395796 0.921658 0.921101
0.465644 0.928495 0.927894
0.540253 0.935806 0.935058
0.618339 0.943462 0.942468
0.699201 0.951410 0.950050
0.782392 0.959603 0.957756
0.867583 0.968006 0.965550
0.954591 0.976592 0.973403
0.986323 0.979723 0.976348
