library/cube/Cyber_Glow_000.cube
# CINEGRADE LAB — Premium Cinematic LUT
# Title: Cyber Glow
# Category: Night Neon
# Description: Cyberpunk-inspired with neon glow enhancement and deep shadow work
# Mood: Electric, urban, futuristic
# Variant: 1
# Generated: 2026-05-21T16:12:21.786484
TITLE "Cyber Glow"
LUT_3D_SIZE 9
0.000000 0.012748 0.015498
0.000000 0.012079 0.014685
0.146742 0.008519 0.010984
0.326651 0.004342 0.006671
0.510165 0.000111 0.002308
0.697122 0.000000 0.000000
0.887364 0.000000 0.000000
0.949425 0.000000 0.000000
0.957731 0.000000 0.000000
0.000000 0.010570 0.012851
0.000000 0.009962 0.012111
0.152015 0.006362 0.008384
0.337697 0.002131 0.004030
0.526623 0.000000 0.000000
0.718633 0.000000 0.000000
0.913567 0.000000 0.000000
0.976271 0.000000 0.000000
0.983650 0.000000 0.000000
0.000000 0.150828 0.000560
0.000000 0.150131 0.000000
0.120669 0.146872 0.000000
0.337754 0.141943 0.000000
0.531497 0.137496 0.000000
0.727964 0.133020 0.000000
0.926994 0.128515 0.000000
0.990172 0.126711 0.000000
0.996631 0.126048 0.000000
0.000000 0.317938 0.000000
0.000000 0.317158 0.000000
0.112490 0.313756 0.000000
0.275357 0.309825 0.000000
0.532783 0.304059 0.000000
0.733100 0.299447 0.000000
0.935620 0.294821 0.000000
0.999095 0.292964 0.000000
1.000000 0.292278 0.000000
0.000000 0.484282 0.000000
0.000000 0.483459 0.000000
0.103935 0.479960 0.000000
0.270104 0.475934 0.000000
0.438077 0.471906 0.000000
0.735951 0.465353 0.000000
0.941354 0.460657 0.000000
1.000000 0.458790 0.000000
1.000000 0.458121 0.000000
0.000000 0.650058 0.000000
0.000000 0.649233 0.000000
0.094989 0.645686 0.000000
0.263954 0.641613 0.000000
0.434422 0.637551 0.000000
0.606259 0.633502 0.000000
0.944181 0.626221 0.000000
1.000000 0.624388 0.000000
1.000000 0.623775 0.000000
0.000000 0.815469 0.000000
0.000000 0.814680 0.000000
0.085639 0.811134 0.000000
0.256893 0.807064 0.000000
0.429349 0.803017 0.000000
0.602874 0.798995 0.000000
0.777334 0.795002 0.000000
1.000000 0.789959 0.000000
1.000000 0.789443 0.000000
0.000000 0.977352 0.000000
0.000000 0.977100 0.000000
0.076044 0.974029 0.000000
0.249052 0.970405 0.000000
0.422964 0.966782 0.000000
0.597647 0.963161 0.000000
0.772967 0.959547 0.000000
0.948790 0.955942 0.000000
1.000000 0.954696 0.000000
0.000000 1.000000 0.000000
0.000000 1.000000 0.000000
0.073766 1.000000 0.000000
0.248042 1.000000 0.000000
0.422924 1.000000 0.000000
0.598278 1.000000 0.000000
0.773970 1.000000 0.000000
0.949867 1.000000 0.000000
1.000000 1.000000 0.000000
0.000000 0.012519 0.015219
0.000000 0.011856 0.014414
0.147298 0.008291 0.010710
0.327817 0.004108 0.006392
0.511905 0.000000 0.002025
0.699400 0.000000 0.000000
0.890142 0.000000 0.000000
0.952277 0.000000 0.000000
0.960489 0.000000 0.000000
0.000000 0.010362 0.012597
0.000000 0.009760 0.011865
0.152518 0.006156 0.008136
0.338749 0.001921 0.003778
0.528188 0.000000 0.000000
0.720675 0.000000 0.000000
0.916049 0.000000 0.000000
0.978808 0.000000 0.000000
0.986093 0.000000 0.000000
0.000000 0.186134 0.000000
0.000000 0.149899 0.000000
0.121050 0.146641 0.000000
0.338696 0.141708 0.000000
0.532890 0.137261 0.000000
0.729772 0.132784 0.000000
0.929182 0.128280 0.000000
0.992397 0.126483 0.000000
0.998762 0.125829 0.000000
0.000000 0.317670 0.000000
0.000000 0.316900 0.000000
0.112830 0.313501 0.000000
0.276052 0.309573 0.000000
0.534004 0.303806 0.000000
0.734675 0.299198 0.000000
0.937513 0.294575 0.000000
1.000000 0.292728 0.000000
1.000000 0.292053 0.000000
0.000000 0.483998 0.000000
0.000000 0.483187 0.000000
0.104233 0.479695 0.000000
0.270707 0.475674 0.000000
0.438953 0.471653 0.000000
0.737292 0.465102 0.000000
0.942952 0.460413 0.000000
1.000000 0.458558 0.000000
1.000000 0.457902 0.000000
0.000000 0.649773 0.000000
0.000000 0.648962 0.000000
0.095244 0.645424 0.000000
0.264463 0.641360 0.000000
0.435154 0.637307 0.000000
0.607183 0.633269 0.000000
0.945482 0.625994 0.000000
1.000000 0.624175 0.000000
1.000000 0.623578 0.000000
0.000000 0.815196 0.000000
0.000000 0.814423 0.000000
0.085851 0.810889 0.000000
0.257307 0.806831 0.000000
0.429935 0.802796 0.000000
0.603601 0.798787 0.000000
0.778172 0.794807 0.000000
1.000000 0.789778 0.000000
1.000000 0.789279 0.000000
0.000000 0.977265 0.000000
0.000000 0.977019 0.000000
0.076201 0.973951 0.000000
0.249361 0.970330 0.000000
0.423395 0.966711 0.000000
0.598169 0.963095 0.000000
0.773550 0.959486 0.000000
0.949404 0.955886 0.000000
1.000000 0.954648 0.000000
0.000000 1.000000 0.000000
0.000000 1.000000 0.000000
0.073874 1.000000 0.000000
0.248252 1.000000 0.000000
0.423205 1.000000 0.000000
0.598600 1.000000 0.000000
0.774303 1.000000 0.000000
0.950180 1.000000 0.000000
1.000000 1.000000 0.000000
0.000000 0.011097 0.195742
0.000000 0.010600 0.170902
0.146609 0.006827 0.198011
0.327736 0.002641 0.193168
0.512395 0.000000 0.188292
0.700425 0.000000 0.183386
0.891665 0.000000 0.178454
0.953874 0.000000 0.176102
0.961996 0.000000 0.174853
0.000000 0.008972 0.191426
0.000000 0.008380 0.190223
0.151788 0.004724 0.193771
0.338565 0.000488 0.188941
0.528514 0.000000 0.184085
0.721474 0.000000 0.179206
0.917284 0.000000 0.174309
0.980099 0.000000 0.172070
0.987293 0.000000 0.170963
0.000000 0.184558 0.198323
0.000000 0.183843 0.197199
0.120412 0.145397 0.149889
0.338411 0.140261 0.175300
0.533053 0.135816 0.170486
0.730347 0.131341 0.165655
0.930131 0.126840 0.160813
0.993384 0.125052 0.158697
0.999658 0.124410 0.157741
0.000000 0.393818 0.179978
0.000000 0.392989 0.178995
0.112158 0.312242 0.135027
0.275733 0.308318 0.130982
0.534003 0.302353 0.155483
0.735024 0.297749 0.150712
0.938176 0.293133 0.145935
1.000000 0.291297 0.143946
1.000000 0.290636 0.143140
0.000000 0.602100 0.162148
0.000000 0.481917 0.124077
0.103525 0.478433 0.120623
0.270300 0.474420 0.116637
0.438817 0.470406 0.112651
0.737414 0.463661 0.136285
0.943325 0.458980 0.131583
1.000000 0.457139 0.129721
1.000000 0.456499 0.129062
0.000000 0.648494 0.110693
0.000000 0.647698 0.110047
0.094499 0.644172 0.106663
0.263967 0.640118 0.102744
0.434877 0.636076 0.098830
0.607096 0.632049 0.094922
0.945565 0.624583 0.117742
1.000000 0.622780 0.116009
1.000000 0.622200 0.115493
0.000000 0.813934 0.096971
0.000000 0.813178 0.096442
0.085066 0.809658 0.093135
0.256720 0.805613 0.089289
0.429516 0.801592 0.085454
0.603320 0.797597 0.081631
0.777999 0.793632 0.077823
1.000000 0.788420 0.102795
1.000000 0.787939 0.102420
0.000000 0.976190 0.083875
0.000000 0.975952 0.083430
0.075366 0.972888 0.080177
0.248673 0.969272 0.076386
0.422825 0.965657 0.072613
0.597686 0.962046 0.068860
0.773124 0.958443 0.065131
0.949004 0.954850 0.061427
1.000000 0.953423 0.089863
0.000000 1.000000 0.078899
0.000000 1.000000 0.078558
0.072994 1.000000 0.075385
0.247469 1.000000 0.071677
0.422488 1.000000 0.067994
0.597920 1.000000 0.064339
0.773629 1.000000 0.060714
0.949482 1.000000 0.057122
1.000000 1.000000 0.055924
0.000000 0.009448 0.411099
0.000000 0.008805 0.409161
0.121256 0.006069 0.353412
0.327405 0.000938 0.416014
0.512629 0.000000 0.410541
0.701188 0.000000 0.405058
0.892921 0.000000 0.399567
0.955203 0.000000 0.396683
0.963234 0.000000 0.394922
0.000000 0.007357 0.404791
0.000000 0.006774 0.403034
0.125565 0.004013 0.347843
0.338133 0.000000 0.409891
0.528585 0.000000 0.404501
0.722013 0.000000 0.399107
0.918255 0.000000 0.393712
0.981124 0.000000 0.391001
0.988228 0.000000 0.389445
0.000000 0.147545 0.389211
0.000000 0.146877 0.387644
0.119239 0.143627 0.383525
0.337879 0.138583 0.394563
0.532964 0.134140 0.389276
0.730664 0.129667 0.383992
0.930818 0.125170 0.378714
0.994107 0.123392 0.376188
1.000000 0.122762 0.374842
0.000000 0.391962 0.417369
0.000000 0.391147 0.415889
0.105230 0.387693 0.411795
0.275209 0.306873 0.312437
0.533751 0.300670 0.372852
0.735117 0.296072 0.367688
0.938577 0.291462 0.362538
1.000000 0.289638 0.360200
1.000000 0.288990 0.359064
0.000000 0.600233 0.397951
0.000000 0.599356 0.396674
0.093652 0.595791 0.392726
0.269690 0.472976 0.297029
0.438473 0.468971 0.292753
0.737280 0.461993 0.352105
0.943437 0.457321 0.347091
1.000000 0.455494 0.344941
1.000000 0.454869 0.344013
0.000000 0.807792 0.379251
0.000000 0.806903 0.378174
0.093556 0.642731 0.286416
0.263269 0.638687 0.282244
0.434394 0.634657 0.278091
0.606796 0.630641 0.273961
0.945386 0.622948 0.332359
1.000000 0.621160 0.330398
1.000000 0.620597 0.329674
0.000000 1.000000 0.361697
0.000000 0.811747 0.275638
0.084085 0.808240 0.272113
0.255932 0.804209 0.268065
0.428891 0.800201 0.264043
0.602828 0.796221 0.260048
0.777608 0.792271 0.256085
1.000000 0.786838 0.316557
1.000000 0.786376 0.316035
0.000000 1.000000 0.357574
0.000000 0.974694 0.261959
0.074334 0.971636 0.258540
0.247785 0.968024 0.254599
0.422049 0.964414 0.250692
0.596992 0.960809 0.246821
0.772481 0.957212 0.242988
0.948383 0.953625 0.239197
1.000000 0.951971 0.303111
0.000000 1.000000 0.257064
0.000000 1.000000 0.256596
0.071918 1.000000 0.253310
0.246485 1.000000 0.249504
0.421566 1.000000 0.245739
0.597028 1.000000 0.242017
0.772738 1.000000 0.238341
0.948562 1.000000 0.234713
1.000000 1.000000 0.233496
0.000000 0.007803 0.626032
0.000000 0.007170 0.623493
0.120479 0.004620 0.539238
0.272424 0.001028 0.534064
0.512849 0.000000 0.632397
0.701930 0.000000 0.626348
0.894150 0.000000 0.620311
0.956502 0.000000 0.616906
0.964443 0.000000 0.614647
0.000000 0.005745 0.617772
0.000000 0.005172 0.615472
0.124235 0.002077 0.610702
0.281304 0.000000 0.527029
0.528642 0.000000 0.624565
0.722531 0.000000 0.618667
0.919197 0.000000 0.612788
0.982120 0.000000 0.609618
0.989132 0.000000 0.607623
0.000000 0.145917 0.600439
0.000000 0.145260 0.598387
0.118216 0.142013 0.593794
0.279391 0.138750 0.510896
0.532860 0.132468 0.607755
0.730959 0.127999 0.602030
0.931476 0.123505 0.596329
0.994799 0.121737 0.593405
1.000000 0.121119 0.591681
0.000000 0.390112 0.654413
0.000000 0.312215 0.580252
0.109900 0.308834 0.575842
0.274166 0.304923 0.570943
0.533484 0.298993 0.589950
0.735187 0.294401 0.584407
0.938948 0.289797 0.578896
1.000000 0.287984 0.576221
1.000000 0.287351 0.574768
0.000000 0.598372 0.633452
0.000000 0.597511 0.631758
0.092387 0.593957 0.627407
0.259757 0.589876 0.622567
0.438115 0.467541 0.472666
0.608706 0.463549 0.468143
0.943521 0.455668 0.562396
1.000000 0.453854 0.559970
1.000000 0.453244 0.558785
0.000000 0.805936 0.613429
0.000000 0.805065 0.612000
0.080390 0.801461 0.607867
0.250351 0.797334 0.603240
0.433896 0.633244 0.457196
0.606477 0.629240 0.452854
0.945179 0.621318 0.546814
1.000000 0.619547 0.544638
1.000000 0.619000 0.543718
0.000000 1.000000 0.594754
0.000000 1.000000 0.593535
0.068317 1.000000 0.589576
0.255135 0.802811 0.446709
0.428252 0.798818 0.442510
0.602316 0.794852 0.438355
0.777193 0.790916 0.434247
1.000000 0.785262 0.530211
1.000000 0.784819 0.529554
0.000000 1.000000 0.589749
0.000000 1.000000 0.588787
0.073300 0.970386 0.436796
0.246887 0.966778 0.432716
0.421258 0.963174 0.428684
0.596278 0.959574 0.424704
0.771814 0.955983 0.420779
0.947732 0.952403 0.416911
1.000000 0.950523 0.516304
0.000000 1.000000 0.586827
0.000000 1.000000 0.586131
0.070839 1.000000 0.431163
0.245492 1.000000 0.427269
0.420629 1.000000 0.423432
0.596118 1.000000 0.419653
0.771823 1.000000 0.415937
0.947612 1.000000 0.412284
1.000000 1.000000 0.411057
0.000000 0.006163 0.840547
0.000000 0.005541 0.837419
0.118992 0.002468 0.831910
0.272136 0.000000 0.719057
0.427424 0.000000 0.713415
0.702651 0.000000 0.847265
0.895351 0.000000 0.840693
0.957772 0.000000 0.836780
0.965623 0.000000 0.834034
0.000000 0.004139 0.830374
0.000000 0.003576 0.827543
0.123240 0.000482 0.822252
0.280932 0.000000 0.710516
0.440473 0.000000 0.705058
0.723027 0.000000 0.837895
0.920112 0.000000 0.831543
0.983085 0.000000 0.827927
0.990007 0.000000 0.825505
0.000000 0.144293 0.811327
0.000000 0.143647 0.808803
0.117191 0.140404 0.803747
0.278240 0.136631 0.798225
0.442235 0.133528 0.687794
0.731232 0.126335 0.819775
0.932106 0.121845 0.813664
0.995462 0.120086 0.810354
1.000000 0.119481 0.808265
0.000000 0.311308 0.791425
0.000000 0.310588 0.789207
0.108843 0.307214 0.784394
0.273446 0.303308 0.779108
0.440689 0.300081 0.669603
0.735235 0.292735 0.800876
0.939292 0.288137 0.795016
1.000000 0.286336 0.792015
1.000000 0.285716 0.790258
0.000000 0.596535 0.866009
0.000000 0.595689 0.864141
0.100110 0.473407 0.766106
0.267759 0.469419 0.761063
0.437058 0.465432 0.756074
0.608560 0.462134 0.647618
0.943576 0.454020 0.777503
1.000000 0.452220 0.774813
1.000000 0.451626 0.773384
0.000000 0.804098 0.845442
0.000000 0.803245 0.843869
0.079097 0.799653 0.839598
0.249291 0.795538 0.834841
0.420836 0.791442 0.830142
0.606139 0.627845 0.631607
0.779977 0.623871 0.627119
1.000000 0.617939 0.758733
1.000000 0.617410 0.757630
0.000000 1.000000 0.826306
0.000000 1.000000 0.824975
0.066967 1.000000 0.820910
0.239149 0.998884 0.816361
0.412385 0.995399 0.811878
0.601784 0.793489 0.616557
0.776754 0.789568 0.612313
1.000000 0.783693 0.743762
1.000000 0.783269 0.742982
0.000000 1.000000 0.820959
0.000000 1.000000 0.819916
0.067295 1.000000 0.816110
0.241002 1.000000 0.811819
0.420454 0.961937 0.606595
0.595546 0.958343 0.602517
0.771123 0.954758 0.598509
0.947051 0.951184 0.594574
1.000000 0.949077 0.729449
0.000000 1.000000 0.817801
0.000000 1.000000 0.817053
0.068403 1.000000 0.813520
0.244490 1.000000 0.604977
0.419678 1.000000 0.601078
0.595187 1.000000 0.597253
0.770883 1.000000 0.593506
0.946632 1.000000 0.589839
1.000000 1.000000 0.588613
0.000000 0.004789 1.000000
0.000000 0.004162 1.000000
0.118260 0.001076 1.000000
0.271841 0.000000 0.903722
0.427584 0.000000 0.897616
0.703611 0.000000 1.000000
0.896768 0.000000 1.000000
0.959240 0.000000 1.000000
0.966985 0.000000 1.000000
0.000000 0.002751 1.000000
0.000000 0.002184 1.000000
0.122431 0.000000 1.000000
0.279845 0.000000 1.000000
0.440497 0.000000 0.887838
0.602831 0.000000 0.882015
0.921190 0.000000 1.000000
0.984198 0.000000 1.000000
0.991015 0.000000 1.000000
0.000000 0.142846 0.995904
0.000000 0.142199 0.994688
0.116311 0.138949 0.990888
0.277734 0.135168 0.986577
0.442124 0.132111 0.869328
0.607864 0.128299 0.863764
0.932853 0.120335 1.000000
0.996227 0.118574 1.000000
1.000000 0.117969 1.000000
0.000000 0.309808 0.980227
0.000000 0.309090 0.979165
0.107897 0.305713 0.975457
0.272822 0.301803 0.971230
0.439669 0.297884 0.967009
0.609084 0.294739 0.844765
0.939713 0.286588 0.994895
1.000000 0.284789 0.993182
1.000000 0.284173 0.992647
0.000000 0.476081 0.965100
0.000000 0.475333 0.964190
0.099099 0.471876 0.960580
0.267020 0.467888 0.956445
0.436563 0.463903 0.952321
0.608394 0.460724 0.826923
0.943674 0.452451 0.981458
1.000000 0.450656 0.979833
1.000000 0.450069 0.979405
0.000000 0.802538 1.000000
0.000000 0.801689 1.000000
0.078048 0.798098 1.000000
0.260314 0.633624 0.942207
0.432045 0.629621 0.938187
0.604963 0.625636 0.934186
0.779758 0.622494 0.805562
1.000000 0.616377 0.966858
1.000000 0.615858 0.966532
0.000000 1.000000 1.000000
0.000000 1.000000 1.000000
0.065828 1.000000 1.000000
0.238180 0.997529 1.000000
0.411556 0.994036 1.000000
0.585821 0.990533 1.000000
0.776289 0.788227 0.790290
0.951964 0.784355 0.786002
1.000000 0.781740 0.954016
0.000000 1.000000 1.000000
0.000000 1.000000 1.000000
0.066087 1.000000 1.000000
0.239916 1.000000 1.000000
0.414469 1.000000 1.000000
0.589613 1.000000 1.000000
0.770406 0.953536 0.776184
0.946340 0.949968 0.772192
1.000000 0.947639 0.941862
0.000000 1.000000 1.000000
0.000000 1.000000 1.000000
0.067137 1.000000 1.000000
0.241944 1.000000 1.000000
0.417175 1.000000 1.000000
0.594238 1.000000 0.774822
0.769919 1.000000 0.771054
0.945622 1.000000 0.767382
1.000000 1.000000 0.766168
0.000000 0.004063 1.000000
0.000000 0.003432 1.000000
0.118169 0.000334 1.000000
0.271548 0.000000 1.000000
0.428013 0.000000 1.000000
0.586846 0.000000 1.000000
0.899031 0.000000 1.000000
0.961560 0.000000 1.000000
0.969207 0.000000 1.000000
0.000000 0.002012 1.000000
0.000000 0.001442 1.000000
0.122265 0.000000 1.000000
0.280097 0.000000 1.000000
0.440732 0.000000 1.000000
0.603418 0.000000 1.000000
0.923141 0.000000 1.000000
0.986188 0.000000 1.000000
0.992907 0.000000 1.000000
0.000000 0.142050 1.000000
0.000000 0.141402 1.000000
0.116076 0.138145 1.000000
0.277867 0.134357 1.000000
0.441849 0.130548 1.000000
0.608217 0.127049 1.000000
0.776185 0.123212 1.000000
0.997891 0.117996 1.000000
1.000000 0.117396 1.000000
0.000000 0.308960 1.000000
0.000000 0.308245 1.000000
0.107596 0.304864 1.000000
0.272839 0.300952 1.000000
0.439974 0.297030 1.000000
0.609206 0.293443 1.000000
0.779726 0.289517 1.000000
1.000000 0.284194 1.000000
1.000000 0.283587 1.000000
0.000000 0.475199 1.000000
0.000000 0.474456 1.000000
0.098734 0.471000 1.000000
0.266923 0.467013 1.000000
0.436704 0.463029 1.000000
0.607941 0.459052 1.000000
0.780855 0.455435 0.990023
1.000000 0.450061 1.000000
1.000000 0.449485 1.000000
0.000000 0.802244 1.000000
0.000000 0.640237 1.000000
0.089477 0.636754 1.000000
0.260105 0.632742 1.000000
0.432024 0.628745 1.000000
0.605100 0.624766 1.000000
0.779559 0.621168 0.977151
1.000000 0.615797 1.000000
1.000000 0.615291 1.000000
0.000000 1.000000 1.000000
0.000000 1.000000 1.000000
0.065998 1.000000 1.000000
0.238522 0.997496 1.000000
0.425922 0.794378 1.000000
0.600329 0.790447 1.000000
0.775459 0.786550 1.000000
0.951545 0.783054 0.960959
1.000000 0.781207 1.000000
0.000000 1.000000 1.000000
0.000000 1.000000 1.000000
0.066213 1.000000 1.000000
0.240163 1.000000 1.000000
0.414807 1.000000 1.000000
0.590012 1.000000 1.000000
0.765643 1.000000 1.000000
0.945606 0.948762 0.948806
1.000000 0.947569 0.947597
0.000000 1.000000 1.000000
0.000000 1.000000 1.000000
0.067219 1.000000 1.000000
0.242097 1.000000 1.000000
0.417369 1.000000 1.000000
0.592901 1.000000 1.000000
0.768560 1.000000 1.000000
0.944583 1.000000 0.944843
1.000000 1.000000 0.943724
0.000000 0.003847 1.000000
0.000000 0.003222 1.000000
0.118603 0.000122 1.000000
0.272454 0.000000 1.000000
0.429066 0.000000 1.000000
0.588307 0.000000 1.000000
0.750041 0.000000 1.000000
0.964188 0.000000 1.000000
0.971741 0.000000 1.000000
0.000000 0.001817 1.000000
0.000000 0.001253 1.000000
0.122654 0.000000 1.000000
0.280908 0.000000 1.000000
0.441623 0.000000 1.000000
0.604666 0.000000 1.000000
0.769904 0.000000 1.000000
0.988501 0.000000 1.000000
0.995127 0.000000 1.000000
0.000000 0.141827 1.000000
0.000000 0.141188 1.000000
0.116425 0.137932 1.000000
0.278586 0.134144 1.000000
0.442908 0.130336 1.000000
0.609258 0.126511 1.000000
0.777502 0.122672 1.000000
0.999891 0.117789 1.000000
1.000000 0.117199 1.000000
0.000000 0.308714 1.000000
0.000000 0.308008 1.000000
0.107903 0.304632 1.000000
0.273466 0.300723 1.000000
0.440889 0.296806 1.000000
0.610041 0.292884 1.000000
0.780786 0.288959 1.000000
0.952991 0.285035 1.000000
1.000000 0.283388 1.000000
0.000000 0.474943 1.000000
0.000000 0.474212 1.000000
0.098999 0.470763 1.000000
0.267456 0.466782 1.000000
0.437475 0.462806 1.000000
0.608921 0.458836 1.000000
0.781660 0.454875 1.000000
0.955558 0.450927 1.000000
1.000000 0.449298 1.000000
0.000000 0.640715 1.000000
0.000000 0.639997 1.000000
0.089699 0.636524 1.000000
0.260544 0.632522 1.000000
0.432650 0.628535 1.000000
0.605883 0.624567 1.000000
0.780109 0.620621 1.000000
0.955194 0.616698 1.000000
1.000000 0.615130 1.000000
0.000000 1.000000 1.000000
0.000000 1.000000 1.000000
0.079989 0.802117 1.000000
0.252715 0.798142 1.000000
0.426402 0.794195 1.000000
0.600914 0.790279 1.000000
0.776120 0.786396 1.000000
0.951885 0.782548 1.000000
1.000000 0.781085 1.000000
0.000000 1.000000 1.000000
0.000000 1.000000 1.000000
0.066333 1.000000 1.000000
0.240400 1.000000 1.000000
0.415131 1.000000 1.000000
0.594048 0.955485 1.000000
0.769713 0.951913 1.000000
0.945639 0.948355 1.000000
1.000000 0.947170 1.000000
0.000000 1.000000 1.000000
0.000000 1.000000 1.000000
0.067297 1.000000 1.000000
0.242241 1.000000 1.000000
0.417548 1.000000 1.000000
0.593085 1.000000 1.000000
0.768718 1.000000 1.000000
0.944315 1.000000 1.000000
1.000000 1.000000 1.000000
