library/cube/Cyber_Glow_000.cube
# CINEGRADE LAB — Premium Cinematic LUT
# Title: Cyber Glow
# Category: Night Neon
# Description: Cyberpunk-inspired with neon glow enhancement and deep shadow work
# Mood: Electric, urban, futuristic
# Variant: 1
# Generated: 2026-05-21T16:12:21.786484
TITLE "Cyber Glow"
LUT_3D_SIZE 33
0.000000 0.012748 0.015498
0.000000 0.012579 0.015292
0.000000 0.012411 0.015089
0.000000 0.012245 0.014886
0.000000 0.012079 0.014685
0.014272 0.011615 0.014185
0.058189 0.010587 0.013122
0.102346 0.009555 0.012055
0.146742 0.008519 0.010984
0.191372 0.007480 0.009911
0.236236 0.006437 0.008834
0.281330 0.005391 0.007754
0.326651 0.004342 0.006671
0.372198 0.003289 0.005584
0.417967 0.002233 0.004495
0.463957 0.001174 0.003403
0.510165 0.000111 0.002308
0.556588 0.000000 0.001210
0.603223 0.000000 0.000109
0.650069 0.000000 0.000000
0.697122 0.000000 0.000000
0.744381 0.000000 0.000000
0.791843 0.000000 0.000000
0.839504 0.000000 0.000000
0.887364 0.000000 0.000000
0.935418 0.000000 0.000000
0.945169 0.000000 0.000000
0.947306 0.000000 0.000000
0.949425 0.000000 0.000000
0.951528 0.000000 0.000000
0.953613 0.000000 0.000000
0.955681 0.000000 0.000000
0.957731 0.000000 0.000000
0.000000 0.012184 0.014813
0.000000 0.012019 0.014612
0.000000 0.011855 0.014413
0.000000 0.011693 0.014215
0.000000 0.011531 0.014018
0.014455 0.011068 0.013521
0.058773 0.010035 0.012454
0.103325 0.008999 0.011383
0.148109 0.007960 0.010310
0.193123 0.006917 0.009233
0.238364 0.005870 0.008154
0.283830 0.004821 0.007071
0.329518 0.003768 0.005985
0.375426 0.002712 0.004896
0.421551 0.001653 0.003805
0.467890 0.000590 0.002710
0.514442 0.000000 0.001613
0.561203 0.000000 0.000513
0.608171 0.000000 0.000000
0.655344 0.000000 0.000000
0.702719 0.000000 0.000000
0.750294 0.000000 0.000000
0.798066 0.000000 0.000000
0.846032 0.000000 0.000000
0.894190 0.000000 0.000000
0.942538 0.000000 0.000000
0.952289 0.000000 0.000000
0.954368 0.000000 0.000000
0.956429 0.000000 0.000000
0.958474 0.000000 0.000000
0.960501 0.000000 0.000000
0.962511 0.000000 0.000000
0.964503 0.000000 0.000000
0.000000 0.011634 0.014143
0.000000 0.011472 0.013947
0.000000 0.011312 0.013752
0.000000 0.011153 0.013559
0.000000 0.010995 0.013367
0.014634 0.010533 0.012871
0.059342 0.009497 0.011801
0.104280 0.008457 0.010728
0.149444 0.007414 0.009652
0.194832 0.006367 0.008572
0.240441 0.005317 0.007490
0.286270 0.004264 0.006405
0.332315 0.003208 0.005317
0.378574 0.002149 0.004225
0.425045 0.001087 0.003132
0.471724 0.000022 0.002035
0.518611 0.000000 0.000936
0.565701 0.000000 0.000000
0.612992 0.000000 0.000000
0.660483 0.000000 0.000000
0.708170 0.000000 0.000000
0.756051 0.000000 0.000000
0.804124 0.000000 0.000000
0.852385 0.000000 0.000000
0.900833 0.000000 0.000000
0.949465 0.000000 0.000000
0.959214 0.000000 0.000000
0.961235 0.000000 0.000000
0.963238 0.000000 0.000000
0.965225 0.000000 0.000000
0.967194 0.000000 0.000000
0.969146 0.000000 0.000000
0.971081 0.000000 0.000000
0.000000 0.011096 0.013489
0.000000 0.010938 0.013298
0.000000 0.010782 0.013108
0.000000 0.010627 0.012919
0.000000 0.010472 0.012732
0.014809 0.010012 0.012238
0.059899 0.008971 0.011165
0.105212 0.007928 0.010089
0.150746 0.006881 0.009010
0.196498 0.005831 0.007928
0.242467 0.004778 0.006843
0.288648 0.003722 0.005755
0.335041 0.002663 0.004665
0.381642 0.001601 0.003572
0.428449 0.000536 0.002476
0.475460 0.000000 0.001377
0.522671 0.000000 0.000276
0.570081 0.000000 0.000000
0.617686 0.000000 0.000000
0.665485 0.000000 0.000000
0.713475 0.000000 0.000000
0.761653 0.000000 0.000000
0.810017 0.000000 0.000000
0.858564 0.000000 0.000000
0.907292 0.000000 0.000000
0.956199 0.000000 0.000000
0.965944 0.000000 0.000000
0.967906 0.000000 0.000000
0.969852 0.000000 0.000000
0.971781 0.000000 0.000000
0.973692 0.000000 0.000000
0.975586 0.000000 0.000000
0.977463 0.000000 0.000000
0.000000 0.010570 0.012851
0.000000 0.010417 0.012664
0.000000 0.010264 0.012478
0.000000 0.010113 0.012294
0.000000 0.009962 0.012111
0.014979 0.009503 0.011620
0.060441 0.008459 0.010544
0.106120 0.007412 0.009465
0.152015 0.006362 0.008384
0.198122 0.005309 0.007299
0.244440 0.004253 0.006212
0.290966 0.003193 0.005122
0.337697 0.002131 0.004030
0.384630 0.001066 0.002935
0.431764 0.000000 0.001837
0.479096 0.000000 0.000737
0.526623 0.000000 0.000000
0.574343 0.000000 0.000000
0.622253 0.000000 0.000000
0.670350 0.000000 0.000000
0.718633 0.000000 0.000000
0.767099 0.000000 0.000000
0.815745 0.000000 0.000000
0.864568 0.000000 0.000000
0.913567 0.000000 0.000000
0.962739 0.000000 0.000000
0.972478 0.000000 0.000000
0.974383 0.000000 0.000000
0.976271 0.000000 0.000000
0.978142 0.000000 0.000000
0.979995 0.000000 0.000000
0.981831 0.000000 0.000000
0.983650 0.000000 0.000000
0.000000 0.024872 0.011197
0.000000 0.024717 0.011015
0.000000 0.024564 0.010835
0.000000 0.024413 0.010656
0.000000 0.024262 0.010478
0.011471 0.023852 0.010041
0.059941 0.022748 0.008910
0.105978 0.021694 0.007830
0.152224 0.020637 0.006746
0.198677 0.019576 0.005660
0.245335 0.018513 0.004571
0.292195 0.017447 0.003479
0.339255 0.016379 0.002385
0.386512 0.015307 0.001288
0.433964 0.014233 0.000189
0.481608 0.013157 0.000000
0.529441 0.012077 0.000000
0.577462 0.010995 0.000000
0.625667 0.009911 0.000000
0.674054 0.008824 0.000000
0.722621 0.007735 0.000000
0.771365 0.006644 0.000000
0.820284 0.005550 0.000000
0.869374 0.004454 0.000000
0.918635 0.003356 0.000000
0.968062 0.002256 0.000000
0.977795 0.001939 0.000000
0.979642 0.001778 0.000000
0.981472 0.001620 0.000000
0.983285 0.001462 0.000000
0.985081 0.001306 0.000000
0.986859 0.001152 0.000000
0.988620 0.000999 0.000000
0.000000 0.066923 0.007631
0.000000 0.066761 0.007454
0.000000 0.066600 0.007279
0.000000 0.066440 0.007105
0.000000 0.066281 0.006933
0.008657 0.065861 0.006499
0.047141 0.064947 0.005571
0.103887 0.063674 0.004285
0.150475 0.062603 0.003200
0.197265 0.061529 0.002112
0.244255 0.060452 0.001022
0.291441 0.059372 0.000000
0.338820 0.058290 0.000000
0.386392 0.057206 0.000000
0.434152 0.056119 0.000000
0.482099 0.055029 0.000000
0.530230 0.053937 0.000000
0.578542 0.052843 0.000000
0.627034 0.051747 0.000000
0.675702 0.050648 0.000000
0.724544 0.049547 0.000000
0.773557 0.048444 0.000000
0.822739 0.047339 0.000000
0.872088 0.046232 0.000000
0.921601 0.045123 0.000000
0.971275 0.044012 0.000000
0.981000 0.043689 0.000000
0.982790 0.043524 0.000000
0.984563 0.043361 0.000000
0.986319 0.043200 0.000000
0.988057 0.043039 0.000000
0.989778 0.042881 0.000000
0.991481 0.042724 0.000000
0.000000 0.108907 0.004085
0.000000 0.108738 0.003914
0.000000 0.108569 0.003744
0.000000 0.108402 0.003576
0.000000 0.108236 0.003409
0.005845 0.107807 0.002978
0.044616 0.106881 0.002050
0.083554 0.105952 0.001120
0.148699 0.104508 0.000000
0.195817 0.103420 0.000000
0.243128 0.102331 0.000000
0.290630 0.101238 0.000000
0.338320 0.100144 0.000000
0.386196 0.099047 0.000000
0.434256 0.097948 0.000000
0.482496 0.096846 0.000000
0.530915 0.095743 0.000000
0.579510 0.094637 0.000000
0.628278 0.093529 0.000000
0.677217 0.092419 0.000000
0.726325 0.091308 0.000000
0.775598 0.090194 0.000000
0.825034 0.089078 0.000000
0.874632 0.087961 0.000000
0.924387 0.086842 0.000000
0.974299 0.085721 0.000000
0.984015 0.085393 0.000000
0.985748 0.085224 0.000000
0.987463 0.085057 0.000000
0.989161 0.084892 0.000000
0.990842 0.084728 0.000000
0.992506 0.084566 0.000000
0.994152 0.084406 0.000000
0.000000 0.150828 0.000560
0.000000 0.150652 0.000395
0.000000 0.150476 0.000230
0.000000 0.150303 0.000067
0.000000 0.150131 0.000000
0.003034 0.149693 0.000000
0.042084 0.148754 0.000000
0.081296 0.147814 0.000000
0.120669 0.146872 0.000000
0.194331 0.145255 0.000000
0.241954 0.144153 0.000000
0.289763 0.143049 0.000000
0.337754 0.141943 0.000000
0.385926 0.140834 0.000000
0.434275 0.139724 0.000000
0.482800 0.138611 0.000000
0.531497 0.137496 0.000000
0.580365 0.136380 0.000000
0.629400 0.135262 0.000000
0.678601 0.134142 0.000000
0.727964 0.133020 0.000000
0.777487 0.131896 0.000000
0.827169 0.130771 0.000000
0.877005 0.129644 0.000000
0.926994 0.128515 0.000000
0.977134 0.127385 0.000000
0.986839 0.127053 0.000000
0.988514 0.126881 0.000000
0.990172 0.126711 0.000000
0.991813 0.126542 0.000000
0.993436 0.126376 0.000000
0.995042 0.126211 0.000000
0.996631 0.126048 0.000000
0.000000 0.192689 0.000000
0.000000 0.192506 0.000000
0.000000 0.192325 0.000000
0.000000 0.192145 0.000000
0.000000 0.191967 0.000000
0.000225 0.191521 0.000000
0.039545 0.190572 0.000000
0.079024 0.189620 0.000000
0.118659 0.188667 0.000000
0.158448 0.187713 0.000000
0.198388 0.186757 0.000000
0.288839 0.184807 0.000000
0.337122 0.183690 0.000000
0.385580 0.182571 0.000000
0.434209 0.181449 0.000000
0.483008 0.180327 0.000000
0.531975 0.179202 0.000000
0.581106 0.178076 0.000000
0.630399 0.176947 0.000000
0.679852 0.175818 0.000000
0.729461 0.174687 0.000000
0.779226 0.173554 0.000000
0.829142 0.172420 0.000000
0.879208 0.171284 0.000000
0.929421 0.170147 0.000000
0.979779 0.169008 0.000000
0.989472 0.168673 0.000000
0.991090 0.168498 0.000000
0.992690 0.168325 0.000000
0.994273 0.168154 0.000000
0.995839 0.167985 0.000000
0.997388 0.167818 0.000000
0.998920 0.167653 0.000000
0.000000 0.234492 0.000000
0.000000 0.234303 0.000000
0.000000 0.234116 0.000000
0.000000 0.233931 0.000000
0.000000 0.233748 0.000000
0.000000 0.233296 0.000000
0.037000 0.232335 0.000000
0.076737 0.231374 0.000000
0.116626 0.230411 0.000000
0.156664 0.229447 0.000000
0.196849 0.228481 0.000000
0.237178 0.227515 0.000000
0.336424 0.225388 0.000000
0.385158 0.224259 0.000000
0.434058 0.223128 0.000000
0.483123 0.221996 0.000000
0.532348 0.220862 0.000000
0.581733 0.219727 0.000000
0.631275 0.218590 0.000000
0.680970 0.217451 0.000000
0.730817 0.216311 0.000000
0.780812 0.215170 0.000000
0.830954 0.214028 0.000000
0.881241 0.212884 0.000000
0.931668 0.211740 0.000000
0.982235 0.210594 0.000000
0.991914 0.210255 0.000000
0.993474 0.210079 0.000000
0.995017 0.209904 0.000000
0.996543 0.209731 0.000000
0.998051 0.209560 0.000000
0.999542 0.209391 0.000000
1.000000 0.209224 0.000000
0.000000 0.276240 0.000000
0.000000 0.276047 0.000000
0.000000 0.275856 0.000000
0.000000 0.275666 0.000000
0.000000 0.275477 0.000000
0.000000 0.275019 0.000000
0.034447 0.274049 0.000000
0.074435 0.273078 0.000000
0.114570 0.272106 0.000000
0.154849 0.271133 0.000000
0.195270 0.270159 0.000000
0.235832 0.269183 0.000000
0.276532 0.268207 0.000000
0.384660 0.265903 0.000000
0.433822 0.264764 0.000000
0.483142 0.263622 0.000000
0.532618 0.262480 0.000000
0.582247 0.261336 0.000000
0.632027 0.260191 0.000000
0.681955 0.259045 0.000000
0.732030 0.257897 0.000000
0.782247 0.256749 0.000000
0.832605 0.255599 0.000000
0.883102 0.254448 0.000000
0.933735 0.253297 0.000000
0.984500 0.252144 0.000000
0.994164 0.251804 0.000000
0.995666 0.251625 0.000000
0.997152 0.251449 0.000000
0.998620 0.251275 0.000000
1.000000 0.251103 0.000000
1.000000 0.250933 0.000000
1.000000 0.250765 0.000000
0.000000 0.317938 0.000000
0.000000 0.317741 0.000000
0.000000 0.317545 0.000000
0.000000 0.317351 0.000000
0.000000 0.317158 0.000000
0.000000 0.316694 0.000000
0.031887 0.315716 0.000000
0.072118 0.314736 0.000000
0.112490 0.313756 0.000000
0.153002 0.312774 0.000000
0.193652 0.311792 0.000000
0.234438 0.310809 0.000000
0.275357 0.309825 0.000000
0.316408 0.308840 0.000000
0.433500 0.306358 0.000000
0.483066 0.305209 0.000000
0.532783 0.304059 0.000000
0.582647 0.302908 0.000000
0.632656 0.301755 0.000000
0.682808 0.300602 0.000000
0.733100 0.299447 0.000000
0.783530 0.298292 0.000000
0.834095 0.297136 0.000000
0.884793 0.295979 0.000000
0.935620 0.294821 0.000000
0.986576 0.293663 0.000000
0.996222 0.293320 0.000000
0.997667 0.293141 0.000000
0.999095 0.292964 0.000000
1.000000 0.292790 0.000000
1.000000 0.292617 0.000000
1.000000 0.292447 0.000000
1.000000 0.292278 0.000000
0.000000 0.359588 0.000000
0.000000 0.359387 0.000000
0.000000 0.359187 0.000000
0.000000 0.358990 0.000000
0.000000 0.358794 0.000000
0.000000 0.358324 0.000000
0.029319 0.357338 0.000000
0.069784 0.356351 0.000000
0.110387 0.355363 0.000000
0.151125 0.354374 0.000000
0.191995 0.353384 0.000000
0.232997 0.352394 0.000000
0.274127 0.351403 0.000000
0.315384 0.350412 0.000000
0.356766 0.349419 0.000000
0.482895 0.346759 0.000000
0.532842 0.345602 0.000000
0.582932 0.344444 0.000000
0.633161 0.343285 0.000000
0.683527 0.342125 0.000000
0.734027 0.340965 0.000000
0.784660 0.339804 0.000000
0.835422 0.338642 0.000000
0.886312 0.337480 0.000000
0.937326 0.336317 0.000000
0.988462 0.335153 0.000000
0.998089 0.334810 0.000000
0.999476 0.334630 0.000000
1.000000 0.334453 0.000000
1.000000 0.334278 0.000000
1.000000 0.334106 0.000000
1.000000 0.333935 0.000000
1.000000 0.333767 0.000000
0.000000 0.401193 0.000000
0.000000 0.400989 0.000000
0.000000 0.400786 0.000000
0.000000 0.400586 0.000000
0.000000 0.400387 0.000000
0.000000 0.399913 0.000000
0.026743 0.398920 0.000000
0.067436 0.397925 0.000000
0.108260 0.396930 0.000000
0.149215 0.395935 0.000000
0.190299 0.394939 0.000000
0.231508 0.393942 0.000000
0.272842 0.392945 0.000000
0.314298 0.391948 0.000000
0.355874 0.390950 0.000000
0.397567 0.389952 0.000000
0.532797 0.387112 0.000000
0.583103 0.385948 0.000000
0.633542 0.384784 0.000000
0.684112 0.383619 0.000000
0.734812 0.382453 0.000000
0.785638 0.381287 0.000000
0.836588 0.380120 0.000000
0.887659 0.378953 0.000000
0.938850 0.377785 0.000000
0.990157 0.376618 0.000000
0.999763 0.376274 0.000000
1.000000 0.376095 0.000000
1.000000 0.375918 0.000000
1.000000 0.375744 0.000000
1.000000 0.375572 0.000000
1.000000 0.375403 0.000000
1.000000 0.375235 0.000000
0.000000 0.442757 0.000000
0.000000 0.442550 0.000000
0.000000 0.442345 0.000000
0.000000 0.442142 0.000000
0.000000 0.441941 0.000000
0.000000 0.441464 0.000000
0.024160 0.440464 0.000000
0.065071 0.439463 0.000000
0.106109 0.438462 0.000000
0.147274 0.437461 0.000000
0.188562 0.436459 0.000000
0.229972 0.435457 0.000000
0.271501 0.434454 0.000000
0.313148 0.433452 0.000000
0.354909 0.432449 0.000000
0.396784 0.431446 0.000000
0.438771 0.430443 0.000000
0.583159 0.427424 0.000000
0.633799 0.426254 0.000000
0.684564 0.425085 0.000000
0.735453 0.423914 0.000000
0.786463 0.422744 0.000000
0.837591 0.421573 0.000000
0.888835 0.420402 0.000000
0.940193 0.419231 0.000000
0.991661 0.418060 0.000000
1.000000 0.417716 0.000000
1.000000 0.417538 0.000000
1.000000 0.417363 0.000000
1.000000 0.417190 0.000000
1.000000 0.417019 0.000000
1.000000 0.416851 0.000000
1.000000 0.416685 0.000000
0.000000 0.484282 0.000000
0.000000 0.484073 0.000000
0.000000 0.483866 0.000000
0.000000 0.483661 0.000000
0.000000 0.483459 0.000000
0.000000 0.482978 0.000000
0.021568 0.481973 0.000000
0.062690 0.480967 0.000000
0.103935 0.479960 0.000000
0.145301 0.478954 0.000000
0.186786 0.477947 0.000000
0.228388 0.476940 0.000000
0.270104 0.475934 0.000000
0.311934 0.474927 0.000000
0.353874 0.473920 0.000000
0.395922 0.472913 0.000000
0.438077 0.471906 0.000000
0.480336 0.470899 0.000000
0.633931 0.467700 0.000000
0.684882 0.466527 0.000000
0.735951 0.465353 0.000000
0.787135 0.464179 0.000000
0.838432 0.463005 0.000000
0.889839 0.461831 0.000000
0.941354 0.460657 0.000000
0.992974 0.459483 0.000000
1.000000 0.459140 0.000000
1.000000 0.458964 0.000000
1.000000 0.458790 0.000000
1.000000 0.458619 0.000000
1.000000 0.458450 0.000000
1.000000 0.458284 0.000000
1.000000 0.458121 0.000000
0.000000 0.525771 0.000000
0.000000 0.525561 0.000000
0.000000 0.525353 0.000000
0.000000 0.525147 0.000000
0.000000 0.524944 0.000000
0.000000 0.524461 0.000000
0.018967 0.523451 0.000000
0.060292 0.522440 0.000000
0.101735 0.521429 0.000000
0.143295 0.520418 0.000000
0.184969 0.519407 0.000000
0.226755 0.518397 0.000000
0.268652 0.517386 0.000000
0.310656 0.516375 0.000000
0.352766 0.515365 0.000000
0.394980 0.514355 0.000000
0.437295 0.513345 0.000000
0.479711 0.512335 0.000000
0.522224 0.511326 0.000000
0.685066 0.507948 0.000000
0.736306 0.506771 0.000000
0.787655 0.505594 0.000000
0.839111 0.504418 0.000000
0.890671 0.503241 0.000000
0.942334 0.502065 0.000000
0.994096 0.500890 0.000000
1.000000 0.500548 0.000000
1.000000 0.500374 0.000000
1.000000 0.500203 0.000000
1.000000 0.500035 0.000000
1.000000 0.499868 0.000000
1.000000 0.499705 0.000000
1.000000 0.499544 0.000000
0.000000 0.567228 0.000000
0.000000 0.567017 0.000000
0.000000 0.566809 0.000000
0.000000 0.566603 0.000000
0.000000 0.566399 0.000000
0.000000 0.565915 0.000000
0.016358 0.564900 0.000000
0.057878 0.563885 0.000000
0.099511 0.562871 0.000000
0.141257 0.561856 0.000000
0.183112 0.560842 0.000000
0.225074 0.559828 0.000000
0.267142 0.558815 0.000000
0.309314 0.557801 0.000000
0.351586 0.556788 0.000000
0.393957 0.555776 0.000000
0.436426 0.554763 0.000000
0.478989 0.553752 0.000000
0.521646 0.552741 0.000000
0.564393 0.551730 0.000000
0.607229 0.550720 0.000000
0.788020 0.546993 0.000000
0.839626 0.545815 0.000000
0.891331 0.544638 0.000000
0.943132 0.543460 0.000000
0.995027 0.542283 0.000000
1.000000 0.541944 0.000000
1.000000 0.541773 0.000000
1.000000 0.541605 0.000000
1.000000 0.541440 0.000000
1.000000 0.541277 0.000000
1.000000 0.541116 0.000000
1.000000 0.540959 0.000000
0.000000 0.608656 0.000000
0.000000 0.608445 0.000000
0.000000 0.608237 0.000000
0.000000 0.608031 0.000000
0.000000 0.607828 0.000000
0.000000 0.607342 0.000000
0.013739 0.606324 0.000000
0.055446 0.605306 0.000000
0.097263 0.604289 0.000000
0.139186 0.603272 0.000000
0.181214 0.602255 0.000000
0.223345 0.601239 0.000000
0.265577 0.600223 0.000000
0.307907 0.599207 0.000000
0.350334 0.598192 0.000000
0.392855 0.597178 0.000000
0.435468 0.596164 0.000000
0.478172 0.595151 0.000000
0.520964 0.594139 0.000000
0.563842 0.593128 0.000000
0.606804 0.592117 0.000000
0.649848 0.591107 0.000000
0.839978 0.587201 0.000000
0.891818 0.586022 0.000000
0.943748 0.584845 0.000000
0.995766 0.583668 0.000000
1.000000 0.583331 0.000000
1.000000 0.583164 0.000000
1.000000 0.582999 0.000000
1.000000 0.582837 0.000000
1.000000 0.582678 0.000000
1.000000 0.582522 0.000000
1.000000 0.582368 0.000000
0.000000 0.650058 0.000000
0.000000 0.649848 0.000000
0.000000 0.649640 0.000000
0.000000 0.649435 0.000000
0.000000 0.649233 0.000000
0.000000 0.648747 0.000000
0.011112 0.647726 0.000000
0.052998 0.646706 0.000000
0.094989 0.645686 0.000000
0.137082 0.644667 0.000000
0.179276 0.643649 0.000000
0.221567 0.642631 0.000000
0.263954 0.641613 0.000000
0.306436 0.640597 0.000000
0.349009 0.639581 0.000000
0.391672 0.638565 0.000000
0.434422 0.637551 0.000000
0.477258 0.636538 0.000000
0.520178 0.635525 0.000000
0.563179 0.634513 0.000000
0.606259 0.633502 0.000000
0.649416 0.632493 0.000000
0.692649 0.631484 0.000000
0.892132 0.627399 0.000000
0.944181 0.626221 0.000000
0.996313 0.625045 0.000000
1.000000 0.624712 0.000000
1.000000 0.624549 0.000000
1.000000 0.624388 0.000000
1.000000 0.624231 0.000000
1.000000 0.624076 0.000000
1.000000 0.623924 0.000000
1.000000 0.623775 0.000000
0.000000 0.691437 0.000000
0.000000 0.691228 0.000000
0.000000 0.691022 0.000000
0.000000 0.690818 0.000000
0.000000 0.690617 0.000000
0.000000 0.690132 0.000000
0.008475 0.689109 0.000000
0.050533 0.688088 0.000000
0.092690 0.687067 0.000000
0.134945 0.686046 0.000000
0.177296 0.685027 0.000000
0.219740 0.684008 0.000000
0.262275 0.682990 0.000000
0.304900 0.681972 0.000000
0.347611 0.680956 0.000000
0.390408 0.679941 0.000000
0.433288 0.678927 0.000000
0.476248 0.677913 0.000000
0.519287 0.676901 0.000000
0.562403 0.675890 0.000000
0.605594 0.674880 0.000000
0.648857 0.673871 0.000000
0.692190 0.672864 0.000000
0.735592 0.671858 0.000000
0.944432 0.667594 0.000000
0.996669 0.666419 0.000000
1.000000 0.666090 0.000000
1.000000 0.665931 0.000000
1.000000 0.665776 0.000000
1.000000 0.665623 0.000000
1.000000 0.665474 0.000000
1.000000 0.665327 0.000000
1.000000 0.665183 0.000000
0.000000 0.732797 0.000000
0.000000 0.732590 0.000000
0.000000 0.732385 0.000000
0.000000 0.732183 0.000000
0.000000 0.731985 0.000000
0.000000 0.731500 0.000000
0.005828 0.730477 0.000000
0.048049 0.729454 0.000000
0.090366 0.728432 0.000000
0.132775 0.727412 0.000000
0.175275 0.726392 0.000000
0.217863 0.725373 0.000000
0.260539 0.724355 0.000000
0.303298 0.723338 0.000000
0.346141 0.722322 0.000000
0.389063 0.721307 0.000000
0.432064 0.720294 0.000000
0.475141 0.719282 0.000000
0.518292 0.718271 0.000000
0.561515 0.717261 0.000000
0.604808 0.716253 0.000000
0.648169 0.715246 0.000000
0.691595 0.714240 0.000000
0.735086 0.713236 0.000000
0.778637 0.712234 0.000000
0.996832 0.707792 0.000000
1.000000 0.707468 0.000000
1.000000 0.707315 0.000000
1.000000 0.707165 0.000000
1.000000 0.707018 0.000000
1.000000 0.706874 0.000000
1.000000 0.706733 0.000000
1.000000 0.706595 0.000000
0.000000 0.774139 0.000000
0.000000 0.773935 0.000000
0.000000 0.773733 0.000000
0.000000 0.773534 0.000000
0.000000 0.773338 0.000000
0.000000 0.772855 0.000000
0.003172 0.771831 0.000000
0.045548 0.770809 0.000000
0.088015 0.769787 0.000000
0.130571 0.768767 0.000000
0.173212 0.767747 0.000000
0.215937 0.766729 0.000000
0.258745 0.765712 0.000000
0.301632 0.764696 0.000000
0.344597 0.763682 0.000000
0.387637 0.762668 0.000000
0.430751 0.761656 0.000000
0.473937 0.760646 0.000000
0.517192 0.759637 0.000000
0.560514 0.758629 0.000000
0.603902 0.757623 0.000000
0.647352 0.756619 0.000000
0.690864 0.755616 0.000000
0.734434 0.754615 0.000000
0.778062 0.753616 0.000000
0.821744 0.752618 0.000000
1.000000 0.748849 0.000000
1.000000 0.748702 0.000000
1.000000 0.748558 0.000000
1.000000 0.748417 0.000000
1.000000 0.748280 0.000000
1.000000 0.748145 0.000000
1.000000 0.748014 0.000000
0.000000 0.815469 0.000000
0.000000 0.815267 0.000000
0.000000 0.815068 0.000000
0.000000 0.814873 0.000000
0.000000 0.814680 0.000000
0.000000 0.814200 0.000000
0.000505 0.813177 0.000000
0.043030 0.812155 0.000000
0.085639 0.811134 0.000000
0.128333 0.810114 0.000000
0.171108 0.809096 0.000000
0.213962 0.808080 0.000000
0.256893 0.807064 0.000000
0.299900 0.806050 0.000000
0.342979 0.805038 0.000000
0.386130 0.804027 0.000000
0.429349 0.803017 0.000000
0.472636 0.802009 0.000000
0.515987 0.801003 0.000000
0.559400 0.799998 0.000000
0.602874 0.798995 0.000000
0.646407 0.797994 0.000000
0.689995 0.796995 0.000000
0.733638 0.795998 0.000000
0.777334 0.795002 0.000000
0.821079 0.794008 0.000000
0.864872 0.793017 0.000000
1.000000 0.790097 0.000000
1.000000 0.789959 0.000000
1.000000 0.789825 0.000000
1.000000 0.789695 0.000000
1.000000 0.789567 0.000000
1.000000 0.789443 0.000000
0.000000 0.856787 0.000000
0.000000 0.856590 0.000000
0.000000 0.856395 0.000000
0.000000 0.856203 0.000000
0.000000 0.856014 0.000000
0.000000 0.855537 0.000000
0.000000 0.854515 0.000000
0.040492 0.853495 0.000000
0.083237 0.852476 0.000000
0.126061 0.851458 0.000000
0.168961 0.850442 0.000000
0.211936 0.849428 0.000000
0.254984 0.848415 0.000000
0.298102 0.847403 0.000000
0.341288 0.846393 0.000000
0.384541 0.845385 0.000000
0.427858 0.844379 0.000000
0.471237 0.843375 0.000000
0.514676 0.842372 0.000000
0.558173 0.841371 0.000000
0.601725 0.840372 0.000000
0.645332 0.839375 0.000000
0.688990 0.838380 0.000000
0.732698 0.837387 0.000000
0.776453 0.836396 0.000000
0.820253 0.835407 0.000000
0.864097 0.834420 0.000000
0.907982 0.833436 0.000000
1.000000 0.831371 0.000000
1.000000 0.831245 0.000000
1.000000 0.831122 0.000000
1.000000 0.831002 0.000000
1.000000 0.830885 0.000000
0.000000 0.897920 0.000000
0.000000 0.897732 0.000000
0.000000 0.897547 0.000000
0.000000 0.897365 0.000000
0.000000 0.897186 0.000000
0.000000 0.896718 0.000000
0.000000 0.895704 0.000000
0.037947 0.894691 0.000000
0.080818 0.893679 0.000000
0.123764 0.892669 0.000000
0.166782 0.891661 0.000000
0.209869 0.890654 0.000000
0.253025 0.889649 0.000000
0.296246 0.888645 0.000000
0.339531 0.887644 0.000000
0.382878 0.886644 0.000000
0.426284 0.885646 0.000000
0.469747 0.884649 0.000000
0.513266 0.883655 0.000000
0.556838 0.882663 0.000000
