library/cube/Cyber_Glow_000.cube
# CINEGRADE LAB — Premium Cinematic LUT
# Title: Cyber Glow
# Category: Night Neon
# Description: Cyberpunk-inspired with neon glow enhancement and deep shadow work
# Mood: Electric, urban, futuristic
# Variant: 1
# Generated: 2026-05-21T16:12:21.786484
TITLE "Cyber Glow"
LUT_3D_SIZE 5
0.000000 0.012748 0.015498
0.146742 0.008519 0.010984
0.510165 0.000111 0.002308
0.887364 0.000000 0.000000
0.957731 0.000000 0.000000
0.000000 0.150828 0.000560
0.120669 0.146872 0.000000
0.531497 0.137496 0.000000
0.926994 0.128515 0.000000
0.996631 0.126048 0.000000
0.000000 0.484282 0.000000
0.103935 0.479960 0.000000
0.438077 0.471906 0.000000
0.941354 0.460657 0.000000
1.000000 0.458121 0.000000
0.000000 0.815469 0.000000
0.085639 0.811134 0.000000
0.429349 0.803017 0.000000
0.777334 0.795002 0.000000
1.000000 0.789443 0.000000
0.000000 1.000000 0.000000
0.073766 1.000000 0.000000
0.422924 1.000000 0.000000
0.773970 1.000000 0.000000
1.000000 1.000000 0.000000
0.000000 0.011097 0.195742
0.146609 0.006827 0.198011
0.512395 0.000000 0.188292
0.891665 0.000000 0.178454
0.961996 0.000000 0.174853
0.000000 0.184558 0.198323
0.120412 0.145397 0.149889
0.533053 0.135816 0.170486
0.930131 0.126840 0.160813
0.999658 0.124410 0.157741
0.000000 0.602100 0.162148
0.103525 0.478433 0.120623
0.438817 0.470406 0.112651
0.943325 0.458980 0.131583
1.000000 0.456499 0.129062
0.000000 0.813934 0.096971
0.085066 0.809658 0.093135
0.429516 0.801592 0.085454
0.777999 0.793632 0.077823
1.000000 0.787939 0.102420
0.000000 1.000000 0.078899
0.072994 1.000000 0.075385
0.422488 1.000000 0.067994
0.773629 1.000000 0.060714
1.000000 1.000000 0.055924
0.000000 0.007803 0.626032
0.120479 0.004620 0.539238
0.512849 0.000000 0.632397
0.894150 0.000000 0.620311
0.964443 0.000000 0.614647
0.000000 0.145917 0.600439
0.118216 0.142013 0.593794
0.532860 0.132468 0.607755
0.931476 0.123505 0.596329
1.000000 0.121119 0.591681
0.000000 0.598372 0.633452
0.092387 0.593957 0.627407
0.438115 0.467541 0.472666
0.943521 0.455668 0.562396
1.000000 0.453244 0.558785
0.000000 1.000000 0.594754
0.068317 1.000000 0.589576
0.428252 0.798818 0.442510
0.777193 0.790916 0.434247
1.000000 0.784819 0.529554
0.000000 1.000000 0.586827
0.070839 1.000000 0.431163
0.420629 1.000000 0.423432
0.771823 1.000000 0.415937
1.000000 1.000000 0.411057
0.000000 0.004789 1.000000
0.118260 0.001076 1.000000
0.427584 0.000000 0.897616
0.896768 0.000000 1.000000
0.966985 0.000000 1.000000
0.000000 0.142846 0.995904
0.116311 0.138949 0.990888
0.442124 0.132111 0.869328
0.932853 0.120335 1.000000
1.000000 0.117969 1.000000
0.000000 0.476081 0.965100
0.099099 0.471876 0.960580
0.436563 0.463903 0.952321
0.943674 0.452451 0.981458
1.000000 0.450069 0.979405
0.000000 1.000000 1.000000
0.065828 1.000000 1.000000
0.411556 0.994036 1.000000
0.776289 0.788227 0.790290
1.000000 0.781740 0.954016
0.000000 1.000000 1.000000
0.067137 1.000000 1.000000
0.417175 1.000000 1.000000
0.769919 1.000000 0.771054
1.000000 1.000000 0.766168
0.000000 0.003847 1.000000
0.118603 0.000122 1.000000
0.429066 0.000000 1.000000
0.750041 0.000000 1.000000
0.971741 0.000000 1.000000
0.000000 0.141827 1.000000
0.116425 0.137932 1.000000
0.442908 0.130336 1.000000
0.777502 0.122672 1.000000
1.000000 0.117199 1.000000
0.000000 0.474943 1.000000
0.098999 0.470763 1.000000
0.437475 0.462806 1.000000
0.781660 0.454875 1.000000
1.000000 0.449298 1.000000
0.000000 1.000000 1.000000
0.079989 0.802117 1.000000
0.426402 0.794195 1.000000
0.776120 0.786396 1.000000
1.000000 0.781085 1.000000
0.000000 1.000000 1.000000
0.067297 1.000000 1.000000
0.417548 1.000000 1.000000
0.768718 1.000000 1.000000
1.000000 1.000000 1.000000
