library/cube/Dark_Feed_001.cube
# CINEGRADE LAB — Premium Cinematic LUT
# Title: Dark Feed
# Category: Dark Instagram Mood
# Description: Desaturated, crushed blacks, cool tones for social media aesthetics
# Mood: Moody, cool, modern
# Variant: 2
# Generated: 2026-05-21T16:12:36.004221
TITLE "Dark Feed"
LUT_3D_SIZE 9
0.032500 0.032500 0.042500
0.032500 0.032500 0.042500
0.134009 0.032500 0.042500
0.240834 0.032500 0.042500
0.347970 0.032500 0.042500
0.455402 0.041991 0.042565
0.563117 0.051880 0.052545
0.671101 0.061778 0.062521
0.734119 0.067526 0.068285
0.032500 0.034058 0.042500
0.036109 0.036629 0.042500
0.143147 0.046511 0.042500
0.250478 0.056404 0.042500
0.358088 0.066306 0.042500
0.465963 0.076217 0.051221
0.574089 0.086137 0.061192
0.682453 0.096065 0.071159
0.745635 0.101834 0.076919
0.041281 0.165968 0.042500
0.069112 0.168610 0.044878
0.176664 0.178573 0.054852
0.284476 0.188544 0.064821
0.392534 0.198521 0.074787
0.500824 0.208503 0.084748
0.609334 0.218491 0.094705
0.718048 0.228483 0.104660
0.781386 0.234308 0.110411
0.074391 0.298314 0.075848
0.102368 0.301011 0.078414
0.210371 0.311039 0.088373
0.318601 0.321071 0.098330
0.427045 0.331105 0.108283
0.535690 0.341142 0.118233
0.644520 0.351181 0.128180
0.753522 0.361221 0.138125
0.816976 0.367084 0.143870
0.107726 0.431019 0.109347
0.135826 0.433757 0.111906
0.244219 0.443832 0.121855
0.352806 0.453908 0.131801
0.461574 0.463983 0.141745
0.570510 0.474057 0.151686
0.679599 0.484129 0.161626
0.788828 0.494199 0.171564
0.852359 0.500086 0.177305
0.141240 0.564009 0.142809
0.169440 0.566770 0.145364
0.278160 0.576876 0.155305
0.387042 0.586978 0.165244
0.496073 0.597077 0.175181
0.605238 0.607171 0.185118
0.714524 0.617260 0.195052
0.823917 0.627344 0.204987
0.887484 0.633236 0.210726
0.174884 0.697204 0.176246
0.203162 0.699974 0.178799
0.312146 0.710094 0.188735
0.421261 0.720206 0.198669
0.530492 0.730311 0.208603
0.639825 0.740408 0.218536
0.749246 0.750497 0.228469
0.858741 0.760577 0.238403
0.922305 0.766459 0.244144
0.208611 0.830531 0.209667
0.236942 0.833294 0.212219
0.346130 0.843409 0.222153
0.455415 0.853514 0.232086
0.564784 0.863608 0.242019
0.674222 0.873691 0.251952
0.783716 0.883763 0.261887
0.893252 0.893822 0.271821
0.956773 0.899679 0.277566
0.228307 0.907979 0.228975
0.256663 0.910710 0.231532
0.365987 0.920795 0.241466
0.475376 0.930868 0.251402
0.584817 0.940928 0.261338
0.694295 0.950974 0.271275
0.803796 0.961006 0.281214
0.913308 0.971023 0.291154
0.976743 0.976835 0.296905
0.032500 0.032500 0.042500
0.032500 0.032500 0.042500
0.134930 0.032500 0.042500
0.241809 0.032500 0.049331
0.348995 0.032986 0.059314
0.456475 0.042866 0.069291
0.564234 0.052757 0.079263
0.672259 0.062657 0.089231
0.735294 0.068406 0.094989
0.032500 0.034931 0.042500
0.036981 0.037502 0.042500
0.144070 0.047387 0.048006
0.251449 0.057281 0.057983
0.359104 0.067185 0.067956
0.467020 0.077098 0.077924
0.575185 0.087019 0.087888
0.683584 0.096949 0.097848
0.746781 0.102719 0.103601
0.042157 0.166865 0.069018
0.070001 0.169507 0.071585
0.177598 0.179472 0.081552
0.285451 0.189443 0.091514
0.393548 0.199421 0.101473
0.501875 0.209404 0.111428
0.610417 0.219392 0.121379
0.719160 0.229385 0.131328
0.782509 0.235209 0.137073
0.075281 0.299230 0.102538
0.103269 0.301926 0.105097
0.211311 0.311955 0.115051
0.319578 0.321986 0.125001
0.428055 0.332021 0.134949
0.536729 0.342057 0.144893
0.645586 0.352095 0.154835
0.754612 0.362134 0.164775
0.818074 0.367997 0.170516
0.108628 0.431950 0.136016
0.136737 0.434685 0.138570
0.245162 0.444760 0.148513
0.353780 0.454834 0.158454
0.462576 0.464908 0.168393
0.571535 0.474981 0.178330
0.680645 0.485052 0.188266
0.789891 0.495120 0.198200
0.853426 0.501004 0.203937
0.142149 0.564947 0.169461
0.170356 0.567706 0.172011
0.279103 0.577810 0.181948
0.388010 0.587910 0.191883
0.497061 0.598007 0.201816
0.606245 0.608098 0.211749
0.715546 0.618185 0.221680
0.824950 0.628266 0.231611
0.888518 0.634156 0.237349
0.175797 0.698146 0.202883
0.204079 0.700913 0.205432
0.313086 0.711029 0.215365
0.422219 0.721138 0.225296
0.531465 0.731240 0.235227
0.640810 0.741334 0.245158
0.750240 0.751419 0.255088
0.859741 0.761495 0.265020
0.923301 0.767374 0.270759
0.209524 0.831470 0.236292
0.237857 0.834229 0.238842
0.347061 0.844340 0.248773
0.456359 0.854441 0.258704
0.565738 0.864531 0.268635
0.675182 0.874610 0.278567
0.784679 0.884677 0.288500
0.894214 0.894732 0.298434
0.957728 0.900584 0.304178
0.229214 0.908908 0.255593
0.257571 0.911634 0.258148
0.366905 0.921715 0.268081
0.476301 0.931783 0.278015
0.585745 0.941838 0.287950
0.695224 0.951879 0.297887
0.804723 0.961906 0.307825
0.914229 0.971918 0.317765
0.977653 0.977724 0.323516
0.032500 0.032500 0.130190
0.032500 0.032500 0.132739
0.138292 0.032500 0.142701
0.245227 0.032500 0.152658
0.352467 0.036340 0.162610
0.459997 0.046224 0.172558
0.567802 0.056118 0.182503
0.675871 0.066021 0.192443
0.738927 0.071772 0.198175
0.032500 0.038284 0.138764
0.040301 0.040858 0.141312
0.147445 0.050746 0.151265
0.254874 0.060644 0.161215
0.362577 0.070551 0.171161
0.470538 0.080467 0.181103
0.578743 0.090391 0.191041
0.687180 0.100322 0.200977
0.750394 0.106094 0.206708
0.045490 0.170247 0.172239
0.073349 0.172890 0.174780
0.180993 0.182857 0.184721
0.288892 0.192831 0.194659
0.397030 0.202811 0.204594
0.505394 0.212796 0.214526
0.613971 0.222785 0.224455
0.722745 0.232780 0.234383
0.786108 0.238605 0.240109
0.078638 0.302635 0.205673
0.106639 0.305332 0.208210
0.214723 0.315361 0.218141
0.323028 0.325394 0.228070
0.431540 0.335429 0.237996
0.540246 0.345466 0.247921
0.649131 0.355504 0.257845
0.758182 0.365544 0.267766
0.821653 0.371406 0.273490
0.112005 0.435372 0.239076
0.140125 0.438106 0.241610
0.248585 0.448181 0.251534
0.357235 0.458255 0.261457
0.466059 0.468329 0.271378
0.575044 0.478401 0.281299
0.684176 0.488471 0.291219
0.793441 0.498539 0.301138
0.856981 0.504422 0.306862
0.145541 0.568381 0.272456
0.173757 0.571138 0.274990
0.282533 0.581240 0.284910
0.391465 0.591340 0.294830
0.500539 0.601434 0.304749
0.609742 0.611524 0.314668
0.719058 0.621609 0.324587
0.828475 0.631688 0.334507
0.892044 0.637575 0.340233
0.179199 0.701585 0.305825
0.207487 0.704349 0.308360
0.316517 0.714463 0.318279
0.425669 0.724570 0.328198
0.534931 0.734669 0.338118
0.644289 0.744760 0.348039
0.753729 0.754842 0.357960
0.863236 0.764915 0.367882
0.926793 0.770790 0.373614
0.212931 0.834909 0.339190
0.241268 0.837664 0.341730
0.350489 0.847772 0.351650
0.459800 0.857869 0.361572
0.569188 0.867955 0.371495
0.678639 0.878030 0.381420
0.788140 0.888093 0.391346
0.897675 0.898143 0.401275
0.961182 0.903991 0.407014
0.232620 0.912338 0.358458
0.260978 0.915059 0.361005
0.370323 0.925135 0.370932
0.479726 0.935199 0.380860
0.589174 0.945249 0.390790
0.698653 0.955286 0.400722
0.808150 0.965307 0.410657
0.917649 0.975314 0.420595
0.981063 0.981115 0.426345
0.032500 0.032500 0.233590
0.034980 0.032500 0.236107
0.141656 0.032500 0.246038
0.248648 0.032500 0.255964
0.355940 0.039695 0.265887
0.463519 0.049583 0.275807
0.571371 0.059480 0.285724
0.679482 0.069386 0.295638
0.742559 0.075140 0.301344
0.032500 0.041639 0.242061
0.043625 0.044215 0.244581
0.150822 0.054106 0.254506
0.258302 0.064007 0.264428
0.366051 0.073917 0.274348
0.474055 0.083836 0.284264
0.582301 0.093763 0.294179
0.690775 0.103697 0.304091
0.754005 0.109470 0.309799
0.048825 0.173630 0.275443
0.076699 0.176274 0.277958
0.184391 0.186244 0.287874
0.292333 0.196220 0.297788
0.400512 0.206201 0.307699
0.508914 0.216188 0.317609
0.617524 0.226179 0.327517
0.726329 0.236175 0.337424
0.789704 0.242000 0.343131
0.081997 0.306041 0.308793
0.110012 0.308737 0.311307
0.218136 0.318768 0.321216
0.326479 0.328801 0.331124
0.435025 0.338837 0.341031
0.543762 0.348875 0.350937
0.652675 0.358914 0.360842
0.761750 0.368954 0.370746
0.825230 0.374815 0.376454
0.115383 0.438794 0.342122
0.143514 0.441528 0.344637
0.252009 0.451602 0.354543
0.360690 0.461677 0.364448
0.469543 0.471750 0.374352
0.578552 0.481821 0.384257
0.687706 0.491891 0.394161
0.796989 0.501957 0.404066
0.860533 0.507839 0.409777
0.148934 0.571814 0.375440
0.177158 0.574569 0.377958
0.285963 0.584671 0.387863
0.394920 0.594768 0.397767
0.504016 0.604862 0.407673
0.613237 0.614950 0.417579
0.722569 0.625033 0.427486
0.831998 0.635110 0.437394
0.895567 0.640994 0.443111
0.182602 0.705024 0.408757
0.210896 0.707784 0.411279
0.319947 0.717896 0.421185
0.429119 0.728000 0.431093
0.538397 0.738097 0.441002
0.647767 0.748185 0.450913
0.757215 0.758264 0.460825
0.866728 0.768334 0.470740
0.930282 0.774206 0.476465
0.216338 0.838347 0.442080
0.244680 0.841098 0.444610
0.353916 0.851202 0.454521
0.463240 0.861296 0.464435
0.572637 0.871378 0.474350
0.682094 0.881449 0.484268
0.791597 0.891508 0.494189
0.901132 0.901553 0.504113
0.964631 0.907396 0.509848
0.236025 0.915766 0.461318
0.264385 0.918482 0.463858
0.373739 0.928555 0.473778
0.483149 0.938614 0.483701
0.592601 0.948659 0.493626
0.702080 0.958691 0.503555
0.811573 0.968708 0.513488
0.921065 0.978709 0.523424
0.984468 0.984504 0.529173
0.032500 0.032500 0.336967
0.038288 0.032500 0.339454
0.145023 0.032500 0.349354
0.252070 0.033172 0.359251
0.359414 0.043052 0.369145
0.467042 0.052943 0.379037
0.574940 0.062843 0.388927
0.683093 0.072752 0.398815
0.746190 0.078508 0.404497
0.032500 0.044995 0.345339
0.046952 0.047573 0.347831
0.154201 0.057468 0.357729
0.261731 0.067372 0.367624
0.369526 0.077285 0.377518
0.477573 0.087206 0.387410
0.585859 0.097136 0.397300
0.694369 0.107072 0.407190
0.757616 0.112847 0.412876
0.052162 0.177014 0.378628
0.080052 0.179659 0.381119
0.187790 0.189631 0.391011
0.295776 0.199609 0.400901
0.403995 0.209592 0.410790
0.512433 0.219580 0.420678
0.621077 0.229573 0.430566
0.729912 0.239570 0.440453
0.793300 0.245396 0.446141
0.085359 0.309447 0.411897
0.113386 0.312143 0.414390
0.221551 0.322175 0.424278
0.329930 0.332209 0.434165
0.438510 0.342246 0.444052
0.547278 0.352284 0.453939
0.656218 0.362323 0.463827
0.765317 0.372363 0.473715
0.828805 0.378224 0.479407
0.118764 0.442217 0.445156
0.146905 0.444949 0.447652
0.255434 0.455024 0.457539
0.364146 0.465098 0.467427
0.473025 0.475170 0.477315
0.582059 0.485241 0.487204
0.691234 0.495310 0.497094
0.800534 0.505376 0.506986
0.864083 0.511255 0.512684
0.152328 0.575247 0.478413
0.180561 0.578000 0.480915
0.289393 0.588100 0.490805
0.398374 0.598197 0.500695
0.507492 0.608288 0.510587
0.616730 0.618375 0.520481
0.726077 0.628456 0.530377
0.835517 0.638530 0.540275
0.899087 0.644412 0.545982
0.186005 0.708462 0.511679
0.214305 0.711219 0.514189
0.323378 0.721328 0.524084
0.432568 0.731430 0.533980
0.541860 0.741524 0.543879
0.651242 0.751609 0.553781
0.760699 0.761685 0.563685
0.870217 0.771751 0.573592
0.933767 0.777619 0.579311
0.219746 0.841784 0.544964
0.248091 0.844530 0.547484
0.357342 0.854631 0.557386
0.466678 0.864721 0.567292
0.576084 0.874800 0.577200
0.685546 0.884866 0.587112
0.795051 0.894921 0.597028
0.904585 0.904962 0.606947
0.968076 0.910800 0.612680
0.239430 0.919193 0.564173
0.267791 0.921904 0.566706
0.377155 0.931972 0.576620
0.486571 0.942027 0.586538
0.596025 0.952068 0.596460
0.705503 0.962094 0.606386
0.814992 0.972106 0.616316
0.924478 0.982102 0.626251
0.987869 0.987892 0.632000
0.032500 0.032500 0.440324
0.041599 0.032500 0.442781
0.148393 0.032500 0.452651
0.255494 0.036526 0.462518
0.362890 0.046410 0.472385
0.470566 0.056304 0.482249
0.578509 0.066207 0.492113
0.686704 0.076120 0.501976
0.749820 0.081877 0.507633
0.032500 0.048352 0.448598
0.050281 0.050932 0.451062
0.157583 0.060830 0.460933
0.265161 0.070737 0.470803
0.373002 0.080653 0.480671
0.481092 0.090577 0.490539
0.589416 0.100509 0.500406
0.697962 0.110449 0.510273
0.761225 0.116225 0.515939
0.055503 0.180399 0.481797
0.083407 0.183045 0.484264
0.191192 0.193019 0.494131
0.299220 0.202998 0.503999
0.407478 0.212984 0.513866
0.515952 0.222973 0.523733
0.624628 0.232968 0.533600
0.733493 0.242966 0.543468
0.796893 0.248793 0.549138
0.088723 0.312853 0.514986
0.116762 0.315550 0.517458
0.224966 0.325583 0.527325
0.333382 0.335618 0.537193
0.441996 0.345655 0.547061
0.550792 0.355693 0.556930
0.659759 0.365733 0.566801
0.768881 0.375773 0.576673
0.832377 0.381634 0.582350
0.122146 0.445639 0.548176
0.150297 0.448371 0.550654
0.258860 0.458445 0.560524
0.367601 0.468518 0.570395
0.476508 0.478591 0.580267
0.585565 0.488661 0.590141
0.694760 0.498728 0.600018
0.804077 0.508793 0.609896
0.867630 0.514671 0.615583
0.155724 0.578680 0.581375
0.183964 0.581431 0.583862
0.292823 0.591530 0.593737
0.401829 0.601624 0.603614
0.510966 0.611714 0.613493
0.620222 0.621799 0.623376
0.729583 0.631878 0.633261
0.839034 0.641950 0.643149
0.902603 0.647830 0.648848
0.189409 0.711898 0.614593
0.217715 0.714653 0.617091
0.326809 0.724760 0.626974
0.436016 0.734859 0.636860
0.545323 0.744949 0.646750
0.654715 0.755032 0.656643
0.764180 0.765105 0.666539
0.873702 0.775168 0.676440
0.937248 0.781032 0.682153
0.223154 0.845219 0.647840
0.251502 0.847962 0.650351
0.360768 0.858059 0.660245
0.470115 0.868145 0.670143
0.579529 0.878220 0.680045
0.688996 0.888282 0.689952
0.798503 0.898332 0.699863
0.908034 0.908369 0.709779
0.971517 0.914202 0.715509
0.242835 0.922618 0.667022
0.271197 0.925325 0.669550
0.380569 0.935388 0.679459
0.489990 0.945438 0.689373
0.599446 0.955474 0.699291
0.708923 0.965496 0.709215
0.818408 0.975502 0.719144
0.927885 0.985493 0.729078
0.991265 0.991278 0.734828
0.032500 0.032500 0.543660
0.044914 0.032500 0.546087
0.151765 0.032500 0.555927
0.258920 0.039881 0.565767
0.366367 0.049769 0.575605
0.474091 0.059666 0.585443
0.582077 0.069573 0.595281
0.690313 0.079488 0.605119
0.753449 0.085248 0.610753
0.032500 0.051711 0.551838
0.053614 0.054292 0.554276
0.160967 0.064194 0.564120
0.268593 0.074104 0.573964
0.376479 0.084023 0.583808
0.484610 0.093950 0.593653
0.592973 0.103884 0.603497
0.701554 0.113826 0.613343
0.764832 0.119604 0.618988
0.058846 0.183784 0.584949
0.086765 0.186431 0.587392
0.194594 0.196407 0.597237
0.302664 0.206389 0.607081
0.410961 0.216376 0.616927
0.519471 0.226367 0.626774
0.628179 0.236363 0.636622
0.737073 0.246362 0.646471
0.800484 0.252189 0.652124
0.092088 0.316260 0.618061
0.120140 0.318957 0.620512
0.228383 0.328990 0.630359
0.336835 0.339026 0.640207
0.445481 0.349064 0.650057
0.554307 0.359103 0.659909
0.663299 0.369143 0.669763
0.772444 0.379183 0.679620
0.835947 0.385043 0.685283
0.125529 0.449061 0.651183
0.153690 0.451792 0.653644
0.262286 0.461866 0.663496
0.371057 0.471939 0.673351
0.479990 0.482011 0.683209
0.589070 0.492080 0.693069
0.698284 0.502147 0.702932
0.807618 0.512211 0.712798
0.871174 0.518087 0.718474
0.159120 0.582112 0.684325
0.187368 0.584861 0.686798
0.296254 0.594958 0.696659
0.405282 0.605051 0.706523
0.514440 0.615140 0.716391
0.623713 0.625222 0.726262
0.733086 0.635299 0.736137
0.842547 0.645370 0.746016
0.906116 0.651246 0.751707
0.192814 0.715335 0.717498
0.221125 0.718086 0.719984
0.330239 0.728190 0.729857
0.439463 0.738287 0.739733
0.548783 0.748374 0.749614
0.658186 0.758453 0.759499
0.767658 0.768523 0.769388
0.877184 0.778583 0.779283
0.940726 0.784444 0.784991
0.226562 0.848654 0.750709
0.254913 0.851392 0.753212
0.364193 0.861486 0.763099
0.473550 0.871568 0.772990
0.582972 0.881638 0.782887
0.692443 0.891697 0.792788
0.801950 0.901742 0.802696
0.911480 0.911774 0.812609
0.974954 0.917603 0.818337
0.246240 0.926042 0.769867
0.274603 0.928744 0.772389
0.383983 0.938803 0.782294
0.493408 0.948848 0.792204
0.602866 0.958879 0.802120
0.712341 0.968896 0.812042
0.821820 0.978897 0.821970
0.931289 0.988883 0.831904
0.994656 0.994661 0.837655
0.032500 0.032500 0.646975
0.048232 0.032500 0.649374
0.155139 0.033357 0.659185
0.262349 0.043238 0.668996
0.369845 0.053129 0.678808
0.477616 0.063029 0.688620
0.585646 0.072939 0.698433
0.693923 0.082857 0.708247
0.757077 0.088619 0.713858
0.032500 0.055070 0.655059
0.056949 0.057654 0.657471
0.164353 0.067558 0.667290
0.272027 0.077471 0.677109
0.379957 0.087393 0.686929
0.488129 0.097323 0.696750
0.596530 0.107259 0.706573
0.705145 0.117203 0.716397
0.768439 0.122983 0.722022
0.062191 0.187171 0.688084
0.090125 0.189819 0.690505
0.197999 0.199796 0.700326
0.306110 0.209780 0.710149
0.414445 0.219768 0.719974
0.522989 0.229761 0.729801
0.631729 0.239758 0.739630
0.740651 0.249759 0.749462
0.804073 0.255586 0.755098
0.095456 0.319667 0.721121
0.123520 0.322364 0.723552
0.231802 0.332398 0.733379
0.340288 0.342435 0.743209
0.448966 0.352473 0.753042
0.557820 0.362512 0.762877
0.666838 0.372552 0.772715
0.776004 0.382592 0.782557
0.839515 0.388452 0.788206
0.128914 0.452484 0.754178
0.157085 0.455213 0.756622
0.265713 0.465287 0.766458
0.374513 0.475360 0.776298
0.483471 0.485431 0.786140
0.592574 0.495499 0.795987
0.701807 0.505565 0.805837
0.811156 0.515628 0.815692
0.874715 0.521502 0.821357
0.162518 0.585543 0.787266
0.190773 0.588290 0.789725
0.299685 0.598386 0.799573
0.408736 0.608478 0.809425
0.517913 0.618564 0.819281
0.627201 0.628645 0.829141
0.736588 0.638720 0.839007
0.846058 0.648788 0.848877
0.909626 0.654662 0.854560
0.196219 0.718770 0.820394
0.224535 0.721518 0.822870
0.333669 0.731620 0.832732
0.442909 0.741713 0.842600
0.552243 0.751798 0.852472
0.661655 0.761874 0.862349
0.771133 0.771941 0.872233
0.880663 0.781997 0.882122
0.944199 0.787854 0.887825
0.229970 0.852087 0.853572
0.258323 0.854821 0.856067
0.367617 0.864911 0.865947
0.476984 0.874989 0.875832
0.586413 0.885056 0.885724
0.695887 0.895110 0.895621
0.805395 0.905151 0.905525
0.914921 0.915178 0.915436
0.978386 0.921002 0.921162
0.249644 0.929464 0.872707
0.278008 0.932161 0.875225
0.387395 0.942216 0.885126
0.496824 0.952256 0.895033
0.606282 0.962283 0.904947
0.715755 0.972294 0.914867
0.825228 0.982290 0.924795
0.934688 0.992270 0.934730
0.998042 0.998043 0.940483
0.032500 0.032500 0.706735
0.050164 0.032500 0.709118
0.157126 0.035302 0.718913
0.264386 0.045185 0.728710
0.371930 0.055078 0.738506
0.479745 0.064981 0.748304
0.587817 0.074893 0.758103
0.696131 0.084813 0.767904
0.759303 0.090577 0.773503
0.032500 0.057019 0.714768
0.058892 0.059604 0.717166
0.166344 0.069511 0.726971
0.274063 0.079426 0.736777
0.382035 0.089350 0.746584
0.490246 0.099282 0.756393
0.598683 0.109220 0.766203
0.707330 0.119166 0.776016
0.770637 0.124947 0.781631
0.064140 0.189144 0.747746
0.092086 0.191792 0.750155
0.200002 0.201771 0.759964
0.308153 0.211756 0.769776
0.416524 0.221745 0.779589
0.525101 0.231739 0.789406
0.633870 0.241737 0.799225
0.742818 0.251738 0.809047
0.806250 0.257565 0.814674
0.097421 0.321659 0.780742
0.125495 0.324355 0.783163
0.233813 0.334390 0.792980
0.342333 0.344426 0.802800
0.451040 0.354464 0.812623
0.559922 0.364503 0.822450
0.668962 0.374543 0.832280
0.778149 0.384583 0.842114
0.841666 0.390441 0.847756
0.130891 0.454488 0.813765
0.159071 0.457216 0.816200
0.267729 0.467289 0.826028
0.376556 0.477361 0.835860
0.485538 0.487431 0.845695
0.594661 0.497498 0.855535
0.703911 0.507562 0.865379
0.813275 0.517623 0.875228
0.876836 0.523496 0.880888
0.164503 0.587556 0.846825
0.192764 0.590300 0.849277
0.301700 0.600394 0.859118
0.410772 0.610484 0.868964
0.519967 0.620568 0.878815
0.629270 0.630646 0.888671
0.738668 0.640718 0.898532
0.848146 0.650784 0.908398
0.911712 0.656655 0.914078
0.198208 0.720784 0.879931
0.226528 0.723529 0.882402
0.335680 0.733627 0.892260
0.444935 0.743718 0.902123
0.554280 0.753799 0.911992
0.663702 0.763872 0.921867
0.773185 0.773935 0.931747
0.882716 0.783987 0.941635
0.946247 0.789840 0.947337
0.231958 0.854097 0.913094
0.260314 0.856827 0.915586
0.369619 0.866913 0.925463
0.478996 0.876987 0.935346
0.588430 0.887049 0.945236
0.697907 0.897098 0.955132
0.807414 0.907135 0.965036
0.916936 0.917158 0.974946
0.980392 0.922976 0.980674
0.251626 0.931463 0.932221
0.279990 0.934155 0.934737
0.389383 0.944205 0.944637
0.498816 0.954240 0.954543
0.608274 0.964261 0.964457
0.717743 0.974267 0.974379
0.827209 0.984258 0.984308
0.936659 0.994233 0.994245
1.000000 1.000000 1.000000
