library/cube/Dark_Paradise_002.cube
# CINEGRADE LAB — Premium Cinematic LUT
# Title: Dark Paradise
# Category: Neo Noir
# Description: Dramatic shadows, high contrast, moody lighting inspired by noir cinema
# Mood: Mysterious, dramatic, dark
# Variant: 3
# Generated: 2026-05-21T16:12:30.342483
TITLE "Dark Paradise"
LUT_3D_SIZE 9
0.000000 0.000000 0.000000
0.000004 0.000001 0.000000
0.055265 0.007856 0.008424
0.157277 0.022059 0.023507
0.260325 0.036070 0.038212
0.365435 0.050075 0.052755
0.472755 0.064127 0.067213
0.582070 0.078227 0.081600
0.592027 0.078899 0.081926
0.000040 0.000013 0.000000
0.000067 0.000022 0.000000
0.059802 0.008179 0.008572
0.169035 0.022867 0.023893
0.278196 0.037289 0.038798
0.388503 0.051643 0.053511
0.500203 0.065990 0.068111
0.613149 0.080333 0.082614
0.621115 0.080877 0.082871
0.025745 0.086019 0.029009
0.026242 0.086771 0.029127
0.090049 0.095865 0.037929
0.205516 0.111589 0.053544
0.319919 0.126938 0.068704
0.434640 0.142123 0.083637
0.550020 0.157213 0.098426
0.665972 0.172216 0.113090
0.672463 0.173090 0.113357
0.075214 0.245037 0.081521
0.076275 0.246682 0.081781
0.143509 0.256794 0.090807
0.264059 0.273579 0.106691
0.382678 0.289872 0.122081
0.500888 0.305895 0.137211
0.619114 0.321724 0.152166
0.737327 0.337375 0.166969
0.742611 0.338620 0.167256
0.126617 0.404353 0.133117
0.127955 0.406409 0.133439
0.197701 0.417032 0.142592
0.322006 0.434367 0.158636
0.443653 0.451120 0.174155
0.564286 0.467524 0.189388
0.684403 0.483664 0.204423
0.804030 0.499562 0.219283
0.808149 0.500857 0.219543
0.179294 0.564060 0.184231
0.180699 0.566170 0.184556
0.252202 0.576929 0.193762
0.379163 0.594433 0.209882
0.502871 0.611294 0.225453
0.625077 0.627754 0.240719
0.746342 0.643903 0.255769
0.865203 0.659772 0.270630
0.868014 0.660911 0.270834
0.232480 0.723317 0.234882
0.233803 0.725229 0.235169
0.306458 0.735859 0.244373
0.435189 0.753265 0.260507
0.560202 0.769993 0.276076
0.683334 0.786292 0.291326
0.805208 0.802261 0.306349
0.920546 0.817934 0.321174
0.922232 0.818809 0.321309
0.285497 0.881119 0.284956
0.286648 0.882677 0.285179
0.359994 0.893014 0.294345
0.489818 0.910161 0.310451
0.615583 0.926619 0.325982
0.739198 0.942346 0.341188
0.859617 0.957225 0.356162
0.971331 0.971723 0.370935
0.972083 0.972164 0.371003
0.288968 0.885635 0.285584
0.289802 0.886617 0.285711
0.363423 0.896462 0.294802
0.493791 0.913179 0.310846
0.619885 0.929241 0.326314
0.743677 0.944444 0.341458
0.863587 0.958828 0.356374
0.973225 0.972865 0.371093
0.973512 0.973058 0.371110
0.000000 0.000000 0.000000
0.000006 0.000002 0.000000
0.055759 0.007890 0.008440
0.158567 0.022146 0.023550
0.262293 0.036203 0.038277
0.367982 0.050247 0.052839
0.475795 0.064332 0.067313
0.585522 0.078460 0.081713
0.595267 0.079118 0.082032
0.000048 0.000015 0.000000
0.000078 0.000025 0.000000
0.060217 0.008210 0.008585
0.170100 0.022942 0.023927
0.279808 0.037400 0.038850
0.390574 0.051785 0.053578
0.502658 0.066158 0.068190
0.615917 0.080522 0.082703
0.623695 0.081054 0.082954
0.025916 0.086280 0.029050
0.026405 0.087016 0.029166
0.090530 0.096117 0.037976
0.206508 0.111861 0.053605
0.321332 0.127224 0.068776
0.436400 0.142419 0.083719
0.552060 0.157515 0.098514
0.668233 0.172521 0.113183
0.674555 0.173371 0.113442
0.075581 0.245609 0.081612
0.076621 0.247215 0.081865
0.144091 0.257306 0.090893
0.265024 0.274082 0.106784
0.383950 0.290362 0.122178
0.502405 0.306369 0.137311
0.620820 0.322179 0.152268
0.739174 0.337810 0.167070
0.744302 0.339017 0.167347
0.127081 0.405070 0.133229
0.128389 0.407071 0.133542
0.198301 0.417653 0.142693
0.322883 0.434958 0.158738
0.444742 0.451678 0.174256
0.565537 0.468049 0.189487
0.685770 0.484154 0.204518
0.805475 0.500017 0.219375
0.809457 0.501267 0.219624
0.179783 0.564798 0.184345
0.181152 0.566843 0.184659
0.252765 0.577550 0.193860
0.379913 0.595010 0.209977
0.503759 0.611826 0.225543
0.626061 0.628242 0.240804
0.747389 0.644349 0.255848
0.866197 0.660175 0.270703
0.868892 0.661266 0.270896
0.232942 0.723989 0.234983
0.234227 0.725832 0.235259
0.306949 0.736405 0.244456
0.435797 0.753760 0.260584
0.560891 0.770439 0.276146
0.684074 0.786691 0.291389
0.805974 0.802615 0.306405
0.921149 0.818246 0.321223
0.922744 0.819078 0.321349
0.285900 0.881670 0.285035
0.287014 0.883162 0.285247
0.360395 0.893442 0.294405
0.490288 0.910539 0.310504
0.616094 0.926951 0.326028
0.739732 0.942617 0.341227
0.860098 0.957440 0.356194
0.971608 0.971884 0.370960
0.972298 0.972292 0.371021
0.289260 0.885985 0.285630
0.290067 0.886918 0.285748
0.363709 0.896722 0.294833
0.494118 0.913404 0.310871
0.620238 0.929435 0.326334
0.744045 0.944595 0.341473
0.863909 0.958937 0.356384
0.973333 0.972936 0.371100
0.973592 0.973114 0.371113
0.002247 0.002622 0.061809
0.002319 0.002659 0.062182
0.058615 0.010612 0.070991
0.162261 0.024952 0.086460
0.266704 0.039082 0.101523
0.373012 0.053191 0.116400
0.481353 0.067334 0.131168
0.591527 0.081513 0.145841
0.601104 0.082180 0.146397
0.002505 0.002748 0.062985
0.002590 0.002787 0.063293
0.063176 0.011026 0.072180
0.173741 0.025825 0.087815
0.284027 0.040343 0.103009
0.395282 0.054780 0.117990
0.507778 0.069198 0.132835
0.621377 0.083602 0.147564
0.629005 0.084140 0.148000
0.028698 0.089353 0.093038
0.029223 0.090097 0.093400
0.093699 0.099226 0.102449
0.210213 0.115009 0.118309
0.325482 0.130405 0.133691
0.440919 0.145627 0.148828
0.556882 0.160744 0.163803
0.673296 0.175766 0.178634
0.679476 0.176608 0.179031
0.078689 0.249057 0.146419
0.079742 0.250643 0.146860
0.147474 0.260730 0.156071
0.268809 0.277512 0.172136
0.388060 0.293793 0.187687
0.506777 0.309797 0.202963
0.625397 0.325601 0.218049
0.743905 0.341223 0.232967
0.748900 0.342403 0.233340
0.130389 0.408713 0.198657
0.131693 0.410673 0.199109
0.201791 0.421229 0.208394
0.326662 0.438515 0.224564
0.448747 0.455214 0.240193
0.569715 0.471561 0.255523
0.690077 0.487641 0.270643
0.809869 0.503477 0.285576
0.813732 0.504689 0.285886
0.183194 0.568502 0.250224
0.184546 0.570493 0.250636
0.256284 0.581158 0.259929
0.383629 0.598582 0.276130
0.507621 0.615362 0.291770
0.630029 0.631742 0.307094
0.751426 0.647812 0.322193
0.870041 0.663602 0.337093
0.872620 0.664652 0.337321
0.236384 0.727656 0.301173
0.237646 0.729439 0.301511
0.310445 0.739962 0.310766
0.439417 0.757273 0.326946
0.564597 0.773909 0.342551
0.687836 0.790119 0.357829
0.809768 0.806004 0.372874
0.924594 0.821597 0.387715
0.926093 0.822389 0.387856
0.289326 0.885238 0.351419
0.290414 0.886670 0.351667
0.363837 0.896900 0.360856
0.493802 0.913952 0.376982
0.619655 0.930322 0.392527
0.743319 0.945776 0.407740
0.863411 0.960535 0.422718
0.974703 0.974918 0.437492
0.975322 0.975284 0.437556
0.292606 0.889371 0.352111
0.293395 0.890260 0.352247
0.367061 0.900027 0.361346
0.497514 0.916677 0.377395
0.623663 0.932679 0.392865
0.747489 0.947608 0.408008
0.867031 0.961899 0.422921
0.976226 0.975850 0.437636
0.976446 0.976002 0.437648
0.006296 0.007309 0.171880
0.006481 0.007406 0.172897
0.063354 0.015447 0.182330
0.167864 0.029890 0.198398
0.273051 0.044114 0.214022
0.380000 0.058307 0.229426
0.488893 0.072526 0.244685
0.599536 0.086772 0.259818
0.608978 0.087465 0.260783
0.006911 0.007624 0.175082
0.007089 0.007712 0.175918
0.068149 0.016023 0.185315
0.179417 0.030907 0.201436
0.290299 0.045500 0.217083
0.402063 0.060004 0.232484
0.514988 0.074481 0.247720
0.628943 0.088938 0.262809
0.636446 0.089494 0.263564
0.033545 0.094628 0.206827
0.034137 0.095396 0.207611
0.098985 0.104568 0.217064
0.216049 0.120404 0.233307
0.331778 0.135845 0.249042
0.447598 0.151105 0.264504
0.563877 0.166254 0.279776
0.680544 0.181304 0.294881
0.686603 0.182147 0.295515
0.083952 0.254749 0.261572
0.085043 0.256328 0.262340
0.153052 0.266424 0.271860
0.274800 0.283222 0.288214
0.394387 0.299514 0.304030
0.513375 0.315524 0.319545
0.632210 0.331331 0.334848
0.750882 0.346951 0.349961
0.755759 0.348111 0.350502
0.135923 0.414634 0.314851
0.137242 0.416564 0.315546
0.207538 0.427103 0.325057
0.332705 0.444378 0.341437
0.455023 0.461063 0.357254
0.576171 0.477393 0.372752
0.696667 0.493454 0.388020
0.816554 0.509270 0.403084
0.820309 0.510449 0.403504
0.188885 0.574509 0.367180
0.190236 0.576455 0.367763
0.262107 0.587085 0.377214
0.389653 0.604480 0.393557
0.513796 0.621230 0.409322
0.636313 0.637578 0.424755
0.757785 0.653616 0.439947
0.876084 0.669375 0.454926
0.878546 0.670387 0.455217
0.242148 0.733646 0.418655
0.243397 0.735376 0.419106
0.316277 0.745854 0.428462
0.445377 0.763126 0.444730
0.570646 0.779723 0.460409
0.693944 0.795896 0.475750
0.815910 0.811744 0.490845
0.930228 0.827303 0.505726
0.931627 0.828059 0.505897
0.295102 0.891144 0.469236
0.296172 0.892522 0.469550
0.369640 0.902705 0.478796
0.499679 0.919716 0.494969
0.625580 0.936046 0.510550
0.749273 0.951163 0.525792
0.868904 0.965852 0.540791
0.979969 0.980168 0.555578
0.980509 0.980485 0.555651
0.298325 0.895110 0.470108
0.299099 0.895959 0.470277
0.372792 0.905692 0.479402
0.503291 0.922312 0.495470
0.629470 0.938221 0.510953
0.753318 0.952828 0.526104
0.872309 0.967060 0.541021
0.981265 0.980955 0.555737
0.981436 0.981074 0.555749
0.010280 0.011871 0.278510
0.010570 0.012024 0.280123
0.068004 0.020148 0.290135
0.173355 0.034691 0.306758
0.279264 0.049003 0.322903
0.386836 0.063276 0.338793
0.496263 0.077567 0.354506
0.607357 0.091876 0.370062
0.616662 0.092591 0.371403
0.011225 0.012361 0.283588
0.011490 0.012495 0.284912
0.073009 0.020874 0.294779
0.184960 0.035839 0.311349
0.296421 0.050503 0.327412
0.408676 0.065070 0.343201
0.522015 0.079603 0.358794
0.636313 0.094109 0.374215
0.643687 0.094682 0.375260
0.038276 0.099747 0.316895
0.038929 0.100537 0.318066
0.104137 0.109749 0.327891
0.221734 0.125633 0.344484
0.337907 0.141116 0.360542
0.454096 0.156411 0.376301
0.570676 0.171590 0.391844
0.687585 0.186664 0.407196
0.693522 0.187506 0.408045
0.089076 0.260268 0.372893
0.090200 0.261838 0.373958
0.158476 0.271939 0.383760
0.280622 0.288752 0.400377
0.400531 0.305052 0.416432
0.519778 0.321067 0.432164
0.638818 0.336873 0.447662
0.757644 0.352490 0.462950
0.762404 0.353630 0.463640
0.141298 0.420367 0.427120
0.142629 0.422267 0.428034
0.213114 0.432786 0.437750
0.338565 0.450049 0.454318
0.461106 0.466718 0.470303
0.582425 0.483031 0.485951
0.703048 0.499072 0.501350
0.823022 0.514865 0.516529
0.826670 0.516011 0.517044
0.194403 0.580319 0.480135
0.195750 0.582219 0.480871
0.267747 0.592813 0.490461
0.395484 0.610179 0.506931
0.519770 0.626897 0.522805
0.642389 0.643213 0.538332
0.763931 0.659219 0.553604
0.881904 0.674947 0.568652
0.884250 0.675920 0.568996
0.247727 0.739433 0.532078
0.248962 0.741109 0.532627
0.321919 0.751542 0.542069
0.451139 0.768775 0.558413
0.576491 0.785333 0.574156
0.699844 0.801469 0.589549
0.821842 0.817281 0.604686
0.935642 0.832806 0.619599
0.936944 0.833527 0.619792
0.300686 0.896843 0.582949
0.301737 0.898167 0.583318
0.375247 0.908304 0.592610
0.505355 0.925274 0.608822
0.631301 0.941315 0.624433
0.755021 0.956344 0.639696
0.874186 0.970964 0.654710
0.985021 0.985214 0.669507
0.985488 0.985485 0.669584
0.303849 0.900645 0.583969
0.304609 0.901454 0.584163
0.378328 0.911154 0.593307
0.508870 0.927746 0.609390
0.635078 0.943301 0.624881
0.758948 0.957848 0.640037
0.877386 0.972022 0.654955
0.986102 0.985863 0.669671
0.986228 0.985952 0.669681
0.014256 0.016380 0.383406
0.014645 0.016585 0.385581
0.072625 0.024789 0.396136
0.178797 0.039427 0.413282
0.285409 0.053825 0.429915
0.393587 0.068174 0.446261
0.503532 0.082532 0.462399
0.615063 0.096902 0.478350
0.624228 0.097637 0.480040
0.015513 0.017036 0.390247
0.015859 0.017212 0.392028
0.077824 0.025656 0.402335
0.190440 0.040697 0.419325
0.302463 0.055430 0.435778
0.415195 0.070057 0.451927
0.528933 0.084643 0.467853
0.643561 0.099195 0.483580
0.650807 0.099782 0.484894
0.042960 0.104789 0.425016
0.043669 0.105598 0.426548
0.109226 0.114846 0.436718
0.227341 0.130777 0.453637
0.343943 0.146299 0.469995
0.460488 0.161627 0.486027
0.577359 0.176834 0.501821
0.694499 0.191929 0.517400
0.700314 0.192769 0.518446
0.094134 0.265693 0.482180
0.095288 0.267253 0.483520
0.163821 0.277358 0.493582
0.286352 0.294183 0.510442
0.406572 0.310490 0.526716
0.526068 0.326506 0.542647
0.645302 0.342312 0.558322
0.764274 0.357924 0.573769
0.768917 0.359042 0.574592
0.146593 0.425996 0.537283
0.147933 0.427863 0.538397
0.218600 0.438362 0.548299
0.344323 0.455612 0.565039
0.467077 0.472264 0.581176
0.588558 0.488557 0.596958
0.709300 0.504577 0.612475
0.829356 0.520349 0.627756
0.832888 0.521462 0.628354
0.199829 0.586015 0.590925
0.201170 0.587869 0.591798
0.273286 0.598427 0.601513
0.401206 0.615762 0.618095
0.525627 0.632449 0.634066
0.648343 0.648732 0.649676
0.769948 0.664707 0.665018
0.887581 0.680402 0.680123
0.889814 0.681339 0.680511
0.253205 0.745100 0.643286
0.254424 0.746724 0.643921
0.327454 0.757112 0.653440
0.456787 0.774306 0.669849
0.582218 0.790825 0.685646
0.705621 0.806924 0.701082
0.827647 0.822701 0.716253
0.940918 0.838192 0.731192
0.942125 0.838880 0.731402
0.306164 0.902421 0.694410
0.307194 0.903692 0.694825
0.380744 0.913784 0.704156
0.510917 0.930714 0.720399
0.636905 0.946442 0.736033
0.760649 0.961401 0.751313
0.879339 0.975954 0.766337
0.989943 0.990138 0.781139
0.990337 0.990364 0.781218
0.309266 0.906061 0.695552
0.310011 0.906832 0.695765
0.383754 0.916500 0.704924
0.514337 0.933066 0.721016
0.640573 0.948261 0.736513
0.764464 0.962749 0.751670
0.882342 0.976867 0.766588
0.990818 0.990655 0.781302
0.990903 0.990715 0.781309
0.018245 0.020863 0.487205
0.018728 0.021117 0.489911
0.077241 0.029397 0.500981
0.184214 0.044127 0.518620
0.291512 0.058606 0.535714
0.400278 0.073028 0.552489
0.510726 0.087451 0.569026
0.622680 0.101878 0.585347
0.631703 0.102631 0.587364
0.019797 0.021674 0.495710
0.020220 0.021891 0.497921
0.082620 0.030396 0.508643
0.195883 0.045512 0.526027
0.308452 0.060309 0.542845
0.421645 0.074993 0.559332
0.535770 0.089630 0.575569
0.650715 0.104225 0.591582
0.657832 0.104825 0.593145
0.047623 0.109782 0.531854
0.048385 0.110608 0.533724
0.114279 0.119890 0.544216
0.232897 0.135865 0.561440
0.349915 0.151424 0.578076
0.466804 0.166783 0.594363
0.583954 0.182014 0.610389
0.701316 0.197130 0.626177
0.707007 0.197967 0.627403
0.099154 0.271055 0.590109
0.100334 0.272603 0.591704
0.169116 0.282710 0.602006
0.292019 0.299545 0.619090
0.412538 0.315857 0.635567
0.532273 0.331875 0.651679
0.651693 0.347677 0.667517
0.770803 0.363284 0.683108
0.775329 0.364380 0.684051
0.151836 0.431550 0.646023
0.153182 0.433384 0.647320
0.224023 0.443862 0.657393
0.350009 0.461097 0.674288
0.472966 0.477732 0.690564
0.594603 0.494005 0.706467
0.715457 0.510003 0.722089
0.835454 0.525752 0.737461
0.838750 0.526832 0.738132
0.205192 0.591629 0.700237
0.206525 0.593437 0.701234
0.278755 0.603958 0.711062
0.406850 0.621262 0.727744
0.531399 0.637916 0.743801
0.654206 0.654168 0.759483
0.775870 0.670110 0.774886
0.893147 0.685774 0.790040
0.895268 0.686674 0.790465
0.258613 0.750681 0.752974
0.259815 0.752251 0.753685
0.332913 0.762595 0.763270
0.462354 0.779750 0.779736
0.587858 0.796231 0.795578
0.711308 0.812293 0.811050
0.833360 0.828036 0.826248
0.946087 0.843495 0.841207
0.947201 0.844149 0.841429
0.311566 0.907910 0.804318
0.312577 0.909129 0.804772
0.386163 0.919176 0.814135
0.516397 0.936067 0.830402
0.642424 0.951476 0.846053
0.766191 0.966365 0.861345
0.884393 0.980851 0.876375
0.994764 0.994972 0.891180
0.995089 0.995155 0.891258
0.314607 0.911393 0.805559
0.315338 0.912126 0.805787
0.389103 0.921763 0.814956
0.519725 0.938235 0.831053
0.645989 0.953132 0.846552
0.769901 0.967562 0.861708
0.887207 0.981626 0.876623
0.995443 0.995362 0.891335
0.995490 0.995394 0.891340
0.022253 0.025325 0.590100
0.022824 0.025627 0.593308
0.081856 0.033980 0.604865
0.189612 0.048798 0.622970
0.297577 0.063355 0.640498
0.406916 0.077847 0.657678
0.517851 0.092332 0.674591
0.630215 0.106814 0.691259
0.639095 0.107583 0.693581
0.024084 0.026283 0.600177
0.024580 0.026539 0.602793
0.087401 0.035104 0.613905
0.201295 0.050290 0.631659
0.314395 0.065149 0.648820
0.428036 0.079888 0.665622
0.542534 0.094573 0.682150
0.657785 0.109209 0.698428
0.664771 0.109820 0.700222
0.052271 0.114733 0.637614
0.053083 0.115575 0.639800
0.119305 0.124890 0.650594
0.238410 0.140906 0.668101
0.355831 0.156499 0.684996
0.473051 0.171887 0.701520
0.590470 0.187141 0.717759
0.708043 0.202276 0.733741
0.713611 0.203108 0.735130
0.104143 0.276362 0.696889
0.105347 0.277897 0.698719
0.174369 0.288005 0.709244
0.297631 0.304848 0.726535
0.418438 0.321164 0.743198
0.538402 0.337181 0.759477
0.657999 0.352980 0.775462
0.777240 0.368580 0.791184
0.781650 0.369653 0.792235
0.157035 0.437038 0.753552
0.158385 0.438839 0.755017
0.229393 0.449295 0.765246
0.355632 0.466514 0.782284
0.478784 0.483130 0.798684
0.600567 0.499383 0.814695
0.721527 0.515359 0.830412
0.841339 0.531085 0.845863
0.844511 0.532132 0.846597
0.210502 0.597170 0.808290
0.211825 0.598932 0.809397
0.284164 0.609416 0.819325
0.412425 0.626688 0.836097
0.537096 0.643311 0.852229
0.659988 0.659530 0.867974
0.781707 0.675440 0.883428
0.898612 0.691072 0.898624
0.900623 0.691937 0.899078
0.263960 0.756184 0.861363
0.265145 0.757702 0.862139
0.338307 0.768002 0.871780
0.467849 0.785118 0.888294
0.593422 0.801562 0.904175
0.716916 0.817588 0.919675
0.838801 0.833296 0.934895
0.951160 0.848724 0.949868
0.952184 0.849347 0.950098
0.316904 0.913320 0.912895
0.317894 0.914488 0.913381
0.391514 0.924492 0.922769
0.521806 0.941104 0.939055
0.647869 0.956426 0.954718
0.771658 0.971247 0.970016
0.889359 0.985668 0.985049
0.999495 0.999725 0.999854
0.999755 0.999866 0.999928
0.319883 0.916649 0.914213
0.320600 0.917347 0.914451
0.394386 0.926954 0.923626
0.525045 0.943086 0.939725
0.651336 0.957924 0.955223
0.775271 0.972297 0.970377
0.891993 0.986307 0.985289
0.999989 0.999994 0.999997
1.000000 1.000000 1.000000
0.022450 0.025429 0.591210
0.023013 0.025726 0.594355
0.082464 0.034103 0.605866
0.190901 0.048962 0.623935
0.299439 0.063553 0.641426
0.409263 0.078073 0.658566
0.520603 0.092581 0.675439
0.633298 0.107081 0.692066
0.641976 0.107833 0.694332
0.024255 0.026372 0.601084
0.024744 0.026623 0.603644
0.087905 0.035206 0.614712
0.202346 0.050425 0.632433
0.315899 0.065311 0.649558
0.429916 0.080071 0.666323
0.544722 0.094772 0.682813
0.660217 0.109422 0.699054
0.667026 0.110018 0.700797
0.052552 0.115025 0.638374
0.053349 0.115848 0.640507
0.119832 0.125163 0.651259
0.239358 0.141191 0.668731
0.357120 0.156791 0.685591
0.474615 0.172181 0.702079
0.592250 0.187435 0.718282
0.709987 0.202566 0.734227
0.715397 0.203375 0.735572
0.104561 0.276896 0.697527
0.105739 0.278392 0.699308
0.174948 0.288477 0.709792
0.298517 0.305305 0.727047
0.419564 0.321603 0.743674
0.539714 0.337601 0.759917
0.659448 0.353379 0.775867
0.778785 0.368956 0.791554
0.783054 0.369993 0.792565
0.157505 0.437667 0.754065
0.158822 0.439415 0.755484
0.229957 0.449832 0.765674
0.356408 0.467018 0.782677
0.479718 0.483601 0.799043
0.601617 0.499820 0.815021
0.722654 0.515762 0.830704
0.842457 0.531454 0.846124
0.845507 0.532460 0.846823
0.210964 0.597789 0.808680
0.212250 0.599490 0.809746
0.284668 0.609925 0.819638
0.413067 0.627155 0.836377
0.537834 0.643736 0.852479
0.660789 0.659914 0.868194
0.782543 0.675785 0.883619
0.899328 0.691379 0.898787
0.901241 0.692203 0.899214
0.264375 0.756720 0.861638
0.265523 0.758178 0.862378
0.338728 0.768426 0.871989
0.468352 0.785497 0.888475
0.593978 0.801897 0.904329
0.717500 0.817883 0.919805
0.839369 0.833554 0.935001
0.951531 0.848947 0.949953
0.952485 0.849536 0.950163
0.317251 0.913735 0.913070
0.318208 0.914848 0.913526
0.391849 0.924804 0.922889
0.522186 0.941360 0.939153
0.648276 0.956626 0.954796
0.772079 0.971396 0.970076
0.889677 0.985768 0.985093
0.999597 0.999781 0.999883
0.999817 0.999900 0.999946
0.320134 0.916899 0.914301
0.320830 0.917559 0.914518
0.394629 0.927135 0.923676
0.525318 0.943230 0.939761
0.651631 0.958026 0.955247
0.775584 0.972363 0.970391
0.892215 0.986340 0.985295
0.999995 0.999997 0.999999
1.000000 1.000000 1.000000
