library/cube/Dark_Paradise_002.cube
# CINEGRADE LAB — Premium Cinematic LUT
# Title: Dark Paradise
# Category: Neo Noir
# Description: Dramatic shadows, high contrast, moody lighting inspired by noir cinema
# Mood: Mysterious, dramatic, dark
# Variant: 3
# Generated: 2026-05-21T16:12:30.342483
TITLE "Dark Paradise"
LUT_3D_SIZE 33
0.000000 0.000000 0.000000
0.000000 0.000000 0.000000
0.000001 0.000000 0.000000
0.000002 0.000001 0.000000
0.000004 0.000001 0.000000
0.000006 0.000002 0.000000
0.002319 0.000333 0.000356
0.029389 0.004193 0.004503
0.055265 0.007856 0.008424
0.080832 0.011450 0.012259
0.106299 0.015007 0.016042
0.131764 0.018540 0.019788
0.157277 0.022059 0.023507
0.182873 0.025568 0.027206
0.208571 0.029071 0.030887
0.234385 0.032571 0.034555
0.260325 0.036070 0.038212
0.286397 0.039569 0.041859
0.312605 0.043069 0.045498
0.338951 0.046570 0.049130
0.365435 0.050075 0.052755
0.392059 0.053582 0.056376
0.418821 0.057094 0.059992
0.445720 0.060608 0.063605
0.472755 0.064127 0.067213
0.499924 0.067650 0.070819
0.527224 0.071178 0.074422
0.554653 0.074709 0.078022
0.582070 0.078227 0.081600
0.584619 0.078399 0.081684
0.587127 0.078568 0.081766
0.589597 0.078735 0.081847
0.592027 0.078899 0.081926
0.000002 0.000001 0.000000
0.000004 0.000001 0.000000
0.000006 0.000002 0.000000
0.000009 0.000003 0.000000
0.000012 0.000004 0.000000
0.000015 0.000005 0.000000
0.002383 0.000340 0.000358
0.030050 0.004240 0.004524
0.056473 0.007940 0.008464
0.082558 0.011569 0.012316
0.108521 0.015159 0.016115
0.134459 0.018724 0.019877
0.160428 0.022273 0.023611
0.186462 0.025812 0.027324
0.212580 0.029343 0.031019
0.238800 0.032871 0.034701
0.265129 0.036396 0.038370
0.291575 0.039919 0.042029
0.318143 0.043443 0.045680
0.344834 0.046969 0.049323
0.371651 0.050495 0.052960
0.398594 0.054024 0.056591
0.425661 0.057556 0.060217
0.452854 0.061090 0.063839
0.480170 0.064628 0.067457
0.507607 0.068169 0.071071
0.535164 0.071714 0.074682
0.562838 0.075262 0.078290
0.590486 0.078795 0.081876
0.592902 0.078958 0.081955
0.595280 0.079119 0.082033
0.597620 0.079278 0.082109
0.599922 0.079434 0.082184
0.000010 0.000003 0.000000
0.000013 0.000004 0.000000
0.000017 0.000005 0.000000
0.000021 0.000007 0.000000
0.000025 0.000008 0.000000
0.000030 0.000010 0.000000
0.002449 0.000349 0.000360
0.030686 0.004287 0.004545
0.057631 0.008022 0.008501
0.084210 0.011684 0.012370
0.110644 0.015305 0.016185
0.137034 0.018901 0.019961
0.163436 0.022479 0.023710
0.189885 0.026046 0.027436
0.216403 0.029604 0.031145
0.243006 0.033157 0.034839
0.269705 0.036707 0.038520
0.296506 0.040255 0.042191
0.323413 0.043802 0.045853
0.350432 0.047349 0.049507
0.377562 0.050896 0.053154
0.404805 0.054446 0.056795
0.432161 0.057997 0.060430
0.459629 0.061550 0.064061
0.487209 0.065105 0.067687
0.514898 0.068663 0.071309
0.542695 0.072224 0.074928
0.570598 0.075787 0.078544
0.598462 0.079335 0.082136
0.600751 0.079490 0.082211
0.603002 0.079643 0.082284
0.605216 0.079793 0.082356
0.607393 0.079941 0.082427
0.000022 0.000007 0.000000
0.000027 0.000009 0.000000
0.000032 0.000010 0.000000
0.000038 0.000012 0.000000
0.000044 0.000014 0.000000
0.000050 0.000016 0.000000
0.002518 0.000359 0.000361
0.031298 0.004334 0.004564
0.058740 0.008101 0.008537
0.085789 0.011795 0.012421
0.112671 0.015447 0.016251
0.139490 0.019071 0.020042
0.166303 0.022677 0.023804
0.193147 0.026270 0.027543
0.220044 0.029854 0.031264
0.247011 0.033432 0.034970
0.274058 0.037005 0.038663
0.301194 0.040575 0.042344
0.328424 0.044143 0.046017
0.355751 0.047711 0.049681
0.383176 0.051279 0.053337
0.410702 0.054847 0.056987
0.438329 0.058416 0.060632
0.466056 0.061987 0.064271
0.493883 0.065559 0.067905
0.521808 0.069133 0.071535
0.549830 0.072708 0.075161
0.577947 0.076286 0.078783
0.606012 0.079847 0.082382
0.608177 0.079995 0.082453
0.610304 0.080139 0.082522
0.612396 0.080282 0.082589
0.614453 0.080422 0.082656
0.000040 0.000013 0.000000
0.000046 0.000015 0.000000
0.000053 0.000017 0.000000
0.000060 0.000019 0.000000
0.000067 0.000022 0.000000
0.000075 0.000024 0.000000
0.002589 0.000370 0.000363
0.031887 0.004380 0.004583
0.059802 0.008179 0.008572
0.087298 0.011903 0.012470
0.114606 0.015583 0.016314
0.141832 0.019235 0.020118
0.169035 0.022867 0.023893
0.196252 0.026485 0.027644
0.223508 0.030093 0.031377
0.250819 0.033694 0.035094
0.278196 0.037289 0.038798
0.305649 0.040881 0.042490
0.333182 0.044470 0.046172
0.360799 0.048057 0.049845
0.388503 0.051643 0.053511
0.416295 0.055229 0.057170
0.444176 0.058815 0.060822
0.472145 0.062402 0.064469
0.500203 0.065990 0.068111
0.528349 0.069578 0.071747
0.556580 0.073168 0.075380
0.584896 0.076760 0.079009
0.613149 0.080333 0.082614
0.615193 0.080473 0.082680
0.617202 0.080610 0.082745
0.619175 0.080745 0.082809
0.621115 0.080877 0.082871
0.000062 0.000020 0.000000
0.000070 0.000022 0.000000
0.000078 0.000025 0.000000
0.000087 0.000028 0.000000
0.000096 0.000031 0.000000
0.000105 0.000034 0.000000
0.002663 0.000383 0.000364
0.032453 0.004426 0.004600
0.060817 0.008255 0.008604
0.088737 0.012008 0.012517
0.116449 0.015715 0.016373
0.144061 0.019393 0.020190
0.171634 0.023049 0.023977
0.199205 0.026691 0.027740
0.226800 0.030322 0.031484
0.254436 0.033945 0.035212
0.282125 0.037561 0.038925
0.309876 0.041172 0.042627
0.337694 0.044780 0.046319
0.365584 0.048386 0.050001
0.393549 0.051990 0.053675
0.421591 0.055593 0.057342
0.449710 0.059195 0.061002
0.477907 0.062797 0.064656
0.506181 0.066399 0.068304
0.534532 0.070001 0.071948
0.562958 0.073604 0.075586
0.591459 0.077208 0.079221
0.619886 0.080793 0.082831
0.621813 0.080925 0.082894
0.623706 0.081055 0.082954
0.625566 0.081183 0.083014
0.627392 0.081308 0.083073
0.001140 0.003617 0.001221
0.001155 0.003629 0.001222
0.001170 0.003640 0.001224
0.001185 0.003652 0.001225
0.001200 0.003664 0.001226
0.001216 0.003676 0.001228
0.003822 0.004037 0.001594
0.034083 0.008119 0.005848
0.062879 0.011985 0.009866
0.091206 0.015772 0.013793
0.119306 0.019513 0.017664
0.147288 0.023223 0.021494
0.175214 0.026910 0.025294
0.203125 0.030582 0.029069
0.231044 0.034242 0.032824
0.258991 0.037892 0.036563
0.286977 0.041535 0.040287
0.315013 0.045172 0.043999
0.343104 0.048805 0.047700
0.371254 0.052434 0.051392
0.399468 0.056061 0.055075
0.427747 0.059686 0.058750
0.456093 0.063309 0.062418
0.484505 0.066932 0.066080
0.512984 0.070553 0.069736
0.541530 0.074174 0.073386
0.570141 0.077795 0.077032
0.598817 0.081416 0.080672
0.627407 0.085018 0.084289
0.629225 0.085148 0.084348
0.631010 0.085276 0.084406
0.632762 0.085402 0.084463
0.634482 0.085525 0.084518
0.013605 0.045704 0.015471
0.013680 0.045814 0.015488
0.013754 0.045922 0.015505
0.013828 0.046029 0.015522
0.013902 0.046134 0.015538
0.013974 0.046238 0.015554
0.016675 0.046692 0.015937
0.047433 0.050892 0.020218
0.076685 0.054873 0.024264
0.105446 0.058771 0.028218
0.133959 0.062620 0.032114
0.162336 0.066436 0.035968
0.190642 0.070227 0.039792
0.218917 0.074000 0.043590
0.247186 0.077759 0.047368
0.275468 0.081505 0.051128
0.303776 0.085243 0.054874
0.332121 0.088972 0.058606
0.360508 0.092695 0.062327
0.388943 0.096413 0.066038
0.417429 0.100126 0.069739
0.445969 0.103835 0.073432
0.474563 0.107540 0.077118
0.503214 0.111243 0.080797
0.531920 0.114943 0.084469
0.560682 0.118640 0.088135
0.589500 0.122336 0.091796
0.618371 0.126029 0.095452
0.647146 0.129701 0.099082
0.648892 0.129884 0.099147
0.650605 0.130064 0.099210
0.652286 0.130240 0.099273
0.653935 0.130413 0.099333
0.025745 0.086019 0.029009
0.025871 0.086211 0.029039
0.025996 0.086401 0.029069
0.026119 0.086587 0.029099
0.026242 0.086771 0.029127
0.026362 0.086952 0.029156
0.029146 0.087484 0.029551
0.060369 0.091786 0.033859
0.090049 0.095865 0.037929
0.119213 0.099859 0.041906
0.148111 0.103802 0.045824
0.176857 0.107709 0.049700
0.205516 0.111589 0.053544
0.234128 0.115448 0.057363
0.262720 0.119291 0.061160
0.291313 0.123120 0.064940
0.319919 0.126938 0.068704
0.348548 0.130746 0.072454
0.377208 0.134546 0.076192
0.405904 0.138338 0.079919
0.434640 0.142123 0.083637
0.463418 0.145903 0.087346
0.492240 0.149678 0.091047
0.521107 0.153448 0.094740
0.550020 0.157213 0.098426
0.578979 0.160974 0.102106
0.607983 0.164732 0.105780
0.637031 0.168485 0.109447
0.665972 0.172216 0.113090
0.667642 0.172441 0.113159
0.669281 0.172662 0.113226
0.670888 0.172878 0.113292
0.672463 0.173090 0.113357
0.037929 0.125895 0.042301
0.038100 0.126159 0.042342
0.038268 0.126418 0.042383
0.038435 0.126673 0.042423
0.038599 0.126925 0.042463
0.038762 0.127172 0.042502
0.041621 0.127772 0.042909
0.073280 0.132164 0.047240
0.103359 0.136330 0.051332
0.132902 0.140408 0.055329
0.162159 0.144432 0.059267
0.191248 0.148419 0.063163
0.220235 0.152376 0.067026
0.249161 0.156311 0.070863
0.278055 0.160228 0.074678
0.306935 0.164128 0.078474
0.335817 0.168016 0.082254
0.364710 0.171892 0.086020
0.393621 0.175757 0.089773
0.422558 0.179614 0.093515
0.451523 0.183462 0.097247
0.480520 0.187303 0.100969
0.509550 0.191136 0.104683
0.538616 0.194964 0.108389
0.567717 0.198785 0.112087
0.596854 0.202601 0.115779
0.626027 0.206411 0.119464
0.655235 0.210216 0.123142
0.684326 0.213996 0.126795
0.685920 0.214255 0.126867
0.687483 0.214509 0.126937
0.689014 0.214757 0.127006
0.690516 0.215001 0.127073
0.050226 0.165623 0.055455
0.050435 0.165948 0.055506
0.050641 0.166268 0.055557
0.050845 0.166583 0.055606
0.051046 0.166892 0.055655
0.051245 0.167197 0.055703
0.054172 0.167855 0.056120
0.086240 0.172326 0.060471
0.116693 0.176568 0.064583
0.146588 0.180720 0.068599
0.176181 0.184816 0.072555
0.205590 0.188872 0.076469
0.234883 0.192897 0.080348
0.264101 0.196898 0.084201
0.293273 0.200878 0.088031
0.322421 0.204841 0.091842
0.351557 0.208789 0.095637
0.380693 0.212723 0.099417
0.409837 0.216645 0.103183
0.438995 0.220557 0.106938
0.468170 0.224459 0.110682
0.497368 0.228352 0.114417
0.526588 0.232236 0.118142
0.555835 0.236112 0.121858
0.585107 0.239981 0.125567
0.614406 0.243843 0.129269
0.643732 0.247697 0.132963
0.673084 0.251546 0.136651
0.702309 0.255368 0.140312
0.703827 0.255654 0.140386
0.705313 0.255933 0.140458
0.706770 0.256207 0.140528
0.708196 0.256476 0.140596
0.062653 0.205320 0.068520
0.062896 0.205698 0.068580
0.063135 0.206069 0.068638
0.063371 0.206434 0.068696
0.063604 0.206793 0.068752
0.063833 0.207146 0.068808
0.066822 0.207854 0.069233
0.099271 0.212395 0.073604
0.130074 0.216704 0.077733
0.160299 0.220920 0.081766
0.190204 0.225078 0.085738
0.219911 0.229194 0.089666
0.249487 0.233278 0.093561
0.278976 0.237335 0.097428
0.308407 0.241371 0.101272
0.337801 0.245387 0.105096
0.367173 0.249386 0.108903
0.396533 0.253371 0.112695
0.425890 0.257342 0.116473
0.455251 0.261301 0.120239
0.484619 0.265248 0.123994
0.514000 0.269185 0.127739
0.543394 0.273112 0.131474
0.572805 0.277029 0.135200
0.602232 0.280938 0.138917
0.631678 0.284838 0.142627
0.661141 0.288730 0.146330
0.690623 0.292614 0.150025
0.719968 0.296470 0.153694
0.721409 0.296777 0.153768
0.722820 0.297077 0.153841
0.724201 0.297370 0.153912
0.725553 0.297658 0.153981
0.075214 0.245037 0.081521
0.075485 0.245459 0.081588
0.075752 0.245874 0.081654
0.076016 0.246282 0.081718
0.076275 0.246682 0.081781
0.076531 0.247076 0.081843
0.079574 0.247825 0.082275
0.112381 0.252427 0.086662
0.143509 0.256794 0.090807
0.174040 0.261065 0.094855
0.204237 0.265277 0.098842
0.234220 0.269445 0.102784
0.264059 0.273579 0.106691
0.293799 0.277685 0.110571
0.323469 0.281767 0.114427
0.353090 0.285829 0.118263
0.382678 0.289872 0.122081
0.412244 0.293899 0.125883
0.441797 0.297911 0.129671
0.471343 0.301909 0.133447
0.500888 0.305895 0.137211
0.530435 0.309868 0.140964
0.559987 0.313831 0.144707
0.589547 0.317782 0.148441
0.619114 0.321724 0.152166
0.648691 0.325655 0.155883
0.678278 0.329577 0.159593
0.707876 0.333490 0.163294
0.737327 0.337375 0.166969
0.738692 0.337696 0.167044
0.740027 0.338011 0.167116
0.741333 0.338319 0.167187
0.742611 0.338620 0.167256
0.087901 0.284797 0.094475
0.088197 0.285256 0.094547
0.088487 0.285707 0.094618
0.088773 0.286149 0.094688
0.089055 0.286584 0.094756
0.089333 0.287011 0.094823
0.092425 0.287795 0.095262
0.125565 0.292449 0.099664
0.156996 0.296865 0.103822
0.187813 0.301184 0.107883
0.218279 0.305442 0.111882
0.248518 0.309654 0.115837
0.278601 0.313830 0.119756
0.308572 0.317977 0.123646
0.338462 0.322099 0.127512
0.368292 0.326198 0.131358
0.398079 0.330278 0.135186
0.427833 0.334340 0.138997
0.457565 0.338386 0.142794
0.487281 0.342417 0.146578
0.516986 0.346433 0.150349
0.546684 0.350437 0.154110
0.576379 0.354428 0.157860
0.606072 0.358407 0.161600
0.635765 0.362374 0.165332
0.665460 0.366331 0.169055
0.695157 0.370277 0.172769
0.724857 0.374213 0.176476
0.754403 0.378119 0.180156
0.755692 0.378451 0.180229
0.756952 0.378776 0.180301
0.758184 0.379093 0.180371
0.759388 0.379402 0.180439
0.100706 0.324605 0.107388
0.101021 0.325094 0.107465
0.101331 0.325574 0.107541
0.101636 0.326045 0.107615
0.101936 0.326508 0.107687
0.102231 0.326961 0.107758
0.105367 0.327772 0.108202
0.138816 0.332471 0.112617
0.170529 0.336929 0.116788
0.201610 0.341288 0.120860
0.232326 0.345584 0.124870
0.262802 0.349833 0.128835
0.293109 0.354044 0.132764
0.323293 0.358225 0.136664
0.353385 0.362379 0.140539
0.383407 0.366509 0.144393
0.413376 0.370619 0.148229
0.443303 0.374709 0.152048
0.473197 0.378782 0.155852
0.503067 0.382839 0.159642
0.532917 0.386880 0.163420
0.562752 0.390908 0.167187
0.592574 0.394921 0.170943
0.622388 0.398922 0.174689
0.652194 0.402910 0.178425
0.681993 0.406886 0.182152
0.711788 0.410850 0.185871
0.741578 0.414803 0.189582
0.771206 0.418726 0.193265
0.772420 0.419063 0.193337
0.773606 0.419393 0.193408
0.774765 0.419715 0.193476
0.775897 0.420028 0.193543
0.113615 0.364460 0.120268
0.113946 0.364972 0.120349
0.114271 0.365475 0.120427
0.114591 0.365968 0.120505
0.114906 0.366451 0.120580
0.115216 0.366925 0.120654
0.118390 0.367758 0.121101
0.152126 0.372494 0.125528
0.184101 0.376986 0.129710
0.215426 0.381378 0.133792
0.246372 0.385705 0.137812
0.277066 0.389984 0.141785
0.307579 0.394224 0.145723
0.337959 0.398431 0.149630
0.368236 0.402611 0.153513
0.398434 0.406766 0.157375
0.428568 0.410899 0.161217
0.458651 0.415012 0.165042
0.488694 0.419106 0.168852
0.518702 0.423183 0.172648
0.548683 0.427244 0.176432
0.578641 0.431289 0.180203
0.608578 0.435319 0.183963
0.638499 0.439335 0.187713
0.668405 0.443338 0.191453
0.698297 0.447328 0.195184
0.728177 0.451306 0.198906
0.758046 0.455271 0.202620
0.787746 0.459205 0.206306
0.788886 0.459544 0.206376
0.790000 0.459875 0.206444
0.791087 0.460197 0.206511
0.792148 0.460511 0.206575
0.126617 0.404353 0.133117
0.126960 0.404883 0.133200
0.127297 0.405402 0.133281
0.127629 0.405910 0.133361
0.127955 0.406409 0.133439
0.128276 0.406898 0.133515
0.131482 0.407746 0.133965
0.165485 0.412512 0.138402
0.197701 0.417032 0.142592
0.229251 0.421450 0.146684
0.260409 0.425802 0.150711
0.291303 0.430104 0.154692
0.322006 0.434367 0.158636
0.352565 0.438595 0.162551
0.383011 0.442795 0.166440
0.413368 0.446969 0.170307
0.443653 0.451120 0.174155
0.473878 0.455249 0.177985
0.504054 0.459359 0.181800
0.534188 0.463450 0.185600
0.564286 0.467524 0.189388
0.594353 0.471582 0.193163
0.624393 0.475624 0.196927
0.654409 0.479651 0.200680
0.684403 0.483664 0.204423
0.714377 0.487663 0.208156
0.744332 0.491649 0.211880
0.774269 0.495622 0.215596
0.804030 0.499562 0.219283
0.805098 0.499899 0.219351
0.806140 0.500227 0.219417
0.807157 0.500546 0.219481
0.808149 0.500857 0.219543
0.139698 0.444273 0.145938
0.140050 0.444814 0.146022
0.140396 0.445344 0.146105
0.140736 0.445863 0.146186
0.141070 0.446372 0.146265
0.141399 0.446870 0.146342
0.144634 0.447728 0.146794
0.178882 0.452517 0.151239
0.211320 0.457059 0.155438
0.243078 0.461498 0.159536
0.274431 0.465869 0.163570
0.305508 0.470188 0.167557
0.336384 0.474467 0.171508
0.367106 0.478712 0.175428
0.397706 0.482926 0.179322
0.428208 0.487113 0.183193
0.458629 0.491276 0.187046
0.488982 0.495417 0.190880
0.519278 0.499537 0.194698
0.549524 0.503638 0.198502
0.579727 0.507720 0.202292
0.609891 0.511786 0.206070
0.640022 0.515835 0.209836
0.670121 0.519868 0.213591
0.700192 0.523887 0.217336
0.730236 0.527890 0.221071
0.760256 0.531880 0.224797
0.790252 0.535856 0.228513
0.820065 0.539798 0.232202
0.821063 0.540130 0.232266
0.822036 0.540452 0.232329
0.822984 0.540765 0.232390
0.823908 0.541070 0.232449
0.152846 0.484207 0.158730
0.153204 0.484754 0.158815
0.153556 0.485290 0.158898
0.153901 0.485814 0.158980
0.154240 0.486328 0.159059
0.154573 0.486830 0.159137
0.157832 0.487693 0.159589
0.192308 0.492501 0.164042
0.224949 0.497058 0.168247
0.256897 0.501511 0.172352
0.288428 0.505896 0.176391
0.319673 0.510228 0.180384
0.350707 0.514518 0.184338
0.381576 0.518772 0.188263
0.412316 0.522996 0.192161
0.442948 0.527191 0.196036
0.473492 0.531362 0.199891
0.503960 0.535509 0.203729
0.534363 0.539635 0.207550
0.564709 0.543741 0.211356
0.595005 0.547828 0.215148
0.625255 0.551897 0.218928
0.655465 0.555948 0.222695
0.685638 0.559984 0.226452
0.715775 0.564003 0.230197
0.745881 0.568007 0.233933
0.775956 0.571997 0.237659
0.806001 0.575972 0.241376
0.835710 0.579914 0.245064
0.836603 0.580236 0.245125
0.837473 0.580550 0.245185
0.838318 0.580855 0.245242
0.839140 0.581151 0.245298
0.166049 0.524141 0.171494
0.166410 0.524689 0.171579
0.166764 0.525226 0.171663
0.167112 0.525751 0.171744
0.167453 0.526264 0.171823
0.167788 0.526767 0.171900
0.171068 0.527630 0.172353
0.205751 0.532450 0.176812
0.238579 0.537019 0.181022
0.270701 0.541481 0.185131
0.302394 0.545874 0.189175
0.333792 0.550213 0.193171
0.364968 0.554510 0.197130
0.395972 0.558769 0.201057
0.426837 0.562997 0.204958
0.457587 0.567197 0.208836
0.488240 0.571370 0.212694
0.518811 0.575520 0.216533
0.549309 0.579647 0.220356
0.579743 0.583754 0.224163
0.610121 0.587841 0.227956
0.640447 0.591909 0.231737
0.670726 0.595959 0.235505
0.700962 0.599993 0.239262
0.731157 0.604010 0.243008
0.761315 0.608011 0.246743
0.791436 0.611997 0.250469
0.821523 0.615969 0.254186
0.850612 0.619906 0.257873
0.851426 0.620217 0.257931
0.852217 0.620520 0.257986
0.852984 0.620813 0.258040
0.853730 0.621098 0.258092
0.179294 0.564060 0.184231
0.179655 0.564605 0.184315
0.180010 0.565139 0.184397
0.180358 0.565660 0.184477
0.180699 0.566170 0.184556
0.181033 0.566667 0.184632
0.184329 0.567528 0.185084
0.219202 0.572355 0.189548
0.252202 0.576929 0.193762
0.284481 0.581396 0.197875
0.316322 0.585792 0.201922
0.347857 0.590135 0.205921
0.379163 0.594433 0.209882
0.410287 0.598694 0.213812
0.441265 0.602922 0.217715
0.472120 0.607121 0.221594
0.502871 0.611294 0.225453
0.533533 0.615441 0.229293
0.564115 0.619567 0.233117
0.594627 0.623670 0.236925
0.625077 0.627754 0.240719
0.655468 0.631818 0.244499
0.685807 0.635864 0.248268
0.716098 0.639892 0.252024
0.746342 0.643903 0.255769
0.776543 0.647899 0.259504
0.806703 0.651878 0.263229
0.836649 0.655842 0.266944
0.865203 0.659772 0.270630
0.865939 0.660070 0.270684
0.866652 0.660360 0.270736
0.867344 0.660640 0.270786
0.868014 0.660911 0.270834
0.192569 0.603951 0.196938
0.192929 0.604489 0.197021
0.193281 0.605015 0.197102
0.193627 0.605529 0.197181
0.193966 0.606031 0.197257
0.194298 0.606520 0.197332
0.197606 0.607373 0.197783
0.232653 0.612203 0.202250
0.265808 0.616778 0.206468
0.298231 0.621246 0.210583
0.330205 0.625642 0.214632
0.361865 0.629982 0.218633
0.393286 0.634279 0.222596
0.424518 0.638537 0.226527
0.455597 0.642762 0.230431
0.486546 0.646957 0.234311
0.517384 0.651125 0.238171
0.548125 0.655267 0.242011
0.578782 0.659386 0.245835
0.609362 0.663484 0.249643
0.639873 0.667560 0.253436
0.670322 0.671617 0.257216
0.700712 0.675656 0.260984
0.731048 0.679676 0.264739
0.761334 0.683679 0.268483
0.791571 0.687665 0.272217
0.821763 0.691636 0.275940
0.851022 0.695590 0.279654
0.879486 0.699510 0.283338
0.880146 0.699793 0.283387
0.880784 0.700068 0.283435
0.881402 0.700333 0.283481
0.882000 0.700590 0.283525
0.205866 0.643799 0.209617
0.206221 0.644327 0.209697
0.206569 0.644842 0.209776
0.206910 0.645345 0.209853
0.207245 0.645835 0.209927
0.207572 0.646313 0.209999
0.210890 0.647155 0.210448
0.246095 0.651984 0.214919
0.279391 0.656556 0.219138
0.311943 0.661020 0.223255
0.344037 0.665412 0.227306
0.375809 0.669748 0.231308
0.407334 0.674038 0.235272
0.438663 0.678290 0.239203
0.469830 0.682508 0.243107
0.500862 0.686696 0.246988
0.531776 0.690856 0.250847
0.562588 0.694990 0.254687
0.593309 0.699101 0.258510
0.623948 0.703189 0.262317
0.654513 0.707256 0.266109
0.685010 0.711303 0.269888
0.715444 0.715331 0.273654
0.745818 0.719340 0.277408
0.776138 0.723333 0.281150
0.806405 0.727308 0.284882
0.836479 0.731267 0.288603
0.865101 0.735210 0.292315
0.893466 0.739117 0.295997
0.894053 0.739384 0.296042
0.894619 0.739642 0.296085
0.895166 0.739892 0.296127
0.895694 0.740132 0.296166
0.219172 0.683592 0.222265
0.219521 0.684106 0.222343
0.219864 0.684607 0.222419
0.220199 0.685095 0.222493
0.220527 0.685571 0.222564
0.220848 0.686035 0.222634
0.224173 0.686863 0.223081
0.259521 0.691687 0.227553
0.292943 0.696253 0.231773
0.325612 0.700710 0.235891
0.357814 0.705093 0.239943
0.389685 0.709421 0.243945
0.421302 0.713703 0.247909
0.452717 0.717945 0.251840
0.483963 0.722154 0.255744
0.515068 0.726331 0.259623
0.546049 0.730480 0.263482
0.576922 0.734604 0.267321
0.607699 0.738703 0.271143
0.638389 0.742779 0.274948
0.668999 0.746834 0.278739
0.699537 0.750869 0.282516
0.730007 0.754885 0.286280
0.760413 0.758882 0.290032
0.790761 0.762861 0.293772
0.821052 0.766823 0.297501
0.850374 0.770769 0.301220
0.878894 0.774698 0.304929
0.907151 0.778592 0.308609
0.907666 0.778842 0.308649
0.908163 0.779083 0.308688
0.908641 0.779315 0.308725
0.909102 0.779539 0.308761
0.232480 0.723317 0.234882
0.232821 0.723814 0.234957
0.233156 0.724298 0.235030
0.233483 0.724770 0.235100
0.233803 0.725229 0.235169
0.234116 0.725675 0.235235
0.237446 0.726487 0.235679
0.272922 0.731302 0.240152
0.306458 0.735859 0.244373
0.339232 0.740305 0.248491
0.371530 0.744678 0.252543
0.403489 0.748995 0.256545
0.435189 0.753265 0.260507
0.466679 0.757496 0.264438
0.497995 0.761692 0.268340
0.529163 0.765856 0.272219
0.560202 0.769993 0.276076
0.591128 0.774103 0.279913
0.621952 0.778188 0.283733
0.652685 0.782251 0.287537
0.683334 0.786292 0.291326
0.713906 0.790313 0.295100
0.744406 0.794314 0.298862
0.774839 0.798297 0.302611
0.805208 0.802261 0.306349
0.835470 0.806209 0.310076
0.863995 0.810140 0.313792
0.892405 0.814055 0.317498
0.920546 0.817934 0.321174
0.920993 0.818165 0.321211
0.921423 0.818388 0.321245
0.921836 0.818603 0.321278
0.922232 0.818809 0.321309
0.245780 0.762963 0.247467
0.246112 0.763441 0.247538
0.246437 0.763905 0.247608
0.246755 0.764357 0.247675
0.247067 0.764797 0.247740
0.247371 0.765224 0.247803
0.250702 0.766018 0.248244
0.286294 0.770821 0.252716
0.319932 0.775366 0.256937
0.352798 0.779799 0.261055
0.385182 0.784159 0.265105
0.417220 0.788462 0.269106
0.448991 0.792718 0.273068
0.480547 0.796934 0.276997
0.511924 0.801116 0.280898
0.543147 0.805266 0.284774
0.574236 0.809387 0.288629
0.605207 0.813482 0.292465
0.636073 0.817552 0.296282
0.666842 0.821600 0.300084
0.697523 0.825625 0.303870
0.728123 0.829630 0.307642
0.758648 0.833616 0.311401
0.789101 0.837583 0.315148
0.819489 0.841531 0.318882
0.848938 0.845463 0.322606
0.877349 0.849378 0.326319
0.905640 0.853278 0.330022
0.933659 0.857141 0.333695
0.934041 0.857354 0.333727
0.934407 0.857559 0.333757
0.934757 0.857756 0.333785
0.935092 0.857945 0.333812
0.259065 0.802520 0.260019
0.259387 0.802976 0.260087
0.259702 0.803419 0.260152
0.260009 0.803850 0.260216
0.260310 0.804268 0.260277
0.260604 0.804674 0.260336
0.263935 0.805447 0.260773
0.299631 0.810236 0.265245
0.333360 0.814766 0.269465
0.366308 0.819185 0.273582
0.398767 0.823529 0.277631
0.430874 0.827816 0.281630
0.462708 0.832056 0.285590
0.494322 0.836257 0.289517
0.525751 0.840422 0.293415
0.557021 0.844555 0.297290
0.588154 0.848660 0.301142
0.619164 0.852738 0.304975
0.650063 0.856792 0.308791
