library/cube/Dark_Feed_001.cube
# CINEGRADE LAB — Premium Cinematic LUT
# Title: Dark Feed
# Category: Dark Instagram Mood
# Description: Desaturated, crushed blacks, cool tones for social media aesthetics
# Mood: Moody, cool, modern
# Variant: 2
# Generated: 2026-05-21T16:12:36.004221
TITLE "Dark Feed"
LUT_3D_SIZE 33
0.032500 0.032500 0.042500
0.032500 0.032500 0.042500
0.032500 0.032500 0.042500
0.032500 0.032500 0.042500
0.032500 0.032500 0.042500
0.054102 0.032500 0.042500
0.080717 0.032500 0.042500
0.107353 0.032500 0.042500
0.134009 0.032500 0.042500
0.160685 0.032500 0.042500
0.187382 0.032500 0.042500
0.214098 0.032500 0.042500
0.240834 0.032500 0.042500
0.267589 0.032500 0.042500
0.294364 0.032500 0.042500
0.321157 0.032500 0.042500
0.347970 0.032500 0.042500
0.374801 0.034582 0.042500
0.401650 0.037051 0.042500
0.428517 0.039521 0.042500
0.455402 0.041991 0.042565
0.482305 0.044463 0.045060
0.509225 0.046934 0.047556
0.536163 0.049407 0.050051
0.563117 0.051880 0.052545
0.590089 0.054353 0.055040
0.617077 0.056828 0.057534
0.644081 0.059303 0.060027
0.671101 0.061778 0.062521
0.698138 0.064254 0.065014
0.725190 0.066731 0.067507
0.733883 0.067517 0.068289
0.734119 0.067526 0.068285
0.032500 0.032500 0.042500
0.032500 0.032500 0.042500
0.032500 0.032500 0.042500
0.032500 0.032500 0.042500
0.032500 0.032500 0.042500
0.054173 0.032500 0.042500
0.080823 0.032500 0.042500
0.107492 0.032500 0.042500
0.134182 0.032500 0.042500
0.160891 0.032500 0.042500
0.187620 0.032500 0.042500
0.214368 0.032500 0.042500
0.241135 0.032500 0.042500
0.267921 0.032500 0.042500
0.294726 0.032500 0.042500
0.321550 0.032500 0.042500
0.348392 0.032500 0.042500
0.375251 0.034598 0.042500
0.402129 0.037068 0.042500
0.429024 0.039539 0.042500
0.455937 0.042011 0.042555
0.482867 0.044483 0.045050
0.509813 0.046956 0.047545
0.536777 0.049429 0.050039
0.563757 0.051903 0.052534
0.590754 0.054378 0.055027
0.617766 0.056853 0.057521
0.644794 0.059329 0.060014
0.671838 0.061805 0.062507
0.698898 0.064282 0.065000
0.725973 0.066759 0.067492
0.734668 0.067546 0.068275
0.734897 0.067554 0.068271
0.032500 0.032500 0.042500
0.032500 0.032500 0.042500
0.032500 0.032500 0.042500
0.032500 0.032500 0.042500
0.032500 0.032500 0.042500
0.054243 0.032500 0.042500
0.080926 0.032500 0.042500
0.107628 0.032500 0.042500
0.134350 0.032500 0.042500
0.161092 0.032500 0.042500
0.187852 0.032500 0.042500
0.214631 0.032500 0.042500
0.241429 0.032500 0.042500
0.268245 0.032500 0.042500
0.295080 0.032500 0.042500
0.321932 0.032500 0.042500
0.348803 0.032500 0.042500
0.375691 0.034614 0.042500
0.402596 0.037085 0.042500
0.429518 0.039557 0.042500
0.456458 0.042030 0.042546
0.483414 0.044503 0.045040
0.510386 0.046977 0.047535
0.537375 0.049451 0.050029
0.564380 0.051926 0.052522
0.591400 0.054401 0.055016
0.618437 0.056877 0.057509
0.645488 0.059354 0.060002
0.672555 0.061831 0.062494
0.699637 0.064309 0.064987
0.726733 0.066787 0.067479
0.735431 0.067574 0.068261
0.735653 0.067582 0.068257
0.032500 0.032500 0.042500
0.032500 0.032500 0.042500
0.032500 0.032500 0.042500
0.032500 0.032500 0.042500
0.032500 0.032500 0.042500
0.054599 0.032500 0.042500
0.081314 0.032500 0.042500
0.108049 0.032500 0.042500
0.134803 0.032500 0.042500
0.161575 0.032500 0.042500
0.188366 0.032500 0.042500
0.215176 0.032500 0.042500
0.242004 0.032500 0.042500
0.268849 0.032500 0.042500
0.295713 0.032500 0.042500
0.322594 0.032500 0.042500
0.349492 0.033319 0.042500
0.376407 0.035790 0.042500
0.403339 0.038263 0.042500
0.430288 0.040736 0.042500
0.457254 0.043209 0.042832
0.484235 0.045684 0.045326
0.511232 0.048158 0.047820
0.538246 0.050634 0.050314
0.565274 0.053110 0.052807
0.592319 0.055586 0.055300
0.619378 0.058063 0.057793
0.646452 0.060540 0.060285
0.673541 0.063019 0.062777
0.700644 0.065497 0.065269
0.727762 0.067976 0.067761
0.736461 0.068763 0.068543
0.736677 0.068771 0.068539
0.032500 0.034058 0.042500
0.032500 0.034063 0.042500
0.032500 0.034068 0.042500
0.032500 0.034160 0.042500
0.036109 0.036629 0.042500
0.062840 0.039098 0.042500
0.089590 0.041569 0.042500
0.116359 0.044040 0.042500
0.143147 0.046511 0.042500
0.169952 0.048983 0.042500
0.196776 0.051456 0.042500
0.223618 0.053930 0.042500
0.250478 0.056404 0.042500
0.277355 0.058878 0.042500
0.304249 0.061354 0.042500
0.331160 0.063829 0.042500
0.358088 0.066306 0.042500
0.385032 0.068783 0.043740
0.411993 0.071260 0.046234
0.438970 0.073738 0.048728
0.465963 0.076217 0.051221
0.492971 0.078696 0.053715
0.519995 0.081176 0.056207
0.547035 0.083656 0.058700
0.574089 0.086137 0.061192
0.601158 0.088618 0.063684
0.628242 0.091100 0.066176
0.655340 0.093582 0.068668
0.682453 0.096065 0.071159
0.709579 0.098548 0.073650
0.736719 0.101031 0.076141
0.745423 0.101822 0.076923
0.745635 0.101834 0.076919
0.032500 0.066991 0.042500
0.032500 0.067000 0.042500
0.032500 0.067010 0.042500
0.032500 0.067106 0.042500
0.044333 0.069580 0.042500
0.071099 0.072056 0.042500
0.097883 0.074531 0.042500
0.124685 0.077008 0.042500
0.151506 0.079485 0.042500
0.178344 0.081962 0.042500
0.205199 0.084440 0.042500
0.232072 0.086919 0.042500
0.258963 0.089398 0.042500
0.285870 0.091878 0.042500
0.312793 0.094359 0.044648
0.339734 0.096839 0.047142
0.366690 0.099321 0.049636
0.393663 0.101803 0.052129
0.420652 0.104285 0.054622
0.447656 0.106768 0.057115
0.474675 0.109251 0.059607
0.501710 0.111735 0.062100
0.528760 0.114220 0.064592
0.555824 0.116704 0.067083
0.582903 0.119190 0.069575
0.609996 0.121675 0.072066
0.637104 0.124162 0.074557
0.664225 0.126648 0.077048
0.691360 0.129135 0.079538
0.718509 0.131623 0.082028
0.745670 0.134111 0.084518
0.754378 0.134905 0.085300
0.754585 0.134920 0.085295
0.032500 0.099954 0.042500
0.032500 0.099968 0.042500
0.032500 0.099981 0.042500
0.032500 0.100082 0.042500
0.052576 0.102562 0.042500
0.079375 0.105042 0.042500
0.106192 0.107523 0.042500
0.133026 0.110005 0.042500
0.159879 0.112487 0.042500
0.186748 0.114970 0.042500
0.213634 0.117453 0.043062
0.240538 0.119937 0.045556
0.267458 0.122421 0.048050
0.294394 0.124905 0.050544
0.321347 0.127391 0.053037
0.348315 0.129876 0.055530
0.375299 0.132362 0.058022
0.402299 0.134849 0.060515
0.429315 0.137336 0.063007
0.456345 0.139823 0.065499
0.483390 0.142311 0.067990
0.510450 0.144800 0.070482
0.537524 0.147288 0.072973
0.564613 0.149778 0.075464
0.591716 0.152267 0.077954
0.618832 0.154757 0.080445
0.645962 0.157248 0.082935
0.673106 0.159738 0.085425
0.700262 0.162229 0.087914
0.727432 0.164721 0.090404
0.754614 0.167213 0.092893
0.763325 0.168010 0.093674
0.763527 0.168028 0.093669
0.033045 0.132947 0.042500
0.033057 0.132964 0.042500
0.033068 0.132982 0.042500
0.034022 0.133087 0.042500
0.060836 0.135572 0.042500
0.087667 0.138057 0.042500
0.114516 0.140544 0.042500
0.141382 0.143030 0.043970
0.168265 0.145517 0.046464
0.195165 0.148005 0.048958
0.222081 0.150492 0.051451
0.249013 0.152981 0.053944
0.275962 0.155470 0.056437
0.302927 0.157959 0.058930
0.329907 0.160449 0.061422
0.356903 0.162939 0.063914
0.383914 0.165429 0.066406
0.410940 0.167920 0.068897
0.437981 0.170412 0.071389
0.465037 0.172904 0.073880
0.492107 0.175396 0.076370
0.519191 0.177888 0.078861
0.546289 0.180381 0.081351
0.573401 0.182874 0.083841
0.600526 0.185368 0.086331
0.627665 0.187862 0.088821
0.654816 0.190356 0.091310
0.681981 0.192851 0.093799
0.709158 0.195346 0.096288
0.736348 0.197841 0.098777
0.763550 0.200337 0.101266
0.772263 0.201138 0.102046
0.772461 0.201158 0.102041
0.041281 0.165968 0.042500
0.041295 0.165990 0.042500
0.041309 0.166011 0.042500
0.042267 0.166120 0.042500
0.069112 0.168610 0.044878
0.095975 0.171100 0.047372
0.122855 0.173591 0.049866
0.149751 0.176082 0.052359
0.176664 0.178573 0.054852
0.203593 0.181065 0.057345
0.230538 0.183558 0.059837
0.257499 0.186051 0.062329
0.284476 0.188544 0.064821
0.311468 0.191038 0.067313
0.338475 0.193532 0.069804
0.365497 0.196026 0.072296
0.392534 0.198521 0.074787
0.419585 0.201016 0.077277
0.446651 0.203511 0.079768
0.473731 0.206007 0.082258
0.500824 0.208503 0.084748
0.527932 0.211000 0.087238
0.555053 0.213497 0.089727
0.582187 0.215994 0.092216
0.609334 0.218491 0.094705
0.636494 0.220989 0.097194
0.663666 0.223487 0.099683
0.690851 0.225985 0.102171
0.718048 0.228483 0.104660
0.745256 0.230982 0.107148
0.772477 0.233481 0.109636
0.781193 0.234285 0.110416
0.781386 0.234308 0.110411
0.049535 0.199016 0.050695
0.049551 0.199042 0.050692
0.049567 0.199067 0.050689
0.050528 0.199179 0.050773
0.077405 0.201673 0.053267
0.104298 0.204168 0.055760
0.131207 0.206663 0.058252
0.158133 0.209159 0.060745
0.185075 0.211655 0.063237
0.212032 0.214151 0.065729
0.239005 0.216648 0.068220
0.265993 0.219145 0.070711
0.292997 0.221643 0.073203
0.320015 0.224140 0.075693
0.347048 0.226638 0.078184
0.374096 0.229137 0.080674
0.401157 0.231635 0.083164
0.428233 0.234134 0.085654
0.455323 0.236634 0.088144
0.482426 0.239133 0.090633
0.509542 0.241633 0.093123
0.536672 0.244133 0.095612
0.563814 0.246634 0.098100
0.590970 0.249134 0.100589
0.618138 0.251635 0.103077
0.645318 0.254136 0.105566
0.672510 0.256637 0.108054
0.699714 0.259139 0.110541
0.726929 0.261641 0.113029
0.754156 0.264143 0.115516
0.781395 0.266645 0.118004
0.790113 0.267451 0.118784
0.790300 0.267476 0.118778
0.057805 0.232091 0.059083
0.057823 0.232120 0.059079
0.057841 0.232148 0.059075
0.058805 0.232264 0.059160
0.085712 0.234762 0.061652
0.112634 0.237262 0.064144
0.139573 0.239761 0.066636
0.166527 0.242261 0.069127
0.193496 0.244761 0.071618
0.220481 0.247261 0.074109
0.247481 0.249762 0.076600
0.274496 0.252263 0.079091
0.301525 0.254764 0.081581
0.328569 0.257266 0.084071
0.355627 0.259767 0.086561
0.382699 0.262269 0.089050
0.409784 0.264772 0.091540
0.436883 0.267274 0.094029
0.463996 0.269777 0.096518
0.491121 0.272280 0.099006
0.518260 0.274783 0.101495
0.545410 0.277287 0.103983
0.572574 0.279791 0.106471
0.599749 0.282295 0.108959
0.626937 0.284799 0.111447
0.654136 0.287303 0.113935
0.681347 0.289808 0.116422
0.708570 0.292312 0.118909
0.735803 0.294817 0.121396
0.763047 0.297322 0.123883
0.790302 0.299827 0.126370
0.799022 0.300636 0.127149
0.799204 0.300663 0.127144
0.066090 0.265191 0.067467
0.066110 0.265223 0.067463
0.066130 0.265254 0.067459
0.067098 0.265373 0.067543
0.094033 0.267875 0.070034
0.120984 0.270378 0.072525
0.147950 0.272882 0.075016
0.174932 0.275385 0.077507
0.201929 0.277889 0.079997
0.228940 0.280393 0.082487
0.255966 0.282898 0.084977
0.283006 0.285402 0.087467
0.310060 0.287907 0.089957
0.337128 0.290412 0.092446
0.364210 0.292918 0.094935
0.391305 0.295423 0.097424
0.418414 0.297929 0.099912
0.445535 0.300435 0.102401
0.472670 0.302941 0.104889
0.499816 0.305447 0.107377
0.526976 0.307954 0.109865
0.554147 0.310460 0.112353
0.581330 0.312967 0.114840
0.608525 0.315474 0.117327
0.635731 0.317981 0.119815
0.662949 0.320488 0.122301
0.690178 0.322996 0.124788
0.717417 0.325503 0.127275
0.744667 0.328011 0.129761
0.771928 0.330518 0.132248
0.799199 0.333026 0.134734
0.807919 0.333837 0.135513
0.808096 0.333866 0.135507
0.074391 0.298314 0.075848
0.074413 0.298349 0.075844
0.074434 0.298383 0.075839
0.075404 0.298504 0.075923
0.102368 0.301011 0.078414
0.129346 0.303518 0.080904
0.156340 0.306025 0.083394
0.183348 0.308532 0.085884
0.210371 0.311039 0.088373
0.237407 0.313547 0.090863
0.264458 0.316055 0.093352
0.291523 0.318563 0.095841
0.318601 0.321071 0.098330
0.345693 0.323579 0.100818
0.372797 0.326088 0.103307
0.399915 0.328597 0.105795
0.427045 0.331105 0.108283
0.454188 0.333614 0.110771
0.481343 0.336124 0.113258
0.508510 0.338633 0.115746
0.535690 0.341142 0.118233
0.562880 0.343652 0.120720
0.590082 0.346161 0.123207
0.617295 0.348671 0.125694
0.644520 0.351181 0.128180
0.671755 0.353691 0.130666
0.699000 0.356200 0.133153
0.726256 0.358710 0.135639
0.753522 0.361221 0.138125
0.780798 0.363731 0.140611
0.808083 0.366241 0.143096
0.816805 0.367053 0.143876
0.816976 0.367084 0.143870
0.082705 0.331459 0.084227
0.082729 0.331497 0.084222
0.082752 0.331534 0.084217
0.083725 0.331658 0.084300
0.110715 0.334168 0.086790
0.137720 0.336678 0.089280
0.164740 0.339189 0.091769
0.191774 0.341699 0.094258
0.218821 0.344210 0.096747
0.245882 0.346721 0.099236
0.272957 0.349232 0.101724
0.300045 0.351743 0.104213
0.327147 0.354254 0.106701
0.354261 0.356765 0.109189
0.381387 0.359277 0.111676
0.408526 0.361789 0.114164
0.435678 0.364300 0.116651
0.462841 0.366812 0.119138
0.490016 0.369324 0.121625
0.517203 0.371836 0.124112
0.544401 0.374348 0.126599
0.571610 0.376860 0.129085
0.598830 0.379372 0.131572
0.626060 0.381884 0.134058
0.653301 0.384397 0.136544
0.680553 0.386909 0.139030
0.707814 0.389421 0.141515
0.735085 0.391933 0.144001
0.762366 0.394446 0.146487
0.789656 0.396958 0.148972
0.816956 0.399470 0.151457
0.825678 0.400284 0.152236
0.825843 0.400316 0.152230
0.091033 0.364626 0.092602
0.091058 0.364666 0.092597
0.091083 0.364706 0.092592
0.092058 0.364832 0.092675
0.119075 0.367346 0.095164
0.146105 0.369859 0.097653
0.173150 0.372372 0.100142
0.200208 0.374886 0.102630
0.227280 0.377400 0.105118
0.254365 0.379913 0.107606
0.281463 0.382427 0.110094
0.308573 0.384941 0.112582
0.335696 0.387455 0.115069
0.362832 0.389970 0.117557
0.389980 0.392484 0.120044
0.417139 0.394998 0.122531
0.444311 0.397512 0.125017
0.471493 0.400027 0.127504
0.498687 0.402541 0.129991
0.525892 0.405055 0.132477
0.553108 0.407570 0.134963
0.580335 0.410084 0.137449
0.607572 0.412599 0.139935
0.634819 0.415113 0.142420
0.662076 0.417627 0.144906
0.689343 0.420142 0.147391
0.716619 0.422656 0.149877
0.743904 0.425170 0.152362
0.771199 0.427685 0.154847
0.798503 0.430199 0.157332
0.825815 0.432713 0.159817
0.834537 0.433528 0.160596
0.834697 0.433561 0.160590
0.099374 0.397814 0.100976
0.099400 0.397856 0.100970
0.099427 0.397897 0.100965
0.100404 0.398026 0.101048
0.127445 0.400542 0.103536
0.154501 0.403058 0.106024
0.181569 0.405575 0.108512
0.208651 0.408091 0.111000
0.235746 0.410608 0.113488
0.262853 0.413124 0.115975
0.289973 0.415641 0.118462
0.317106 0.418157 0.120949
0.344250 0.420674 0.123436
0.371406 0.423190 0.125923
0.398574 0.425707 0.128409
0.425753 0.428224 0.130896
0.452943 0.430740 0.133382
0.480144 0.433257 0.135868
0.507356 0.435773 0.138354
0.534579 0.438290 0.140840
0.561812 0.440806 0.143325
0.589055 0.443323 0.145811
0.616308 0.445839 0.148296
0.643570 0.448356 0.150781
0.670842 0.450872 0.153267
0.698123 0.453388 0.155752
0.725413 0.455904 0.158236
0.752712 0.458420 0.160721
0.780020 0.460936 0.163206
0.807336 0.463452 0.165691
0.834660 0.465968 0.168175
0.843381 0.466784 0.168954
0.843535 0.466818 0.168948
0.107726 0.431019 0.109347
0.107754 0.431064 0.109341
0.107781 0.431107 0.109336
0.108761 0.431238 0.109418
0.135826 0.433757 0.111906
0.162905 0.436275 0.114393
0.189997 0.438794 0.116880
0.217102 0.441313 0.119368
0.244219 0.443832 0.121855
0.271348 0.446351 0.124341
0.298489 0.448870 0.126828
0.325641 0.451389 0.129315
0.352806 0.453908 0.131801
0.379982 0.456427 0.134287
0.407168 0.458945 0.136773
0.434366 0.461464 0.139259
0.461574 0.463983 0.141745
0.488793 0.466501 0.144230
0.516022 0.469020 0.146716
0.543261 0.471538 0.149201
0.570510 0.474057 0.151686
0.597768 0.476575 0.154171
0.625036 0.479093 0.156656
0.652313 0.481611 0.159141
0.679599 0.484129 0.161626
0.706894 0.486647 0.164110
0.734197 0.489165 0.166595
0.761508 0.491682 0.169079
0.788828 0.494199 0.171564
0.816155 0.496717 0.174048
0.843490 0.499234 0.176532
0.852211 0.500051 0.177311
0.852359 0.500086 0.177305
0.116090 0.464243 0.117715
0.116119 0.464289 0.117710
0.116147 0.464334 0.117704
0.117128 0.464467 0.117786
0.144217 0.466988 0.120273
0.171319 0.469509 0.122760
0.198433 0.472030 0.125247
0.225559 0.474552 0.127733
0.252697 0.477073 0.130220
0.279847 0.479594 0.132706
0.307008 0.482115 0.135192
0.334180 0.484636 0.137678
0.361364 0.487157 0.140164
0.388558 0.489677 0.142650
0.415763 0.492198 0.145135
0.442978 0.494719 0.147621
0.470204 0.497239 0.150106
0.497439 0.499759 0.152591
0.524684 0.502280 0.155076
0.551939 0.504800 0.157561
0.579203 0.507320 0.160046
0.606476 0.509839 0.162530
0.633757 0.512359 0.165015
0.661048 0.514878 0.167500
0.688347 0.517398 0.169984
0.715654 0.519917 0.172468
0.742969 0.522436 0.174952
0.770292 0.524954 0.177437
0.797622 0.527473 0.179921
0.824960 0.529991 0.182405
0.852305 0.532509 0.184889
0.861024 0.533327 0.185667
0.861166 0.533362 0.185661
0.124464 0.497483 0.126082
0.124494 0.497531 0.126076
0.124523 0.497578 0.126070
0.125506 0.497711 0.126152
0.152617 0.500235 0.128639
0.179740 0.502758 0.131125
0.206876 0.505281 0.133611
0.234022 0.507804 0.136097
0.261181 0.510328 0.138583
0.288350 0.512850 0.141069
0.315530 0.515373 0.143554
0.342721 0.517896 0.146040
0.369923 0.520419 0.148525
0.397135 0.522941 0.151011
0.424357 0.525463 0.153496
0.451589 0.527986 0.155981
0.478830 0.530508 0.158466
0.506081 0.533029 0.160950
0.533341 0.535551 0.163435
0.560611 0.538072 0.165920
0.587889 0.540594 0.168404
0.615175 0.543115 0.170888
0.642470 0.545636 0.173373
0.669773 0.548156 0.175857
0.697084 0.550677 0.178341
0.724403 0.553197 0.180825
0.751729 0.555717 0.183309
0.779062 0.558236 0.185793
0.806402 0.560756 0.188277
0.833750 0.563275 0.190760
0.861104 0.565794 0.193244
0.869821 0.566612 0.194023
0.869956 0.566647 0.194017
0.132848 0.530739 0.134447
0.132878 0.530788 0.134440
0.132908 0.530836 0.134434
0.133892 0.530970 0.134516
0.161025 0.533496 0.137002
0.188169 0.536021 0.139488
0.215325 0.538546 0.141974
0.242491 0.541071 0.144459
0.269668 0.543596 0.146945
0.296857 0.546120 0.149430
0.324055 0.548645 0.151915
0.351264 0.551169 0.154400
0.378483 0.553693 0.156885
0.405711 0.556217 0.159370
0.432949 0.558741 0.161855
0.460197 0.561264 0.164340
0.487453 0.563787 0.166824
0.514719 0.566310 0.169309
0.541993 0.568833 0.171793
0.569276 0.571356 0.174277
0.596567 0.573878 0.176761
0.623866 0.576400 0.179245
0.651173 0.578922 0.181729
0.678488 0.581443 0.184213
0.705810 0.583964 0.186697
0.733139 0.586485 0.189181
0.760475 0.589006 0.191665
0.787818 0.591526 0.194148
0.815168 0.594046 0.196632
0.842523 0.596566 0.199115
0.869885 0.599085 0.201599
0.878601 0.599904 0.202378
0.878729 0.599939 0.202372
0.141240 0.564009 0.142809
0.141271 0.564058 0.142803
0.141302 0.564107 0.142797
0.142288 0.564243 0.142879
0.169440 0.566770 0.145364
0.196604 0.569297 0.147850
0.223779 0.571823 0.150335
0.250964 0.574350 0.152820
0.278160 0.576876 0.155305
0.305366 0.579402 0.157790
0.332581 0.581928 0.160275
0.359807 0.584453 0.162760
0.387042 0.586978 0.165244
0.414286 0.589503 0.167729
0.441540 0.592028 0.170213
0.468802 0.594553 0.172697
0.496073 0.597077 0.175181
0.523352 0.599601 0.177666
0.550639 0.602124 0.180150
0.577935 0.604648 0.182634
0.605238 0.607171 0.185118
0.632549 0.609694 0.187601
0.659867 0.612216 0.190085
0.687192 0.614738 0.192569
0.714524 0.617260 0.195052
0.741863 0.619781 0.197536
0.769208 0.622303 0.200020
0.796559 0.624823 0.202503
0.823917 0.627344 0.204987
0.851280 0.629864 0.207470
0.878649 0.632383 0.209953
0.887362 0.633201 0.210732
0.887484 0.633236 0.210726
0.149641 0.597291 0.151171
0.149673 0.597342 0.151164
0.149704 0.597391 0.151158
0.150690 0.597528 0.151240
0.177863 0.600056 0.153725
0.205045 0.602584 0.156210
0.232238 0.605112 0.158695
0.259441 0.607640 0.161179
0.286654 0.610167 0.163664
0.313877 0.612694 0.166149
0.341109 0.615221 0.168633
0.368350 0.617747 0.171117
0.395600 0.620273 0.173602
0.422859 0.622799 0.176086
0.450127 0.625325 0.178570
0.477403 0.627850 0.181054
0.504687 0.630375 0.183538
0.531979 0.632900 0.186022
0.559278 0.635424 0.188506
0.586585 0.637948 0.190989
0.613900 0.640472 0.193473
0.641221 0.642995 0.195957
0.668549 0.645518 0.198440
0.695884 0.648040 0.200924
0.723225 0.650562 0.203407
0.750573 0.653084 0.205891
0.777926 0.655605 0.208374
0.805285 0.658126 0.210857
0.832650 0.660646 0.213341
0.860019 0.663166 0.215824
0.887394 0.665686 0.218307
0.896105 0.666504 0.219086
0.896220 0.666538 0.219081
0.158049 0.630585 0.159531
0.158081 0.630636 0.159524
0.158113 0.630687 0.159518
0.159100 0.630824 0.159599
0.186291 0.633353 0.162084
0.213491 0.635882 0.164569
0.240701 0.638411 0.167053
0.267921 0.640939 0.169538
0.295151 0.643468 0.172022
0.322389 0.645996 0.174506
0.349636 0.648523 0.176990
0.376892 0.651050 0.179474
0.404157 0.653577 0.181958
0.431429 0.656104 0.184442
0.458710 0.658630 0.186926
0.485999 0.661156 0.189410
0.513295 0.663681 0.191894
0.540599 0.666206 0.194377
0.567910 0.668731 0.196861
0.595227 0.671255 0.199344
0.622552 0.673779 0.201828
0.649883 0.676302 0.204311
0.677220 0.678825 0.206795
0.704564 0.681348 0.209278
0.731913 0.683870 0.211762
0.759268 0.686392 0.214245
0.786629 0.688913 0.216728
0.813994 0.691433 0.219211
0.841365 0.693954 0.221695
0.868740 0.696474 0.224178
0.896121 0.698993 0.226661
0.904827 0.699810 0.227440
0.904936 0.699844 0.227435
0.166464 0.663890 0.167889
0.166496 0.663942 0.167883
0.166528 0.663992 0.167876
0.167516 0.664129 0.167958
0.194724 0.666660 0.170442
0.221941 0.669189 0.172926
0.249168 0.671719 0.175410
0.276404 0.674248 0.177895
0.303648 0.676777 0.180379
0.330901 0.679305 0.182863
0.358163 0.681833 0.185347
0.385433 0.684361 0.187830
0.412711 0.686888 0.190314
0.439996 0.689415 0.192798
0.467289 0.691942 0.195281
0.494590 0.694468 0.197765
0.521897 0.696993 0.200249
0.549211 0.699519 0.202732
0.576532 0.702043 0.205215
0.603860 0.704568 0.207699
0.631194 0.707091 0.210182
0.658534 0.709615 0.212666
0.685879 0.712138 0.215149
0.713230 0.714660 0.217632
0.740587 0.717182 0.220116
0.767949 0.719703 0.222599
0.795315 0.722224 0.225082
0.822686 0.724744 0.227565
0.850062 0.727264 0.230049
0.877442 0.729783 0.232532
0.904827 0.732302 0.235015
0.913530 0.733119 0.235794
0.913631 0.733151 0.235789
0.174884 0.697204 0.176246
0.174917 0.697256 0.176240
0.174948 0.697306 0.176233
0.175937 0.697444 0.176315
0.203162 0.699974 0.178799
0.230395 0.702505 0.181283
0.257637 0.705035 0.183767
0.284887 0.707564 0.186251
0.312146 0.710094 0.188735
0.339413 0.712622 0.191218
0.366688 0.715151 0.193702
0.393971 0.717678 0.196186
0.421261 0.720206 0.198669
0.448558 0.722733 0.201153
0.475863 0.725259 0.203636
0.503174 0.727785 0.206120
0.530492 0.730311 0.208603
0.557816 0.732836 0.211086
0.585146 0.735360 0.213570
0.612483 0.737884 0.216053
0.639825 0.740408 0.218536
0.667172 0.742931 0.221020
0.694525 0.745453 0.223503
0.721883 0.747975 0.225986
0.749246 0.750497 0.228469
0.776613 0.753017 0.230953
0.803985 0.755538 0.233436
0.831361 0.758057 0.235919
0.858741 0.760577 0.238403
0.886125 0.763095 0.240886
0.913512 0.765613 0.243369
0.922211 0.766428 0.244149
0.922305 0.766459 0.244144
0.183310 0.730527 0.184603
0.183342 0.730578 0.184596
0.183374 0.730628 0.184590
0.184363 0.730765 0.184671
0.211603 0.733296 0.187155
0.238851 0.735827 0.189639
0.266108 0.738357 0.192123
0.293372 0.740887 0.194606
0.320644 0.743416 0.197090
0.347924 0.745945 0.199573
0.375212 0.748473 0.202057
0.402506 0.751001 0.204540
0.429808 0.753528 0.207024
0.457116 0.756055 0.209507
0.484431 0.758581 0.211990
0.511752 0.761107 0.214474
0.539079 0.763632 0.216957
0.566412 0.766157 0.219440
0.593750 0.768681 0.221924
0.621094 0.771204 0.224407
0.648444 0.773727 0.226890
0.675798 0.776250 0.229374
0.703157 0.778772 0.231857
0.730521 0.781293 0.234340
0.757889 0.783813 0.236823
0.785261 0.786333 0.239307
0.812637 0.788853 0.241790
0.840017 0.791372 0.244273
0.867400 0.793890 0.246757
0.894786 0.796407 0.249240
0.922176 0.798924 0.251723
0.930870 0.799738 0.252503
0.930957 0.799768 0.252498
0.191740 0.763856 0.192958
0.191772 0.763907 0.192952
0.191804 0.763957 0.192945
0.192793 0.764093 0.193027
0.220047 0.766624 0.195510
0.247309 0.769155 0.197994
0.274579 0.771685 0.200477
0.301857 0.774215 0.202961
0.329141 0.776744 0.205444
0.356433 0.779272 0.207928
0.383732 0.781800 0.210411
0.411037 0.784328 0.212895
0.438349 0.786855 0.215378
0.465667 0.789381 0.217861
0.492991 0.791907 0.220345
0.520321 0.794432 0.222828
0.547657 0.796956 0.225311
0.574998 0.799480 0.227794
0.602344 0.802004 0.230278
0.629695 0.804527 0.232761
