library/cube/Dark_Feed_001.cube
# CINEGRADE LAB — Premium Cinematic LUT
# Title: Dark Feed
# Category: Dark Instagram Mood
# Description: Desaturated, crushed blacks, cool tones for social media aesthetics
# Mood: Moody, cool, modern
# Variant: 2
# Generated: 2026-05-21T16:12:36.004221
TITLE "Dark Feed"
LUT_3D_SIZE 5
0.032500 0.032500 0.042500
0.134009 0.032500 0.042500
0.347970 0.032500 0.042500
0.563117 0.051880 0.052545
0.734119 0.067526 0.068285
0.041281 0.165968 0.042500
0.176664 0.178573 0.054852
0.392534 0.198521 0.074787
0.609334 0.218491 0.094705
0.781386 0.234308 0.110411
0.107726 0.431019 0.109347
0.244219 0.443832 0.121855
0.461574 0.463983 0.141745
0.679599 0.484129 0.161626
0.852359 0.500086 0.177305
0.174884 0.697204 0.176246
0.312146 0.710094 0.188735
0.530492 0.730311 0.208603
0.749246 0.750497 0.228469
0.922305 0.766459 0.244144
0.228307 0.907979 0.228975
0.365987 0.920795 0.241466
0.584817 0.940928 0.261338
0.803796 0.961006 0.281214
0.976743 0.976835 0.296905
0.032500 0.032500 0.130190
0.138292 0.032500 0.142701
0.352467 0.036340 0.162610
0.567802 0.056118 0.182503
0.738927 0.071772 0.198175
0.045490 0.170247 0.172239
0.180993 0.182857 0.184721
0.397030 0.202811 0.204594
0.613971 0.222785 0.224455
0.786108 0.238605 0.240109
0.112005 0.435372 0.239076
0.248585 0.448181 0.251534
0.466059 0.468329 0.271378
0.684176 0.488471 0.291219
0.856981 0.504422 0.306862
0.179199 0.701585 0.305825
0.316517 0.714463 0.318279
0.534931 0.734669 0.338118
0.753729 0.754842 0.357960
0.926793 0.770790 0.373614
0.232620 0.912338 0.358458
0.370323 0.925135 0.370932
0.589174 0.945249 0.390790
0.808150 0.965307 0.410657
0.981063 0.981115 0.426345
0.032500 0.032500 0.336967
0.145023 0.032500 0.349354
0.359414 0.043052 0.369145
0.574940 0.062843 0.388927
0.746190 0.078508 0.404497
0.052162 0.177014 0.378628
0.187790 0.189631 0.391011
0.403995 0.209592 0.410790
0.621077 0.229573 0.430566
0.793300 0.245396 0.446141
0.118764 0.442217 0.445156
0.255434 0.455024 0.457539
0.473025 0.475170 0.477315
0.691234 0.495310 0.497094
0.864083 0.511255 0.512684
0.186005 0.708462 0.511679
0.323378 0.721328 0.524084
0.541860 0.741524 0.543879
0.760699 0.761685 0.563685
0.933767 0.777619 0.579311
0.239430 0.919193 0.564173
0.377155 0.931972 0.576620
0.596025 0.952068 0.596460
0.814992 0.972106 0.616316
0.987869 0.987892 0.632000
0.032500 0.032500 0.543660
0.151765 0.032500 0.555927
0.366367 0.049769 0.575605
0.582077 0.069573 0.595281
0.753449 0.085248 0.610753
0.058846 0.183784 0.584949
0.194594 0.196407 0.597237
0.410961 0.216376 0.616927
0.628179 0.236363 0.636622
0.800484 0.252189 0.652124
0.125529 0.449061 0.651183
0.262286 0.461866 0.663496
0.479990 0.482011 0.683209
0.698284 0.502147 0.702932
0.871174 0.518087 0.718474
0.192814 0.715335 0.717498
0.330239 0.728190 0.729857
0.548783 0.748374 0.749614
0.767658 0.768523 0.769388
0.940726 0.784444 0.784991
0.246240 0.926042 0.769867
0.383983 0.938803 0.782294
0.602866 0.958879 0.802120
0.821820 0.978897 0.821970
0.994656 0.994661 0.837655
0.032500 0.032500 0.706735
0.157126 0.035302 0.718913
0.371930 0.055078 0.738506
0.587817 0.074893 0.758103
0.759303 0.090577 0.773503
0.064140 0.189144 0.747746
0.200002 0.201771 0.759964
0.416524 0.221745 0.779589
0.633870 0.241737 0.799225
0.806250 0.257565 0.814674
0.130891 0.454488 0.813765
0.267729 0.467289 0.826028
0.485538 0.487431 0.845695
0.703911 0.507562 0.865379
0.876836 0.523496 0.880888
0.198208 0.720784 0.879931
0.335680 0.733627 0.892260
0.554280 0.753799 0.911992
0.773185 0.773935 0.931747
0.946247 0.789840 0.947337
0.251626 0.931463 0.932221
0.389383 0.944205 0.944637
0.608274 0.964261 0.964457
0.827209 0.984258 0.984308
1.000000 1.000000 1.000000
