library/cube/Dark_Paradise_002.cube
# CINEGRADE LAB — Premium Cinematic LUT
# Title: Dark Paradise
# Category: Neo Noir
# Description: Dramatic shadows, high contrast, moody lighting inspired by noir cinema
# Mood: Mysterious, dramatic, dark
# Variant: 3
# Generated: 2026-05-21T16:12:30.342483
TITLE "Dark Paradise"
LUT_3D_SIZE 5
0.000000 0.000000 0.000000
0.055265 0.007856 0.008424
0.260325 0.036070 0.038212
0.472755 0.064127 0.067213
0.592027 0.078899 0.081926
0.025745 0.086019 0.029009
0.090049 0.095865 0.037929
0.319919 0.126938 0.068704
0.550020 0.157213 0.098426
0.672463 0.173090 0.113357
0.126617 0.404353 0.133117
0.197701 0.417032 0.142592
0.443653 0.451120 0.174155
0.684403 0.483664 0.204423
0.808149 0.500857 0.219543
0.232480 0.723317 0.234882
0.306458 0.735859 0.244373
0.560202 0.769993 0.276076
0.805208 0.802261 0.306349
0.922232 0.818809 0.321309
0.288968 0.885635 0.285584
0.363423 0.896462 0.294802
0.619885 0.929241 0.326314
0.863587 0.958828 0.356374
0.973512 0.973058 0.371110
0.002247 0.002622 0.061809
0.058615 0.010612 0.070991
0.266704 0.039082 0.101523
0.481353 0.067334 0.131168
0.601104 0.082180 0.146397
0.028698 0.089353 0.093038
0.093699 0.099226 0.102449
0.325482 0.130405 0.133691
0.556882 0.160744 0.163803
0.679476 0.176608 0.179031
0.130389 0.408713 0.198657
0.201791 0.421229 0.208394
0.448747 0.455214 0.240193
0.690077 0.487641 0.270643
0.813732 0.504689 0.285886
0.236384 0.727656 0.301173
0.310445 0.739962 0.310766
0.564597 0.773909 0.342551
0.809768 0.806004 0.372874
0.926093 0.822389 0.387856
0.292606 0.889371 0.352111
0.367061 0.900027 0.361346
0.623663 0.932679 0.392865
0.867031 0.961899 0.422921
0.976446 0.976002 0.437648
0.010280 0.011871 0.278510
0.068004 0.020148 0.290135
0.279264 0.049003 0.322903
0.496263 0.077567 0.354506
0.616662 0.092591 0.371403
0.038276 0.099747 0.316895
0.104137 0.109749 0.327891
0.337907 0.141116 0.360542
0.570676 0.171590 0.391844
0.693522 0.187506 0.408045
0.141298 0.420367 0.427120
0.213114 0.432786 0.437750
0.461106 0.466718 0.470303
0.703048 0.499072 0.501350
0.826670 0.516011 0.517044
0.247727 0.739433 0.532078
0.321919 0.751542 0.542069
0.576491 0.785333 0.574156
0.821842 0.817281 0.604686
0.936944 0.833527 0.619792
0.303849 0.900645 0.583969
0.378328 0.911154 0.593307
0.635078 0.943301 0.624881
0.877386 0.972022 0.654955
0.986228 0.985952 0.669681
0.018245 0.020863 0.487205
0.077241 0.029397 0.500981
0.291512 0.058606 0.535714
0.510726 0.087451 0.569026
0.631703 0.102631 0.587364
0.047623 0.109782 0.531854
0.114279 0.119890 0.544216
0.349915 0.151424 0.578076
0.583954 0.182014 0.610389
0.707007 0.197967 0.627403
0.151836 0.431550 0.646023
0.224023 0.443862 0.657393
0.472966 0.477732 0.690564
0.715457 0.510003 0.722089
0.838750 0.526832 0.738132
0.258613 0.750681 0.752974
0.332913 0.762595 0.763270
0.587858 0.796231 0.795578
0.833360 0.828036 0.826248
0.947201 0.844149 0.841429
0.314607 0.911393 0.805559
0.389103 0.921763 0.814956
0.645989 0.953132 0.846552
0.887207 0.981626 0.876623
0.995490 0.995394 0.891340
0.022450 0.025429 0.591210
0.082464 0.034103 0.605866
0.299439 0.063553 0.641426
0.520603 0.092581 0.675439
0.641976 0.107833 0.694332
0.052552 0.115025 0.638374
0.119832 0.125163 0.651259
0.357120 0.156791 0.685591
0.592250 0.187435 0.718282
0.715397 0.203375 0.735572
0.157505 0.437667 0.754065
0.229957 0.449832 0.765674
0.479718 0.483601 0.799043
0.722654 0.515762 0.830704
0.845507 0.532460 0.846823
0.264375 0.756720 0.861638
0.338728 0.768426 0.871989
0.593978 0.801897 0.904329
0.839369 0.833554 0.935001
0.952485 0.849536 0.950163
0.320134 0.916899 0.914301
0.394629 0.927135 0.923676
0.651631 0.958026 0.955247
0.892215 0.986340 0.985295
1.000000 1.000000 1.000000
