library/cube/Detail_Master_002.cube
# CINEGRADE LAB — Premium Cinematic LUT
# Title: Detail Master
# Category: High Dynamic Luxury
# Description: HDR-like with detailed shadows and highlights for luxury imagery
# Mood: Premium, detailed, luminous
# Variant: 3
# Generated: 2026-05-21T16:12:34.575236
TITLE "Detail Master"
LUT_3D_SIZE 9
0.075650 0.075650 0.075650
0.200155 0.070776 0.070773
0.324813 0.066056 0.066042
0.449609 0.061491 0.061459
0.574530 0.057081 0.057024
0.699562 0.052826 0.052736
0.824692 0.048727 0.048596
0.949903 0.044783 0.044604
1.000000 0.040995 0.040761
0.059940 0.189225 0.059827
0.184966 0.184860 0.055446
0.310113 0.180647 0.051212
0.435369 0.176586 0.047126
0.560718 0.172678 0.043188
0.686148 0.168922 0.039398
0.811643 0.165320 0.035757
0.937190 0.161871 0.032265
1.000000 0.158576 0.028921
0.046133 0.304451 0.045675
0.171630 0.300576 0.041791
0.297218 0.296851 0.038056
0.422883 0.293277 0.034469
0.548610 0.289852 0.031030
0.674386 0.286578 0.027741
0.800196 0.283455 0.024600
0.926027 0.280483 0.021608
1.000000 0.277661 0.018765
0.034245 0.421231 0.033200
0.160162 0.417829 0.029815
0.286140 0.414575 0.026580
0.412162 0.411468 0.023493
0.538216 0.408508 0.020556
0.664287 0.405697 0.017767
0.790360 0.403033 0.015127
0.916422 0.400518 0.012637
1.000000 0.398150 0.010295
0.024286 0.539470 0.022406
0.150573 0.536522 0.019523
0.276888 0.533718 0.016789
0.403216 0.531060 0.014203
0.529544 0.528546 0.011767
0.655856 0.526177 0.009480
0.782140 0.523953 0.007342
0.908379 0.521874 0.005353
1.000000 0.519940 0.003513
0.016265 0.659068 0.013299
0.142869 0.656554 0.010917
0.269468 0.654182 0.008684
0.396049 0.651951 0.006600
0.522597 0.649863 0.004666
0.649097 0.647916 0.002880
0.775536 0.646111 0.001244
0.901899 0.644448 0.000000
1.000000 0.642926 0.000000
0.010186 0.779924 0.005879
0.137052 0.777824 0.003998
0.263882 0.775862 0.002267
0.390661 0.774039 0.000685
0.517374 0.772355 0.000000
0.644007 0.770809 0.000000
0.770546 0.769402 0.000000
0.896976 0.768133 0.000000
1.000000 0.767002 0.000000
0.006049 0.901934 0.000146
0.133123 0.900226 0.000000
0.260128 0.898654 0.000000
0.387049 0.897217 0.000000
0.513872 0.895915 0.000000
0.640582 0.894748 0.000000
0.767164 0.893717 0.000000
0.893605 0.892819 0.000000
1.000000 0.892057 0.000000
0.003851 1.000000 0.000000
0.131077 1.000000 0.000000
0.258201 1.000000 0.000000
0.385208 1.000000 0.000000
0.512083 1.000000 0.000000
0.638812 1.000000 0.000000
0.765380 1.000000 0.000000
0.891773 1.000000 0.000000
1.000000 1.000000 0.000000
0.073978 0.073978 0.203352
0.198538 0.069156 0.198523
0.323247 0.064489 0.193839
0.448092 0.059976 0.189300
0.573059 0.055619 0.184906
0.698134 0.051417 0.180658
0.823302 0.047370 0.176557
0.948550 0.043479 0.172601
1.000000 0.039744 0.168791
0.058460 0.187726 0.187683
0.183535 0.183412 0.183343
0.308729 0.179250 0.179148
0.434028 0.175241 0.175100
0.559418 0.171385 0.171197
0.684885 0.167682 0.167441
0.810414 0.164132 0.163831
0.935992 0.160735 0.160367
1.000000 0.157492 0.157050
0.044846 0.303118 0.173662
0.170388 0.299294 0.169812
0.296017 0.295620 0.166109
0.421720 0.292097 0.162553
0.547483 0.288724 0.159143
0.673291 0.285501 0.155879
0.799130 0.282429 0.152763
0.924986 0.279508 0.149793
1.000000 0.276737 0.146970
0.033152 0.420059 0.161294
0.159109 0.416707 0.157938
0.285123 0.413503 0.154728
0.411178 0.410446 0.151664
0.537262 0.407537 0.148748
0.663360 0.404776 0.145978
0.789457 0.402162 0.143356
0.915539 0.399697 0.140880
1.000000 0.397380 0.138552
0.023388 0.538453 0.150586
0.149710 0.535553 0.147723
0.276055 0.532799 0.145007
0.402412 0.530190 0.142438
0.528764 0.527725 0.140016
0.655098 0.525405 0.137741
0.781400 0.523231 0.135613
0.907654 0.521201 0.133632
1.000000 0.519316 0.131798
0.015563 0.658199 0.141539
0.142196 0.655733 0.139170
0.268821 0.653408 0.136949
0.395424 0.651226 0.134874
0.521991 0.649186 0.132947
0.648508 0.647287 0.131167
0.774959 0.645530 0.129533
0.901331 0.643915 0.128047
1.000000 0.642442 0.126707
0.009680 0.779195 0.134156
0.136570 0.777142 0.132282
0.263420 0.775228 0.130555
0.390216 0.773452 0.128975
0.516943 0.771814 0.127542
0.643586 0.770316 0.126256
0.770132 0.768955 0.125116
0.896566 0.767733 0.124124
1.000000 0.766649 0.123277
0.005739 0.901339 0.128436
0.132831 0.899677 0.127057
0.259851 0.898151 0.125824
0.386783 0.896760 0.124738
0.513614 0.895504 0.123799
0.640329 0.894383 0.123006
0.766912 0.893397 0.122359
0.893350 0.892545 0.121859
1.000000 0.891828 0.121505
0.003737 1.000000 0.124379
0.130975 1.000000 0.123493
0.258107 1.000000 0.122753
0.385120 1.000000 0.122160
0.511997 1.000000 0.121713
0.638725 1.000000 0.121412
0.765289 1.000000 0.121257
0.891673 1.000000 0.121247
1.000000 1.000000 0.121383
0.072326 0.072323 0.331070
0.196940 0.067554 0.326288
0.321700 0.062939 0.321648
0.446593 0.058479 0.317152
0.571605 0.054174 0.312799
0.696721 0.050025 0.308590
0.821928 0.046031 0.304525
0.947212 0.042193 0.300604
1.000000 0.038511 0.296827
0.056999 0.186244 0.315551
0.182123 0.181982 0.311250
0.307364 0.177872 0.307094
0.432706 0.173915 0.303081
0.558136 0.170110 0.299212
0.683639 0.166459 0.295487
0.809202 0.162961 0.291907
0.934811 0.159616 0.288471
1.000000 0.156426 0.285180
0.043578 0.301803 0.301656
0.169164 0.298030 0.297839
0.294834 0.294407 0.294167
0.420575 0.290934 0.290639
0.546373 0.287612 0.287256
0.672213 0.284441 0.284018
0.798080 0.281420 0.280924
0.923962 0.278550 0.277974
1.000000 0.275831 0.275170
0.032078 0.418904 0.289391
0.158075 0.415602 0.286060
0.284124 0.412448 0.282874
0.410213 0.409441 0.279833
0.536326 0.406583 0.276937
0.662450 0.403872 0.274185
0.788570 0.401308 0.271578
0.914672 0.398893 0.269116
1.000000 0.396626 0.266799
0.022510 0.537452 0.278762
0.148865 0.534602 0.275918
0.275242 0.531897 0.273219
0.401626 0.529336 0.270665
0.528002 0.526921 0.268256
0.654357 0.524651 0.265992
0.780676 0.522525 0.263872
0.906945 0.520545 0.261898
1.000000 0.518709 0.260069
0.014881 0.657345 0.269771
0.141542 0.654927 0.267415
0.268192 0.652651 0.265203
0.394818 0.650517 0.263137
0.521403 0.648525 0.261215
0.647935 0.646675 0.259439
0.774399 0.644966 0.257807
0.900779 0.643399 0.256320
1.000000 0.641974 0.254977
0.009195 0.778482 0.262421
0.136107 0.776476 0.260552
0.262977 0.774609 0.258828
0.389789 0.772880 0.257249
0.516529 0.771290 0.255814
0.643182 0.769838 0.254525
0.769734 0.768525 0.253380
0.896171 0.767350 0.252379
1.000000 0.766313 0.251523
0.005449 0.900759 0.256710
0.132559 0.899143 0.255328
0.259592 0.897663 0.254091
0.386535 0.896318 0.252999
0.513373 0.895108 0.252051
0.640092 0.894033 0.251247
0.766676 0.893093 0.250588
0.893111 0.892287 0.250073
1.000000 0.891615 0.249701
0.003642 1.000000 0.252637
0.130892 1.000000 0.251741
0.258032 1.000000 0.250990
0.385050 1.000000 0.250383
0.511929 1.000000 0.249921
0.638655 1.000000 0.249602
0.765213 1.000000 0.249427
0.891588 1.000000 0.249395
1.000000 1.000000 0.249507
0.070692 0.070686 0.458804
0.195360 0.065969 0.454067
0.320171 0.061407 0.449471
0.445112 0.057000 0.445016
0.570168 0.052748 0.440702
0.695326 0.048651 0.436530
0.820571 0.044710 0.432500
0.945890 0.040925 0.428612
1.000000 0.037296 0.424866
0.055557 0.184779 0.443429
0.180731 0.180569 0.439167
0.306017 0.176511 0.435047
0.431402 0.172605 0.431068
0.556871 0.168853 0.427232
0.682411 0.165254 0.423538
0.808007 0.161808 0.419986
0.933645 0.158516 0.416576
1.000000 0.155377 0.413309
0.042330 0.300505 0.429655
0.167959 0.296783 0.425871
0.293671 0.293211 0.422228
0.419449 0.289789 0.418728
0.545281 0.286518 0.415370
0.671151 0.283398 0.412155
0.797047 0.280428 0.409082
0.922953 0.277610 0.406152
1.000000 0.274942 0.403365
0.031025 0.417767 0.417489
0.157060 0.414515 0.414183
0.283145 0.411410 0.411020
0.409265 0.408454 0.407999
0.535408 0.405645 0.405121
0.661557 0.402985 0.402386
0.787700 0.400472 0.399793
0.913821 0.398107 0.397343
1.000000 0.395890 0.395037
0.021652 0.536468 0.406935
0.148041 0.533667 0.404109
0.274447 0.531011 0.401425
0.400858 0.528500 0.398885
0.527258 0.526134 0.396487
0.653633 0.523913 0.394232
0.779969 0.521836 0.392120
0.906252 0.519905 0.390151
1.000000 0.518119 0.388325
0.014219 0.656508 0.397995
0.140908 0.654139 0.395650
0.267583 0.651911 0.393447
0.394229 0.649825 0.391387
0.520833 0.647881 0.389470
0.647380 0.646079 0.387695
0.773855 0.644418 0.386063
0.900244 0.642899 0.384574
1.000000 0.641522 0.383228
0.008728 0.777786 0.390672
0.135663 0.775827 0.388807
0.262552 0.774006 0.387085
0.389380 0.772325 0.385505
0.516132 0.770781 0.384068
0.642795 0.769377 0.382773
0.769353 0.768110 0.381621
0.895792 0.766982 0.380611
1.000000 0.765992 0.379744
0.005179 0.900195 0.384965
0.132305 0.898626 0.383580
0.259352 0.897191 0.382337
0.386305 0.895892 0.381237
0.513150 0.894728 0.380279
0.639872 0.893698 0.379463
0.766456 0.892804 0.378790
0.892888 0.892044 0.378258
1.000000 0.891418 0.377868
0.003567 1.000000 0.380872
0.130828 1.000000 0.379966
0.257976 1.000000 0.379202
0.384997 1.000000 0.378580
0.511877 1.000000 0.378100
0.638601 1.000000 0.377762
0.765153 1.000000 0.377565
0.891520 1.000000 0.377510
1.000000 1.000000 0.377596
0.069078 0.069067 0.586552
0.193799 0.064402 0.581859
0.318661 0.059893 0.577305
0.443649 0.055538 0.572890
0.568749 0.051339 0.568614
0.693947 0.047295 0.564478
0.819230 0.043407 0.560482
0.944584 0.039675 0.556626
1.000000 0.036100 0.552909
0.054135 0.183332 0.571317
0.179357 0.179174 0.567093
0.304688 0.175167 0.563007
0.430115 0.171314 0.559062
0.555623 0.167614 0.555257
0.681199 0.164066 0.551591
0.806827 0.160673 0.548066
0.932495 0.157432 0.544681
1.000000 0.154346 0.541437
0.041101 0.299224 0.557660
0.166774 0.295553 0.553906
0.292525 0.292032 0.550292
0.418341 0.288662 0.546817
0.544206 0.285442 0.543484
0.670107 0.282373 0.540290
0.796030 0.279454 0.537238
0.921961 0.276687 0.534325
1.000000 0.274070 0.531554
0.029991 0.416646 0.545588
0.156064 0.413444 0.542305
0.282183 0.410390 0.539163
0.408336 0.407484 0.536161
0.534507 0.404725 0.533300
0.660681 0.402115 0.530580
0.786846 0.399652 0.528000
0.912986 0.397337 0.525561
1.000000 0.395171 0.523263
0.020814 0.535500 0.535103
0.147235 0.532749 0.532294
0.273671 0.530142 0.529624
0.400108 0.527680 0.527096
0.526531 0.525363 0.524708
0.652926 0.523191 0.522461
0.779279 0.521164 0.520355
0.905574 0.519282 0.518390
1.000000 0.517545 0.516565
0.013577 0.655688 0.526210
0.140293 0.653366 0.523874
0.266992 0.651186 0.521678
0.393659 0.649149 0.519623
0.520280 0.647253 0.517709
0.646841 0.645499 0.515935
0.773327 0.643886 0.514302
0.899724 0.642416 0.512810
1.000000 0.641086 0.511458
0.008282 0.777105 0.518910
0.135239 0.775193 0.517047
0.262146 0.773420 0.515325
0.388989 0.771785 0.513743
0.515753 0.770289 0.512301
0.642424 0.768931 0.511001
0.768988 0.767712 0.509840
0.895429 0.766630 0.508820
1.000000 0.765687 0.507940
0.004929 0.899647 0.513202
0.132071 0.898123 0.511812
0.259130 0.896735 0.510562
0.386093 0.895481 0.509452
0.512944 0.894363 0.508483
0.639669 0.893380 0.507654
0.766252 0.892531 0.506965
0.892680 0.891816 0.506415
1.000000 0.891235 0.506005
0.003512 1.000000 0.509083
0.130783 1.000000 0.508165
0.257938 1.000000 0.507387
0.384963 1.000000 0.506748
0.511843 1.000000 0.506250
0.638564 1.000000 0.505891
0.765110 1.000000 0.505671
0.891466 1.000000 0.505591
1.000000 1.000000 0.505649
0.067484 0.067465 0.714315
0.192258 0.062854 0.709664
0.317169 0.058397 0.705151
0.442203 0.054095 0.700774
0.567347 0.049948 0.696535
0.692585 0.045957 0.692433
0.817906 0.042122 0.688470
0.943293 0.038443 0.684643
1.000000 0.034921 0.680955
0.052732 0.181903 0.699215
0.178002 0.177796 0.695026
0.303378 0.173842 0.690974
0.428846 0.170040 0.687061
0.554393 0.166392 0.683285
0.680004 0.162897 0.679647
0.805664 0.159555 0.676147
0.931361 0.156367 0.672786
1.000000 0.153333 0.669563
0.039892 0.297960 0.685670
0.165608 0.294340 0.681944
0.291398 0.290870 0.678357
0.417250 0.287551 0.674907
0.543149 0.284383 0.671596
0.669080 0.281365 0.668424
0.795030 0.278497 0.665389
0.920984 0.275781 0.662493
1.000000 0.273216 0.659736
0.028976 0.415542 0.673686
0.155087 0.412390 0.670425
0.281241 0.409386 0.667303
0.407424 0.406530 0.664319
0.533623 0.403822 0.661474
0.659823 0.401262 0.658767
0.786009 0.398849 0.656199
0.912167 0.396585 0.653769
1.000000 0.394469 0.651478
0.019995 0.534550 0.663267
0.146448 0.531847 0.660472
0.272913 0.529290 0.657816
0.399376 0.526877 0.655298
0.525821 0.524609 0.652919
0.652236 0.522487 0.650679
0.778604 0.520509 0.648577
0.904913 0.518676 0.646613
1.000000 0.516988 0.644789
0.012954 0.654883 0.654416
0.139697 0.652610 0.652087
0.266419 0.650479 0.649897
0.393107 0.648489 0.647846
0.519745 0.646641 0.645933
0.646320 0.644935 0.644159
0.772816 0.643371 0.642523
0.899220 0.641948 0.641026
1.000000 0.640667 0.639667
0.007855 0.776440 0.647134
0.134833 0.774575 0.645271
0.261758 0.772849 0.643547
0.388616 0.771261 0.641962
0.515392 0.769812 0.640515
0.642071 0.768501 0.639206
0.768639 0.767329 0.638036
0.895081 0.766294 0.637004
1.000000 0.765398 0.636109
0.004698 0.899114 0.641419
0.131855 0.897637 0.640023
0.258927 0.896294 0.638764
0.385899 0.895087 0.637644
0.512756 0.894014 0.636662
0.639483 0.893076 0.635818
0.766065 0.892273 0.635112
0.892488 0.891604 0.634543
1.000000 0.891069 0.634112
0.003476 1.000000 0.637271
0.130757 1.000000 0.636339
0.257919 1.000000 0.635545
0.384947 1.000000 0.634889
0.511827 1.000000 0.634370
0.638544 1.000000 0.633989
0.765082 1.000000 0.633745
0.891428 1.000000 0.633638
1.000000 1.000000 0.633668
0.065908 0.065882 0.842091
0.190734 0.061323 0.837481
0.315695 0.056918 0.833007
0.440775 0.052669 0.828667
0.565962 0.048575 0.824463
0.691240 0.044638 0.820395
0.816597 0.040855 0.816462
0.942018 0.037230 0.812665
1.000000 0.033760 0.809003
0.051349 0.180491 0.827121
0.176666 0.176436 0.822966
0.302086 0.172533 0.818947
0.427596 0.168784 0.815064
0.553180 0.165188 0.811316
0.678825 0.161745 0.807704
0.804518 0.158455 0.804229
0.930243 0.155319 0.800889
1.000000 0.152337 0.797686
0.038703 0.296714 0.813684
0.164460 0.293145 0.809985
0.290290 0.289726 0.806423
0.416178 0.286458 0.802997
0.542109 0.283341 0.799707
0.668070 0.280374 0.796553
0.794046 0.277558 0.793536
0.920023 0.274893 0.790655
1.000000 0.272379 0.787911
0.027982 0.414455 0.801783
0.154129 0.411353 0.798543
0.280317 0.408400 0.795439
0.406531 0.405594 0.792472
0.532757 0.402936 0.789640
0.658981 0.400426 0.786946
0.785188 0.398064 0.784388
0.911364 0.395850 0.781966
1.000000 0.393784 0.779681
0.019196 0.533616 0.791425
0.145681 0.530962 0.788644
0.272175 0.528454 0.785999
0.398662 0.526091 0.783490
0.525130 0.523872 0.781118
0.651563 0.521799 0.778883
0.777947 0.519870 0.776784
0.904267 0.518086 0.774822
1.000000 0.516448 0.772996
0.012351 0.654095 0.782611
0.139120 0.651870 0.780289
0.265866 0.649787 0.778103
0.392573 0.647846 0.776054
0.519228 0.646046 0.774141
0.645815 0.644388 0.772365
0.772321 0.642872 0.770725
0.898731 0.641497 0.769221
1.000000 0.640264 0.767854
0.007449 0.775791 0.775342
0.134447 0.773973 0.773479
0.261390 0.772294 0.771752
0.388261 0.770754 0.770162
0.515048 0.769352 0.768708
0.641734 0.768088 0.767390
0.768307 0.766962 0.766208
0.894749 0.765974 0.765162
1.000000 0.765124 0.764252
0.004487 0.898597 0.769617
0.131659 0.897165 0.768212
0.258743 0.895869 0.766944
0.385723 0.894707 0.765812
0.512585 0.893680 0.764815
0.639313 0.892788 0.763955
0.765894 0.892031 0.763230
0.892312 0.891407 0.762640
1.000000 0.890918 0.762186
0.003460 1.000000 0.765433
0.130750 1.000000 0.764486
0.257918 1.000000 0.763675
0.384948 1.000000 0.762999
0.511827 1.000000 0.762459
0.638540 1.000000 0.762054
0.765071 1.000000 0.761785
0.891406 1.000000 0.761650
1.000000 1.000000 0.761649
0.064352 0.064316 0.969879
0.189230 0.059810 0.965310
0.314239 0.055458 0.960873
0.439365 0.051261 0.956569
0.564594 0.047221 0.952399
0.689912 0.043336 0.948362
0.815305 0.039607 0.944458
0.940759 0.036034 0.940689
1.000000 0.032617 0.937053
0.049985 0.179097 0.955035
0.175349 0.175093 0.950914
0.300813 0.171243 0.946925
0.426363 0.167545 0.943070
0.551985 0.164001 0.939349
0.677664 0.160610 0.935762
0.803387 0.157373 0.932309
0.929140 0.154289 0.928990
1.000000 0.151360 0.925806
0.037533 0.295485 0.941700
0.163332 0.291967 0.938028
0.289200 0.288600 0.934490
0.415123 0.285383 0.931085
0.541087 0.282316 0.927815
0.667076 0.279401 0.924679
0.793078 0.276636 0.921678
0.919078 0.274022 0.918811
1.000000 0.271560 0.916078
0.027007 0.413385 0.929879
0.153191 0.410334 0.926658
0.279412 0.407430 0.923571
0.405656 0.404675 0.920618
0.531909 0.402067 0.917800
0.658156 0.399607 0.915116
0.784384 0.397295 0.912567
0.910577 0.395132 0.910151
1.000000 0.393116 0.907871
0.018417 0.532698 0.919577
0.144933 0.530094 0.916807
0.271454 0.527635 0.914172
0.397967 0.525321 0.911672
0.524456 0.523152 0.909306
0.650907 0.521128 0.907074
0.777306 0.519248 0.904976
0.903638 0.517514 0.903013
1.000000 0.515924 0.901185
0.011768 0.653324 0.910795
0.138563 0.651147 0.908477
0.265331 0.649112 0.906295
0.392057 0.647219 0.904246
0.518728 0.645467 0.902332
0.645328 0.643857 0.900552
0.771843 0.642389 0.898907
0.898259 0.641063 0.897395
1.000000 0.639877 0.896018
0.007062 0.775158 0.903534
0.134080 0.773388 0.901669
0.261040 0.771756 0.899938
0.387925 0.770262 0.898341
0.514722 0.768907 0.896879
0.641415 0.767690 0.895550
0.767990 0.766611 0.894355
0.894433 0.765670 0.893295
1.000000 0.764867 0.892368
0.004295 0.898096 0.897793
0.131483 0.896710 0.896379
0.258577 0.895459 0.895100
0.385565 0.894343 0.893954
0.512431 0.893362 0.892942
0.639160 0.892516 0.892063
0.765739 0.891804 0.891318
0.892151 0.891226 0.890707
1.000000 0.890782 0.890228
0.003463 1.000000 0.893570
0.130762 1.000000 0.892606
0.257935 1.000000 0.891777
0.384968 1.000000 0.891080
0.511845 1.000000 0.890517
0.638553 1.000000 0.890087
0.765076 1.000000 0.889790
0.891399 1.000000 0.889626
1.000000 1.000000 0.889594
0.062815 0.062768 1.000000
0.187745 0.058314 1.000000
0.312802 0.054015 1.000000
0.437973 0.049872 1.000000
0.563244 0.045884 1.000000
0.688601 0.042052 1.000000
0.814029 0.038376 1.000000
0.939516 0.034856 1.000000
1.000000 0.031493 1.000000
0.048641 0.177720 1.000000
0.174051 0.173769 1.000000
0.299558 0.169970 1.000000
0.425148 0.166325 1.000000
0.550807 0.162832 1.000000
0.676520 0.159494 1.000000
0.802274 0.156308 1.000000
0.928054 0.153277 1.000000
1.000000 0.150400 1.000000
0.036382 0.294274 1.000000
0.162223 0.290807 1.000000
0.288129 0.287490 1.000000
0.414087 0.284324 1.000000
0.540082 0.281309 1.000000
0.666100 0.278445 1.000000
0.792127 0.275731 1.000000
0.918149 0.273169 1.000000
1.000000 0.270758 1.000000
0.026052 0.412332 1.000000
0.152272 0.409331 1.000000
0.278526 0.406478 1.000000
0.404799 0.403772 1.000000
0.531078 0.401215 1.000000
0.657349 0.398805 1.000000
0.783596 0.396544 1.000000
0.909805 0.394430 1.000000
1.000000 0.392465 1.000000
0.017658 0.531798 1.000000
0.144204 0.529243 1.000000
0.270753 0.526833 1.000000
0.397289 0.524568 1.000000
0.523799 0.522448 1.000000
0.650268 0.520473 1.000000
0.776681 0.518643 1.000000
0.903024 0.516958 1.000000
1.000000 0.515417 1.000000
0.011205 0.652569 1.000000
0.138025 0.650440 1.000000
0.264814 0.648453 1.000000
0.391559 0.646608 1.000000
0.518245 0.644905 1.000000
0.644857 0.643343 1.000000
0.771381 0.641923 1.000000
0.897802 0.640644 1.000000
1.000000 0.639507 1.000000
0.006694 0.774541 1.000000
0.133733 0.772818 1.000000
0.260708 0.771233 1.000000
0.387606 0.769786 1.000000
0.514413 0.768478 1.000000
0.641112 0.767308 1.000000
0.767691 0.766276 1.000000
0.894133 0.765382 1.000000
1.000000 0.764626 1.000000
0.004124 0.897610 1.000000
0.131325 0.896270 1.000000
0.258430 0.895065 1.000000
0.385425 0.893995 1.000000
0.512295 0.893060 1.000000
0.639025 0.892259 1.000000
0.765600 0.891592 1.000000
0.892006 0.891060 1.000000
1.000000 0.890661 1.000000
0.003486 1.000000 1.000000
0.130793 1.000000 1.000000
0.257971 1.000000 1.000000
0.385005 1.000000 1.000000
0.511880 1.000000 1.000000
0.638582 1.000000 1.000000
0.765096 1.000000 1.000000
0.891407 1.000000 1.000000
1.000000 1.000000 1.000000
