library/cube/Detail_Master_002.cube
# CINEGRADE LAB — Premium Cinematic LUT
# Title: Detail Master
# Category: High Dynamic Luxury
# Description: HDR-like with detailed shadows and highlights for luxury imagery
# Mood: Premium, detailed, luminous
# Variant: 3
# Generated: 2026-05-21T16:12:34.575236
TITLE "Detail Master"
LUT_3D_SIZE 5
0.075650 0.075650 0.075650
0.324813 0.066056 0.066042
0.574530 0.057081 0.057024
0.824692 0.048727 0.048596
1.000000 0.040995 0.040761
0.046133 0.304451 0.045675
0.297218 0.296851 0.038056
0.548610 0.289852 0.031030
0.800196 0.283455 0.024600
1.000000 0.277661 0.018765
0.024286 0.539470 0.022406
0.276888 0.533718 0.016789
0.529544 0.528546 0.011767
0.782140 0.523953 0.007342
1.000000 0.519940 0.003513
0.010186 0.779924 0.005879
0.263882 0.775862 0.002267
0.517374 0.772355 0.000000
0.770546 0.769402 0.000000
1.000000 0.767002 0.000000
0.003851 1.000000 0.000000
0.258201 1.000000 0.000000
0.512083 1.000000 0.000000
0.765380 1.000000 0.000000
1.000000 1.000000 0.000000
0.072326 0.072323 0.331070
0.321700 0.062939 0.321648
0.571605 0.054174 0.312799
0.821928 0.046031 0.304525
1.000000 0.038511 0.296827
0.043578 0.301803 0.301656
0.294834 0.294407 0.294167
0.546373 0.287612 0.287256
0.798080 0.281420 0.280924
1.000000 0.275831 0.275170
0.022510 0.537452 0.278762
0.275242 0.531897 0.273219
0.528002 0.526921 0.268256
0.780676 0.522525 0.263872
1.000000 0.518709 0.260069
0.009195 0.778482 0.262421
0.262977 0.774609 0.258828
0.516529 0.771290 0.255814
0.769734 0.768525 0.253380
1.000000 0.766313 0.251523
0.003642 1.000000 0.252637
0.258032 1.000000 0.250990
0.511929 1.000000 0.249921
0.765213 1.000000 0.249427
1.000000 1.000000 0.249507
0.069078 0.069067 0.586552
0.318661 0.059893 0.577305
0.568749 0.051339 0.568614
0.819230 0.043407 0.560482
1.000000 0.036100 0.552909
0.041101 0.299224 0.557660
0.292525 0.292032 0.550292
0.544206 0.285442 0.543484
0.796030 0.279454 0.537238
1.000000 0.274070 0.531554
0.020814 0.535500 0.535103
0.273671 0.530142 0.529624
0.526531 0.525363 0.524708
0.779279 0.521164 0.520355
1.000000 0.517545 0.516565
0.008282 0.777105 0.518910
0.262146 0.773420 0.515325
0.515753 0.770289 0.512301
0.768988 0.767712 0.509840
1.000000 0.765687 0.507940
0.003512 1.000000 0.509083
0.257938 1.000000 0.507387
0.511843 1.000000 0.506250
0.765110 1.000000 0.505671
1.000000 1.000000 0.505649
0.065908 0.065882 0.842091
0.315695 0.056918 0.833007
0.565962 0.048575 0.824463
0.816597 0.040855 0.816462
1.000000 0.033760 0.809003
0.038703 0.296714 0.813684
0.290290 0.289726 0.806423
0.542109 0.283341 0.799707
0.794046 0.277558 0.793536
1.000000 0.272379 0.787911
0.019196 0.533616 0.791425
0.272175 0.528454 0.785999
0.525130 0.523872 0.781118
0.777947 0.519870 0.776784
1.000000 0.516448 0.772996
0.007449 0.775791 0.775342
0.261390 0.772294 0.771752
0.515048 0.769352 0.768708
0.768307 0.766962 0.766208
1.000000 0.765124 0.764252
0.003460 1.000000 0.765433
0.257918 1.000000 0.763675
0.511827 1.000000 0.762459
0.765071 1.000000 0.761785
1.000000 1.000000 0.761649
0.062815 0.062768 1.000000
0.312802 0.054015 1.000000
0.563244 0.045884 1.000000
0.814029 0.038376 1.000000
1.000000 0.031493 1.000000
0.036382 0.294274 1.000000
0.288129 0.287490 1.000000
0.540082 0.281309 1.000000
0.792127 0.275731 1.000000
1.000000 0.270758 1.000000
0.017658 0.531798 1.000000
0.270753 0.526833 1.000000
0.523799 0.522448 1.000000
0.776681 0.518643 1.000000
1.000000 0.515417 1.000000
0.006694 0.774541 1.000000
0.260708 0.771233 1.000000
0.514413 0.768478 1.000000
0.767691 0.766276 1.000000
1.000000 0.764626 1.000000
0.003486 1.000000 1.000000
0.257971 1.000000 1.000000
0.511880 1.000000 1.000000
0.765096 1.000000 1.000000
1.000000 1.000000 1.000000
