library/cube/Detail_Master_002.cube
# CINEGRADE LAB — Premium Cinematic LUT
# Title: Detail Master
# Category: High Dynamic Luxury
# Description: HDR-like with detailed shadows and highlights for luxury imagery
# Mood: Premium, detailed, luminous
# Variant: 3
# Generated: 2026-05-21T16:12:34.575236
TITLE "Detail Master"
LUT_3D_SIZE 33
0.075650 0.075650 0.075650
0.106761 0.074417 0.074417
0.137883 0.073194 0.073193
0.169014 0.071980 0.071978
0.200155 0.070776 0.070773
0.231306 0.069582 0.069576
0.262466 0.068397 0.068389
0.293635 0.067222 0.067211
0.324813 0.066056 0.066042
0.355999 0.064901 0.064883
0.387194 0.063755 0.063732
0.418398 0.062618 0.062591
0.449609 0.061491 0.061459
0.480828 0.060374 0.060336
0.512055 0.059267 0.059223
0.543289 0.058169 0.058119
0.574530 0.057081 0.057024
0.605778 0.056003 0.055938
0.637033 0.054934 0.054861
0.668295 0.053875 0.053794
0.699562 0.052826 0.052736
0.730836 0.051787 0.051687
0.762116 0.050757 0.050648
0.793401 0.049737 0.049617
0.824692 0.048727 0.048596
0.855987 0.047726 0.047584
0.887288 0.046735 0.046582
0.918593 0.045754 0.045588
0.949903 0.044783 0.044604
0.981218 0.043821 0.043630
1.000000 0.042869 0.042664
1.000000 0.041927 0.041708
1.000000 0.040995 0.040761
0.071545 0.103884 0.071538
0.102691 0.102683 0.070336
0.133846 0.101492 0.069143
0.165011 0.100311 0.067959
0.196185 0.099139 0.066784
0.227368 0.097977 0.065619
0.258560 0.096824 0.064463
0.289761 0.095681 0.063316
0.320970 0.094547 0.062178
0.352187 0.093424 0.061049
0.383412 0.092310 0.059930
0.414645 0.091205 0.058820
0.445885 0.090110 0.057719
0.477133 0.089025 0.056627
0.508388 0.087949 0.055545
0.539650 0.086883 0.054472
0.570918 0.085827 0.053408
0.602193 0.084780 0.052353
0.633474 0.083744 0.051308
0.664762 0.082716 0.050271
0.696054 0.081699 0.049244
0.727353 0.080691 0.048227
0.758657 0.079693 0.047218
0.789966 0.078704 0.046219
0.821280 0.077725 0.045229
0.852598 0.076756 0.044248
0.883921 0.075797 0.043277
0.915249 0.074847 0.042315
0.946580 0.073907 0.041362
0.977915 0.072977 0.040418
1.000000 0.072056 0.039484
1.000000 0.071145 0.038559
1.000000 0.070244 0.037643
0.067558 0.132226 0.067530
0.098738 0.131057 0.066359
0.129926 0.129898 0.065197
0.161123 0.128748 0.064044
0.192330 0.127608 0.062900
0.223545 0.126478 0.061766
0.254768 0.125357 0.060641
0.285999 0.124246 0.059525
0.317238 0.123144 0.058418
0.348485 0.122052 0.057320
0.379740 0.120969 0.056232
0.411002 0.119896 0.055153
0.442271 0.118833 0.054083
0.473546 0.117779 0.053023
0.504829 0.116735 0.051971
0.536117 0.115701 0.050929
0.567412 0.114676 0.049896
0.598713 0.113661 0.048873
0.630020 0.112655 0.047858
0.661332 0.111659 0.046853
0.692649 0.110673 0.045858
0.723972 0.109697 0.044871
0.755299 0.108730 0.043894
0.786631 0.107772 0.042926
0.817968 0.106825 0.041967
0.849308 0.105887 0.041017
0.880653 0.104958 0.040077
0.912001 0.104040 0.039146
0.943353 0.103131 0.038225
0.974709 0.102231 0.037312
1.000000 0.101342 0.036409
1.000000 0.100462 0.035515
1.000000 0.099591 0.034631
0.063690 0.160673 0.063627
0.094902 0.159536 0.062486
0.126123 0.158409 0.061355
0.157352 0.157291 0.060233
0.188590 0.156182 0.059121
0.219836 0.155083 0.058017
0.251089 0.153994 0.056923
0.282351 0.152914 0.055838
0.313620 0.151844 0.054763
0.344896 0.150783 0.053696
0.376179 0.149732 0.052639
0.407469 0.148691 0.051591
0.438765 0.147659 0.050552
0.470068 0.146636 0.049523
0.501377 0.145624 0.048502
0.532692 0.144620 0.047491
0.564012 0.143627 0.046490
0.595338 0.142643 0.045497
0.626669 0.141668 0.044514
0.658006 0.140703 0.043540
0.689347 0.139748 0.042576
0.720693 0.138803 0.041620
0.752043 0.137867 0.040674
0.783397 0.136940 0.039737
0.814755 0.136023 0.038810
0.846117 0.135116 0.037891
0.877483 0.134219 0.036982
0.908851 0.133331 0.036083
0.940223 0.132453 0.035192
0.971598 0.131584 0.034311
1.000000 0.130725 0.033439
1.000000 0.129876 0.032577
1.000000 0.129036 0.031723
0.059940 0.189225 0.059827
0.091184 0.188120 0.058718
0.122437 0.187024 0.057618
0.153697 0.185937 0.056527
0.184966 0.184860 0.055446
0.216242 0.183792 0.054373
0.247525 0.182734 0.053310
0.278816 0.181686 0.052256
0.310113 0.180647 0.051212
0.341418 0.179617 0.050176
0.372728 0.178597 0.049150
0.404046 0.177587 0.048133
0.435369 0.176586 0.047126
0.466698 0.175594 0.046127
0.498033 0.174612 0.045138
0.529373 0.173640 0.044158
0.560718 0.172678 0.043188
0.592069 0.171724 0.042227
0.623424 0.170781 0.041275
0.654784 0.169847 0.040332
0.686148 0.168922 0.039398
0.717516 0.168007 0.038474
0.748888 0.167102 0.037559
0.780264 0.166206 0.036654
0.811643 0.165320 0.035757
0.843025 0.164444 0.034870
0.874411 0.163577 0.033993
0.905799 0.162719 0.033124
0.937190 0.161871 0.032265
0.968583 0.161033 0.031415
0.999978 0.160205 0.030574
1.000000 0.159386 0.029743
1.000000 0.158576 0.028921
0.056309 0.217881 0.056132
0.087585 0.216806 0.055054
0.118868 0.215741 0.053985
0.150159 0.214686 0.052925
0.181457 0.213640 0.051875
0.212763 0.212603 0.050834
0.244075 0.211576 0.049802
0.275394 0.210558 0.048779
0.306720 0.209550 0.047765
0.338052 0.208551 0.046761
0.369389 0.207562 0.045766
0.400733 0.206583 0.044780
0.432082 0.205612 0.043804
0.463437 0.204652 0.042837
0.494797 0.203701 0.041879
0.526161 0.202759 0.040930
0.557531 0.201827 0.039991
0.588905 0.200904 0.039061
0.620283 0.199991 0.038140
0.651666 0.199088 0.037229
0.683052 0.198194 0.036326
0.714442 0.197309 0.035433
0.745835 0.196434 0.034550
0.777231 0.195569 0.033675
0.808631 0.194713 0.032810
0.840033 0.193867 0.031954
0.871437 0.193030 0.031108
0.902844 0.192203 0.030271
0.934253 0.191385 0.029443
0.965664 0.190577 0.028624
0.997077 0.189779 0.027815
1.000000 0.188990 0.027015
1.000000 0.188210 0.026224
0.052798 0.246638 0.052542
0.084104 0.245594 0.051495
0.115417 0.244560 0.050457
0.146738 0.243535 0.049428
0.178065 0.242520 0.048409
0.209399 0.241514 0.047399
0.240740 0.240518 0.046398
0.272087 0.239531 0.045406
0.303439 0.238553 0.044424
0.334798 0.237585 0.043451
0.366162 0.236626 0.042487
0.397531 0.235677 0.041533
0.428906 0.234738 0.040587
0.460285 0.233807 0.039651
0.491669 0.232887 0.038725
0.523058 0.231975 0.037807
0.554450 0.231074 0.036899
0.585847 0.230181 0.036000
0.617248 0.229299 0.035111
0.648652 0.228425 0.034230
0.680059 0.227561 0.033359
0.711470 0.226707 0.032497
0.742884 0.225862 0.031645
0.774300 0.225027 0.030802
0.805719 0.224201 0.029968
0.837140 0.223385 0.029144
0.868563 0.222578 0.028328
0.899988 0.221781 0.027522
0.931414 0.220993 0.026726
0.962842 0.220215 0.025938
0.994271 0.219446 0.025160
1.000000 0.218687 0.024392
1.000000 0.217937 0.023632
0.049406 0.275495 0.049056
0.080742 0.274482 0.048040
0.112084 0.273478 0.047033
0.143434 0.272484 0.046036
0.174789 0.271499 0.045048
0.206151 0.270524 0.044069
0.237519 0.269558 0.043099
0.268893 0.268601 0.042138
0.300272 0.267654 0.041187
0.331656 0.266716 0.040245
0.363046 0.265788 0.039313
0.394440 0.264869 0.038389
0.425839 0.263959 0.037475
0.457242 0.263059 0.036571
0.488650 0.262169 0.035675
0.520061 0.261288 0.034789
0.551477 0.260416 0.033912
0.582895 0.259554 0.033044
0.614317 0.258701 0.032186
0.645743 0.257857 0.031337
0.677171 0.257023 0.030497
0.708601 0.256199 0.029667
0.740035 0.255384 0.028846
0.771470 0.254578 0.028034
0.802907 0.253782 0.027231
0.834346 0.252996 0.026438
0.865787 0.252219 0.025654
0.897229 0.251451 0.024879
0.928672 0.250693 0.024114
0.960116 0.249944 0.023358
0.991560 0.249205 0.022611
1.000000 0.248475 0.021874
1.000000 0.247754 0.021146
0.046133 0.304451 0.045675
0.077498 0.303468 0.044690
0.108870 0.302495 0.043714
0.140247 0.301531 0.042748
0.171630 0.300576 0.041791
0.203019 0.299631 0.040843
0.234414 0.298695 0.039905
0.265813 0.297768 0.038976
0.297218 0.296851 0.038056
0.328627 0.295943 0.037145
0.360042 0.295045 0.036244
0.391460 0.294156 0.035351
0.422883 0.293277 0.034469
0.454309 0.292406 0.033595
0.485739 0.291546 0.032731
0.517173 0.290694 0.031876
0.548610 0.289852 0.031030
0.580050 0.289020 0.030194
0.611493 0.288197 0.029367
0.642938 0.287383 0.028549
0.674386 0.286578 0.027741
0.705836 0.285784 0.026941
0.737288 0.284998 0.026152
0.768741 0.284222 0.025371
0.800196 0.283455 0.024600
0.831653 0.282698 0.023838
0.863110 0.281950 0.023085
0.894568 0.281212 0.022342
0.926027 0.280483 0.021608
0.957486 0.279763 0.020883
0.988945 0.279053 0.020168
1.000000 0.278352 0.019462
1.000000 0.277661 0.018765
0.042981 0.333504 0.042399
0.074374 0.332551 0.041445
0.105773 0.331608 0.040501
0.137178 0.330674 0.039565
0.168588 0.329749 0.038640
0.200003 0.328834 0.037723
0.231423 0.327928 0.036816
0.262848 0.327031 0.035918
0.294278 0.326143 0.035029
0.325711 0.325265 0.034150
0.357149 0.324397 0.033279
0.388591 0.323537 0.032419
0.420037 0.322688 0.031567
0.451485 0.321847 0.030725
0.482937 0.321016 0.029892
0.514393 0.320194 0.029068
0.545850 0.319381 0.028254
0.577311 0.318578 0.027449
0.608773 0.317784 0.026653
0.640238 0.317000 0.025866
0.671705 0.316225 0.025089
0.703173 0.315459 0.024321
0.734643 0.314703 0.023563
0.766114 0.313956 0.022813
0.797586 0.313218 0.022073
0.829059 0.312490 0.021343
0.860532 0.311771 0.020622
0.892006 0.311062 0.019910
0.923479 0.310362 0.019207
0.954953 0.309671 0.018513
0.986426 0.308990 0.017829
1.000000 0.308318 0.017155
1.000000 0.307656 0.016489
0.039948 0.362653 0.039227
0.071369 0.361730 0.038305
0.102795 0.360816 0.037392
0.134226 0.359912 0.036488
0.165662 0.359016 0.035593
0.197103 0.358131 0.034708
0.228548 0.357254 0.033832
0.259997 0.356387 0.032965
0.291451 0.355529 0.032107
0.322908 0.354681 0.031259
0.354369 0.353841 0.030420
0.385834 0.353011 0.029591
0.417301 0.352191 0.028770
0.448771 0.351379 0.027959
0.480245 0.350577 0.027158
0.511720 0.349785 0.026365
0.543198 0.349001 0.025582
0.574678 0.348227 0.024808
0.606160 0.347463 0.024044
0.637643 0.346707 0.023289
0.669128 0.345961 0.022543
0.700614 0.345224 0.021806
0.732101 0.344497 0.021079
0.763588 0.343779 0.020361
0.795076 0.343070 0.019653
0.826565 0.342371 0.018953
0.858053 0.341681 0.018263
0.889541 0.341000 0.017583
0.921029 0.340329 0.016911
0.952517 0.339667 0.016249
0.984003 0.339014 0.015597
1.000000 0.338371 0.014953
1.000000 0.337736 0.014319
0.037036 0.391895 0.036161
0.068484 0.391002 0.035270
0.099936 0.390118 0.034388
0.131392 0.389243 0.033515
0.162854 0.388377 0.032652
0.194319 0.387521 0.031798
0.225788 0.386673 0.030953
0.257262 0.385835 0.030117
0.288738 0.385007 0.029291
0.320218 0.384187 0.028474
0.351701 0.383377 0.027667
0.383188 0.382576 0.026868
0.414676 0.381785 0.026079
0.446167 0.381002 0.025299
0.477661 0.380229 0.024529
0.509156 0.379465 0.023768
0.540653 0.378711 0.023016
0.572152 0.377966 0.022274
0.603652 0.377230 0.021541
0.635153 0.376503 0.020817
0.666655 0.375786 0.020102
0.698158 0.375077 0.019397
0.729661 0.374379 0.018701
0.761164 0.373689 0.018014
0.792668 0.373009 0.017337
0.824171 0.372338 0.016669
0.855674 0.371676 0.016011
0.887176 0.371024 0.015361
0.918677 0.370381 0.014721
0.950177 0.369747 0.014090
0.981676 0.369123 0.013469
1.000000 0.368508 0.012857
1.000000 0.367902 0.012254
0.034245 0.421231 0.033200
0.065718 0.420367 0.032340
0.097195 0.419512 0.031489
0.128677 0.418666 0.030647
0.160162 0.417829 0.029815
0.191652 0.417002 0.028993
0.223144 0.416183 0.028179
0.254641 0.415374 0.027375
0.286140 0.414575 0.026580
0.317642 0.413784 0.025794
0.349146 0.413003 0.025018
0.380653 0.412230 0.024251
0.412162 0.411468 0.023493
0.443673 0.410714 0.022745
0.475186 0.409969 0.022006
0.506700 0.409234 0.021276
0.538216 0.408508 0.020556
0.569733 0.407792 0.019844
0.601250 0.407084 0.019143
0.632768 0.406386 0.018450
0.664287 0.405697 0.017767
0.695805 0.405017 0.017093
0.727324 0.404347 0.016428
0.758842 0.403685 0.015773
0.790360 0.403033 0.015127
0.821877 0.402390 0.014490
0.853393 0.401757 0.013863
0.884908 0.401133 0.013245
0.916422 0.400518 0.012637
0.947934 0.399912 0.012037
0.979444 0.399315 0.011447
1.000000 0.398728 0.010866
1.000000 0.398150 0.010295
0.031574 0.450658 0.030343
0.063072 0.449823 0.029515
0.094574 0.448996 0.028695
0.126080 0.448179 0.027885
0.157589 0.447371 0.027084
0.189101 0.446572 0.026293
0.220616 0.445783 0.025511
0.252134 0.445002 0.024738
0.283655 0.444231 0.023974
0.315178 0.443469 0.023220
0.346703 0.442716 0.022475
0.378230 0.441973 0.021739
0.409759 0.441238 0.021013
0.441289 0.440513 0.020296
0.472821 0.439797 0.019588
0.504353 0.439090 0.018889
0.535886 0.438392 0.018200
0.567420 0.437704 0.017520
0.598954 0.437024 0.016850
0.630488 0.436354 0.016189
0.662023 0.435693 0.015537
0.693556 0.435041 0.014894
0.725090 0.434399 0.014261
0.756622 0.433766 0.013637
0.788154 0.433141 0.013023
0.819684 0.432526 0.012417
0.851213 0.431921 0.011821
0.882740 0.431324 0.011235
0.914265 0.430737 0.010657
0.945788 0.430159 0.010089
0.977309 0.429590 0.009531
1.000000 0.429030 0.008981
1.000000 0.428480 0.008441
0.029024 0.480174 0.027593
0.060546 0.479368 0.026795
0.092072 0.478570 0.026007
0.123601 0.477781 0.025228
0.155132 0.477002 0.024459
0.186667 0.476231 0.023698
0.218204 0.475470 0.022947
0.249743 0.474718 0.022206
0.281285 0.473975 0.021473
0.312828 0.473241 0.020750
0.344373 0.472517 0.020037
0.375919 0.471801 0.019332
0.407467 0.471095 0.018637
0.439015 0.470397 0.017952
0.470565 0.469709 0.017275
0.502114 0.469030 0.016608
0.533664 0.468361 0.015950
0.565214 0.467700 0.015302
0.596764 0.467049 0.014663
0.628314 0.466406 0.014033
0.659863 0.465773 0.013412
0.691411 0.465149 0.012801
0.722958 0.464534 0.012199
0.754504 0.463928 0.011607
0.786048 0.463332 0.011023
0.817590 0.462744 0.010449
0.849131 0.462166 0.009885
0.880669 0.461597 0.009330
0.912205 0.461037 0.008784
0.943739 0.460486 0.008247
0.975269 0.459945 0.007720
1.000000 0.459412 0.007202
1.000000 0.458889 0.006693
0.026594 0.509779 0.024947
0.058140 0.509000 0.024181
0.089689 0.508231 0.023424
0.121240 0.507470 0.022676
0.152794 0.506719 0.021938
0.184350 0.505977 0.021209
0.215908 0.505244 0.020490
0.247468 0.504520 0.019779
0.279029 0.503805 0.019078
0.310592 0.503099 0.018387
0.342156 0.502402 0.017704
0.373721 0.501714 0.017031
0.405286 0.501036 0.016368
0.436852 0.500366 0.015713
0.468418 0.499706 0.015068
0.499984 0.499055 0.014432
0.531550 0.498412 0.013806
0.563116 0.497779 0.013189
0.594681 0.497155 0.012581
0.626245 0.496541 0.011982
0.657807 0.495935 0.011393
0.689369 0.495338 0.010813
0.720929 0.494751 0.010243
0.752487 0.494172 0.009682
0.784043 0.493603 0.009130
0.815597 0.493043 0.008587
0.847149 0.492492 0.008054
0.878698 0.491950 0.007530
0.910243 0.491417 0.007015
0.941786 0.490893 0.006510
0.973326 0.490378 0.006014
1.000000 0.489873 0.005528
1.000000 0.489376 0.005050
0.024286 0.539470 0.022406
0.055854 0.538719 0.021672
0.087425 0.537978 0.020946
0.118998 0.537245 0.020230
0.150573 0.536522 0.019523
0.182150 0.535807 0.018825
0.213728 0.535102 0.018137
0.245307 0.534406 0.017458
0.276888 0.533718 0.016789
0.308469 0.533040 0.016128
0.340051 0.532371 0.015477
0.371634 0.531711 0.014835
0.403216 0.531060 0.014203
0.434799 0.530418 0.013580
0.466381 0.529785 0.012966
0.497963 0.529161 0.012362
0.529544 0.528546 0.011767
0.561124 0.527940 0.011181
0.592703 0.527343 0.010605
0.624280 0.526756 0.010037
0.655856 0.526177 0.009480
0.687431 0.525607 0.008931
0.719003 0.525047 0.008392
0.750572 0.524495 0.007862
0.782140 0.523953 0.007342
0.813704 0.523420 0.006830
0.845266 0.522895 0.006329
0.876824 0.522380 0.005836
0.908379 0.521874 0.005353
0.939931 0.521377 0.004879
0.971478 0.520889 0.004414
1.000000 0.520410 0.003959
1.000000 0.519940 0.003513
0.022099 0.569246 0.019971
0.053689 0.568523 0.019268
0.085281 0.567809 0.018574
0.116875 0.567104 0.017889
0.148470 0.566408 0.017213
0.180066 0.565721 0.016547
0.211664 0.565043 0.015890
0.243262 0.564374 0.015242
0.274861 0.563714 0.014604
0.306460 0.563063 0.013975
0.338059 0.562422 0.013356
0.369659 0.561789 0.012745
0.401257 0.561165 0.012144
0.432856 0.560550 0.011552
0.464453 0.559944 0.010970
0.496050 0.559347 0.010397
0.527645 0.558759 0.009833
0.559239 0.558180 0.009279
0.590831 0.557610 0.008734
0.622422 0.557050 0.008198
0.654010 0.556498 0.007672
0.685596 0.555955 0.007154
0.717179 0.555421 0.006647
0.748760 0.554896 0.006148
0.780337 0.554381 0.005659
0.811912 0.553874 0.005179
0.843482 0.553376 0.004709
0.875049 0.552887 0.004247
0.906613 0.552408 0.003795
0.938172 0.551937 0.003353
0.969726 0.551475 0.002920
1.000000 0.551022 0.002496
1.000000 0.550579 0.002081
0.020033 0.599106 0.017642
0.051644 0.598410 0.016970
0.083257 0.597723 0.016307
0.114870 0.597046 0.015653
0.146485 0.596377 0.015009
0.178100 0.595717 0.014374
0.209716 0.595066 0.013749
0.241332 0.594424 0.013132
0.272949 0.593791 0.012525
0.304565 0.593168 0.011928
0.336180 0.592553 0.011339
0.367796 0.591947 0.010760
0.399410 0.591349 0.010191
0.431023 0.590761 0.009630
0.462635 0.590182 0.009079
0.494246 0.589612 0.008538
0.525854 0.589051 0.008005
0.557461 0.588499 0.007482
0.589066 0.587955 0.006968
0.620668 0.587421 0.006464
0.652268 0.586896 0.005969
0.683865 0.586379 0.005483
0.715458 0.585872 0.005007
0.747049 0.585373 0.004540
0.778636 0.584884 0.004082
0.810219 0.584403 0.003633
0.841798 0.583932 0.003194
0.873373 0.583469 0.002764
0.904944 0.583015 0.002344
0.936510 0.582571 0.001932
0.968071 0.582135 0.001531
0.999627 0.581708 0.001138
1.000000 0.581290 0.000755
0.018089 0.629047 0.015418
0.049720 0.628378 0.014777
0.081352 0.627719 0.014145
0.112985 0.627068 0.013523
0.144618 0.626426 0.012910
0.176251 0.625793 0.012307
0.207885 0.625169 0.011712
0.239518 0.624554 0.011128
0.271151 0.623948 0.010552
0.302783 0.623351 0.009986
0.334415 0.622762 0.009429
0.366045 0.622183 0.008881
0.397674 0.621612 0.008343
0.429301 0.621051 0.007814
0.460927 0.620498 0.007294
0.492550 0.619954 0.006784
0.524172 0.619419 0.006283
0.555791 0.618893 0.005791
0.587407 0.618376 0.005309
0.619020 0.617868 0.004836
0.650630 0.617369 0.004372
0.682237 0.616879 0.003917
0.713840 0.616397 0.003472
0.745440 0.615925 0.003036
0.777035 0.615461 0.002610
0.808627 0.615007 0.002193
0.840213 0.614561 0.001785
0.871795 0.614124 0.001386
0.903372 0.613696 0.000997
0.934944 0.613277 0.000617
0.966511 0.612867 0.000247
0.998072 0.612466 0.000000
1.000000 0.612074 0.000000
0.016265 0.659068 0.013299
0.047916 0.658426 0.012689
0.079567 0.657794 0.012089
0.111218 0.657169 0.011498
0.142869 0.656554 0.010917
0.174519 0.655948 0.010345
0.206170 0.655350 0.009782
0.237819 0.654762 0.009228
0.269468 0.654182 0.008684
0.301115 0.653611 0.008149
0.332762 0.653049 0.007623
0.364406 0.652496 0.007107
0.396049 0.651951 0.006600
0.427689 0.651416 0.006103
0.459328 0.650889 0.005614
0.490963 0.650372 0.005135
0.522597 0.649863 0.004666
0.554227 0.649363 0.004205
0.585854 0.648872 0.003754
0.617477 0.648389 0.003313
0.649097 0.647916 0.002880
0.680713 0.647452 0.002457
0.712325 0.646996 0.002043
0.743933 0.646549 0.001639
0.775536 0.646111 0.001244
0.807134 0.645682 0.000858
0.838728 0.645262 0.000481
0.870316 0.644851 0.000114
0.901899 0.644448 0.000000
0.933476 0.644054 0.000000
0.965047 0.643670 0.000000
0.996612 0.643294 0.000000
1.000000 0.642926 0.000000
0.014563 0.689168 0.011286
0.046232 0.688553 0.010707
0.077901 0.687946 0.010139
0.109570 0.687349 0.009579
0.141238 0.686760 0.009029
0.172905 0.686179 0.008488
0.204571 0.685608 0.007957
0.236236 0.685046 0.007434
0.267900 0.684492 0.006922
0.299561 0.683947 0.006418
0.331221 0.683411 0.005924
0.362879 0.682884 0.005439
0.394535 0.682365 0.004963
0.426188 0.681856 0.004497
0.457838 0.681355 0.004040
0.489485 0.680863 0.003592
0.521129 0.680380 0.003154
0.552770 0.679905 0.002725
0.584407 0.679440 0.002305
0.616040 0.678983 0.001895
0.647668 0.678535 0.001494
0.679293 0.678096 0.001102
0.710913 0.677666 0.000720
0.742528 0.677245 0.000347
0.774137 0.676832 0.000000
0.805742 0.676428 0.000000
0.837341 0.676033 0.000000
0.868935 0.675647 0.000000
0.900522 0.675269 0.000000
0.932103 0.674901 0.000000
0.963678 0.674541 0.000000
0.995246 0.674190 0.000000
1.000000 0.673847 0.000000
0.012983 0.719346 0.009378
0.044669 0.718756 0.008831
0.076355 0.718176 0.008294
0.108040 0.717604 0.007765
0.139724 0.717041 0.007247
0.171407 0.716487 0.006737
0.203089 0.715941 0.006237
0.234768 0.715404 0.005746
0.266446 0.714876 0.005265
0.298121 0.714357 0.004792
0.329794 0.713847 0.004330
0.361465 0.713345 0.003876
0.393132 0.712852 0.003432
0.424797 0.712368 0.002997
0.456458 0.711893 0.002571
0.488116 0.711426 0.002155
0.519770 0.710969 0.001748
0.551420 0.710520 0.001350
0.583066 0.710079 0.000962
0.614707 0.709648 0.000583
0.646344 0.709225 0.000213
0.677976 0.708811 0.000000
0.709602 0.708406 0.000000
0.741224 0.708009 0.000000
0.772840 0.707622 0.000000
0.804450 0.707243 0.000000
0.836054 0.706872 0.000000
0.867652 0.706511 0.000000
0.899243 0.706158 0.000000
0.930827 0.705814 0.000000
0.962405 0.705479 0.000000
0.993976 0.705153 0.000000
1.000000 0.704835 0.000000
0.011524 0.749598 0.007575
0.043227 0.749034 0.007060
0.074929 0.748480 0.006554
0.106630 0.747933 0.006057
0.138329 0.747396 0.005570
0.170027 0.746867 0.005092
0.201722 0.746347 0.004623
0.233416 0.745836 0.004163
0.265107 0.745334 0.003713
0.296795 0.744840 0.003272
0.328480 0.744355 0.002841
0.360162 0.743879 0.002419
0.391841 0.743411 0.002006
0.423516 0.742952 0.001602
0.455188 0.742502 0.001208
0.486855 0.742060 0.000823
0.518518 0.741628 0.000447
0.550177 0.741203 0.000081
0.581831 0.740788 0.000000
0.613480 0.740381 0.000000
0.645124 0.739984 0.000000
0.676762 0.739594 0.000000
0.708395 0.739214 0.000000
0.740022 0.738842 0.000000
0.771643 0.738479 0.000000
0.803257 0.738124 0.000000
0.834865 0.737779 0.000000
0.866467 0.737442 0.000000
0.898061 0.737113 0.000000
0.929648 0.736794 0.000000
0.961228 0.736483 0.000000
0.992800 0.736180 0.000000
1.000000 0.735887 0.000000
0.010186 0.779924 0.005879
0.041905 0.779386 0.005395
0.073623 0.778857 0.004920
0.105339 0.778336 0.004454
0.137052 0.777824 0.003998
0.168764 0.777320 0.003552
0.200473 0.776826 0.003114
0.232179 0.776340 0.002686
0.263882 0.775862 0.002267
0.295582 0.775393 0.001858
0.327279 0.774933 0.001457
0.358972 0.774482 0.001067
0.390661 0.774039 0.000685
0.422346 0.773605 0.000313
0.454027 0.773180 0.000000
0.485703 0.772763 0.000000
0.517374 0.772355 0.000000
0.549041 0.771955 0.000000
0.580702 0.771565 0.000000
0.612357 0.771183 0.000000
0.644007 0.770809 0.000000
0.675652 0.770444 0.000000
0.707290 0.770088 0.000000
0.738921 0.769741 0.000000
0.770546 0.769402 0.000000
0.802165 0.769072 0.000000
0.833776 0.768750 0.000000
0.865380 0.768437 0.000000
0.896976 0.768133 0.000000
0.928565 0.767837 0.000000
0.960145 0.767550 0.000000
0.991718 0.767272 0.000000
1.000000 0.767002 0.000000
0.008970 0.810323 0.004287
0.040704 0.809810 0.003835
0.072436 0.809305 0.003391
0.104166 0.808809 0.002957
0.135893 0.808322 0.002532
0.167618 0.807844 0.002117
0.199339 0.807374 0.001711
0.231057 0.806913 0.001314
0.262772 0.806460 0.000927
0.294483 0.806016 0.000548
0.326190 0.805581 0.000180
0.357893 0.805154 0.000000
0.389592 0.804736 0.000000
0.421286 0.804326 0.000000
0.452975 0.803925 0.000000
0.484659 0.803533 0.000000
0.516338 0.803149 0.000000
0.548011 0.802774 0.000000
0.579678 0.802407 0.000000
0.611340 0.802049 0.000000
0.642995 0.801700 0.000000
0.674644 0.801359 0.000000
0.706287 0.801027 0.000000
0.737922 0.800704 0.000000
0.769550 0.800389 0.000000
0.801171 0.800082 0.000000
0.832785 0.799785 0.000000
0.864391 0.799495 0.000000
0.895988 0.799215 0.000000
0.927578 0.798943 0.000000
0.959158 0.798679 0.000000
0.990731 0.798424 0.000000
1.000000 0.798178 0.000000
0.007875 0.840791 0.002801
0.039623 0.840303 0.002380
0.071369 0.839824 0.001968
0.103112 0.839352 0.001565
0.134852 0.838890 0.001172
0.166589 0.838436 0.000788
0.198322 0.837991 0.000413
0.230051 0.837554 0.000048
0.261776 0.837126 0.000000
0.293497 0.836706 0.000000
0.325214 0.836295 0.000000
0.356926 0.835893 0.000000
0.388633 0.835499 0.000000
0.420335 0.835113 0.000000
0.452032 0.834736 0.000000
0.483723 0.834368 0.000000
0.515408 0.834008 0.000000
0.547088 0.833657 0.000000
0.578761 0.833314 0.000000
