library/cube/Digital_Film_003.cube
# CINEGRADE LAB — Premium Cinematic LUT
# Title: Digital Film
# Category: ARRI Alexa Look
# Description: Digital cinema natural skin tones with wide dynamic range emulation
# Mood: Cinematic, natural, professional
# Variant: 4
# Generated: 2026-05-21T16:12:52.529829
TITLE "Digital Film"
LUT_3D_SIZE 9
0.000000 0.000000 0.000000
0.076244 0.001807 0.001807
0.197258 0.004676 0.004676
0.319854 0.007582 0.007582
0.443402 0.010511 0.010511
0.567637 0.013456 0.013456
0.692413 0.016413 0.016413
0.817633 0.019382 0.019382
0.919292 0.021791 0.021791
0.006629 0.087785 0.006629
0.082873 0.089592 0.008436
0.212428 0.092663 0.011507
0.337476 0.095627 0.014471
0.463495 0.098615 0.017459
0.590215 0.101619 0.020463
0.699042 0.104198 0.023042
0.824262 0.107167 0.026011
0.925920 0.109576 0.028420
0.016107 0.213309 0.016107
0.092352 0.215116 0.017915
0.213365 0.217985 0.020783
0.346955 0.221152 0.023950
0.472974 0.224139 0.026937
0.599694 0.227143 0.029941
0.726965 0.230160 0.032958
0.854690 0.233187 0.035986
0.935399 0.235101 0.037899
0.025704 0.340397 0.025704
0.101949 0.342204 0.027512
0.222962 0.345073 0.030380
0.345558 0.347979 0.033286
0.469106 0.350908 0.036215
0.609291 0.354231 0.039538
0.736562 0.357248 0.042555
0.864286 0.360275 0.045582
0.944996 0.362189 0.047496
0.035373 0.468445 0.035373
0.111618 0.470252 0.037181
0.232631 0.473121 0.040049
0.355227 0.476027 0.042955
0.478775 0.478956 0.045884
0.603011 0.481901 0.048829
0.746231 0.485295 0.052224
0.873955 0.488323 0.055252
0.954665 0.490236 0.057165
0.045095 0.597191 0.045095
0.121340 0.598999 0.046903
0.242353 0.601867 0.049771
0.364949 0.604773 0.052677
0.488497 0.607702 0.055606
0.612733 0.610647 0.058551
0.737508 0.613605 0.061509
0.883677 0.617070 0.064974
0.964387 0.618983 0.066887
0.054859 0.726489 0.054859
0.131103 0.728296 0.056666
0.252117 0.731165 0.059535
0.374712 0.734071 0.062441
0.498261 0.736999 0.065370
0.622496 0.739944 0.068315
0.747272 0.742902 0.071272
0.872492 0.745870 0.074241
0.974150 0.748280 0.076650
0.064657 0.856241 0.064657
0.140901 0.858048 0.066464
0.261914 0.860917 0.069333
0.384510 0.863823 0.072239
0.508058 0.866752 0.075167
0.632294 0.869697 0.078112
0.757070 0.872655 0.081070
0.882290 0.875623 0.084039
0.983948 0.878033 0.086448
0.073308 0.970808 0.073308
0.149552 0.972615 0.075115
0.270566 0.975484 0.077984
0.393162 0.978390 0.080890
0.516710 0.981319 0.083819
0.640945 0.984264 0.086764
0.765721 0.987221 0.089721
0.890941 0.990190 0.092690
0.992599 0.992599 0.095099
0.000756 0.000756 0.092485
0.077001 0.002564 0.094293
0.198014 0.005432 0.097161
0.320610 0.008338 0.100067
0.444158 0.011267 0.102996
0.568394 0.014212 0.105941
0.693169 0.017170 0.108899
0.818389 0.020138 0.111867
0.920048 0.022548 0.114277
0.007385 0.088541 0.099114
0.083630 0.090349 0.100921
0.204643 0.093217 0.103790
0.327239 0.096123 0.106696
0.450787 0.099052 0.109625
0.575023 0.101997 0.112570
0.699798 0.104955 0.115528
0.825018 0.107923 0.118496
0.926677 0.110333 0.120906
0.016864 0.214066 0.108593
0.093108 0.215873 0.110400
0.214122 0.218741 0.113269
0.347711 0.221908 0.116435
0.473730 0.224895 0.119423
0.600450 0.227899 0.122426
0.727721 0.230916 0.125443
0.834497 0.233447 0.127974
0.936155 0.235857 0.130384
0.026461 0.341153 0.118189
0.102705 0.342961 0.119997
0.223718 0.345829 0.122865
0.346314 0.348735 0.125771
0.483327 0.351983 0.129019
0.610047 0.354987 0.132023
0.737318 0.358004 0.135040
0.865043 0.361032 0.138068
0.945752 0.362945 0.139981
0.036130 0.469201 0.127859
0.112374 0.471009 0.129666
0.233387 0.473877 0.132535
0.355983 0.476783 0.135441
0.479531 0.479712 0.138369
0.603767 0.482657 0.141314
0.746987 0.486052 0.144709
0.874712 0.489080 0.147737
0.955421 0.490993 0.149650
0.045852 0.597948 0.137581
0.122096 0.599755 0.139388
0.243109 0.602624 0.142257
0.365705 0.605530 0.145163
0.489253 0.608458 0.148091
0.613489 0.611403 0.151036
0.738264 0.614361 0.153994
0.884434 0.617826 0.157459
0.965143 0.619739 0.159372
0.055615 0.727245 0.147344
0.131860 0.729052 0.149151
0.252873 0.731921 0.152020
0.375469 0.734827 0.154926
0.499017 0.737756 0.157855
0.623253 0.740701 0.160800
0.748028 0.743658 0.163758
0.873248 0.746627 0.166726
0.974907 0.749037 0.169136
0.065413 0.856997 0.157142
0.141658 0.858805 0.158949
0.262671 0.861673 0.161818
0.385267 0.864580 0.164724
0.508815 0.867508 0.167653
0.633051 0.870453 0.170598
0.757826 0.873411 0.173555
0.883046 0.876379 0.176524
0.984705 0.878789 0.178934
0.074064 0.971564 0.165793
0.150309 0.973372 0.167601
0.271322 0.976240 0.170469
0.393918 0.979146 0.173375
0.517466 0.982075 0.176304
0.641702 0.985020 0.179249
0.766477 0.987978 0.182207
0.891697 0.990946 0.185175
0.993356 0.993356 0.187585
0.001673 0.001673 0.204592
0.077918 0.003481 0.206400
0.198931 0.006349 0.209268
0.321527 0.009255 0.212175
0.445075 0.012184 0.215103
0.569311 0.015129 0.218048
0.694086 0.018087 0.221006
0.819306 0.021055 0.223974
0.920965 0.023465 0.226384
0.008302 0.089458 0.211221
0.084546 0.091265 0.213029
0.205560 0.094134 0.215897
0.328156 0.097040 0.218803
0.451704 0.099969 0.221732
0.575939 0.102914 0.224677
0.700715 0.105871 0.227635
0.825935 0.108840 0.230603
0.927594 0.111250 0.233013
0.017781 0.214982 0.220700
0.094025 0.216790 0.222507
0.215038 0.219658 0.225376
0.337634 0.222564 0.228282
0.461182 0.225493 0.231211
0.585418 0.228438 0.234156
0.710193 0.231396 0.237113
0.835414 0.234364 0.240082
0.937072 0.236774 0.242491
0.027377 0.342070 0.230297
0.103622 0.343878 0.232104
0.224635 0.346746 0.234973
0.347231 0.349652 0.237879
0.484244 0.352900 0.241127
0.610964 0.355904 0.244130
0.738235 0.358921 0.247147
0.865959 0.361949 0.250175
0.946669 0.363862 0.252088
0.037047 0.470118 0.239966
0.113291 0.471925 0.241773
0.234304 0.474794 0.244642
0.356900 0.477700 0.247548
0.480448 0.480629 0.250477
0.620633 0.483952 0.253800
0.747904 0.486969 0.256817
0.875629 0.489996 0.259844
0.956338 0.491910 0.261757
0.046769 0.598865 0.249688
0.123013 0.600672 0.251495
0.244026 0.603541 0.254364
0.366622 0.606447 0.257270
0.490170 0.609375 0.260199
0.614406 0.612320 0.263143
0.739181 0.615278 0.266101
0.885351 0.618743 0.269566
0.966060 0.620656 0.271479
0.056532 0.728162 0.259451
0.132777 0.729969 0.261259
0.253790 0.732838 0.264127
0.376386 0.735744 0.267033
0.499934 0.738673 0.269962
0.624169 0.741618 0.272907
0.748945 0.744575 0.275865
0.874165 0.747544 0.278833
0.975824 0.749953 0.281243
0.066330 0.857914 0.269249
0.142574 0.859722 0.271057
0.263588 0.862590 0.273925
0.386184 0.865496 0.276831
0.509732 0.868425 0.279760
0.633967 0.871370 0.282705
0.758743 0.874328 0.285663
0.883963 0.877296 0.288631
0.985621 0.879706 0.291041
0.074981 0.972481 0.277900
0.151226 0.974289 0.279708
0.272239 0.977157 0.282576
0.394835 0.980063 0.285483
0.518383 0.982992 0.288411
0.642619 0.985937 0.291356
0.767394 0.988895 0.294314
0.892614 0.991863 0.297282
0.994273 0.994273 0.299692
0.002606 0.002606 0.318621
0.078850 0.004413 0.320428
0.199863 0.007282 0.323297
0.322459 0.010188 0.326203
0.446007 0.013116 0.329131
0.570243 0.016061 0.332076
0.695019 0.019019 0.335034
0.820239 0.021987 0.338002
0.921897 0.024397 0.340412
0.009235 0.090391 0.325249
0.085479 0.092198 0.327057
0.206492 0.095067 0.329925
0.329088 0.097973 0.332831
0.452636 0.100901 0.335760
0.576872 0.103846 0.338705
0.701647 0.106804 0.341663
0.826868 0.109772 0.344631
0.928526 0.112182 0.347041
0.018713 0.215915 0.334728
0.094958 0.217722 0.336535
0.215971 0.220591 0.339404
0.338567 0.223497 0.342310
0.462115 0.226426 0.345239
0.586351 0.229371 0.348184
0.711126 0.232328 0.351141
0.836346 0.235297 0.354110
0.938005 0.237706 0.356520
0.028310 0.343003 0.344325
0.104554 0.344810 0.346132
0.225568 0.347679 0.349001
0.348164 0.350585 0.351907
0.471712 0.353513 0.354835
0.595947 0.356458 0.357780
0.720723 0.359416 0.360738
0.845943 0.362384 0.363706
0.947601 0.364794 0.366116
0.037979 0.471051 0.353994
0.114224 0.472858 0.355801
0.235237 0.475727 0.358670
0.357833 0.478633 0.361576
0.481381 0.481561 0.364505
0.621566 0.484884 0.367828
0.748837 0.487901 0.370845
0.876561 0.490929 0.373872
0.957271 0.492842 0.375785
0.047701 0.599797 0.363716
0.123946 0.601604 0.365523
0.244959 0.604473 0.368392
0.367555 0.607379 0.371298
0.491103 0.610308 0.374227
0.615338 0.613253 0.377172
0.758559 0.616648 0.380567
0.886283 0.619675 0.383594
0.966993 0.621589 0.385507
0.057465 0.729094 0.373479
0.133709 0.730902 0.375287
0.254722 0.733770 0.378155
0.377318 0.736676 0.381061
0.500866 0.739605 0.383990
0.625102 0.742550 0.386935
0.749877 0.745508 0.389893
0.875098 0.748476 0.392861
0.976756 0.750886 0.395271
0.067263 0.858847 0.383277
0.143507 0.860654 0.385085
0.264520 0.863523 0.387953
0.387116 0.866429 0.390859
0.510664 0.869358 0.393788
0.634900 0.872303 0.396733
0.759675 0.875260 0.399691
0.884895 0.878229 0.402659
0.986554 0.880638 0.405069
0.075914 0.973414 0.391929
0.152158 0.975221 0.393736
0.273171 0.978090 0.396605
0.395767 0.980996 0.399511
0.519315 0.983924 0.402439
0.643551 0.986869 0.405384
0.768327 0.989827 0.408342
0.893547 0.992795 0.411310
0.995205 0.995205 0.413720
0.003548 0.003548 0.433876
0.079793 0.005356 0.435684
0.200806 0.008224 0.438552
0.323402 0.011130 0.441458
0.446950 0.014059 0.444387
0.571186 0.017004 0.447332
0.695961 0.019962 0.450290
0.821181 0.022930 0.453258
0.922840 0.025340 0.455668
0.010177 0.091333 0.440505
0.086422 0.093141 0.442312
0.207435 0.096009 0.445181
0.330031 0.098915 0.448087
0.453579 0.101844 0.451016
0.577815 0.104789 0.453961
0.702590 0.107747 0.456918
0.827810 0.110715 0.459887
0.929469 0.113125 0.462297
0.019656 0.216857 0.449984
0.095900 0.218665 0.451791
0.216914 0.221533 0.454660
0.339509 0.224440 0.457566
0.463057 0.227368 0.460494
0.587293 0.230313 0.463439
0.712069 0.233271 0.466397
0.837289 0.236239 0.469365
0.938947 0.238649 0.471775
0.029253 0.343945 0.459580
0.105497 0.345753 0.461388
0.226510 0.348621 0.464256
0.349106 0.351527 0.467162
0.472654 0.354456 0.470091
0.596890 0.357401 0.473036
0.721665 0.360359 0.475994
0.846885 0.363327 0.478962
0.948544 0.365737 0.481372
0.038922 0.471993 0.469250
0.115166 0.473801 0.471057
0.236179 0.476669 0.473926
0.358775 0.479575 0.476832
0.482323 0.482504 0.479760
0.606559 0.485449 0.482705
0.731334 0.488407 0.485663
0.856555 0.491375 0.488631
0.958213 0.493785 0.491041
0.048644 0.600740 0.478972
0.124888 0.602547 0.480779
0.245901 0.605416 0.483647
0.368497 0.608322 0.486554
0.492045 0.611250 0.489482
0.616281 0.614195 0.492427
0.759501 0.617590 0.495822
0.887226 0.620618 0.498850
0.967935 0.622531 0.500763
0.058407 0.730037 0.488735
0.134652 0.731844 0.490542
0.255665 0.734713 0.493411
0.378261 0.737619 0.496317
0.501809 0.740548 0.499246
0.626045 0.743493 0.502191
0.750820 0.746450 0.505148
0.896989 0.749915 0.508613
0.977699 0.751829 0.510527
0.068205 0.859789 0.498533
0.144450 0.861597 0.500340
0.265463 0.864465 0.503209
0.388059 0.867371 0.506115
0.511607 0.870300 0.509044
0.635842 0.873245 0.511989
0.760618 0.876203 0.514946
0.885838 0.879171 0.517915
0.987497 0.881581 0.520324
0.076856 0.974356 0.507184
0.153101 0.976164 0.508992
0.274114 0.979032 0.511860
0.396710 0.981938 0.514766
0.520258 0.984867 0.517695
0.644494 0.987812 0.520640
0.769269 0.990770 0.523598
0.894489 0.993738 0.526566
0.996148 0.996148 0.528976
0.004498 0.004498 0.550041
0.080743 0.006306 0.551848
0.201756 0.009174 0.554717
0.324352 0.012080 0.557623
0.447900 0.015009 0.560552
0.572136 0.017954 0.563497
0.696911 0.020912 0.566454
0.822131 0.023880 0.569423
0.923790 0.026290 0.571833
0.011127 0.092283 0.556670
0.087372 0.094091 0.558477
0.208385 0.096959 0.561346
0.330981 0.099865 0.564252
0.454529 0.102794 0.567181
0.578765 0.105739 0.570126
0.703540 0.108697 0.573083
0.828760 0.111665 0.576052
0.930419 0.114075 0.578461
0.020606 0.217808 0.566149
0.096850 0.219615 0.567956
0.217864 0.222483 0.570824
0.340459 0.225390 0.573731
0.464008 0.228318 0.576659
0.588243 0.231263 0.579604
0.713019 0.234221 0.582562
0.838239 0.237189 0.585530
0.939897 0.239599 0.587940
0.030203 0.344895 0.575745
0.106447 0.346703 0.577553
0.227460 0.349571 0.580421
0.350056 0.352477 0.583327
0.473604 0.355406 0.586256
0.597840 0.358351 0.589201
0.722615 0.361309 0.592159
0.847836 0.364277 0.595127
0.949494 0.366687 0.597537
0.039872 0.472943 0.585414
0.116116 0.474751 0.587222
0.237129 0.477619 0.590090
0.359725 0.480525 0.592996
0.483273 0.483454 0.595925
0.607509 0.486399 0.598870
0.732284 0.489357 0.601828
0.857505 0.492325 0.604796
0.959163 0.494735 0.607206
0.049594 0.601690 0.595136
0.125838 0.603497 0.596944
0.246851 0.606366 0.599812
0.369447 0.609272 0.602718
0.492995 0.612200 0.605647
0.617231 0.615145 0.608592
0.742006 0.618103 0.611550
0.867227 0.621071 0.614518
0.968885 0.623481 0.616928
0.059357 0.730987 0.604900
0.135602 0.732794 0.606707
0.256615 0.735663 0.609576
0.379211 0.738569 0.612482
0.502759 0.741498 0.615411
0.626995 0.744443 0.618356
0.751770 0.747400 0.621313
0.897939 0.750865 0.624778
0.978649 0.752779 0.626691
0.069155 0.860739 0.614698
0.145400 0.862547 0.616505
0.266413 0.865415 0.619374
0.389009 0.868322 0.622280
0.512557 0.871250 0.625209
0.636793 0.874195 0.628154
0.761568 0.877153 0.631111
0.886788 0.880121 0.634080
0.988447 0.882531 0.636489
0.077806 0.975306 0.623349
0.154051 0.977114 0.625156
0.275064 0.979982 0.628025
0.397660 0.982888 0.630931
0.521208 0.985817 0.633860
0.645444 0.988762 0.636805
0.770219 0.991720 0.639762
0.895439 0.994688 0.642731
0.997098 0.997098 0.645141
0.005454 0.005454 0.666930
0.081699 0.007262 0.668738
0.202712 0.010130 0.671606
0.325308 0.013036 0.674512
0.448856 0.015965 0.677441
0.573092 0.018910 0.680386
0.697867 0.021868 0.683344
0.823087 0.024836 0.686312
0.924746 0.027246 0.688722
0.012083 0.093239 0.673559
0.088328 0.095046 0.675366
0.209341 0.097915 0.678235
0.331937 0.100821 0.681141
0.455485 0.103750 0.684070
0.579721 0.106695 0.687015
0.704496 0.109653 0.689972
0.829716 0.112621 0.692941
0.931375 0.115031 0.695351
0.021562 0.218763 0.683038
0.097806 0.220571 0.684845
0.218819 0.223439 0.687714
0.341415 0.226345 0.690620
0.464963 0.229274 0.693548
0.589199 0.232219 0.696493
0.713975 0.235177 0.699451
0.839195 0.238145 0.702419
0.940853 0.240555 0.704829
0.031159 0.345851 0.692634
0.107403 0.347659 0.694442
0.228416 0.350527 0.697310
0.351012 0.353433 0.700216
0.474560 0.356362 0.703145
0.598796 0.359307 0.706090
0.723571 0.362265 0.709048
0.848791 0.365233 0.712016
0.950450 0.367643 0.714426
0.040828 0.473899 0.702304
0.117072 0.475707 0.704111
0.238085 0.478575 0.706980
0.360681 0.481481 0.709886
0.484229 0.484410 0.712814
0.608465 0.487355 0.715759
0.733240 0.490313 0.718717
0.858461 0.493281 0.721685
0.960119 0.495691 0.724095
0.050550 0.602646 0.712026
0.126794 0.604453 0.713833
0.247807 0.607322 0.716701
0.370403 0.610228 0.719608
0.493951 0.613156 0.722536
0.618187 0.616101 0.725481
0.742962 0.619059 0.728439
0.868183 0.622027 0.731407
0.969841 0.624437 0.733817
0.060313 0.731943 0.721789
0.136558 0.733750 0.723596
0.257571 0.736619 0.726465
0.380167 0.739525 0.729371
0.503715 0.742454 0.732300
0.627951 0.745399 0.735245
0.752726 0.748356 0.738202
0.877946 0.751325 0.741171
0.979605 0.753734 0.743581
0.070111 0.861695 0.731587
0.146356 0.863503 0.733394
0.267369 0.866371 0.736263
0.389965 0.869277 0.739169
0.513513 0.872206 0.742098
0.637748 0.875151 0.745043
0.762524 0.878109 0.748000
0.887744 0.881077 0.750969
0.989403 0.883487 0.753378
0.078762 0.976262 0.740238
0.155007 0.978070 0.742046
0.276020 0.980938 0.744914
0.398616 0.983844 0.747820
0.522164 0.986773 0.750749
0.646400 0.989718 0.753694
0.771175 0.992676 0.756652
0.896395 0.995644 0.759620
0.998054 0.998054 0.762030
0.006415 0.006415 0.784422
0.082660 0.008223 0.786229
0.203673 0.011091 0.789098
0.326269 0.013997 0.792004
0.449817 0.016926 0.794933
0.574053 0.019871 0.797878
0.698828 0.022829 0.800836
0.824048 0.025797 0.803804
0.925707 0.028207 0.806214
0.013044 0.094200 0.791051
0.089288 0.096007 0.792858
0.210302 0.098876 0.795727
0.332898 0.101782 0.798633
0.456446 0.104711 0.801562
0.580681 0.107656 0.804507
0.705457 0.110613 0.807464
0.830677 0.113582 0.810433
0.932336 0.115992 0.812842
0.022523 0.219724 0.800530
0.098767 0.221532 0.802337
0.219780 0.224400 0.805206
0.342376 0.227306 0.808112
0.465924 0.230235 0.811040
0.590160 0.233180 0.813985
0.714935 0.236138 0.816943
0.840156 0.239106 0.819911
0.941814 0.241516 0.822321
0.032119 0.346812 0.810126
0.108364 0.348620 0.811934
0.229377 0.351488 0.814802
0.351973 0.354394 0.817708
0.475521 0.357323 0.820637
0.599757 0.360268 0.823582
0.724532 0.363226 0.826540
0.849752 0.366194 0.829508
0.951411 0.368604 0.831918
0.041789 0.474860 0.819795
0.118033 0.476667 0.821603
0.239046 0.479536 0.824471
0.361642 0.482442 0.827377
0.485190 0.485371 0.830306
0.609426 0.488316 0.833251
0.734201 0.491273 0.836209
0.859422 0.494242 0.839177
0.961080 0.496652 0.841587
0.051511 0.603607 0.829517
0.127755 0.605414 0.831325
0.248768 0.608283 0.834193
0.371364 0.611189 0.837099
0.494912 0.614117 0.840028
0.619148 0.617062 0.842973
0.743923 0.620020 0.845931
0.869143 0.622988 0.848899
0.970802 0.625398 0.851309
0.061274 0.732904 0.839281
0.137519 0.734711 0.841088
0.258532 0.737580 0.843957
0.381128 0.740486 0.846863
0.504676 0.743415 0.849792
0.628911 0.746360 0.852737
0.753687 0.749317 0.855694
0.878907 0.752286 0.858663
0.980566 0.754695 0.861072
0.071072 0.862656 0.849079
0.147316 0.864464 0.850886
0.268330 0.867332 0.853755
0.390926 0.870238 0.856661
0.514474 0.873167 0.859590
0.638709 0.876112 0.862535
0.763485 0.879070 0.865492
0.888705 0.882038 0.868461
0.990363 0.884448 0.870870
0.079723 0.977223 0.857730
0.155968 0.979031 0.859537
0.276981 0.981899 0.862406
0.399577 0.984805 0.865312
0.523125 0.987734 0.868241
0.647361 0.990679 0.871186
0.772136 0.993637 0.874144
0.897356 0.996605 0.877112
0.999015 0.999015 0.879522
0.007380 0.007380 0.902431
0.083625 0.009188 0.904238
0.204638 0.012056 0.907107
0.327234 0.014962 0.910013
0.450782 0.017891 0.912941
0.575018 0.020836 0.915886
0.699793 0.023794 0.918844
0.825013 0.026762 0.921812
0.926672 0.029172 0.924222
0.014009 0.095165 0.909060
0.090254 0.096972 0.910867
0.211267 0.099841 0.913735
0.333863 0.102747 0.916642
0.457411 0.105676 0.919570
0.581646 0.108621 0.922515
0.706422 0.111579 0.925473
0.831642 0.114547 0.928441
0.933301 0.116957 0.930851
0.023488 0.220689 0.918538
0.099732 0.222497 0.920345
0.220745 0.225365 0.923214
0.343341 0.228271 0.926120
0.466889 0.231200 0.929049
0.591125 0.234145 0.931994
0.715901 0.237103 0.934952
0.841121 0.240071 0.937920
0.942779 0.242481 0.940330
0.033084 0.347777 0.928135
0.109329 0.349585 0.929942
0.230342 0.352453 0.932811
0.352938 0.355359 0.935717
0.476486 0.358288 0.938646
0.600722 0.361233 0.941591
0.725497 0.364191 0.944548
0.850717 0.367159 0.947517
0.952376 0.369569 0.949926
0.042754 0.475825 0.937804
0.118998 0.477633 0.939611
0.240011 0.480501 0.942480
0.362607 0.483407 0.945386
0.486155 0.486336 0.948315
0.610391 0.489281 0.951260
0.735166 0.492239 0.954217
0.860387 0.495207 0.957186
0.962045 0.497617 0.959596
0.052476 0.604572 0.947526
0.128720 0.606379 0.949333
0.249733 0.609248 0.952202
0.372329 0.612154 0.955108
0.495877 0.615082 0.958037
0.620113 0.618027 0.960982
0.744888 0.620985 0.963939
0.870109 0.623953 0.966908
0.971767 0.626363 0.969318
0.062239 0.733869 0.957290
0.138484 0.735676 0.959097
0.259497 0.738545 0.961965
0.382093 0.741451 0.964872
0.505641 0.744380 0.967800
0.629877 0.747325 0.970745
0.754652 0.750282 0.973703
0.879872 0.753251 0.976671
0.981531 0.755660 0.979081
0.072037 0.863621 0.967087
0.148282 0.865429 0.968895
0.269295 0.868297 0.971763
0.391891 0.871203 0.974669
0.515439 0.874132 0.977598
0.639674 0.877077 0.980543
0.764450 0.880035 0.983501
0.889670 0.883003 0.986469
0.991329 0.885413 0.988879
0.080688 0.978188 0.975739
0.156933 0.979996 0.977546
0.277946 0.982864 0.980415
0.400542 0.985770 0.983321
0.524090 0.988699 0.986249
0.648326 0.991644 0.989194
0.773101 0.994602 0.992152
0.898321 0.997570 0.995120
0.999980 0.999980 0.997530
