library/cube/Digital_Film_003.cube
# CINEGRADE LAB — Premium Cinematic LUT
# Title: Digital Film
# Category: ARRI Alexa Look
# Description: Digital cinema natural skin tones with wide dynamic range emulation
# Mood: Cinematic, natural, professional
# Variant: 4
# Generated: 2026-05-21T16:12:52.529829
TITLE "Digital Film"
LUT_3D_SIZE 5
0.000000 0.000000 0.000000
0.197258 0.004676 0.004676
0.443402 0.010511 0.010511
0.692413 0.016413 0.016413
0.919292 0.021791 0.021791
0.016107 0.213309 0.016107
0.213365 0.217985 0.020783
0.472974 0.224139 0.026937
0.726965 0.230160 0.032958
0.935399 0.235101 0.037899
0.035373 0.468445 0.035373
0.232631 0.473121 0.040049
0.478775 0.478956 0.045884
0.746231 0.485295 0.052224
0.954665 0.490236 0.057165
0.054859 0.726489 0.054859
0.252117 0.731165 0.059535
0.498261 0.736999 0.065370
0.747272 0.742902 0.071272
0.974150 0.748280 0.076650
0.073308 0.970808 0.073308
0.270566 0.975484 0.077984
0.516710 0.981319 0.083819
0.765721 0.987221 0.089721
0.992599 0.992599 0.095099
0.001673 0.001673 0.204592
0.198931 0.006349 0.209268
0.445075 0.012184 0.215103
0.694086 0.018087 0.221006
0.920965 0.023465 0.226384
0.017781 0.214982 0.220700
0.215038 0.219658 0.225376
0.461182 0.225493 0.231211
0.710193 0.231396 0.237113
0.937072 0.236774 0.242491
0.037047 0.470118 0.239966
0.234304 0.474794 0.244642
0.480448 0.480629 0.250477
0.747904 0.486969 0.256817
0.956338 0.491910 0.261757
0.056532 0.728162 0.259451
0.253790 0.732838 0.264127
0.499934 0.738673 0.269962
0.748945 0.744575 0.275865
0.975824 0.749953 0.281243
0.074981 0.972481 0.277900
0.272239 0.977157 0.282576
0.518383 0.982992 0.288411
0.767394 0.988895 0.294314
0.994273 0.994273 0.299692
0.003548 0.003548 0.433876
0.200806 0.008224 0.438552
0.446950 0.014059 0.444387
0.695961 0.019962 0.450290
0.922840 0.025340 0.455668
0.019656 0.216857 0.449984
0.216914 0.221533 0.454660
0.463057 0.227368 0.460494
0.712069 0.233271 0.466397
0.938947 0.238649 0.471775
0.038922 0.471993 0.469250
0.236179 0.476669 0.473926
0.482323 0.482504 0.479760
0.731334 0.488407 0.485663
0.958213 0.493785 0.491041
0.058407 0.730037 0.488735
0.255665 0.734713 0.493411
0.501809 0.740548 0.499246
0.750820 0.746450 0.505148
0.977699 0.751829 0.510527
0.076856 0.974356 0.507184
0.274114 0.979032 0.511860
0.520258 0.984867 0.517695
0.769269 0.990770 0.523598
0.996148 0.996148 0.528976
0.005454 0.005454 0.666930
0.202712 0.010130 0.671606
0.448856 0.015965 0.677441
0.697867 0.021868 0.683344
0.924746 0.027246 0.688722
0.021562 0.218763 0.683038
0.218819 0.223439 0.687714
0.464963 0.229274 0.693548
0.713975 0.235177 0.699451
0.940853 0.240555 0.704829
0.040828 0.473899 0.702304
0.238085 0.478575 0.706980
0.484229 0.484410 0.712814
0.733240 0.490313 0.718717
0.960119 0.495691 0.724095
0.060313 0.731943 0.721789
0.257571 0.736619 0.726465
0.503715 0.742454 0.732300
0.752726 0.748356 0.738202
0.979605 0.753734 0.743581
0.078762 0.976262 0.740238
0.276020 0.980938 0.744914
0.522164 0.986773 0.750749
0.771175 0.992676 0.756652
0.998054 0.998054 0.762030
0.007380 0.007380 0.902431
0.204638 0.012056 0.907107
0.450782 0.017891 0.912941
0.699793 0.023794 0.918844
0.926672 0.029172 0.924222
0.023488 0.220689 0.918538
0.220745 0.225365 0.923214
0.466889 0.231200 0.929049
0.715901 0.237103 0.934952
0.942779 0.242481 0.940330
0.042754 0.475825 0.937804
0.240011 0.480501 0.942480
0.486155 0.486336 0.948315
0.735166 0.492239 0.954217
0.962045 0.497617 0.959596
0.062239 0.733869 0.957290
0.259497 0.738545 0.961965
0.505641 0.744380 0.967800
0.754652 0.750282 0.973703
0.981531 0.755660 0.979081
0.080688 0.978188 0.975739
0.277946 0.982864 0.980415
0.524090 0.988699 0.986249
0.773101 0.994602 0.992152
0.999980 0.999980 0.997530
