library/cube/Digital_Film_003.cube
# CINEGRADE LAB — Premium Cinematic LUT
# Title: Digital Film
# Category: ARRI Alexa Look
# Description: Digital cinema natural skin tones with wide dynamic range emulation
# Mood: Cinematic, natural, professional
# Variant: 4
# Generated: 2026-05-21T16:12:52.529829
TITLE "Digital Film"
LUT_3D_SIZE 33
0.000000 0.000000 0.000000
0.000000 0.000000 0.000000
0.017051 0.000404 0.000404
0.046448 0.001101 0.001101
0.076244 0.001807 0.001807
0.106277 0.002519 0.002519
0.136479 0.003235 0.003235
0.166814 0.003954 0.003954
0.197258 0.004676 0.004676
0.227794 0.005400 0.005400
0.258412 0.006126 0.006126
0.289101 0.006853 0.006853
0.319854 0.007582 0.007582
0.350665 0.008312 0.008312
0.381529 0.009044 0.009044
0.412443 0.009777 0.009777
0.443402 0.010511 0.010511
0.474403 0.011246 0.011246
0.505444 0.011981 0.011981
0.536523 0.012718 0.012718
0.567637 0.013456 0.013456
0.598785 0.014194 0.014194
0.629964 0.014933 0.014933
0.661174 0.015673 0.015673
0.692413 0.016413 0.016413
0.723679 0.017155 0.017155
0.754972 0.017896 0.017896
0.786290 0.018639 0.018639
0.817633 0.019382 0.019382
0.848999 0.020125 0.020125
0.880388 0.020869 0.020869
0.911799 0.021614 0.021614
0.919292 0.021791 0.021791
0.000000 0.000000 0.000000
0.000000 0.000000 0.000000
0.021988 0.000521 0.000521
0.051974 0.001232 0.001232
0.082366 0.001952 0.001952
0.112999 0.002679 0.002679
0.136479 0.003235 0.003235
0.166814 0.003954 0.003954
0.197258 0.004676 0.004676
0.227794 0.005400 0.005400
0.258412 0.006126 0.006126
0.289101 0.006853 0.006853
0.319854 0.007582 0.007582
0.350665 0.008312 0.008312
0.381529 0.009044 0.009044
0.412443 0.009777 0.009777
0.443402 0.010511 0.010511
0.474403 0.011246 0.011246
0.505444 0.011981 0.011981
0.536523 0.012718 0.012718
0.567637 0.013456 0.013456
0.598785 0.014194 0.014194
0.629964 0.014933 0.014933
0.661174 0.015673 0.015673
0.692413 0.016413 0.016413
0.723679 0.017155 0.017155
0.754972 0.017896 0.017896
0.786290 0.018639 0.018639
0.817633 0.019382 0.019382
0.848999 0.020125 0.020125
0.880388 0.020869 0.020869
0.911799 0.021614 0.021614
0.919292 0.021791 0.021791
0.001981 0.026235 0.001981
0.001981 0.026235 0.001981
0.019032 0.026639 0.002385
0.053955 0.027467 0.003213
0.084347 0.028187 0.003933
0.114980 0.028913 0.004660
0.145786 0.029643 0.005390
0.176728 0.030377 0.006123
0.207780 0.031113 0.006859
0.238928 0.031851 0.007598
0.270157 0.032592 0.008338
0.301460 0.033334 0.009080
0.321835 0.033817 0.009563
0.352646 0.034547 0.010293
0.383510 0.035279 0.011025
0.414424 0.036011 0.011758
0.445383 0.036745 0.012492
0.476384 0.037480 0.013227
0.507426 0.038216 0.013962
0.538504 0.038953 0.014699
0.569618 0.039690 0.015437
0.600766 0.040429 0.016175
0.631945 0.041168 0.016914
0.663155 0.041908 0.017654
0.694394 0.042648 0.018394
0.725660 0.043389 0.019136
0.756953 0.044131 0.019877
0.788271 0.044873 0.020620
0.819614 0.045616 0.021363
0.850980 0.046360 0.022106
0.882369 0.047104 0.022850
0.913781 0.047849 0.023595
0.921273 0.048026 0.023773
0.004292 0.056838 0.004292
0.004292 0.056838 0.004292
0.021343 0.057242 0.004696
0.050740 0.057939 0.005393
0.080536 0.058645 0.006099
0.117291 0.059516 0.006971
0.148097 0.060246 0.007701
0.179038 0.060980 0.008434
0.210091 0.061716 0.009170
0.241239 0.062454 0.009909
0.272468 0.063195 0.010649
0.303771 0.063937 0.011391
0.335139 0.064680 0.012135
0.366566 0.065425 0.012880
0.398048 0.066171 0.013626
0.429580 0.066919 0.014373
0.461158 0.067667 0.015122
0.478695 0.068083 0.015538
0.509736 0.068819 0.016273
0.540815 0.069556 0.017010
0.571929 0.070293 0.017748
0.603077 0.071032 0.018486
0.634256 0.071771 0.019225
0.665466 0.072510 0.019965
0.696705 0.073251 0.020705
0.727971 0.073992 0.021447
0.759264 0.074734 0.022188
0.790582 0.075476 0.022931
0.821925 0.076219 0.023674
0.853291 0.076963 0.024417
0.884680 0.077707 0.025161
0.916091 0.078451 0.025906
0.923583 0.078629 0.026083
0.006629 0.087785 0.006629
0.006629 0.087785 0.006629
0.023680 0.088189 0.007033
0.053077 0.088886 0.007730
0.082873 0.089592 0.008436
0.112906 0.090304 0.009148
0.150434 0.091194 0.010038
0.181375 0.091927 0.010771
0.212428 0.092663 0.011507
0.243576 0.093402 0.012246
0.274805 0.094142 0.012986
0.306108 0.094884 0.013728
0.337476 0.095627 0.014471
0.368903 0.096372 0.015216
0.400385 0.097119 0.015963
0.431917 0.097866 0.016710
0.463495 0.098615 0.017459
0.495117 0.099364 0.018208
0.526779 0.100115 0.018959
0.558479 0.100866 0.019710
0.590215 0.101619 0.020463
0.621986 0.102372 0.021216
0.653789 0.103126 0.021970
0.667803 0.103458 0.022302
0.699042 0.104198 0.023042
0.730308 0.104939 0.023783
0.761601 0.105681 0.024525
0.792919 0.106424 0.025268
0.824262 0.107167 0.026011
0.855628 0.107910 0.026754
0.887017 0.108654 0.027498
0.918428 0.109399 0.028243
0.925920 0.109576 0.028420
0.008982 0.118952 0.008982
0.008982 0.118952 0.008982
0.026033 0.119356 0.009387
0.055431 0.120053 0.010083
0.085227 0.120759 0.010790
0.115259 0.121471 0.011502
0.145461 0.122187 0.012218
0.183729 0.123094 0.013125
0.214782 0.123831 0.013861
0.245929 0.124569 0.014599
0.277159 0.125309 0.015339
0.308461 0.126051 0.016081
0.339829 0.126795 0.016825
0.371257 0.127540 0.017570
0.402739 0.128286 0.018316
0.434270 0.129033 0.019064
0.465849 0.129782 0.019812
0.497470 0.130532 0.020562
0.529132 0.131282 0.021312
0.560833 0.132034 0.022064
0.592569 0.132786 0.022816
0.624339 0.133539 0.023569
0.656142 0.134293 0.024323
0.687976 0.135047 0.025078
0.719840 0.135803 0.025833
0.751731 0.136559 0.026589
0.783650 0.137315 0.027346
0.815595 0.138073 0.028103
0.826615 0.138334 0.028364
0.857982 0.139077 0.029108
0.889371 0.139821 0.029852
0.920782 0.140566 0.030596
0.928274 0.140744 0.030774
0.011348 0.150282 0.011348
0.011348 0.150282 0.011348
0.028399 0.150686 0.011752
0.057796 0.151383 0.012449
0.087593 0.152090 0.013156
0.117625 0.152801 0.013867
0.147827 0.153517 0.014583
0.178162 0.154236 0.015302
0.208606 0.154958 0.016024
0.248295 0.155899 0.016965
0.279525 0.156639 0.017705
0.310827 0.157381 0.018447
0.342195 0.158125 0.019191
0.373623 0.158870 0.019936
0.405104 0.159616 0.020682
0.436636 0.160364 0.021429
0.468214 0.161112 0.022178
0.499836 0.161862 0.022928
0.531498 0.162612 0.023678
0.563198 0.163364 0.024430
0.594935 0.164116 0.025182
0.626705 0.164869 0.025935
0.658508 0.165623 0.026689
0.690342 0.166378 0.027443
0.722206 0.167133 0.028199
0.754097 0.167889 0.028955
0.786016 0.168645 0.029711
0.817961 0.169403 0.030469
0.849930 0.170161 0.031226
0.881924 0.170919 0.031985
0.913941 0.171678 0.032744
0.930640 0.172074 0.033140
0.930640 0.172074 0.033140
0.013724 0.181742 0.013724
0.013724 0.181742 0.013724
0.030775 0.182146 0.014128
0.060172 0.182843 0.014825
0.089968 0.183549 0.015531
0.120001 0.184261 0.016243
0.150203 0.184977 0.016959
0.180538 0.185696 0.017678
0.210981 0.186418 0.018400
0.241518 0.187142 0.019124
0.281900 0.188099 0.020081
0.313203 0.188841 0.020823
0.344571 0.189584 0.021566
0.375998 0.190329 0.022311
0.407480 0.191076 0.023058
0.439012 0.191823 0.023805
0.470590 0.192572 0.024554
0.502211 0.193321 0.025303
0.533874 0.194072 0.026054
0.565574 0.194823 0.026805
0.597310 0.195576 0.027557
0.629081 0.196329 0.028311
0.660884 0.197083 0.029064
0.692718 0.197837 0.029819
0.724581 0.198592 0.030574
0.756473 0.199348 0.031330
0.788392 0.200105 0.032087
0.820336 0.200862 0.032844
0.852306 0.201620 0.033602
0.884300 0.202379 0.034360
0.916316 0.203137 0.035119
0.933015 0.203533 0.035515
0.933015 0.203533 0.035515
0.016107 0.213309 0.016107
0.016107 0.213309 0.016107
0.033158 0.213713 0.016512
0.062556 0.214410 0.017209
0.092352 0.215116 0.017915
0.122384 0.215828 0.018627
0.152586 0.216544 0.019343
0.182921 0.217263 0.020062
0.213365 0.217985 0.020783
0.243902 0.218709 0.021507
0.274519 0.219435 0.022233
0.305208 0.220162 0.022961
0.346955 0.221152 0.023950
0.378382 0.221897 0.024695
0.409864 0.222643 0.025441
0.441395 0.223390 0.026189
0.472974 0.224139 0.026937
0.504595 0.224889 0.027687
0.536257 0.225639 0.028437
0.567958 0.226391 0.029189
0.599694 0.227143 0.029941
0.631465 0.227896 0.030694
0.663268 0.228650 0.031448
0.695102 0.229404 0.032203
0.726965 0.230160 0.032958
0.758857 0.230916 0.033714
0.790775 0.231672 0.034471
0.822720 0.232430 0.035228
0.854690 0.233187 0.035986
0.886683 0.233946 0.036744
0.918700 0.234705 0.037503
0.935399 0.235101 0.037899
0.935399 0.235101 0.037899
0.018498 0.244969 0.018498
0.018498 0.244969 0.018498
0.035549 0.245373 0.018902
0.064946 0.246070 0.019599
0.094743 0.246776 0.020306
0.124775 0.247488 0.021017
0.154977 0.248204 0.021733
0.185312 0.248923 0.022452
0.215756 0.249645 0.023174
0.246293 0.250368 0.023898
0.276910 0.251094 0.024624
0.307599 0.251822 0.025351
0.338352 0.252551 0.026080
0.380773 0.253556 0.027086
0.412254 0.254302 0.027832
0.443786 0.255050 0.028579
0.475364 0.255798 0.029328
0.506986 0.256548 0.030078
0.538648 0.257299 0.030828
0.570348 0.258050 0.031580
0.602085 0.258802 0.032332
0.633855 0.259555 0.033085
0.665658 0.260309 0.033839
0.697492 0.261064 0.034593
0.729356 0.261819 0.035349
0.761247 0.262575 0.036105
0.793166 0.263332 0.036861
0.825111 0.264089 0.037619
0.857080 0.264847 0.038376
0.889074 0.265605 0.039135
0.921091 0.266364 0.039894
0.937790 0.266760 0.040290
0.937790 0.266760 0.040290
0.020895 0.276709 0.020895
0.020895 0.276709 0.020895
0.037946 0.277113 0.021299
0.067343 0.277810 0.021996
0.097139 0.278516 0.022702
0.127172 0.279228 0.023414
0.157374 0.279944 0.024130
0.187709 0.280663 0.024849
0.218153 0.281385 0.025571
0.248689 0.282109 0.026295
0.279307 0.282834 0.027020
0.309996 0.283562 0.027748
0.340749 0.284291 0.028477
0.371560 0.285021 0.029207
0.414651 0.286043 0.030229
0.446183 0.286790 0.030976
0.477761 0.287539 0.031725
0.509383 0.288288 0.032474
0.541045 0.289039 0.033225
0.572745 0.289790 0.033976
0.604481 0.290542 0.034729
0.636252 0.291296 0.035482
0.668055 0.292049 0.036236
0.699889 0.292804 0.036990
0.731752 0.293559 0.037746
0.763644 0.294315 0.038502
0.795563 0.295072 0.039258
0.827507 0.295829 0.040015
0.859477 0.296587 0.040773
0.891471 0.297345 0.041532
0.923488 0.298104 0.042291
0.940186 0.298500 0.042686
0.940186 0.298500 0.042686
0.023297 0.308521 0.023297
0.023297 0.308521 0.023297
0.040348 0.308925 0.023701
0.069745 0.309622 0.024398
0.099542 0.310328 0.025104
0.129574 0.311040 0.025816
0.159776 0.311756 0.026532
0.190111 0.312475 0.027251
0.220555 0.313197 0.027973
0.251091 0.313920 0.028697
0.281709 0.314646 0.029423
0.312398 0.315374 0.030150
0.343151 0.316103 0.030879
0.373962 0.316833 0.031610
0.404826 0.317565 0.032341
0.435740 0.318297 0.033074
0.480163 0.319350 0.034127
0.511785 0.320100 0.034877
0.543447 0.320851 0.035627
0.575147 0.321602 0.036379
0.606884 0.322354 0.037131
0.638654 0.323107 0.037884
0.670457 0.323861 0.038638
0.702291 0.324616 0.039392
0.734155 0.325371 0.040148
0.766046 0.326127 0.040904
0.797965 0.326884 0.041660
0.829910 0.327641 0.042418
0.861879 0.328399 0.043175
0.893873 0.329157 0.043934
0.925890 0.329916 0.044693
0.942589 0.330312 0.045089
0.942589 0.330312 0.045089
0.025704 0.340397 0.025704
0.025704 0.340397 0.025704
0.042755 0.340801 0.026108
0.072152 0.341498 0.026805
0.101949 0.342204 0.027512
0.131981 0.342916 0.028223
0.162183 0.343632 0.028939
0.192518 0.344351 0.029658
0.222962 0.345073 0.030380
0.253499 0.345797 0.031104
0.284116 0.346523 0.031830
0.314805 0.347250 0.032557
0.345558 0.347979 0.033286
0.376369 0.348709 0.034017
0.407233 0.349441 0.034748
0.438147 0.350174 0.035481
0.469106 0.350908 0.036215
0.514192 0.351976 0.037284
0.545854 0.352727 0.038034
0.577554 0.353478 0.038786
0.609291 0.354231 0.039538
0.641061 0.354984 0.040291
0.672864 0.355738 0.041045
0.704698 0.356492 0.041800
0.736562 0.357248 0.042555
0.768453 0.358004 0.043311
0.800372 0.358760 0.044067
0.832317 0.359518 0.044825
0.864286 0.360275 0.045582
0.896280 0.361034 0.046341
0.928297 0.361793 0.047100
0.944996 0.362189 0.047496
0.944996 0.362189 0.047496
0.028116 0.372332 0.028116
0.028116 0.372332 0.028116
0.045167 0.372736 0.028520
0.074564 0.373433 0.029217
0.104360 0.374139 0.029923
0.134393 0.374851 0.030635
0.164595 0.375567 0.031351
0.194929 0.376286 0.032070
0.225373 0.377008 0.032792
0.255910 0.377732 0.033515
0.286527 0.378458 0.034241
0.317216 0.379185 0.034969
0.347969 0.379914 0.035698
0.378780 0.380645 0.036428
0.409645 0.381376 0.037160
0.440558 0.382109 0.037892
0.471517 0.382843 0.038626
0.502519 0.383578 0.039361
0.533560 0.384314 0.040097
0.579966 0.385414 0.041197
0.611702 0.386166 0.041949
0.643473 0.386919 0.042703
0.675276 0.387673 0.043456
0.707110 0.388427 0.044211
0.738973 0.389183 0.044966
0.770865 0.389939 0.045722
0.802783 0.390695 0.046479
0.834728 0.391453 0.047236
0.866698 0.392210 0.047994
0.898691 0.392969 0.048752
0.930708 0.393728 0.049511
0.947407 0.394124 0.049907
0.947407 0.394124 0.049907
0.030531 0.404321 0.030531
0.030531 0.404321 0.030531
0.047582 0.404725 0.030935
0.076979 0.405422 0.031632
0.106776 0.406128 0.032339
0.136808 0.406840 0.033051
0.167010 0.407556 0.033766
0.197345 0.408275 0.034486
0.227789 0.408997 0.035207
0.258326 0.409721 0.035931
0.288943 0.410447 0.036657
0.319632 0.411174 0.037384
0.350385 0.411903 0.038113
0.381196 0.412634 0.038844
0.412060 0.413365 0.039575
0.442974 0.414098 0.040308
0.473933 0.414832 0.041042
0.504934 0.415567 0.041777
0.535976 0.416303 0.042513
0.567054 0.417039 0.043249
0.614118 0.418155 0.044365
0.645888 0.418908 0.045118
0.677691 0.419662 0.045872
0.709525 0.420416 0.046627
0.741389 0.421172 0.047382
0.773280 0.421928 0.048138
0.805199 0.422684 0.048894
0.837144 0.423442 0.049652
0.869113 0.424199 0.050410
0.901107 0.424958 0.051168
0.933124 0.425717 0.051927
0.949823 0.426113 0.052323
0.949823 0.426113 0.052323
0.032951 0.436360 0.032951
0.032951 0.436360 0.032951
0.050001 0.436764 0.033355
0.079399 0.437461 0.034052
0.109195 0.438167 0.034758
0.139227 0.438879 0.035470
0.169430 0.439595 0.036186
0.199764 0.440314 0.036905
0.230208 0.441036 0.037626
0.260745 0.441760 0.038350
0.291362 0.442485 0.039076
0.322051 0.443213 0.039804
0.352804 0.443942 0.040533
0.383615 0.444672 0.041263
0.414480 0.445404 0.041995
0.445393 0.446137 0.042727
0.476352 0.446871 0.043461
0.507354 0.447605 0.044196
0.538395 0.448341 0.044932
0.569474 0.449078 0.045669
0.600588 0.449816 0.046406
0.648308 0.450947 0.047537
0.680111 0.451701 0.048291
0.711945 0.452455 0.049046
0.743808 0.453211 0.049801
0.775700 0.453966 0.050557
0.807618 0.454723 0.051314
0.839563 0.455480 0.052071
0.871533 0.456238 0.052829
0.903526 0.456997 0.053587
0.935543 0.457756 0.054346
0.952242 0.458151 0.054742
0.952242 0.458151 0.054742
0.035373 0.468445 0.035373
0.035373 0.468445 0.035373
0.052424 0.468849 0.035778
0.081822 0.469546 0.036474
0.111618 0.470252 0.037181
0.141650 0.470964 0.037893
0.171852 0.471680 0.038609
0.202187 0.472399 0.039328
0.232631 0.473121 0.040049
0.263168 0.473845 0.040773
0.293785 0.474570 0.041499
0.324474 0.475298 0.042226
0.355227 0.476027 0.042955
0.386038 0.476757 0.043686
0.416903 0.477489 0.044417
0.447816 0.478222 0.045150
0.478775 0.478956 0.045884
0.509777 0.479690 0.046619
0.540818 0.480426 0.047355
0.571897 0.481163 0.048091
0.603011 0.481901 0.048829
0.634158 0.482639 0.049567
0.665338 0.483378 0.050306
0.714367 0.484540 0.051469
0.746231 0.485295 0.052224
0.778122 0.486051 0.052980
0.810041 0.486808 0.053737
0.841986 0.487565 0.054494
0.873955 0.488323 0.055252
0.905949 0.489082 0.056010
0.937966 0.489841 0.056769
0.954665 0.490236 0.057165
0.954665 0.490236 0.057165
0.037799 0.500573 0.037799
0.037799 0.500573 0.037799
0.054850 0.500977 0.038204
0.084248 0.501674 0.038900
0.114044 0.502380 0.039607
0.144076 0.503092 0.040319
0.174278 0.503808 0.041035
0.204613 0.504527 0.041754
0.235057 0.505249 0.042475
0.265594 0.505973 0.043199
0.296211 0.506699 0.043925
0.326900 0.507426 0.044652
0.357653 0.508155 0.045381
0.388464 0.508885 0.046112
0.419329 0.509617 0.046843
0.450242 0.510350 0.047576
0.481201 0.511084 0.048310
0.512203 0.511819 0.049045
0.543244 0.512554 0.049781
0.574323 0.513291 0.050518
0.605437 0.514029 0.051255
0.636584 0.514767 0.051993
0.667764 0.515506 0.052733
0.698974 0.516246 0.053472
0.748657 0.517424 0.054650
0.780549 0.518180 0.055406
0.812467 0.518936 0.056163
0.844412 0.519693 0.056920
0.876382 0.520451 0.057678
0.908375 0.521210 0.058436
0.940392 0.521969 0.059195
0.957091 0.522365 0.059591
0.957091 0.522365 0.059591
0.040229 0.532742 0.040229
0.040229 0.532742 0.040229
0.057280 0.533146 0.040633
0.086677 0.533843 0.041330
0.116473 0.534549 0.042036
0.146506 0.535261 0.042748
0.176708 0.535977 0.043464
0.207042 0.536696 0.044183
0.237486 0.537418 0.044905
0.268023 0.538141 0.045628
0.298640 0.538867 0.046354
0.329329 0.539595 0.047082
0.360082 0.540324 0.047811
0.390893 0.541054 0.048541
0.421758 0.541786 0.049273
0.452671 0.542518 0.050005
0.483630 0.543252 0.050739
0.514632 0.543987 0.051474
0.545673 0.544723 0.052210
0.576752 0.545460 0.052947
0.607866 0.546197 0.053684
0.639014 0.546936 0.054423
0.670193 0.547675 0.055162
0.701403 0.548415 0.055901
0.732641 0.549155 0.056642
0.782978 0.550348 0.057835
0.814896 0.551105 0.058592
0.846841 0.551862 0.059349
0.878811 0.552620 0.060107
0.910804 0.553378 0.060865
0.942821 0.554137 0.061624
0.959520 0.554533 0.062020
0.959520 0.554533 0.062020
0.042661 0.564948 0.042661
0.042661 0.564948 0.042661
0.059712 0.565353 0.043065
0.089109 0.566050 0.043762
0.118905 0.566756 0.044468
0.148938 0.567468 0.045180
0.179140 0.568184 0.045896
0.209474 0.568903 0.046615
0.239918 0.569624 0.047337
0.270455 0.570348 0.048060
0.301072 0.571074 0.048786
0.331761 0.571802 0.049514
0.362514 0.572531 0.050243
0.393325 0.573261 0.050973
0.424190 0.573993 0.051705
0.455103 0.574725 0.052437
0.486062 0.575459 0.053171
0.517064 0.576194 0.053906
0.548105 0.576930 0.054642
0.579184 0.577667 0.055379
0.610298 0.578404 0.056116
0.641446 0.579142 0.056855
0.672625 0.579882 0.057594
0.703835 0.580621 0.058334
0.735073 0.581362 0.059074
0.766340 0.582103 0.059815
0.797632 0.582845 0.060557
0.849273 0.584069 0.061781
0.881243 0.584827 0.062539
0.913236 0.585585 0.063297
0.945253 0.586344 0.064056
0.961952 0.586740 0.064452
0.961952 0.586740 0.064452
0.045095 0.597191 0.045095
0.045095 0.597191 0.045095
0.062146 0.597596 0.045500
0.091544 0.598292 0.046196
0.121340 0.598999 0.046903
0.151372 0.599711 0.047615
0.181574 0.600427 0.048331
0.211909 0.601146 0.049050
0.242353 0.601867 0.049771
0.272890 0.602591 0.050495
0.303507 0.603317 0.051221
0.334196 0.604044 0.051948
0.364949 0.604773 0.052677
0.395760 0.605504 0.053408
0.426624 0.606235 0.054139
0.457538 0.606968 0.054872
0.488497 0.607702 0.055606
0.519499 0.608437 0.056341
0.550540 0.609173 0.057077
0.581619 0.609909 0.057813
0.612733 0.610647 0.058551
0.643880 0.611385 0.059289
0.675060 0.612124 0.060028
0.706269 0.612864 0.060768
0.737508 0.613605 0.061509
0.768774 0.614346 0.062250
0.800067 0.615088 0.062992
0.831386 0.615830 0.063734
0.883677 0.617070 0.064974
0.915671 0.617828 0.065732
0.947688 0.618587 0.066491
0.964387 0.618983 0.066887
0.964387 0.618983 0.066887
0.047533 0.629468 0.047533
0.047533 0.629468 0.047533
0.064584 0.629873 0.047937
0.093981 0.630569 0.048634
0.123777 0.631276 0.049340
0.153810 0.631988 0.050052
0.184012 0.632704 0.050768
0.214346 0.633423 0.051487
0.244790 0.634144 0.052209
0.275327 0.634868 0.052932
0.305944 0.635594 0.053658
0.336633 0.636321 0.054386
0.367386 0.637050 0.055115
0.398197 0.637781 0.055845
0.429062 0.638512 0.056577
0.459975 0.639245 0.057309
0.490934 0.639979 0.058043
0.521936 0.640714 0.058778
0.552977 0.641450 0.059514
0.584056 0.642187 0.060251
0.615170 0.642924 0.060988
0.646318 0.643662 0.061727
0.677497 0.644402 0.062466
0.708707 0.645141 0.063206
0.739945 0.645882 0.063946
0.771212 0.646623 0.064687
0.802505 0.647365 0.065429
0.833823 0.648107 0.066171
0.865166 0.648850 0.066914
0.896532 0.649594 0.067658
0.950125 0.650864 0.068928
0.966824 0.651260 0.069324
0.966824 0.651260 0.069324
0.049972 0.661778 0.049972
0.049972 0.661778 0.049972
0.067023 0.662182 0.050377
0.096421 0.662879 0.051073
0.126217 0.663585 0.051780
0.156249 0.664297 0.052492
0.186451 0.665013 0.053208
0.216786 0.665732 0.053927
0.247230 0.666454 0.054648
0.277767 0.667178 0.055372
0.308384 0.667904 0.056098
0.339073 0.668631 0.056825
0.369826 0.669360 0.057554
0.400637 0.670090 0.058285
0.431502 0.670822 0.059016
0.462415 0.671555 0.059749
0.493374 0.672289 0.060483
0.524376 0.673024 0.061218
0.555417 0.673759 0.061954
0.586496 0.674496 0.062691
0.617610 0.675234 0.063428
0.648757 0.675972 0.064166
0.679937 0.676711 0.064906
0.711147 0.677451 0.065645
0.742385 0.678191 0.066386
0.773651 0.678933 0.067127
0.804944 0.679674 0.067869
0.836263 0.680417 0.068611
0.867605 0.681160 0.069354
0.898972 0.681903 0.070098
0.930361 0.682647 0.070842
0.969264 0.683570 0.071764
0.969264 0.683570 0.071764
0.052415 0.694119 0.052415
0.052415 0.694119 0.052415
0.069465 0.694523 0.052819
0.098863 0.695220 0.053516
0.128659 0.695926 0.054222
0.158691 0.696638 0.054934
0.188894 0.697354 0.055650
0.219228 0.698073 0.056369
0.249672 0.698794 0.057090
0.280209 0.699518 0.057814
0.310826 0.700244 0.058540
0.341515 0.700972 0.059268
0.372268 0.701701 0.059997
0.403079 0.702431 0.060727
0.433944 0.703163 0.061459
0.464857 0.703895 0.062191
0.495816 0.704629 0.062925
0.526818 0.705364 0.063660
0.557859 0.706100 0.064396
0.588938 0.706837 0.065133
0.620052 0.707574 0.065870
0.651199 0.708313 0.066609
0.682379 0.709052 0.067348
0.713589 0.709791 0.068087
0.744827 0.710532 0.068828
0.776094 0.711273 0.069569
0.807386 0.712015 0.070311
0.838705 0.712757 0.071053
0.870047 0.713500 0.071796
0.901414 0.714244 0.072540
0.932803 0.714988 0.073284
0.964214 0.715732 0.074028
0.971706 0.715910 0.074206
0.054859 0.726489 0.054859
0.054859 0.726489 0.054859
0.071910 0.726893 0.055263
0.101307 0.727590 0.055960
0.131103 0.728296 0.056666
0.161136 0.729008 0.057378
0.191338 0.729724 0.058094
0.221673 0.730443 0.058813
0.252117 0.731165 0.059535
0.282653 0.731888 0.060259
0.313271 0.732614 0.060984
0.343959 0.733342 0.061712
0.374712 0.734071 0.062441
0.405524 0.734801 0.063171
0.436388 0.735533 0.063903
0.467302 0.736265 0.064636
0.498261 0.736999 0.065370
0.529262 0.737734 0.066104
0.560303 0.738470 0.066840
0.591382 0.739207 0.067577
0.622496 0.739944 0.068315
0.653644 0.740683 0.069053
0.684823 0.741422 0.069792
0.716033 0.742162 0.070532
0.747272 0.742902 0.071272
0.778538 0.743643 0.072013
0.809831 0.744385 0.072755
0.841149 0.745127 0.073498
0.872492 0.745870 0.074241
0.903858 0.746614 0.074984
0.935247 0.747358 0.075728
0.966658 0.748103 0.076473
0.974150 0.748280 0.076650
0.057305 0.758887 0.057305
0.057305 0.758887 0.057305
0.074356 0.759291 0.057710
0.103754 0.759988 0.058406
0.133550 0.760694 0.059113
0.163582 0.761406 0.059825
0.193784 0.762122 0.060541
0.224119 0.762841 0.061260
0.254563 0.763563 0.061981
0.285100 0.764287 0.062705
0.315717 0.765013 0.063431
0.346406 0.765740 0.064158
0.377159 0.766469 0.064887
0.407970 0.767199 0.065618
0.438835 0.767931 0.066349
0.469748 0.768664 0.067082
0.500707 0.769398 0.067816
0.531709 0.770133 0.068551
0.562750 0.770868 0.069287
0.593829 0.771605 0.070023
0.624943 0.772343 0.070761
0.656090 0.773081 0.071499
0.687270 0.773820 0.072238
0.718479 0.774560 0.072978
0.749718 0.775301 0.073719
0.780984 0.776042 0.074460
0.812277 0.776783 0.075202
0.843596 0.777526 0.075944
0.874938 0.778269 0.076687
0.906305 0.779012 0.077431
0.937694 0.779756 0.078175
0.969105 0.780501 0.078919
0.976597 0.780679 0.079097
0.059754 0.791313 0.059754
0.059754 0.791313 0.059754
0.076805 0.791717 0.060158
0.106202 0.792414 0.060855
0.135998 0.793120 0.061561
0.166031 0.793832 0.062273
0.196233 0.794548 0.062989
0.226568 0.795267 0.063708
0.257012 0.795989 0.064430
0.287548 0.796712 0.065154
0.318166 0.797438 0.065879
0.348855 0.798166 0.066607
0.379607 0.798895 0.067336
0.410419 0.799625 0.068066
0.441283 0.800357 0.068798
0.472197 0.801090 0.069531
0.503156 0.801823 0.070265
0.534157 0.802558 0.070999
0.565198 0.803294 0.071735
