library/cube/Dim_Aesthetic_004.cube
# CINEGRADE LAB — Premium Cinematic LUT
# Title: Dim Aesthetic
# Category: Dark Instagram Mood
# Description: Desaturated, crushed blacks, cool tones for social media aesthetics
# Mood: Moody, cool, modern
# Variant: 5
# Generated: 2026-05-21T16:12:37.074645
TITLE "Dim Aesthetic"
LUT_3D_SIZE 9
0.040000 0.040000 0.050000
0.040000 0.040000 0.050000
0.114498 0.040000 0.050000
0.219681 0.040000 0.050000
0.325172 0.040000 0.050000
0.430955 0.050369 0.051057
0.537018 0.062713 0.063517
0.643346 0.075068 0.075971
0.687753 0.080187 0.081089
0.040000 0.040000 0.050000
0.040000 0.040000 0.050000
0.118828 0.040000 0.050000
0.224506 0.040000 0.050000
0.330460 0.050629 0.050000
0.436676 0.062986 0.054872
0.543141 0.075354 0.067322
0.649840 0.087732 0.079766
0.694335 0.092861 0.084881
0.044708 0.148518 0.050000
0.054495 0.149729 0.050000
0.160404 0.162138 0.059405
0.266569 0.174555 0.071853
0.372978 0.186982 0.084296
0.479617 0.199417 0.096733
0.586471 0.211859 0.109166
0.693527 0.224308 0.121595
0.738125 0.229493 0.126700
0.086012 0.284996 0.087698
0.095881 0.286264 0.088824
0.202245 0.298744 0.101260
0.308835 0.311229 0.113692
0.415635 0.323719 0.126119
0.522632 0.336214 0.138542
0.629813 0.348712 0.150962
0.737163 0.361214 0.163378
0.781830 0.366439 0.168477
0.127603 0.421851 0.129522
0.137536 0.423159 0.130642
0.244293 0.435692 0.143064
0.351243 0.448226 0.155483
0.458370 0.460762 0.167898
0.565663 0.473299 0.180311
0.673106 0.485836 0.192721
0.780687 0.498372 0.205128
0.825391 0.503619 0.210223
0.169419 0.559002 0.171302
0.179400 0.560334 0.172417
0.286487 0.572902 0.184829
0.393733 0.585468 0.197238
0.501125 0.598032 0.209645
0.608649 0.610593 0.222051
0.716291 0.623149 0.234454
0.824038 0.635702 0.246857
0.868745 0.640956 0.251951
0.211402 0.696371 0.213048
0.221414 0.697712 0.214162
0.328766 0.710297 0.226567
0.436245 0.722876 0.238970
0.543837 0.735450 0.251372
0.651529 0.748016 0.263774
0.759307 0.760575 0.276176
0.867157 0.773126 0.288577
0.911835 0.778371 0.293672
0.253490 0.833878 0.254773
0.263516 0.835212 0.255888
0.371070 0.847796 0.268289
0.478719 0.860371 0.280690
0.586448 0.872936 0.293092
0.694245 0.885491 0.305493
0.802095 0.898034 0.317896
0.909984 0.910565 0.330299
0.954599 0.915783 0.335400
0.271115 0.890908 0.271908
0.281129 0.892205 0.273028
0.388811 0.904757 0.285432
0.496557 0.917298 0.297837
0.604352 0.929827 0.310242
0.712183 0.942343 0.322648
0.820036 0.954845 0.335057
0.927897 0.967333 0.347466
0.972412 0.972503 0.352575
0.040000 0.040000 0.050000
0.040000 0.040000 0.050000
0.114936 0.040000 0.050000
0.220172 0.040000 0.050000
0.325711 0.040000 0.050000
0.431541 0.050763 0.060254
0.537647 0.063109 0.072711
0.644015 0.075467 0.085161
0.688432 0.080586 0.090276
0.040000 0.040000 0.050000
0.040000 0.040000 0.050000
0.119264 0.040000 0.050000
0.224989 0.040000 0.050000
0.330987 0.051023 0.051609
0.437244 0.063382 0.064061
0.543746 0.075752 0.076508
0.650479 0.088132 0.088949
0.694982 0.093261 0.094062
0.045109 0.148929 0.055009
0.054900 0.150140 0.056143
0.160853 0.162550 0.068593
0.267059 0.174969 0.081038
0.373506 0.187397 0.093478
0.480180 0.199832 0.105913
0.587066 0.212275 0.118343
0.694151 0.224725 0.130769
0.738753 0.229909 0.135873
0.086429 0.285427 0.096881
0.096300 0.286694 0.098005
0.202703 0.299174 0.110439
0.309328 0.311659 0.122868
0.416160 0.324150 0.135292
0.523186 0.336644 0.147714
0.630393 0.349142 0.160131
0.737766 0.361643 0.172546
0.782435 0.366867 0.177643
0.128031 0.422296 0.138697
0.137966 0.423602 0.139815
0.244756 0.436134 0.152235
0.351734 0.448668 0.164651
0.458889 0.461202 0.177065
0.566204 0.473738 0.189476
0.673667 0.486273 0.201884
0.781265 0.498808 0.214291
0.825968 0.504053 0.219384
0.169855 0.559455 0.180469
0.179836 0.560785 0.181583
0.286949 0.573351 0.193993
0.394219 0.585915 0.206401
0.501631 0.598477 0.218807
0.609173 0.611035 0.231211
0.716829 0.623590 0.243614
0.824587 0.636140 0.256016
0.869291 0.641391 0.261109
0.211840 0.696827 0.222210
0.221852 0.698165 0.223323
0.329225 0.710747 0.235727
0.436721 0.723323 0.248129
0.544328 0.735894 0.260531
0.652032 0.748457 0.272932
0.759818 0.761012 0.285333
0.867673 0.773560 0.297734
0.912344 0.778800 0.302829
0.253927 0.834333 0.263931
0.263952 0.835662 0.265046
0.371521 0.848242 0.277446
0.479181 0.860813 0.289847
0.586919 0.873374 0.302248
0.694721 0.885924 0.314650
0.802574 0.898463 0.327052
0.910463 0.910989 0.339456
0.955068 0.916202 0.344556
0.271543 0.891350 0.281065
0.281555 0.892642 0.282185
0.389247 0.905190 0.294589
0.496999 0.917726 0.306993
0.604797 0.930250 0.319399
0.712628 0.942761 0.331806
0.820478 0.955258 0.344214
0.928333 0.967741 0.356625
0.972836 0.972906 0.361734
0.040000 0.040000 0.109333
0.040000 0.040000 0.110449
0.119104 0.040000 0.122902
0.224398 0.040000 0.135348
0.329992 0.042617 0.147788
0.435872 0.054955 0.160222
0.542025 0.067305 0.172651
0.648437 0.079666 0.185075
0.692869 0.084788 0.190165
0.040000 0.040000 0.113088
0.040000 0.040000 0.114205
0.123449 0.040000 0.126648
0.229225 0.042868 0.139085
0.335271 0.055219 0.151517
0.441573 0.067582 0.163944
0.548117 0.079955 0.176366
0.654889 0.092339 0.188784
0.699403 0.097469 0.193874
0.049266 0.153141 0.154933
0.059066 0.154354 0.156041
0.165067 0.166767 0.168467
0.271318 0.179189 0.180887
0.377807 0.191619 0.193304
0.484519 0.204057 0.205717
0.591440 0.216503 0.218126
0.698557 0.228955 0.230531
0.743168 0.234140 0.235616
0.090617 0.289665 0.196721
0.100495 0.290931 0.197823
0.206940 0.303413 0.210235
0.313604 0.315900 0.222642
0.420471 0.328392 0.235047
0.527530 0.340888 0.247449
0.634765 0.353387 0.259848
0.742163 0.365889 0.272245
0.786838 0.371112 0.277327
0.132244 0.426552 0.238463
0.142184 0.427857 0.239562
0.249010 0.440390 0.251963
0.356021 0.452924 0.264362
0.463204 0.465460 0.276758
0.570545 0.477995 0.289153
0.678031 0.490530 0.301546
0.785647 0.503064 0.313938
0.830352 0.508309 0.319019
0.174087 0.563725 0.280173
0.184072 0.565053 0.281271
0.291214 0.577618 0.293665
0.398510 0.590182 0.306058
0.505945 0.602742 0.318450
0.613505 0.615299 0.330841
0.721178 0.627852 0.343231
0.828949 0.640400 0.355622
0.873650 0.645649 0.360705
0.216085 0.701104 0.321861
0.226099 0.702438 0.322961
0.333495 0.715019 0.335352
0.441011 0.727593 0.347742
0.548634 0.740161 0.360133
0.656350 0.752722 0.372524
0.764146 0.765274 0.384916
0.872007 0.777819 0.397309
0.916673 0.783056 0.402397
0.258179 0.838610 0.363540
0.268205 0.839935 0.364644
0.375790 0.852513 0.377035
0.483463 0.865080 0.389427
0.591211 0.877637 0.401821
0.699019 0.890183 0.414215
0.806875 0.902718 0.426611
0.914764 0.915241 0.439010
0.959360 0.920449 0.444106
0.275793 0.895617 0.380643
0.285803 0.896904 0.381756
0.393505 0.909449 0.394153
0.501264 0.921981 0.406551
0.609066 0.934500 0.418952
0.716898 0.947007 0.431355
0.824744 0.959499 0.443760
0.932593 0.971977 0.456168
0.977085 0.977136 0.461277
0.040000 0.040000 0.209431
0.040000 0.040000 0.210516
0.123277 0.040000 0.222938
0.228627 0.040000 0.235354
0.334274 0.046806 0.247766
0.440205 0.059147 0.260173
0.546405 0.071501 0.272575
0.652861 0.083867 0.284973
0.697306 0.088991 0.290038
0.040000 0.040000 0.213087
0.040000 0.040000 0.214176
0.127637 0.040000 0.226591
0.233464 0.047061 0.239002
0.339558 0.059416 0.251408
0.445904 0.071783 0.263810
0.552489 0.084160 0.276208
0.659298 0.096547 0.288603
0.703824 0.101679 0.293672
0.053426 0.157354 0.254840
0.063234 0.158568 0.255924
0.169283 0.170984 0.268324
0.275579 0.183409 0.280721
0.382109 0.195842 0.293115
0.488859 0.208283 0.305506
0.595815 0.220731 0.317894
0.702963 0.233185 0.330280
0.747582 0.238371 0.335346
0.094808 0.293902 0.296546
0.104693 0.295170 0.297627
0.211179 0.307653 0.310017
0.317881 0.320142 0.322404
0.424783 0.332636 0.334789
0.531873 0.345133 0.347172
0.639136 0.357633 0.359554
0.746560 0.370136 0.371934
0.791239 0.375358 0.377000
0.136459 0.430809 0.338217
0.146405 0.432113 0.339297
0.253265 0.444647 0.351680
0.360308 0.457181 0.364061
0.467519 0.469717 0.376441
0.574885 0.482252 0.388820
0.682393 0.494787 0.401199
0.790028 0.507321 0.413577
0.834734 0.512564 0.418645
0.178321 0.567994 0.379865
0.188310 0.569320 0.380948
0.295480 0.581885 0.393327
0.402801 0.594448 0.405705
0.510257 0.607007 0.418084
0.617837 0.619563 0.430462
0.725525 0.632114 0.442841
0.833307 0.644661 0.455221
0.878007 0.649907 0.460295
0.220331 0.705380 0.421503
0.230347 0.706711 0.422590
0.337765 0.719290 0.434969
0.445299 0.731862 0.447348
0.552938 0.744427 0.459728
0.660666 0.756986 0.472110
0.768471 0.769536 0.484493
0.876338 0.782077 0.496878
0.920999 0.787310 0.501960
0.262432 0.842886 0.463141
0.272457 0.844208 0.464236
0.380058 0.856782 0.476618
0.487744 0.869346 0.489002
0.595500 0.881899 0.501388
0.703315 0.894442 0.513776
0.811173 0.906972 0.526167
0.919061 0.919490 0.538561
0.963648 0.924694 0.543654
0.280042 0.899883 0.480215
0.290051 0.901166 0.481321
0.397763 0.913706 0.493712
0.505528 0.926234 0.506105
0.613333 0.938749 0.518502
0.721164 0.951251 0.530901
0.829007 0.963738 0.543304
0.936849 0.976211 0.555711
0.981329 0.981365 0.560819
0.040000 0.040000 0.309507
0.040000 0.040000 0.310563
0.127453 0.040000 0.322955
0.232859 0.040000 0.335342
0.338559 0.050996 0.347725
0.444539 0.063342 0.360105
0.550785 0.075700 0.372481
0.657284 0.088069 0.384853
0.701743 0.093196 0.389895
0.040000 0.040000 0.313067
0.040000 0.040000 0.314129
0.131828 0.040000 0.326517
0.237706 0.051256 0.338902
0.343846 0.063615 0.351283
0.450236 0.075985 0.363661
0.556861 0.088365 0.376036
0.663708 0.100755 0.388408
0.708244 0.105890 0.393456
0.057589 0.161568 0.354729
0.067406 0.162784 0.355789
0.173502 0.175203 0.368166
0.279842 0.187631 0.380540
0.386413 0.200067 0.392912
0.493199 0.212510 0.405282
0.600189 0.224960 0.417650
0.707368 0.237415 0.430016
0.751995 0.242602 0.435064
0.099001 0.298141 0.396356
0.108893 0.299409 0.397416
0.215420 0.311894 0.409785
0.322159 0.324385 0.422152
0.429095 0.336879 0.434518
0.536216 0.349377 0.446883
0.643507 0.361879 0.459248
0.750955 0.374382 0.471612
0.795638 0.379605 0.476662
0.140677 0.435066 0.437957
0.150627 0.436370 0.439020
0.257522 0.448903 0.451385
0.364596 0.461438 0.463749
0.471834 0.473974 0.476113
0.579225 0.486509 0.488477
0.686754 0.499044 0.500842
0.794407 0.511577 0.513207
0.839113 0.516818 0.518263
0.182556 0.572263 0.479546
0.192548 0.573587 0.480614
0.299747 0.586152 0.492979
0.407092 0.598713 0.505343
0.514570 0.611271 0.517709
0.622167 0.623826 0.530075
0.729869 0.636376 0.542443
0.837664 0.648920 0.554813
0.882361 0.654164 0.559878
0.224578 0.709655 0.521135
0.234596 0.710984 0.522211
0.342035 0.723560 0.534578
0.449588 0.736130 0.546947
0.557241 0.748693 0.559317
0.664981 0.761248 0.571690
0.772794 0.773796 0.584065
0.880666 0.786334 0.596443
0.925321 0.791564 0.601519
0.266684 0.847161 0.562736
0.276710 0.848479 0.563821
0.384326 0.861050 0.576195
0.492023 0.873610 0.588571
0.599788 0.886160 0.600950
0.707608 0.898698 0.613333
0.815467 0.911225 0.625719
0.923354 0.923739 0.638109
0.967932 0.928937 0.643199
0.284291 0.904147 0.579782
0.294299 0.905426 0.580882
0.402020 0.917962 0.593267
0.509790 0.930486 0.605656
0.617598 0.942996 0.618049
0.725428 0.955493 0.630446
0.833267 0.967975 0.642847
0.941101 0.980443 0.655253
0.985569 0.985592 0.660360
0.040000 0.040000 0.409563
0.040000 0.040000 0.410590
0.131632 0.040000 0.422952
0.237094 0.042849 0.435311
0.342846 0.055187 0.447667
0.448875 0.067537 0.460020
0.555167 0.079899 0.472370
0.661708 0.092272 0.484718
0.706181 0.097401 0.489736
0.040000 0.040000 0.413028
0.040000 0.040000 0.414064
0.136022 0.043100 0.426426
0.241949 0.055452 0.438785
0.348136 0.067814 0.451141
0.454569 0.080188 0.463496
0.561234 0.092572 0.475848
0.668117 0.104965 0.488199
0.712664 0.110102 0.493226
0.061756 0.165784 0.454602
0.071582 0.167000 0.455639
0.177724 0.179423 0.467993
0.284107 0.191853 0.480344
0.390717 0.204291 0.492695
0.497541 0.216737 0.505044
0.604564 0.229189 0.517392
0.711773 0.241647 0.529740
0.756406 0.246835 0.534770
0.103197 0.302380 0.496151
0.113096 0.303648 0.497191
0.219663 0.316135 0.509540
0.326439 0.328627 0.521888
0.433408 0.341123 0.534235
0.540559 0.353623 0.546583
0.647877 0.366125 0.558931
0.755348 0.378629 0.571279
0.800035 0.383851 0.576315
0.144896 0.439323 0.537685
0.154852 0.440626 0.538731
0.261780 0.453160 0.551078
0.368884 0.465695 0.563426
0.476150 0.478231 0.575775
0.583564 0.490766 0.588124
0.691113 0.503300 0.600475
0.798783 0.515833 0.612828
0.843491 0.521073 0.617873
0.186793 0.576532 0.579217
0.196788 0.577855 0.580271
0.304014 0.590418 0.592621
0.411383 0.602978 0.604972
0.518881 0.615535 0.617326
0.626496 0.628088 0.629681
0.734212 0.640637 0.642038
0.842017 0.653179 0.654399
0.886712 0.658421 0.659455
0.228826 0.713929 0.620759
0.238845 0.715255 0.621823
0.346305 0.727830 0.634180
0.453875 0.740397 0.646538
0.561543 0.752958 0.658899
0.669294 0.765511 0.671264
0.777114 0.778055 0.683632
0.884991 0.790590 0.696003
0.929639 0.795816 0.701074
0.270937 0.851435 0.662323
0.280963 0.852749 0.663401
0.388593 0.865316 0.675766
0.496301 0.877873 0.688135
0.604074 0.890419 0.700508
0.711898 0.902954 0.712886
0.819759 0.915476 0.725267
0.927644 0.927985 0.737654
0.972213 0.933179 0.742742
0.288539 0.908411 0.679344
0.298546 0.909685 0.680439
0.406275 0.922216 0.692819
0.514051 0.934736 0.705204
0.621860 0.947242 0.717594
0.729688 0.959734 0.729988
0.837523 0.972211 0.742388
0.945349 0.984673 0.754793
0.989804 0.989817 0.759902
0.040000 0.040000 0.509598
0.040000 0.040000 0.510597
0.135815 0.040000 0.522930
0.241332 0.047038 0.535262
0.347135 0.059380 0.547590
0.453212 0.071734 0.559917
0.559549 0.084100 0.572242
0.666132 0.096477 0.584566
0.710618 0.101608 0.589561
0.040000 0.040000 0.512971
0.040000 0.040000 0.513982
0.140220 0.047294 0.526317
0.246196 0.059649 0.538652
0.352428 0.072015 0.550984
0.458903 0.084392 0.563315
0.565607 0.096780 0.575645
0.672526 0.109176 0.587975
0.717083 0.114315 0.592983
0.065926 0.170000 0.554459
0.075760 0.171218 0.555473
0.181948 0.183643 0.567804
0.288374 0.196076 0.580134
0.395023 0.208517 0.592463
0.501882 0.220965 0.604792
0.608938 0.233419 0.617122
0.716176 0.245879 0.629451
0.760817 0.251067 0.634465
0.107396 0.306620 0.595932
0.117302 0.307888 0.596952
0.223908 0.320377 0.609281
0.330719 0.332871 0.621610
0.437722 0.345368 0.633940
0.544902 0.357868 0.646271
0.652246 0.370371 0.658603
0.759740 0.382876 0.670936
0.804431 0.388098 0.675958
0.149118 0.443580 0.637401
0.159078 0.444882 0.638429
0.266039 0.457417 0.650760
0.373173 0.469953 0.663093
0.480465 0.482488 0.675427
0.587902 0.495023 0.687762
0.695471 0.507557 0.700100
0.803158 0.520088 0.712441
0.847865 0.525327 0.717475
0.191031 0.580801 0.678878
0.201029 0.582121 0.679917
0.308282 0.594684 0.692254
0.415674 0.607243 0.704593
0.523192 0.619799 0.716934
0.630823 0.632350 0.729279
0.738553 0.644897 0.741627
0.846369 0.657438 0.753978
0.891060 0.662676 0.759026
0.233075 0.718203 0.720375
0.243095 0.719526 0.721428
0.350575 0.732098 0.733774
0.458162 0.744664 0.746123
0.565843 0.757222 0.758476
0.673604 0.769772 0.770832
0.781432 0.782313 0.783194
0.889312 0.794845 0.795559
0.933954 0.800067 0.800625
0.275190 0.855709 0.761905
0.285216 0.857018 0.762974
0.392860 0.869582 0.775332
0.500578 0.882135 0.787695
0.608358 0.894677 0.800063
0.716186 0.907208 0.812435
0.824047 0.919726 0.824813
0.931929 0.932231 0.837197
0.976488 0.937420 0.842283
0.292788 0.912673 0.778902
0.302793 0.913942 0.779992
0.410530 0.926470 0.792368
0.518310 0.938984 0.804749
0.626120 0.951486 0.817136
0.733946 0.963973 0.829529
0.841775 0.976445 0.841928
0.949592 0.988902 0.854334
0.994034 0.994040 0.859443
0.040000 0.040000 0.609614
0.040000 0.040000 0.610584
0.140002 0.040000 0.622890
0.245572 0.051228 0.635194
0.351427 0.063574 0.647496
0.457551 0.075932 0.659798
0.563932 0.088302 0.672098
0.670556 0.100682 0.684398
0.715055 0.105816 0.689372
0.040000 0.040000 0.612896
0.040000 0.040000 0.613881
0.144420 0.051488 0.626192
0.250444 0.063847 0.638502
0.356722 0.076217 0.650811
0.463238 0.088598 0.663120
0.569981 0.100989 0.675428
0.676935 0.113388 0.687737
0.721502 0.118529 0.692726
0.070100 0.174218 0.654300
0.079941 0.175437 0.655292
0.186174 0.187865 0.667601
0.292642 0.200301 0.679909
0.399330 0.212744 0.692218
0.506224 0.225194 0.704528
0.613312 0.237650 0.716839
0.720579 0.250111 0.729151
0.765226 0.255300 0.734148
0.111598 0.310861 0.695699
0.121509 0.312129 0.696700
0.228154 0.324620 0.709010
0.335001 0.337114 0.721321
0.442036 0.349613 0.733634
0.549245 0.362114 0.745948
0.656615 0.374617 0.758264
0.764131 0.387123 0.770583
0.808825 0.392344 0.775592
0.153341 0.447838 0.737104
0.163306 0.449139 0.738117
0.270300 0.461674 0.750432
0.377462 0.474210 0.762749
0.484780 0.486745 0.775069
0.592240 0.499280 0.787391
0.699828 0.511813 0.799717
0.807530 0.524344 0.812046
0.852238 0.529581 0.817070
0.195270 0.585069 0.778528
0.205272 0.586388 0.779554
0.312550 0.598949 0.791878
0.419965 0.611508 0.804205
0.527502 0.624062 0.816535
0.635149 0.636612 0.828870
0.742892 0.649156 0.841208
0.850717 0.661695 0.853551
0.895405 0.666931 0.858593
0.237324 0.722477 0.819982
0.247346 0.723797 0.821025
0.354845 0.736366 0.833361
0.462449 0.748929 0.845701
0.570142 0.761485 0.858046
0.677913 0.774032 0.870396
0.785747 0.786570 0.882751
0.893630 0.799098 0.895111
0.938265 0.804317 0.900173
0.279444 0.859980 0.861480
0.289469 0.861286 0.862542
0.397125 0.873846 0.874893
0.504854 0.886396 0.887250
0.612640 0.898934 0.899613
0.720471 0.911460 0.911981
0.828333 0.923974 0.924356
0.936211 0.936474 0.936738
0.980760 0.941658 0.941823
0.297036 0.916933 0.878456
0.307039 0.918198 0.879541
0.414783 0.930721 0.891913
0.522567 0.943231 0.904292
0.630377 0.955728 0.916677
0.738200 0.968210 0.929069
0.846023 0.980677 0.941468
0.953831 0.993129 0.953874
0.998259 0.998261 0.958985
0.040000 0.040000 0.650780
0.040000 0.040000 0.651740
0.141768 0.040624 0.664034
0.247389 0.052960 0.676328
0.353290 0.065309 0.688620
0.459458 0.077670 0.700911
0.565880 0.090042 0.713202
0.672541 0.102425 0.725493
0.717049 0.107560 0.730459
0.040000 0.040000 0.654028
0.040383 0.040872 0.655005
0.146189 0.053222 0.667306
0.252258 0.065584 0.679606
0.358576 0.077957 0.691906
0.465131 0.090340 0.704206
0.571909 0.102732 0.716507
0.678895 0.115134 0.728808
0.723469 0.120275 0.733790
0.071837 0.175973 0.695400
0.081684 0.177192 0.696384
0.187959 0.189621 0.708684
0.294465 0.202059 0.720985
0.401188 0.214503 0.733287
0.508115 0.226954 0.745589
0.615231 0.239411 0.757893
0.722524 0.251874 0.770199
0.767175 0.257063 0.775191
0.113354 0.312635 0.736771
0.123269 0.313902 0.737765
0.229950 0.326393 0.750069
0.336829 0.338888 0.762373
0.443893 0.351387 0.774680
0.551128 0.363888 0.786988
0.658520 0.376391 0.799300
0.766057 0.388896 0.811614
0.810752 0.394117 0.816619
0.155110 0.449625 0.778153
0.165078 0.450925 0.779161
0.272101 0.463459 0.791470
0.379290 0.475994 0.803782
0.486631 0.488528 0.816097
0.594111 0.501061 0.828416
0.701715 0.513593 0.840737
0.809432 0.526123 0.853063
0.854137 0.531358 0.858084
0.197048 0.586864 0.819559
0.207050 0.588180 0.820582
0.314352 0.600740 0.832901
0.421787 0.613296 0.845224
0.529342 0.625848 0.857552
0.637003 0.638396 0.869883
0.744756 0.650938 0.882219
0.852589 0.663474 0.894560
0.897271 0.668707 0.899600
0.239105 0.724274 0.861000
0.249127 0.725590 0.862040
0.356643 0.738157 0.874374
0.464261 0.750717 0.886711
0.571966 0.763269 0.899054
0.679745 0.775812 0.911403
0.787583 0.788347 0.923756
0.895468 0.800872 0.936116
0.940095 0.806086 0.941178
0.281223 0.861774 0.902489
0.291247 0.863075 0.903549
0.398915 0.875631 0.915899
0.506651 0.888177 0.928256
0.614443 0.900710 0.940618
0.722275 0.913232 0.952986
0.830136 0.925741 0.965362
0.938009 0.938237 0.977744
0.982547 0.943416 0.982830
0.298806 0.918713 0.919461
0.308807 0.919973 0.920546
0.416556 0.932492 0.932919
0.524343 0.944997 0.945298
0.632152 0.957489 0.957684
0.739972 0.969966 0.970077
0.847787 0.982428 0.982478
0.955585 0.994874 0.994886
1.000000 1.000000 1.000000
