library/cube/Dim_Aesthetic_004.cube
# CINEGRADE LAB — Premium Cinematic LUT
# Title: Dim Aesthetic
# Category: Dark Instagram Mood
# Description: Desaturated, crushed blacks, cool tones for social media aesthetics
# Mood: Moody, cool, modern
# Variant: 5
# Generated: 2026-05-21T16:12:37.074645
TITLE "Dim Aesthetic"
LUT_3D_SIZE 33
0.040000 0.040000 0.050000
0.040000 0.040000 0.050000
0.040000 0.040000 0.050000
0.040000 0.040000 0.050000
0.040000 0.040000 0.050000
0.040000 0.040000 0.050000
0.062025 0.040000 0.050000
0.088251 0.040000 0.050000
0.114498 0.040000 0.050000
0.140764 0.040000 0.050000
0.167050 0.040000 0.050000
0.193356 0.040000 0.050000
0.219681 0.040000 0.050000
0.246026 0.040000 0.050000
0.272389 0.040000 0.050000
0.298771 0.040000 0.050000
0.325172 0.040000 0.050000
0.351591 0.041120 0.050000
0.378028 0.044202 0.050000
0.404483 0.047285 0.050000
0.430955 0.050369 0.051057
0.457445 0.053454 0.054173
0.483953 0.056539 0.057288
0.510477 0.059626 0.060403
0.537018 0.062713 0.063517
0.563576 0.065801 0.066631
0.590150 0.068889 0.069745
0.616740 0.071978 0.072858
0.643346 0.075068 0.075971
0.669968 0.078159 0.079083
0.687310 0.080166 0.081099
0.687532 0.080177 0.081094
0.687753 0.080187 0.081089
0.040000 0.040000 0.050000
0.040000 0.040000 0.050000
0.040000 0.040000 0.050000
0.040000 0.040000 0.050000
0.040000 0.040000 0.050000
0.040000 0.040000 0.050000
0.062106 0.040000 0.050000
0.088366 0.040000 0.050000
0.114645 0.040000 0.050000
0.140944 0.040000 0.050000
0.167263 0.040000 0.050000
0.193600 0.040000 0.050000
0.219956 0.040000 0.050000
0.246331 0.040000 0.050000
0.272725 0.040000 0.050000
0.299136 0.040000 0.050000
0.325566 0.040000 0.050000
0.352014 0.041139 0.050000
0.378479 0.044223 0.050000
0.404962 0.047307 0.050000
0.431461 0.050392 0.051045
0.457978 0.053478 0.054160
0.484512 0.056565 0.057275
0.511062 0.059653 0.060389
0.537628 0.062741 0.063503
0.564211 0.065830 0.066616
0.590809 0.068919 0.069730
0.617423 0.072010 0.072842
0.644053 0.075101 0.075955
0.670698 0.078193 0.079067
0.688052 0.080201 0.081082
0.688268 0.080211 0.081077
0.688483 0.080221 0.081072
0.040000 0.040000 0.050000
0.040000 0.040000 0.050000
0.040000 0.040000 0.050000
0.040000 0.040000 0.050000
0.040000 0.040000 0.050000
0.040000 0.040000 0.050000
0.062186 0.040000 0.050000
0.088478 0.040000 0.050000
0.114789 0.040000 0.050000
0.141120 0.040000 0.050000
0.167470 0.040000 0.050000
0.193838 0.040000 0.050000
0.220224 0.040000 0.050000
0.246629 0.040000 0.050000
0.273052 0.040000 0.050000
0.299492 0.040000 0.050000
0.325950 0.040000 0.050000
0.352426 0.041158 0.050000
0.378919 0.044243 0.050000
0.405428 0.047329 0.050000
0.431954 0.050415 0.051034
0.458497 0.053502 0.054148
0.485056 0.056590 0.057262
0.511631 0.059679 0.060376
0.538222 0.062768 0.063489
0.564828 0.065858 0.066602
0.591450 0.068949 0.069715
0.618088 0.072041 0.072827
0.644740 0.075133 0.075939
0.671407 0.078226 0.079050
0.688773 0.080234 0.081065
0.688983 0.080244 0.081060
0.689191 0.080253 0.081055
0.040000 0.040000 0.050000
0.040000 0.040000 0.050000
0.040000 0.040000 0.050000
0.040000 0.040000 0.050000
0.040000 0.040000 0.050000
0.040000 0.040000 0.050000
0.062263 0.040000 0.050000
0.088587 0.040000 0.050000
0.114930 0.040000 0.050000
0.141292 0.040000 0.050000
0.167671 0.040000 0.050000
0.194070 0.040000 0.050000
0.220486 0.040000 0.050000
0.246919 0.040000 0.050000
0.273371 0.040000 0.050000
0.299839 0.040000 0.050000
0.326325 0.040000 0.050000
0.352827 0.041177 0.050000
0.379346 0.044263 0.050000
0.405882 0.047350 0.050000
0.432434 0.050437 0.051023
0.459002 0.053526 0.054137
0.485585 0.056615 0.057250
0.512185 0.059704 0.060363
0.538799 0.062795 0.063476
0.565429 0.065886 0.066588
0.592074 0.068978 0.069700
0.618733 0.072070 0.072812
0.645407 0.075163 0.075923
0.672095 0.078257 0.079034
0.689473 0.080266 0.081049
0.689677 0.080276 0.081044
0.689879 0.080285 0.081040
0.040000 0.040000 0.050000
0.040000 0.040000 0.050000
0.040000 0.040000 0.050000
0.040000 0.040000 0.050000
0.040000 0.040000 0.050000
0.040000 0.040000 0.050000
0.066096 0.040000 0.050000
0.092453 0.040000 0.050000
0.118828 0.040000 0.050000
0.145221 0.040000 0.050000
0.171632 0.040000 0.050000
0.198060 0.040000 0.050000
0.224506 0.040000 0.050000
0.250969 0.041369 0.050000
0.277449 0.044455 0.050000
0.303946 0.047542 0.050000
0.330460 0.050629 0.050000
0.356990 0.053717 0.050000
0.383536 0.056806 0.050000
0.410098 0.059896 0.051758
0.436676 0.062986 0.054872
0.463270 0.066077 0.057985
0.489878 0.069169 0.061097
0.516502 0.072261 0.064210
0.543141 0.075354 0.067322
0.569794 0.078448 0.070433
0.596462 0.081542 0.073545
0.623144 0.084637 0.076656
0.649840 0.087732 0.079766
0.676550 0.090829 0.082877
0.693939 0.092840 0.084891
0.694138 0.092850 0.084886
0.694335 0.092861 0.084881
0.040000 0.046452 0.050000
0.040000 0.046459 0.050000
0.040000 0.046465 0.050000
0.040000 0.046472 0.050000
0.040000 0.047611 0.050000
0.050023 0.050696 0.050000
0.076395 0.053781 0.050000
0.102786 0.056868 0.050000
0.129194 0.059955 0.050000
0.155619 0.063042 0.050000
0.182062 0.066131 0.050000
0.208522 0.069220 0.050000
0.235000 0.072310 0.050000
0.261493 0.075401 0.050000
0.288004 0.078492 0.050000
0.314531 0.081584 0.050000
0.341073 0.084677 0.052892
0.367632 0.087770 0.056005
0.394206 0.090865 0.059118
0.420796 0.093959 0.062231
0.447401 0.097055 0.065343
0.474021 0.100151 0.068455
0.500656 0.103248 0.071566
0.527305 0.106345 0.074677
0.553969 0.109443 0.077788
0.580647 0.112542 0.080899
0.607339 0.115641 0.084009
0.634044 0.118741 0.087119
0.660763 0.121841 0.090228
0.687496 0.124942 0.093338
0.704898 0.126957 0.095351
0.705093 0.126971 0.095346
0.705287 0.126985 0.095340
0.040000 0.080444 0.050000
0.040000 0.080455 0.050000
0.040000 0.080466 0.050000
0.040000 0.080477 0.050000
0.040000 0.081621 0.050000
0.060310 0.084712 0.050000
0.086715 0.087803 0.050000
0.113138 0.090895 0.050000
0.139579 0.093987 0.050000
0.166036 0.097081 0.050000
0.192510 0.100175 0.050000
0.219001 0.103269 0.050000
0.245509 0.106365 0.050912
0.272032 0.109461 0.054025
0.298572 0.112557 0.057139
0.325127 0.115655 0.060251
0.351698 0.118753 0.063364
0.378284 0.121851 0.066476
0.404886 0.124950 0.069587
0.431502 0.128050 0.072699
0.458133 0.131151 0.075810
0.484779 0.134252 0.078921
0.511439 0.137353 0.082031
0.538113 0.140455 0.085141
0.564801 0.143558 0.088251
0.591502 0.146661 0.091360
0.618217 0.149765 0.094469
0.644945 0.152869 0.097578
0.671686 0.155974 0.100687
0.698440 0.159079 0.103795
0.715855 0.161098 0.105808
0.716047 0.161115 0.105802
0.716237 0.161132 0.105797
0.040000 0.114466 0.050000
0.040000 0.114481 0.050000
0.040000 0.114497 0.050000
0.040000 0.114512 0.050000
0.044198 0.115661 0.050000
0.070618 0.118757 0.050000
0.097056 0.121853 0.050000
0.123511 0.124951 0.050000
0.149982 0.128049 0.050000
0.176471 0.131147 0.052046
0.202975 0.134246 0.055159
0.229496 0.137346 0.058272
0.256032 0.140447 0.061384
0.282584 0.143548 0.064497
0.309152 0.146650 0.067609
0.335735 0.149752 0.070720
0.362333 0.152855 0.073831
0.388946 0.155958 0.076942
0.415574 0.159062 0.080053
0.442216 0.162167 0.083163
0.468872 0.165272 0.086273
0.495542 0.168377 0.089383
0.522226 0.171483 0.092492
0.548924 0.174590 0.095601
0.575635 0.177697 0.098710
0.602359 0.180804 0.101819
0.629096 0.183913 0.104927
0.655846 0.187021 0.108035
0.682608 0.190130 0.111142
0.709383 0.193240 0.114250
0.726809 0.195262 0.116262
0.726997 0.195282 0.116256
0.727183 0.195302 0.116250
0.044708 0.148518 0.050000
0.044723 0.148537 0.050000
0.044738 0.148556 0.050000
0.044752 0.148576 0.050000
0.054495 0.149729 0.050000
0.080947 0.152830 0.050065
0.107416 0.155932 0.053179
0.133902 0.159035 0.056292
0.160404 0.162138 0.059405
0.186922 0.165241 0.062517
0.213455 0.168345 0.065630
0.240005 0.171450 0.068741
0.266569 0.174555 0.071853
0.293149 0.177661 0.074964
0.319744 0.180768 0.078075
0.346354 0.183875 0.081185
0.372978 0.186982 0.084296
0.399617 0.190090 0.087405
0.426269 0.193198 0.090515
0.452936 0.196307 0.093624
0.479617 0.199417 0.096733
0.506310 0.202527 0.099842
0.533018 0.205637 0.102950
0.559738 0.208748 0.106058
0.586471 0.211859 0.109166
0.613217 0.214971 0.112274
0.639975 0.218083 0.115381
0.666745 0.221195 0.118488
0.693527 0.224308 0.121595
0.720321 0.227421 0.124701
0.737759 0.229447 0.126713
0.737943 0.229470 0.126706
0.738125 0.229493 0.126700
0.055004 0.182598 0.056292
0.055022 0.182621 0.056289
0.055039 0.182644 0.056285
0.055057 0.182667 0.056282
0.064813 0.183825 0.057425
0.091296 0.186931 0.060538
0.117795 0.190038 0.063651
0.144311 0.193145 0.066763
0.170842 0.196253 0.069874
0.197388 0.199361 0.072986
0.223950 0.202470 0.076097
0.250527 0.205579 0.079207
0.277119 0.208689 0.082318
0.303726 0.211799 0.085428
0.330347 0.214910 0.088537
0.356982 0.218022 0.091647
0.383632 0.221133 0.094756
0.410295 0.224246 0.097865
0.436972 0.227358 0.100974
0.463662 0.230471 0.104082
0.490366 0.233585 0.107190
0.517082 0.236699 0.110298
0.543812 0.239813 0.113405
0.570553 0.242928 0.116512
0.597308 0.246043 0.119619
0.624074 0.249158 0.122726
0.650852 0.252274 0.125832
0.677642 0.255390 0.128939
0.704444 0.258507 0.132045
0.731256 0.261623 0.135150
0.748704 0.263653 0.137161
0.748884 0.263678 0.137154
0.749062 0.263703 0.137148
0.065321 0.216705 0.066765
0.065341 0.216732 0.066761
0.065361 0.216759 0.066756
0.065382 0.216785 0.066752
0.075150 0.217947 0.067895
0.101663 0.221058 0.071007
0.128192 0.224169 0.074118
0.154736 0.227281 0.077229
0.181295 0.230393 0.080340
0.207869 0.233506 0.083450
0.234459 0.236619 0.086560
0.261062 0.239733 0.089670
0.287680 0.242847 0.092779
0.314313 0.245961 0.095888
0.340959 0.249076 0.098997
0.367619 0.252192 0.102105
0.394293 0.255308 0.105213
0.420980 0.258424 0.108321
0.447680 0.261540 0.111429
0.474393 0.264657 0.114536
0.501119 0.267774 0.117643
0.527857 0.270892 0.120750
0.554607 0.274010 0.123857
0.581370 0.277128 0.126963
0.608144 0.280247 0.130069
0.634930 0.283366 0.133175
0.661727 0.286485 0.136281
0.688536 0.289605 0.139386
0.715355 0.292725 0.142492
0.742186 0.295845 0.145596
0.759643 0.297877 0.147606
0.759819 0.297904 0.147600
0.759992 0.297931 0.147593
0.075657 0.250838 0.077233
0.075680 0.250869 0.077228
0.075703 0.250899 0.077224
0.075726 0.250928 0.077219
0.085507 0.252094 0.078362
0.112048 0.255209 0.081472
0.138605 0.258325 0.084582
0.165177 0.261441 0.087692
0.191763 0.264557 0.090802
0.218364 0.267674 0.093911
0.244980 0.270791 0.097020
0.271609 0.273909 0.100128
0.298253 0.277027 0.103237
0.324910 0.280146 0.106345
0.351580 0.283265 0.109453
0.378264 0.286384 0.112560
0.404961 0.289503 0.115668
0.431671 0.292623 0.118775
0.458393 0.295743 0.121881
0.485128 0.298864 0.124988
0.511874 0.301985 0.128094
0.538633 0.305106 0.131200
0.565404 0.308227 0.134306
0.592186 0.311349 0.137411
0.618979 0.314471 0.140517
0.645784 0.317593 0.143622
0.672600 0.320715 0.146727
0.699426 0.323838 0.149832
0.726262 0.326961 0.152936
0.753109 0.330084 0.156040
0.770575 0.332119 0.158050
0.770746 0.332148 0.158043
0.770915 0.332177 0.158036
0.086012 0.284996 0.087698
0.086038 0.285030 0.087693
0.086063 0.285063 0.087688
0.086088 0.285095 0.087683
0.095881 0.286264 0.088824
0.122450 0.289384 0.091934
0.149034 0.292503 0.095043
0.175633 0.295623 0.098152
0.202245 0.298744 0.101260
0.228872 0.301865 0.104368
0.255513 0.304986 0.107476
0.282167 0.308107 0.110584
0.308835 0.311229 0.113692
0.335516 0.314351 0.116799
0.362209 0.317474 0.119906
0.388916 0.320596 0.123012
0.415635 0.323719 0.126119
0.442366 0.326843 0.129225
0.469110 0.329966 0.132331
0.495865 0.333090 0.135437
0.522632 0.336214 0.138542
0.549411 0.339338 0.141647
0.576200 0.342463 0.144752
0.603001 0.345588 0.147857
0.629813 0.348712 0.150962
0.656635 0.351838 0.154066
0.683468 0.354963 0.157170
0.710310 0.358088 0.160274
0.737163 0.361214 0.163378
0.764026 0.364340 0.166482
0.781500 0.366377 0.168491
0.781666 0.366408 0.168484
0.781830 0.366439 0.168477
0.096385 0.319178 0.098159
0.096413 0.319214 0.098153
0.096440 0.319250 0.098148
0.096467 0.319285 0.098142
0.106272 0.320457 0.099283
0.132868 0.323580 0.102392
0.159478 0.326704 0.105500
0.186102 0.329828 0.108608
0.212740 0.332952 0.111715
0.239392 0.336076 0.114823
0.266057 0.339201 0.117930
0.292735 0.342326 0.121037
0.319426 0.345451 0.124143
0.346129 0.348577 0.127250
0.372845 0.351702 0.130356
0.399574 0.354828 0.133462
0.426314 0.357955 0.136567
0.453066 0.361081 0.139673
0.479829 0.364208 0.142778
0.506605 0.367334 0.145883
0.533391 0.370461 0.148987
0.560188 0.373589 0.152092
0.586996 0.376716 0.155196
0.613814 0.379843 0.158301
0.640643 0.382971 0.161404
0.667482 0.386099 0.164508
0.694331 0.389227 0.167612
0.721189 0.392355 0.170715
0.748057 0.395483 0.173818
0.774934 0.398611 0.176922
0.792416 0.400650 0.178930
0.792577 0.400683 0.178923
0.792736 0.400715 0.178916
0.106776 0.353382 0.108616
0.106805 0.353420 0.108610
0.106834 0.353459 0.108605
0.106863 0.353497 0.108599
0.116678 0.354672 0.109739
0.143300 0.357798 0.112847
0.169936 0.360925 0.115954
0.196585 0.364052 0.119061
0.223247 0.367180 0.122168
0.249923 0.370308 0.125274
0.276611 0.373436 0.128380
0.303312 0.376564 0.131486
0.330025 0.379692 0.134592
0.356750 0.382821 0.137698
0.383487 0.385950 0.140803
0.410236 0.389078 0.143908
0.436997 0.392208 0.147013
0.463768 0.395337 0.150118
0.490551 0.398466 0.153222
0.517345 0.401596 0.156327
0.544149 0.404725 0.159431
0.570964 0.407855 0.162534
0.597789 0.410985 0.165638
0.624624 0.414115 0.168742
0.651469 0.417245 0.171845
0.678324 0.420375 0.174948
0.705188 0.423506 0.178051
0.732061 0.426636 0.181154
0.758943 0.429766 0.184257
0.785833 0.432897 0.187359
0.803322 0.434938 0.189367
0.803478 0.434971 0.189360
0.803632 0.435005 0.189353
0.117182 0.387606 0.119071
0.117213 0.387647 0.119065
0.117244 0.387688 0.119058
0.117275 0.387728 0.119052
0.127100 0.388906 0.120192
0.153747 0.392036 0.123299
0.180407 0.395166 0.126405
0.207080 0.398296 0.129511
0.233765 0.401427 0.132617
0.260463 0.404558 0.135723
0.287174 0.407689 0.138828
0.313896 0.410820 0.141934
0.340631 0.413951 0.145039
0.367377 0.417082 0.148143
0.394134 0.420214 0.151248
0.420903 0.423346 0.154352
0.447682 0.426477 0.157457
0.474473 0.429609 0.160561
0.501274 0.432741 0.163664
0.528085 0.435873 0.166768
0.554907 0.439005 0.169872
0.581739 0.442137 0.172975
0.608580 0.445269 0.176078
0.635431 0.448402 0.179181
0.662291 0.451534 0.182284
0.689160 0.454666 0.185386
0.716038 0.457798 0.188489
0.742924 0.460931 0.191591
0.769820 0.464063 0.194693
0.796723 0.467195 0.197795
0.814218 0.469238 0.199803
0.814369 0.469272 0.199796
0.814518 0.469307 0.199789
0.127603 0.421851 0.129522
0.127636 0.421894 0.129516
0.127668 0.421937 0.129509
0.127700 0.421979 0.129503
0.137536 0.423159 0.130642
0.164206 0.426292 0.133748
0.190890 0.429425 0.136853
0.217585 0.432558 0.139959
0.244293 0.435692 0.143064
0.271013 0.438825 0.146169
0.297745 0.441959 0.149274
0.324488 0.445093 0.152378
0.351243 0.448226 0.155483
0.378008 0.451360 0.158587
0.404785 0.454494 0.161691
0.431573 0.457628 0.164794
0.458370 0.460762 0.167898
0.485179 0.463896 0.171001
0.511997 0.467031 0.174105
0.538825 0.470165 0.177208
0.565663 0.473299 0.180311
0.592510 0.476433 0.183413
0.619367 0.479567 0.186516
0.646232 0.482701 0.189618
0.673106 0.485836 0.192721
0.699989 0.488970 0.195823
0.726880 0.492104 0.198925
0.753779 0.495238 0.202027
0.780687 0.498372 0.205128
0.807602 0.501506 0.208230
0.825102 0.503549 0.210238
0.825247 0.503585 0.210230
0.825391 0.503619 0.210223
0.138038 0.456114 0.139971
0.138072 0.456159 0.139964
0.138106 0.456204 0.139957
0.138140 0.456248 0.139950
0.147984 0.457430 0.141089
0.174678 0.460565 0.144194
0.201384 0.463701 0.147299
0.228101 0.466837 0.150404
0.254830 0.469973 0.153508
0.281571 0.473109 0.156613
0.308323 0.476245 0.159717
0.335086 0.479381 0.162821
0.361860 0.482517 0.165924
0.388644 0.485653 0.169028
0.415439 0.488789 0.172131
0.442244 0.491925 0.175234
0.469060 0.495062 0.178337
0.495885 0.498198 0.181440
0.522719 0.501334 0.184543
0.549563 0.504470 0.187645
0.576416 0.507606 0.190748
0.603278 0.510742 0.193850
0.630148 0.513878 0.196952
0.657028 0.517014 0.200054
0.683915 0.520149 0.203156
0.710810 0.523285 0.206258
0.737714 0.526420 0.209359
0.764625 0.529556 0.212461
0.791543 0.532691 0.215562
0.818469 0.535826 0.218663
0.835973 0.537871 0.220671
0.836113 0.537907 0.220663
0.836251 0.537942 0.220656
0.148486 0.490394 0.150417
0.148522 0.490441 0.150410
0.148557 0.490487 0.150403
0.148592 0.490533 0.150396
0.158445 0.491716 0.151534
0.185161 0.494855 0.154639
0.211888 0.497993 0.157743
0.238626 0.501131 0.160847
0.265375 0.504269 0.163951
0.292136 0.507407 0.167054
0.318907 0.510545 0.170158
0.345689 0.513684 0.173261
0.372481 0.516822 0.176364
0.399283 0.519960 0.179467
0.426096 0.523098 0.182570
0.452918 0.526236 0.185672
0.479749 0.529374 0.188775
0.506590 0.532512 0.191877
0.533439 0.535649 0.194979
0.560298 0.538787 0.198081
0.587165 0.541925 0.201183
0.614041 0.545062 0.204285
0.640925 0.548199 0.207387
0.667816 0.551337 0.210488
0.694716 0.554474 0.213590
0.721623 0.557611 0.216691
0.748538 0.560747 0.219792
0.775459 0.563884 0.222894
0.802388 0.567020 0.225995
0.829323 0.570156 0.229096
0.846832 0.572202 0.231103
0.846966 0.572238 0.231096
0.847097 0.572273 0.231089
0.158947 0.524691 0.160860
0.158984 0.524739 0.160853
0.159020 0.524786 0.160846
0.159056 0.524833 0.160839
0.168918 0.526019 0.161977
0.195654 0.529159 0.165081
0.222401 0.532299 0.168184
0.249159 0.535439 0.171287
0.275928 0.538579 0.174391
0.302707 0.541719 0.177494
0.329497 0.544859 0.180597
0.356296 0.547999 0.183699
0.383106 0.551139 0.186802
0.409925 0.554279 0.189904
0.436753 0.557419 0.193007
0.463591 0.560558 0.196109
0.490438 0.563698 0.199211
0.517293 0.566837 0.202313
0.544157 0.569976 0.205414
0.571029 0.573115 0.208516
0.597910 0.576254 0.211618
0.624798 0.579393 0.214719
0.651694 0.582531 0.217820
0.678598 0.585669 0.220922
0.705508 0.588807 0.224023
0.732426 0.591945 0.227124
0.759351 0.595083 0.230225
0.786282 0.598220 0.233326
0.813220 0.601358 0.236426
0.840164 0.604494 0.239527
0.857676 0.606540 0.241534
0.857804 0.606576 0.241527
0.857929 0.606612 0.241520
0.169419 0.559002 0.171302
0.169457 0.559051 0.171294
0.169494 0.559100 0.171287
0.169530 0.559148 0.171279
0.179400 0.560334 0.172417
0.206156 0.563477 0.175520
0.232923 0.566619 0.178623
0.259699 0.569761 0.181726
0.286487 0.572902 0.184829
0.313284 0.576044 0.187931
0.340091 0.579186 0.191034
0.366907 0.582327 0.194136
0.393733 0.585468 0.197238
0.420568 0.588610 0.200340
0.447411 0.591751 0.203442
0.474264 0.594891 0.206544
0.501125 0.598032 0.209645
0.527994 0.601173 0.212747
0.554871 0.604313 0.215848
0.581756 0.607453 0.218949
0.608649 0.610593 0.222051
0.635549 0.613732 0.225152
0.662456 0.616872 0.228253
0.689370 0.620011 0.231354
0.716291 0.623149 0.234454
0.743219 0.626288 0.237555
0.770152 0.629426 0.240656
0.797092 0.632564 0.243757
0.824038 0.635702 0.246857
0.850990 0.638839 0.249958
0.868504 0.640885 0.251965
0.868626 0.640921 0.251958
0.868745 0.640956 0.251951
0.179902 0.593327 0.181741
0.179940 0.593377 0.181733
0.179977 0.593426 0.181726
0.180015 0.593475 0.181718
0.189892 0.594663 0.182856
0.216667 0.597807 0.185958
0.243451 0.600950 0.189061
0.270246 0.604094 0.192163
0.297051 0.607237 0.195265
0.323865 0.610380 0.198367
0.350688 0.613523 0.201469
0.377520 0.616665 0.204571
0.404361 0.619808 0.207673
0.431211 0.622950 0.210774
0.458069 0.626092 0.213876
0.484935 0.629234 0.216977
0.511809 0.632376 0.220078
0.538691 0.635517 0.223180
0.565580 0.638658 0.226281
0.592477 0.641799 0.229382
0.619381 0.644939 0.232483
0.646292 0.648080 0.235583
0.673209 0.651220 0.238684
0.700133 0.654359 0.241785
0.727063 0.657498 0.244885
0.753999 0.660637 0.247986
0.780941 0.663776 0.251087
0.807889 0.666914 0.254187
0.834842 0.670052 0.257288
0.861800 0.673190 0.260388
0.879317 0.675236 0.262395
0.879432 0.675271 0.262388
0.879545 0.675306 0.262381
0.190393 0.627664 0.192178
0.190432 0.627715 0.192170
0.190470 0.627765 0.192163
0.190508 0.627814 0.192155
0.200392 0.629003 0.193293
0.227185 0.632148 0.196395
0.253987 0.635293 0.199497
0.280798 0.638437 0.202599
0.307619 0.641582 0.205700
0.334449 0.644726 0.208802
0.361287 0.647870 0.211903
0.388134 0.651013 0.215005
0.414990 0.654157 0.218106
0.441853 0.657300 0.221207
0.468724 0.660443 0.224309
0.495603 0.663585 0.227410
0.522490 0.666727 0.230511
0.549383 0.669869 0.233611
0.576284 0.673011 0.236712
0.603192 0.676152 0.239813
0.630106 0.679293 0.242914
0.657026 0.682434 0.246014
0.683953 0.685574 0.249115
0.710886 0.688714 0.252215
0.737824 0.691853 0.255316
0.764768 0.694992 0.258416
0.791717 0.698131 0.261517
0.818671 0.701269 0.264617
0.845631 0.704407 0.267717
0.872595 0.707545 0.270818
0.890112 0.709590 0.272825
0.890221 0.709625 0.272818
0.890327 0.709659 0.272812
0.200894 0.662012 0.202614
0.200933 0.662064 0.202606
0.200971 0.662114 0.202598
0.201009 0.662164 0.202591
0.210900 0.663353 0.203728
0.237709 0.666499 0.206830
0.264528 0.669645 0.209931
0.291355 0.672790 0.213033
0.318191 0.675935 0.216134
0.345036 0.679080 0.219235
0.371889 0.682225 0.222336
0.398749 0.685369 0.225438
0.425618 0.688513 0.228539
0.452494 0.691657 0.231639
0.479378 0.694800 0.234740
0.506269 0.697943 0.237841
0.533166 0.701086 0.240942
0.560071 0.704228 0.244043
0.586982 0.707370 0.247143
0.613899 0.710511 0.250244
0.640822 0.713652 0.253344
0.667751 0.716793 0.256445
0.694686 0.719933 0.259545
0.721627 0.723073 0.262645
0.748572 0.726213 0.265746
0.775523 0.729351 0.268846
0.802478 0.732490 0.271947
0.829438 0.735628 0.275047
0.856403 0.738766 0.278147
0.883371 0.741903 0.281247
0.900889 0.743948 0.283255
0.900991 0.743981 0.283248
0.901091 0.744014 0.283242
0.211402 0.696371 0.213048
0.211441 0.696422 0.213040
0.211479 0.696473 0.213032
0.211517 0.696522 0.213025
0.221414 0.697712 0.214162
0.248239 0.700859 0.217263
0.275073 0.704005 0.220364
0.301915 0.707151 0.223465
0.328766 0.710297 0.226567
0.355624 0.713442 0.229668
0.382490 0.716587 0.232768
0.409364 0.719732 0.235869
0.436245 0.722876 0.238970
0.463133 0.726020 0.242071
0.490028 0.729164 0.245171
0.516929 0.732307 0.248272
0.543837 0.735450 0.251372
0.570751 0.738592 0.254473
0.597672 0.741734 0.257573
0.624598 0.744875 0.260674
0.651529 0.748016 0.263774
0.678466 0.751157 0.266875
0.705408 0.754297 0.269975
0.732355 0.757436 0.273075
0.759307 0.760575 0.276176
0.786264 0.763714 0.279276
0.813224 0.766852 0.282376
0.840189 0.769989 0.285477
0.867157 0.773126 0.288577
0.894130 0.776262 0.291677
0.911647 0.778307 0.293684
0.911742 0.778339 0.293678
0.911835 0.778371 0.293672
0.221916 0.730738 0.223481
0.221955 0.730789 0.223473
0.221993 0.730839 0.223465
0.222031 0.730889 0.223458
0.231933 0.732078 0.224594
0.258774 0.735226 0.227695
0.285622 0.738373 0.230796
0.312478 0.741519 0.233897
0.339342 0.744665 0.236998
0.366213 0.747811 0.240099
0.393091 0.750956 0.243200
0.419977 0.754101 0.246300
0.446869 0.757245 0.249401
0.473768 0.760389 0.252501
0.500673 0.763532 0.255602
0.527585 0.766675 0.258702
0.554502 0.769818 0.261803
0.581425 0.772960 0.264903
0.608353 0.776101 0.268003
0.635287 0.779242 0.271104
0.662226 0.782383 0.274204
0.689170 0.785523 0.277304
0.716118 0.788662 0.280405
0.743071 0.791801 0.283505
0.770028 0.794940 0.286605
0.796989 0.798078 0.289706
0.823954 0.801215 0.292806
0.850922 0.804351 0.295906
0.877894 0.807487 0.299007
0.904869 0.810623 0.302107
0.922385 0.812666 0.304115
0.922473 0.812697 0.304109
0.922559 0.812727 0.304103
0.232436 0.765112 0.233912
0.232475 0.765163 0.233904
0.232513 0.765213 0.233897
0.232550 0.765262 0.233889
0.242458 0.766452 0.235026
0.269312 0.769599 0.238127
0.296173 0.772746 0.241228
0.323042 0.775892 0.244328
0.349919 0.779038 0.247429
0.376802 0.782184 0.250530
0.403691 0.785329 0.253630
0.430588 0.788474 0.256730
0.457490 0.791618 0.259831
0.484399 0.794761 0.262931
0.511313 0.797905 0.266032
0.538234 0.801047 0.269132
0.565159 0.804189 0.272232
0.592090 0.807331 0.275333
0.619026 0.810472 0.278433
