library/cube/Dim_Aesthetic_004.cube
# CINEGRADE LAB — Premium Cinematic LUT
# Title: Dim Aesthetic
# Category: Dark Instagram Mood
# Description: Desaturated, crushed blacks, cool tones for social media aesthetics
# Mood: Moody, cool, modern
# Variant: 5
# Generated: 2026-05-21T16:12:37.074645
TITLE "Dim Aesthetic"
LUT_3D_SIZE 5
0.040000 0.040000 0.050000
0.114498 0.040000 0.050000
0.325172 0.040000 0.050000
0.537018 0.062713 0.063517
0.687753 0.080187 0.081089
0.044708 0.148518 0.050000
0.160404 0.162138 0.059405
0.372978 0.186982 0.084296
0.586471 0.211859 0.109166
0.738125 0.229493 0.126700
0.127603 0.421851 0.129522
0.244293 0.435692 0.143064
0.458370 0.460762 0.167898
0.673106 0.485836 0.192721
0.825391 0.503619 0.210223
0.211402 0.696371 0.213048
0.328766 0.710297 0.226567
0.543837 0.735450 0.251372
0.759307 0.760575 0.276176
0.911835 0.778371 0.293672
0.271115 0.890908 0.271908
0.388811 0.904757 0.285432
0.604352 0.929827 0.310242
0.820036 0.954845 0.335057
0.972412 0.972503 0.352575
0.040000 0.040000 0.109333
0.119104 0.040000 0.122902
0.329992 0.042617 0.147788
0.542025 0.067305 0.172651
0.692869 0.084788 0.190165
0.049266 0.153141 0.154933
0.165067 0.166767 0.168467
0.377807 0.191619 0.193304
0.591440 0.216503 0.218126
0.743168 0.234140 0.235616
0.132244 0.426552 0.238463
0.249010 0.440390 0.251963
0.463204 0.465460 0.276758
0.678031 0.490530 0.301546
0.830352 0.508309 0.319019
0.216085 0.701104 0.321861
0.333495 0.715019 0.335352
0.548634 0.740161 0.360133
0.764146 0.765274 0.384916
0.916673 0.783056 0.402397
0.275793 0.895617 0.380643
0.393505 0.909449 0.394153
0.609066 0.934500 0.418952
0.824744 0.959499 0.443760
0.977085 0.977136 0.461277
0.040000 0.040000 0.309507
0.127453 0.040000 0.322955
0.338559 0.050996 0.347725
0.550785 0.075700 0.372481
0.701743 0.093196 0.389895
0.057589 0.161568 0.354729
0.173502 0.175203 0.368166
0.386413 0.200067 0.392912
0.600189 0.224960 0.417650
0.751995 0.242602 0.435064
0.140677 0.435066 0.437957
0.257522 0.448903 0.451385
0.471834 0.473974 0.476113
0.686754 0.499044 0.500842
0.839113 0.516818 0.518263
0.224578 0.709655 0.521135
0.342035 0.723560 0.534578
0.557241 0.748693 0.559317
0.772794 0.773796 0.584065
0.925321 0.791564 0.601519
0.284291 0.904147 0.579782
0.402020 0.917962 0.593267
0.617598 0.942996 0.618049
0.833267 0.967975 0.642847
0.985569 0.985592 0.660360
0.040000 0.040000 0.509598
0.135815 0.040000 0.522930
0.347135 0.059380 0.547590
0.559549 0.084100 0.572242
0.710618 0.101608 0.589561
0.065926 0.170000 0.554459
0.181948 0.183643 0.567804
0.395023 0.208517 0.592463
0.608938 0.233419 0.617122
0.760817 0.251067 0.634465
0.149118 0.443580 0.637401
0.266039 0.457417 0.650760
0.480465 0.482488 0.675427
0.695471 0.507557 0.700100
0.847865 0.525327 0.717475
0.233075 0.718203 0.720375
0.350575 0.732098 0.733774
0.565843 0.757222 0.758476
0.781432 0.782313 0.783194
0.933954 0.800067 0.800625
0.292788 0.912673 0.778902
0.410530 0.926470 0.792368
0.626120 0.951486 0.817136
0.841775 0.976445 0.841928
0.994034 0.994040 0.859443
0.040000 0.040000 0.650780
0.141768 0.040624 0.664034
0.353290 0.065309 0.688620
0.565880 0.090042 0.713202
0.717049 0.107560 0.730459
0.071837 0.175973 0.695400
0.187959 0.189621 0.708684
0.401188 0.214503 0.733287
0.615231 0.239411 0.757893
0.767175 0.257063 0.775191
0.155110 0.449625 0.778153
0.272101 0.463459 0.791470
0.486631 0.488528 0.816097
0.701715 0.513593 0.840737
0.854137 0.531358 0.858084
0.239105 0.724274 0.861000
0.356643 0.738157 0.874374
0.571966 0.763269 0.899054
0.787583 0.788347 0.923756
0.940095 0.806086 0.941178
0.298806 0.918713 0.919461
0.416556 0.932492 0.932919
0.632152 0.957489 0.957684
0.847787 0.982428 0.982478
1.000000 1.000000 1.000000
