library/cube/Dust_and_Grain_002.cube
# CINEGRADE LAB — Premium Cinematic LUT
# Title: Dust & Grain
# Category: Analog Film
# Description: Film grain, muted colors, and vintage feel emulating classic film stocks
# Mood: Nostalgic, warm, organic
# Variant: 3
# Generated: 2026-05-21T16:12:14.843392
TITLE "Dust & Grain"
LUT_3D_SIZE 33
0.172093 0.156299 0.133263
0.191998 0.157630 0.134475
0.212275 0.158986 0.135710
0.232872 0.160363 0.136964
0.253749 0.161759 0.138236
0.274875 0.163171 0.139522
0.296228 0.164599 0.140823
0.317786 0.166040 0.142136
0.339534 0.167494 0.143460
0.361459 0.168960 0.144795
0.383547 0.170437 0.146140
0.405789 0.171924 0.147495
0.428176 0.173420 0.148858
0.450699 0.174926 0.150230
0.473353 0.176441 0.151610
0.496130 0.177964 0.152997
0.519024 0.179494 0.154391
0.542031 0.181033 0.155792
0.565145 0.182578 0.157200
0.588363 0.184130 0.158614
0.611680 0.185689 0.160034
0.635093 0.187254 0.161460
0.658598 0.188826 0.162891
0.682192 0.190403 0.164328
0.705873 0.191987 0.165770
0.729637 0.193575 0.167217
0.753482 0.195170 0.168669
0.777405 0.196769 0.170126
0.801405 0.198374 0.171588
0.825478 0.199983 0.173054
0.849624 0.201598 0.174524
0.859303 0.202245 0.175114
0.859303 0.202245 0.175114
0.176748 0.178592 0.137341
0.196652 0.179923 0.138553
0.216930 0.181278 0.139788
0.237526 0.182655 0.141042
0.258403 0.184051 0.142314
0.279529 0.185464 0.143600
0.300882 0.186891 0.144901
0.322440 0.188333 0.146213
0.344188 0.189787 0.147538
0.366113 0.191252 0.148873
0.388201 0.192729 0.150218
0.410443 0.194216 0.151573
0.432830 0.195713 0.152936
0.455354 0.197219 0.154308
0.478007 0.198733 0.155687
0.500784 0.200256 0.157075
0.523678 0.201787 0.158469
0.546685 0.203325 0.159870
0.569799 0.204870 0.161278
0.593017 0.206423 0.162692
0.616334 0.207982 0.164112
0.639747 0.209547 0.165537
0.663252 0.211118 0.166969
0.686846 0.212696 0.168406
0.710527 0.214279 0.169848
0.734291 0.215868 0.171295
0.758136 0.217462 0.172747
0.782059 0.219062 0.174204
0.806059 0.220666 0.175666
0.830133 0.222276 0.177132
0.854279 0.223890 0.178602
0.863957 0.224537 0.179192
0.863957 0.224537 0.179192
0.181489 0.201302 0.141495
0.201394 0.202632 0.142707
0.221671 0.203988 0.143942
0.242267 0.205365 0.145196
0.263144 0.206761 0.146468
0.284271 0.208173 0.147754
0.305623 0.209601 0.149055
0.327181 0.211042 0.150368
0.348930 0.212496 0.151692
0.370854 0.213962 0.153027
0.392942 0.215439 0.154372
0.415184 0.216926 0.155727
0.437571 0.218423 0.157090
0.460095 0.219928 0.158462
0.482748 0.221443 0.159842
0.505525 0.222966 0.161229
0.528419 0.224497 0.162623
0.551426 0.226035 0.164024
0.574540 0.227580 0.165432
0.597758 0.229132 0.166846
0.621075 0.230691 0.168266
0.644488 0.232257 0.169692
0.667993 0.233828 0.171123
0.691588 0.235406 0.172560
0.715268 0.236989 0.174002
0.739032 0.238578 0.175449
0.762877 0.240172 0.176902
0.786800 0.241771 0.178358
0.810800 0.243376 0.179820
0.834874 0.244985 0.181286
0.859020 0.246600 0.182757
0.868698 0.247247 0.183346
0.868698 0.247247 0.183346
0.186305 0.224369 0.145715
0.206209 0.225700 0.146927
0.226487 0.227055 0.148162
0.247083 0.228432 0.149416
0.267960 0.229828 0.150687
0.289086 0.231241 0.151974
0.310439 0.232668 0.153274
0.331997 0.234110 0.154587
0.353746 0.235564 0.155912
0.375670 0.237029 0.157247
0.397758 0.238506 0.158592
0.420000 0.239993 0.159947
0.442387 0.241490 0.161310
0.464911 0.242996 0.162682
0.487564 0.244510 0.164061
0.510341 0.246033 0.165448
0.533235 0.247564 0.166843
0.556242 0.249102 0.168244
0.579356 0.250647 0.169651
0.602574 0.252200 0.171065
0.625891 0.253759 0.172485
0.649304 0.255324 0.173911
0.672809 0.256895 0.175343
0.696403 0.258473 0.176780
0.720084 0.260056 0.178222
0.743848 0.261645 0.179669
0.767693 0.263239 0.181121
0.791616 0.264839 0.182578
0.815616 0.266443 0.184040
0.839690 0.268053 0.185506
0.863836 0.269667 0.186976
0.873514 0.270314 0.187566
0.873514 0.270314 0.187566
0.191186 0.247750 0.149992
0.211091 0.249081 0.151204
0.231368 0.250436 0.152439
0.251965 0.251813 0.153693
0.272841 0.253209 0.154964
0.293968 0.254622 0.156251
0.315320 0.256049 0.157551
0.336879 0.257491 0.158864
0.358627 0.258945 0.160189
0.380551 0.260410 0.161524
0.402639 0.261887 0.162869
0.424882 0.263374 0.164224
0.447268 0.264871 0.165587
0.469792 0.266377 0.166959
0.492445 0.267891 0.168338
0.515222 0.269414 0.169725
0.538117 0.270945 0.171120
0.561123 0.272483 0.172521
0.584238 0.274028 0.173929
0.607456 0.275581 0.175342
0.630773 0.277140 0.176762
0.654185 0.278705 0.178188
0.677691 0.280276 0.179620
0.701285 0.281854 0.181057
0.724965 0.283437 0.182499
0.748729 0.285026 0.183946
0.772574 0.286620 0.185398
0.796498 0.288220 0.186855
0.820497 0.289824 0.188317
0.844571 0.291434 0.189783
0.868717 0.293048 0.191253
0.878395 0.293695 0.191843
0.878395 0.293695 0.191843
0.196126 0.271411 0.154320
0.216031 0.272742 0.155532
0.236308 0.274097 0.156767
0.256904 0.275474 0.158021
0.277781 0.276870 0.159293
0.298908 0.278283 0.160579
0.320260 0.279710 0.161880
0.341819 0.281152 0.163193
0.363567 0.282606 0.164517
0.385491 0.284071 0.165852
0.407579 0.285548 0.167197
0.429821 0.287035 0.168552
0.452208 0.288532 0.169915
0.474732 0.290038 0.171287
0.497385 0.291552 0.172667
0.520162 0.293075 0.174054
0.543056 0.294606 0.175448
0.566063 0.296144 0.176849
0.589178 0.297689 0.178257
0.612395 0.299242 0.179671
0.635712 0.300801 0.181091
0.659125 0.302366 0.182517
0.682630 0.303937 0.183948
0.706225 0.305515 0.185385
0.729905 0.307098 0.186827
0.753669 0.308687 0.188274
0.777514 0.310281 0.189726
0.801437 0.311881 0.191183
0.825437 0.313485 0.192645
0.849511 0.315095 0.194111
0.873657 0.316709 0.195582
0.883335 0.317356 0.196171
0.883335 0.317356 0.196171
0.201119 0.295325 0.158694
0.221023 0.296655 0.159907
0.241300 0.298011 0.161141
0.261897 0.299388 0.162396
0.282774 0.300784 0.163667
0.303900 0.302196 0.164954
0.325253 0.303624 0.166254
0.346811 0.305065 0.167567
0.368559 0.306519 0.168892
0.390484 0.307985 0.170227
0.412572 0.309462 0.171572
0.434814 0.310949 0.172926
0.457201 0.312446 0.174290
0.479725 0.313952 0.175661
0.502378 0.315466 0.177041
0.525155 0.316989 0.178428
0.548049 0.318520 0.179822
0.571056 0.320058 0.181224
0.594170 0.321603 0.182631
0.617388 0.323155 0.184045
0.640705 0.324714 0.185465
0.664118 0.326280 0.186891
0.687623 0.327851 0.188323
0.711217 0.329429 0.189759
0.734898 0.331012 0.191202
0.758662 0.332601 0.192649
0.782507 0.334195 0.194101
0.806430 0.335794 0.195558
0.830430 0.337399 0.197019
0.854504 0.339008 0.198486
0.878650 0.340623 0.199956
0.888328 0.341270 0.200545
0.888328 0.341270 0.200545
0.206159 0.319469 0.163111
0.226064 0.320800 0.164323
0.246341 0.322156 0.165558
0.266938 0.323533 0.166813
0.287815 0.324929 0.168084
0.308941 0.326341 0.169371
0.330293 0.327769 0.170671
0.351852 0.329210 0.171984
0.373600 0.330664 0.173308
0.395524 0.332130 0.174643
0.417613 0.333607 0.175989
0.439855 0.335094 0.177343
0.462242 0.336590 0.178707
0.484765 0.338096 0.180078
0.507419 0.339611 0.181458
0.530195 0.341134 0.182845
0.553090 0.342664 0.184239
0.576097 0.344202 0.185640
0.599211 0.345748 0.187048
0.622429 0.347300 0.188462
0.645746 0.348859 0.189882
0.669159 0.350424 0.191308
0.692664 0.351996 0.192739
0.716258 0.353573 0.194176
0.739939 0.355157 0.195618
0.763703 0.356745 0.197065
0.787548 0.358340 0.198518
0.811471 0.359939 0.199975
0.835471 0.361544 0.201436
0.859544 0.363153 0.202902
0.883690 0.364767 0.204373
0.893368 0.365414 0.204962
0.893368 0.365414 0.204962
0.211245 0.343827 0.167567
0.231149 0.345157 0.168779
0.251426 0.346513 0.170014
0.272023 0.347890 0.171268
0.292900 0.349286 0.172540
0.314026 0.350698 0.173826
0.335379 0.352126 0.175126
0.356937 0.353567 0.176439
0.378685 0.355021 0.177764
0.400610 0.356487 0.179099
0.422698 0.357964 0.180444
0.444940 0.359451 0.181799
0.467327 0.360948 0.183162
0.489851 0.362453 0.184534
0.512504 0.363968 0.185913
0.535281 0.365491 0.187301
0.558175 0.367021 0.188695
0.581182 0.368560 0.190096
0.604296 0.370105 0.191504
0.627514 0.371657 0.192918
0.650831 0.373216 0.194338
0.674244 0.374782 0.195763
0.697749 0.376353 0.197195
0.721343 0.377930 0.198632
0.745024 0.379514 0.200074
0.768788 0.381103 0.201521
0.792633 0.382697 0.202973
0.816556 0.384296 0.204430
0.840556 0.385901 0.205892
0.864630 0.387510 0.207358
0.888776 0.389125 0.208828
0.898454 0.389772 0.209418
0.898454 0.389772 0.209418
0.216371 0.368381 0.172058
0.236276 0.369712 0.173271
0.256553 0.371067 0.174505
0.277149 0.372444 0.175760
0.298026 0.373840 0.177031
0.319153 0.375253 0.178318
0.340505 0.376680 0.179618
0.362063 0.378121 0.180931
0.383812 0.379575 0.182256
0.405736 0.381041 0.183591
0.427824 0.382518 0.184936
0.450066 0.384005 0.186290
0.472453 0.385502 0.187654
0.494977 0.387008 0.189025
0.517630 0.388522 0.190405
0.540407 0.390045 0.191792
0.563301 0.391576 0.193186
0.586308 0.393114 0.194588
0.609423 0.394659 0.195995
0.632640 0.396212 0.197409
0.655957 0.397770 0.198829
0.679370 0.399336 0.200255
0.702875 0.400907 0.201686
0.726470 0.402485 0.203123
0.750150 0.404068 0.204566
0.773914 0.405657 0.206013
0.797759 0.407251 0.207465
0.821682 0.408850 0.208922
0.845682 0.410455 0.210383
0.869756 0.412065 0.211849
0.893902 0.413679 0.213320
0.903580 0.414326 0.213909
0.903580 0.414326 0.213909
0.221536 0.393119 0.176584
0.241440 0.394450 0.177796
0.261718 0.395805 0.179031
0.282314 0.397182 0.180285
0.303191 0.398578 0.181556
0.324317 0.399991 0.182843
0.345670 0.401418 0.184143
0.367228 0.402859 0.185456
0.388976 0.404313 0.186781
0.410901 0.405779 0.188116
0.432989 0.407256 0.189461
0.455231 0.408743 0.190816
0.477618 0.410240 0.192179
0.500142 0.411746 0.193551
0.522795 0.413260 0.194930
0.545572 0.414783 0.196317
0.568466 0.416314 0.197712
0.591473 0.417852 0.199113
0.614587 0.419397 0.200520
0.637805 0.420950 0.201934
0.661122 0.422508 0.203354
0.684535 0.424074 0.204780
0.708040 0.425645 0.206212
0.731634 0.427223 0.207649
0.755315 0.428806 0.209091
0.779079 0.430395 0.210538
0.802924 0.431989 0.211990
0.826847 0.433588 0.213447
0.850847 0.435193 0.214909
0.874921 0.436803 0.216375
0.899067 0.438417 0.217845
0.908745 0.439064 0.218435
0.908745 0.439064 0.218435
0.226736 0.418029 0.181140
0.246641 0.419360 0.182353
0.266918 0.420716 0.183587
0.287515 0.422093 0.184842
0.308391 0.423488 0.186113
0.329518 0.424901 0.187400
0.350870 0.426328 0.188700
0.372429 0.427770 0.190013
0.394177 0.429224 0.191338
0.416101 0.430690 0.192673
0.438190 0.432166 0.194018
0.460432 0.433653 0.195372
0.482819 0.435150 0.196736
0.505342 0.436656 0.198107
0.527996 0.438171 0.199487
0.550772 0.439693 0.200874
0.573667 0.441224 0.202268
0.596673 0.442762 0.203670
0.619788 0.444308 0.205077
0.643006 0.445860 0.206491
0.666323 0.447419 0.207911
0.689736 0.448984 0.209337
0.713241 0.450556 0.210769
0.736835 0.452133 0.212205
0.760516 0.453716 0.213648
0.784280 0.455305 0.215095
0.808124 0.456899 0.216547
0.832048 0.458499 0.218004
0.856047 0.460103 0.219465
0.880121 0.461713 0.220932
0.904267 0.463327 0.222402
0.913945 0.463974 0.222991
0.913945 0.463974 0.222991
0.231971 0.443101 0.185727
0.251876 0.444432 0.186939
0.272153 0.445788 0.188174
0.292749 0.447165 0.189428
0.313626 0.448561 0.190700
0.334753 0.449973 0.191986
0.356105 0.451401 0.193287
0.377663 0.452842 0.194599
0.399412 0.454296 0.195924
0.421336 0.455762 0.197259
0.443424 0.457239 0.198604
0.465666 0.458726 0.199959
0.488053 0.460222 0.201322
0.510577 0.461728 0.202694
0.533230 0.463243 0.204074
0.556007 0.464766 0.205461
0.578901 0.466296 0.206855
0.601908 0.467835 0.208256
0.625022 0.469380 0.209664
0.648240 0.470932 0.211078
0.671557 0.472491 0.212498
0.694970 0.474056 0.213923
0.718475 0.475628 0.215355
0.742070 0.477205 0.216792
0.765750 0.478789 0.218234
0.789514 0.480377 0.219681
0.813359 0.481972 0.221133
0.837282 0.483571 0.222590
0.861282 0.485176 0.224052
0.885356 0.486785 0.225518
0.909502 0.488400 0.226988
0.919180 0.489047 0.227578
0.919180 0.489047 0.227578
0.237237 0.468327 0.190341
0.257142 0.469658 0.191553
0.277419 0.471014 0.192788
0.298016 0.472391 0.194043
0.318892 0.473786 0.195314
0.340019 0.475199 0.196601
0.361371 0.476626 0.197901
0.382930 0.478068 0.199214
0.404678 0.479522 0.200538
0.426602 0.480988 0.201874
0.448691 0.482464 0.203219
0.470933 0.483951 0.204573
0.493320 0.485448 0.205937
0.515843 0.486954 0.207308
0.538497 0.488469 0.208688
0.561273 0.489991 0.210075
0.584168 0.491522 0.211469
0.607174 0.493060 0.212870
0.630289 0.494606 0.214278
0.653507 0.496158 0.215692
0.676824 0.497717 0.217112
0.700237 0.499282 0.218538
0.723742 0.500854 0.219969
0.747336 0.502431 0.221406
0.771017 0.504014 0.222848
0.794781 0.505603 0.224296
0.818625 0.507197 0.225748
0.842549 0.508797 0.227205
0.866548 0.510401 0.228666
0.890622 0.512011 0.230132
0.914768 0.513625 0.231603
0.924446 0.514272 0.232192
0.924446 0.514272 0.232192
0.242534 0.493698 0.194982
0.262439 0.495029 0.196195
0.282716 0.496384 0.197429
0.303313 0.497761 0.198684
0.324189 0.499157 0.199955
0.345316 0.500570 0.201242
0.366668 0.501997 0.202542
0.388227 0.503439 0.203855
0.409975 0.504893 0.205179
0.431899 0.506358 0.206515
0.453987 0.507835 0.207860
0.476230 0.509322 0.209214
0.498616 0.510819 0.210578
0.521140 0.512325 0.211949
0.543793 0.513839 0.213329
0.566570 0.515362 0.214716
0.589465 0.516893 0.216110
0.612471 0.518431 0.217511
0.635586 0.519976 0.218919
0.658804 0.521529 0.220333
0.682121 0.523088 0.221753
0.705534 0.524653 0.223179
0.729039 0.526224 0.224610
0.752633 0.527802 0.226047
0.776313 0.529385 0.227489
0.800077 0.530974 0.228937
0.823922 0.532568 0.230389
0.847846 0.534168 0.231846
0.871845 0.535772 0.233307
0.895919 0.537382 0.234773
0.920065 0.538996 0.236244
0.929743 0.539643 0.236833
0.929743 0.539643 0.236833
0.247860 0.519207 0.199649
0.267765 0.520538 0.200861
0.288042 0.521893 0.202096
0.308638 0.523270 0.203350
0.329515 0.524666 0.204621
0.350642 0.526079 0.205908
0.371994 0.527506 0.207208
0.393552 0.528948 0.208521
0.415301 0.530402 0.209846
0.437225 0.531867 0.211181
0.459313 0.533344 0.212526
0.481555 0.534831 0.213881
0.503942 0.536328 0.215244
0.526466 0.537834 0.216616
0.549119 0.539348 0.217995
0.571896 0.540871 0.219382
0.594790 0.542402 0.220777
0.617797 0.543940 0.222178
0.640911 0.545485 0.223585
0.664129 0.547038 0.224999
0.687446 0.548597 0.226419
0.710859 0.550162 0.227845
0.734364 0.551734 0.229277
0.757959 0.553311 0.230714
0.781639 0.554894 0.232156
0.805403 0.556483 0.233603
0.829248 0.558077 0.235055
0.853171 0.559677 0.236512
0.877171 0.561281 0.237974
0.901245 0.562891 0.239440
0.925391 0.564505 0.240910
0.935069 0.565152 0.241500
0.935069 0.565152 0.241500
0.253213 0.544848 0.204339
0.273118 0.546179 0.205551
0.293395 0.547534 0.206786
0.313991 0.548911 0.208040
0.334868 0.550307 0.209312
0.355995 0.551719 0.210598
0.377347 0.553147 0.211899
0.398906 0.554588 0.213212
0.420654 0.556042 0.214536
0.442578 0.557508 0.215871
0.464666 0.558985 0.217217
0.486908 0.560472 0.218571
0.509295 0.561969 0.219934
0.531819 0.563475 0.221306
0.554472 0.564989 0.222686
0.577249 0.566512 0.224073
0.600143 0.568043 0.225467
0.623150 0.569581 0.226868
0.646265 0.571126 0.228276
0.669482 0.572679 0.229690
0.692800 0.574237 0.231110
0.716212 0.575803 0.232536
0.739717 0.577374 0.233967
0.763312 0.578952 0.235404
0.786992 0.580535 0.236846
0.810756 0.582124 0.238293
0.834601 0.583718 0.239746
0.858524 0.585317 0.241202
0.882524 0.586922 0.242664
0.906598 0.588531 0.244130
0.930744 0.590146 0.245601
0.940422 0.590793 0.246190
0.940422 0.590793 0.246190
0.258592 0.570614 0.209052
0.278497 0.571945 0.210265
0.298774 0.573301 0.211500
0.319371 0.574678 0.212754
0.340248 0.576074 0.214025
0.361374 0.577486 0.215312
0.382726 0.578914 0.216612
0.404285 0.580355 0.217925
0.426033 0.581809 0.219250
0.447957 0.583275 0.220585
0.470046 0.584752 0.221930
0.492288 0.586239 0.223284
0.514675 0.587735 0.224648
0.537198 0.589241 0.226020
0.559852 0.590756 0.227399
0.582628 0.592279 0.228786
0.605523 0.593809 0.230180
0.628530 0.595348 0.231582
0.651644 0.596893 0.232989
0.674862 0.598445 0.234403
0.698179 0.600004 0.235823
0.721592 0.601569 0.237249
0.745097 0.603141 0.238681
0.768691 0.604718 0.240117
0.792372 0.606302 0.241560
0.816136 0.607890 0.243007
0.839981 0.609485 0.244459
0.863904 0.611084 0.245916
0.887904 0.612689 0.247377
0.911977 0.614298 0.248844
0.936123 0.615912 0.250314
0.945802 0.616560 0.250903
0.945802 0.616560 0.250903
0.263997 0.596502 0.213788
0.283902 0.597832 0.215000
0.304179 0.599188 0.216235
0.324776 0.600565 0.217489
0.345652 0.601961 0.218761
0.366779 0.603373 0.220047
0.388131 0.604801 0.221348
0.409690 0.606242 0.222661
0.431438 0.607696 0.223985
0.453362 0.609162 0.225320
0.475450 0.610639 0.226665
0.497692 0.612126 0.228020
0.520079 0.613623 0.229383
0.542603 0.615129 0.230755
0.565256 0.616643 0.232135
0.588033 0.618166 0.233522
0.610927 0.619697 0.234916
0.633934 0.621235 0.236317
0.657049 0.622780 0.237725
0.680266 0.624332 0.239139
0.703584 0.625891 0.240559
0.726996 0.627457 0.241985
0.750502 0.629028 0.243416
0.774096 0.630606 0.244853
0.797776 0.632189 0.246295
0.821540 0.633778 0.247742
0.845385 0.635372 0.249194
0.869309 0.636971 0.250651
0.893308 0.638576 0.252113
0.917382 0.640185 0.253579
0.941528 0.641800 0.255050
0.951206 0.642447 0.255639
0.951206 0.642447 0.255639
0.269426 0.622505 0.218545
0.289331 0.623835 0.219757
0.309608 0.625191 0.220992
0.330204 0.626568 0.222246
0.351081 0.627964 0.223517
0.372208 0.629376 0.224804
0.393560 0.630804 0.226104
0.415118 0.632245 0.227417
0.436867 0.633699 0.228742
0.458791 0.635165 0.230077
0.480879 0.636642 0.231422
0.503121 0.638129 0.232777
0.525508 0.639626 0.234140
0.548032 0.641132 0.235512
0.570685 0.642646 0.236891
0.593462 0.644169 0.238278
0.616356 0.645700 0.239673
0.639363 0.647238 0.241074
0.662477 0.648783 0.242481
0.685695 0.650335 0.243895
0.709012 0.651894 0.245315
0.732425 0.653460 0.246741
0.755930 0.655031 0.248173
0.779525 0.656609 0.249610
0.803205 0.658192 0.251052
0.826969 0.659781 0.252499
0.850814 0.661375 0.253951
0.874737 0.662974 0.255408
0.898737 0.664579 0.256870
0.922811 0.666188 0.258336
0.946957 0.667803 0.259806
0.956635 0.668450 0.260396
0.956635 0.668450 0.260396
0.274878 0.648619 0.223322
0.294783 0.649950 0.224534
0.315060 0.651305 0.225769
0.335656 0.652682 0.227023
0.356533 0.654078 0.228294
0.377660 0.655491 0.229581
0.399012 0.656918 0.230881
0.420570 0.658360 0.232194
0.442319 0.659814 0.233519
0.464243 0.661279 0.234854
0.486331 0.662756 0.236199
0.508573 0.664243 0.237554
0.530960 0.665740 0.238917
0.553484 0.667246 0.240289
0.576137 0.668760 0.241668
0.598914 0.670283 0.243055
0.621808 0.671814 0.244450
0.644815 0.673352 0.245851
0.667930 0.674897 0.247258
0.691147 0.676450 0.248672
0.714464 0.678009 0.250092
0.737877 0.679574 0.251518
0.761382 0.681145 0.252950
0.784977 0.682723 0.254387
0.808657 0.684306 0.255829
0.832421 0.685895 0.257276
0.856266 0.687489 0.258728
0.880189 0.689089 0.260185
0.904189 0.690693 0.261647
0.928263 0.692303 0.263113
0.952409 0.693917 0.264583
0.962087 0.694564 0.265173
0.962087 0.694564 0.265173
0.280352 0.674840 0.228118
0.300257 0.676171 0.229330
0.320534 0.677527 0.230565
0.341131 0.678904 0.231820
0.362007 0.680300 0.233091
0.383134 0.681712 0.234378
0.404486 0.683140 0.235678
0.426045 0.684581 0.236991
0.447793 0.686035 0.238315
0.469717 0.687501 0.239651
0.491806 0.688978 0.240996
0.514048 0.690465 0.242350
0.536435 0.691961 0.243714
0.558958 0.693467 0.245085
0.581612 0.694982 0.246465
0.604388 0.696505 0.247852
0.627283 0.698035 0.249246
0.650289 0.699574 0.250647
0.673404 0.701119 0.252055
0.696622 0.702671 0.253469
0.719939 0.704230 0.254889
0.743352 0.705795 0.256315
0.766857 0.707367 0.257746
0.790451 0.708944 0.259183
0.814132 0.710528 0.260625
0.837896 0.712116 0.262073
0.861740 0.713711 0.263525
0.885664 0.715310 0.264982
0.909663 0.716915 0.266443
0.933737 0.718524 0.267909
0.957883 0.720138 0.269380
0.967561 0.720786 0.269969
0.967561 0.720786 0.269969
0.285848 0.701165 0.232934
0.305753 0.702496 0.234146
0.326030 0.703852 0.235381
0.346627 0.705229 0.236635
0.367503 0.706624 0.237907
0.388630 0.708037 0.239193
0.409982 0.709465 0.240494
0.431541 0.710906 0.241806
0.453289 0.712360 0.243131
0.475213 0.713826 0.244466
0.497302 0.715302 0.245811
0.519544 0.716790 0.247166
0.541931 0.718286 0.248529
0.564454 0.719792 0.249901
0.587108 0.721307 0.251280
0.609884 0.722829 0.252668
0.632779 0.724360 0.254062
0.655785 0.725898 0.255463
0.678900 0.727444 0.256871
0.702118 0.728996 0.258285
0.725435 0.730555 0.259705
0.748848 0.732120 0.261130
0.772353 0.733692 0.262562
0.795947 0.735269 0.263999
0.819628 0.736852 0.265441
0.843392 0.738441 0.266888
0.867236 0.740035 0.268340
0.891160 0.741635 0.269797
0.915159 0.743239 0.271259
0.939233 0.744849 0.272725
0.963379 0.746463 0.274195
0.973057 0.747110 0.274785
0.973057 0.747110 0.274785
0.291365 0.727590 0.237768
0.311270 0.728921 0.238980
0.331547 0.730276 0.240215
0.352144 0.731653 0.241469
0.373020 0.733049 0.242740
0.394147 0.734462 0.244027
0.415499 0.735889 0.245327
0.437058 0.737331 0.246640
0.458806 0.738785 0.247965
0.480730 0.740250 0.249300
0.502818 0.741727 0.250645
0.525061 0.743214 0.252000
0.547447 0.744711 0.253363
0.569971 0.746217 0.254735
0.592624 0.747731 0.256114
0.615401 0.749254 0.257501
0.638296 0.750785 0.258896
0.661302 0.752323 0.260297
0.684417 0.753868 0.261704
0.707635 0.755421 0.263118
0.730952 0.756980 0.264538
0.754364 0.758545 0.265964
0.777870 0.760116 0.267396
0.801464 0.761694 0.268833
0.825144 0.763277 0.270275
0.848908 0.764866 0.271722
0.872753 0.766460 0.273174
0.896677 0.768060 0.274631
0.920676 0.769664 0.276093
0.944750 0.771274 0.277559
0.968896 0.772888 0.279029
0.978574 0.773535 0.279619
0.978574 0.773535 0.279619
0.296902 0.754111 0.242619
0.316807 0.755442 0.243831
0.337084 0.756798 0.245066
0.357681 0.758175 0.246320
0.378557 0.759570 0.247592
0.399684 0.760983 0.248878
0.421036 0.762410 0.250179
0.442595 0.763852 0.251492
0.464343 0.765306 0.252816
0.486267 0.766772 0.254151
0.508355 0.768248 0.255497
0.530598 0.769735 0.256851
0.552984 0.771232 0.258214
0.575508 0.772738 0.259586
0.598161 0.774253 0.260966
0.620938 0.775775 0.262353
0.643833 0.777306 0.263747
0.666839 0.778844 0.265148
0.689954 0.780390 0.266556
0.713171 0.781942 0.267970
0.736489 0.783501 0.269390
0.759901 0.785066 0.270816
0.783407 0.786638 0.272247
0.807001 0.788215 0.273684
0.830681 0.789798 0.275126
0.854445 0.791387 0.276573
0.878290 0.792981 0.278026
0.902214 0.794581 0.279482
0.926213 0.796185 0.280944
0.950287 0.797795 0.282410
0.974433 0.799409 0.283881
0.984111 0.800056 0.284470
0.984111 0.800056 0.284470
0.302459 0.780726 0.247488
0.322363 0.782057 0.248700
0.342641 0.783412 0.249935
0.363237 0.784789 0.251189
0.384114 0.786185 0.252460
0.405240 0.787598 0.253747
0.426593 0.789025 0.255047
0.448151 0.790466 0.256360
0.469899 0.791920 0.257685
0.491824 0.793386 0.259020
0.513912 0.794863 0.260365
0.536154 0.796350 0.261720
0.558541 0.797847 0.263083
0.581065 0.799353 0.264455
0.603718 0.800867 0.265834
0.626495 0.802390 0.267221
0.649389 0.803921 0.268616
0.672396 0.805459 0.270017
0.695510 0.807004 0.271424
0.718728 0.808557 0.272838
0.742045 0.810115 0.274258
0.765458 0.811681 0.275684
0.788963 0.813252 0.277116
0.812557 0.814830 0.278553
0.836238 0.816413 0.279995
0.860002 0.818002 0.281442
0.883847 0.819596 0.282894
0.907770 0.821195 0.284351
0.931770 0.822800 0.285813
0.955844 0.824410 0.287279
0.979990 0.826024 0.288749
0.989668 0.826671 0.289339
0.989668 0.826671 0.289339
0.308034 0.807431 0.252373
0.327939 0.808762 0.253585
0.348216 0.810118 0.254820
0.368812 0.811495 0.256074
0.389689 0.812890 0.257346
0.410816 0.814303 0.258632
0.432168 0.815730 0.259932
0.453727 0.817172 0.261245
0.475475 0.818626 0.262570
0.497399 0.820092 0.263905
0.519487 0.821568 0.265250
0.541729 0.823055 0.266605
0.564116 0.824552 0.267968
0.586640 0.826058 0.269340
0.609293 0.827573 0.270719
0.632070 0.829095 0.272106
0.654964 0.830626 0.273501
0.677971 0.832164 0.274902
0.701086 0.833710 0.276310
