library/cube/Dust_and_Grain_002.cube
# CINEGRADE LAB — Premium Cinematic LUT
# Title: Dust & Grain
# Category: Analog Film
# Description: Film grain, muted colors, and vintage feel emulating classic film stocks
# Mood: Nostalgic, warm, organic
# Variant: 3
# Generated: 2026-05-21T16:12:14.843392
TITLE "Dust & Grain"
LUT_3D_SIZE 5
0.172093 0.156299 0.133263
0.339534 0.167494 0.143460
0.519024 0.179494 0.154391
0.705873 0.191987 0.165770
0.859303 0.202245 0.175114
0.211245 0.343827 0.167567
0.378685 0.355021 0.177764
0.558175 0.367021 0.188695
0.745024 0.379514 0.200074
0.898454 0.389772 0.209418
0.253213 0.544848 0.204339
0.420654 0.556042 0.214536
0.600143 0.568043 0.225467
0.786992 0.580535 0.236846
0.940422 0.590793 0.246190
0.296902 0.754111 0.242619
0.464343 0.765306 0.252816
0.643833 0.777306 0.263747
0.830681 0.789798 0.275126
0.984111 0.800056 0.284470
0.332777 0.925946 0.274052
0.500218 0.937141 0.284250
0.679708 0.949141 0.295180
0.866556 0.961634 0.306560
1.000000 0.971892 0.315903
0.176046 0.160101 0.273239
0.343487 0.171296 0.283436
0.522976 0.183296 0.294367
0.709825 0.195788 0.305746
0.863255 0.206046 0.315090
0.215197 0.347628 0.307543
0.382638 0.358823 0.317740
0.562127 0.370823 0.328671
0.748976 0.383315 0.340050
0.902406 0.393573 0.349394
0.257165 0.548650 0.344315
0.424606 0.559844 0.354512
0.604096 0.571844 0.365443
0.790945 0.584337 0.376822
0.944374 0.594595 0.386166
0.300854 0.757913 0.382595
0.468295 0.769108 0.392792
0.647785 0.781108 0.403723
0.834634 0.793600 0.415102
0.988064 0.803858 0.424446
0.336730 0.929748 0.414028
0.504170 0.940943 0.424225
0.683660 0.952943 0.435156
0.870509 0.965435 0.446535
1.000000 0.975693 0.455879
0.180283 0.164177 0.423287
0.347723 0.175371 0.433484
0.527213 0.187371 0.444415
0.714062 0.199864 0.455794
0.867492 0.210122 0.465138
0.219434 0.351704 0.457591
0.386874 0.362898 0.467788
0.566364 0.374899 0.478719
0.753213 0.387391 0.490098
0.906643 0.397649 0.499442
0.261402 0.552725 0.494363
0.428843 0.563920 0.504560
0.608332 0.575920 0.515491
0.795181 0.588412 0.526870
0.948611 0.598670 0.536214
0.305091 0.761988 0.532643
0.472532 0.773183 0.542840
0.652022 0.785183 0.553771
0.838870 0.797675 0.565150
0.992300 0.807933 0.574494
0.340966 0.933824 0.564077
0.508407 0.945018 0.574274
0.687897 0.957018 0.585205
0.874746 0.969511 0.596584
1.000000 0.979769 0.605928
0.184693 0.168419 0.579488
0.352134 0.179614 0.589685
0.531623 0.191614 0.600616
0.718472 0.204106 0.611995
0.871902 0.214364 0.621339
0.223844 0.355946 0.613791
0.391285 0.367141 0.623989
0.570775 0.379141 0.634919
0.757623 0.391633 0.646299
0.911053 0.401891 0.655642
0.265813 0.556967 0.650564
0.433253 0.568162 0.660761
0.612743 0.580162 0.671692
0.799592 0.592654 0.683071
0.953022 0.602912 0.692415
0.309502 0.766231 0.688844
0.476942 0.777425 0.699041
0.656432 0.789426 0.709972
0.843281 0.801918 0.721351
0.996711 0.812176 0.730695
0.345377 0.938066 0.720277
0.512818 0.949261 0.730474
0.692307 0.961261 0.741405
0.879156 0.973753 0.752784
1.000000 0.984011 0.762128
0.188315 0.171903 0.707751
0.355755 0.183097 0.717948
0.535245 0.195098 0.728879
0.722094 0.207590 0.740258
0.875524 0.217848 0.749602
0.227466 0.359430 0.742055
0.394907 0.370624 0.752252
0.574396 0.382625 0.763183
0.761245 0.395117 0.774562
0.914675 0.405375 0.783906
0.269434 0.560451 0.778827
0.436875 0.571646 0.789024
0.616365 0.583646 0.799955
0.803213 0.596138 0.811334
0.956643 0.606396 0.820678
0.313123 0.769714 0.817107
0.480564 0.780909 0.827304
0.660054 0.792909 0.838235
0.846903 0.805401 0.849614
1.000000 0.815659 0.858958
0.348998 0.941550 0.848540
0.516439 0.952744 0.858737
0.695929 0.964745 0.869668
0.882778 0.977237 0.881047
1.000000 0.987495 0.890391
