library/cube/Dust_and_Grain_002.cube
# CINEGRADE LAB — Premium Cinematic LUT
# Title: Dust & Grain
# Category: Analog Film
# Description: Film grain, muted colors, and vintage feel emulating classic film stocks
# Mood: Nostalgic, warm, organic
# Variant: 3
# Generated: 2026-05-21T16:12:14.843392
TITLE "Dust & Grain"
LUT_3D_SIZE 9
0.172093 0.156299 0.133263
0.253749 0.161759 0.138236
0.339534 0.167494 0.143460
0.428176 0.173420 0.148858
0.519024 0.179494 0.154391
0.611680 0.185689 0.160034
0.705873 0.191987 0.165770
0.801405 0.198374 0.171588
0.859303 0.202245 0.175114
0.191186 0.247750 0.149992
0.272841 0.253209 0.154964
0.358627 0.258945 0.160189
0.447268 0.264871 0.165587
0.538117 0.270945 0.171120
0.630773 0.277140 0.176762
0.724965 0.283437 0.182499
0.820497 0.289824 0.188317
0.878395 0.293695 0.191843
0.211245 0.343827 0.167567
0.292900 0.349286 0.172540
0.378685 0.355021 0.177764
0.467327 0.360948 0.183162
0.558175 0.367021 0.188695
0.650831 0.373216 0.194338
0.745024 0.379514 0.200074
0.840556 0.385901 0.205892
0.898454 0.389772 0.209418
0.231971 0.443101 0.185727
0.313626 0.448561 0.190700
0.399412 0.454296 0.195924
0.488053 0.460222 0.201322
0.578901 0.466296 0.206855
0.671557 0.472491 0.212498
0.765750 0.478789 0.218234
0.861282 0.485176 0.224052
0.919180 0.489047 0.227578
0.253213 0.544848 0.204339
0.334868 0.550307 0.209312
0.420654 0.556042 0.214536
0.509295 0.561969 0.219934
0.600143 0.568043 0.225467
0.692800 0.574237 0.231110
0.786992 0.580535 0.236846
0.882524 0.586922 0.242664
0.940422 0.590793 0.246190
0.274878 0.648619 0.223322
0.356533 0.654078 0.228294
0.442319 0.659814 0.233519
0.530960 0.665740 0.238917
0.621808 0.671814 0.244450
0.714464 0.678009 0.250092
0.808657 0.684306 0.255829
0.904189 0.690693 0.261647
0.962087 0.694564 0.265173
0.296902 0.754111 0.242619
0.378557 0.759570 0.247592
0.464343 0.765306 0.252816
0.552984 0.771232 0.258214
0.643833 0.777306 0.263747
0.736489 0.783501 0.269390
0.830681 0.789798 0.275126
0.926213 0.796185 0.280944
0.984111 0.800056 0.284470
0.319239 0.861103 0.262191
0.400895 0.866562 0.267164
0.486680 0.872298 0.272388
0.575322 0.878224 0.277786
0.666170 0.884298 0.283319
0.758826 0.890493 0.288962
0.853019 0.896790 0.294698
0.948551 0.903177 0.300516
1.000000 0.907048 0.304042
0.332777 0.925946 0.274052
0.414432 0.931406 0.279025
0.500218 0.937141 0.284250
0.588859 0.943067 0.289648
0.679708 0.949141 0.295180
0.772364 0.955336 0.300823
0.866556 0.961634 0.306560
0.962088 0.968021 0.312377
1.000000 0.971892 0.315903
0.174021 0.158153 0.201524
0.255676 0.163613 0.206497
0.341462 0.169348 0.211721
0.430103 0.175274 0.217120
0.520951 0.181348 0.222652
0.613607 0.187543 0.228295
0.707800 0.193841 0.234031
0.803332 0.200228 0.239849
0.861230 0.204099 0.243375
0.193114 0.249604 0.218253
0.274769 0.255063 0.223226
0.360554 0.260799 0.228450
0.449196 0.266725 0.233849
0.540044 0.272799 0.239381
0.632700 0.278994 0.245024
0.726893 0.285291 0.250760
0.822425 0.291678 0.256578
0.880323 0.295549 0.260104
0.213172 0.345681 0.235828
0.294827 0.351140 0.240801
0.380613 0.356875 0.246025
0.469254 0.362802 0.251424
0.560102 0.368875 0.256956
0.652759 0.375070 0.262599
0.746951 0.381368 0.268335
0.842483 0.387755 0.274153
0.900381 0.391626 0.277679
0.233898 0.444955 0.253988
0.315553 0.450415 0.258961
0.401339 0.456150 0.264185
0.489981 0.462076 0.269584
0.580829 0.468150 0.275116
0.673485 0.474345 0.280759
0.767677 0.480643 0.286495
0.863209 0.487030 0.292313
0.921107 0.490901 0.295839
0.255140 0.546702 0.272600
0.336796 0.552161 0.277573
0.422581 0.557896 0.282798
0.511223 0.563823 0.288196
0.602071 0.569897 0.293728
0.694727 0.576091 0.299371
0.788920 0.582389 0.305108
0.884452 0.588776 0.310925
0.942349 0.592647 0.314451
0.276805 0.650473 0.291583
0.358460 0.655932 0.296556
0.444246 0.661668 0.301780
0.532888 0.667594 0.307178
0.623736 0.673668 0.312711
0.716392 0.679863 0.318354
0.810585 0.686160 0.324090
0.906116 0.692547 0.329908
0.964014 0.696418 0.333434
0.298830 0.755965 0.310880
0.380485 0.761424 0.315853
0.466270 0.767160 0.321078
0.554912 0.773086 0.326476
0.645760 0.779160 0.332008
0.738416 0.785355 0.337651
0.832609 0.791652 0.343388
0.928141 0.798039 0.349205
0.986039 0.801910 0.352731
0.321167 0.862957 0.330452
0.402822 0.868416 0.335425
0.488608 0.874152 0.340649
0.577249 0.880078 0.346048
0.668097 0.886152 0.351580
0.760753 0.892347 0.357223
0.854946 0.898644 0.362959
0.950478 0.905031 0.368777
1.000000 0.908902 0.372303
0.334705 0.927800 0.342314
0.416360 0.933260 0.347287
0.502145 0.938995 0.352511
0.590787 0.944921 0.357909
0.681635 0.950995 0.363442
0.774291 0.957190 0.369085
0.868484 0.963488 0.374821
0.964016 0.969875 0.380639
1.000000 0.973746 0.384165
0.176046 0.160101 0.273239
0.257701 0.165560 0.278212
0.343487 0.171296 0.283436
0.432128 0.177222 0.288834
0.522976 0.183296 0.294367
0.615632 0.189491 0.300010
0.709825 0.195788 0.305746
0.805357 0.202175 0.311564
0.863255 0.206046 0.315090
0.195138 0.251552 0.289968
0.276794 0.257011 0.294940
0.362579 0.262746 0.300165
0.451221 0.268673 0.305563
0.542069 0.274747 0.311096
0.634725 0.280941 0.316738
0.728918 0.287239 0.322475
0.824450 0.293626 0.328293
0.882348 0.297497 0.331819
0.215197 0.347628 0.307543
0.296852 0.353088 0.312515
0.382638 0.358823 0.317740
0.471279 0.364749 0.323138
0.562127 0.370823 0.328671
0.654783 0.377018 0.334313
0.748976 0.383315 0.340050
0.844508 0.389703 0.345868
0.902406 0.393573 0.349394
0.235923 0.446903 0.325703
0.317578 0.452362 0.330676
0.403364 0.458098 0.335900
0.492005 0.464024 0.341298
0.582854 0.470098 0.346831
0.675510 0.476293 0.352474
0.769702 0.482590 0.358210
0.865234 0.488977 0.364028
0.923132 0.492848 0.367554
0.257165 0.548650 0.344315
0.338820 0.554109 0.349288
0.424606 0.559844 0.354512
0.513248 0.565771 0.359910
0.604096 0.571844 0.365443
0.696752 0.578039 0.371086
0.790945 0.584337 0.376822
0.886476 0.590724 0.382640
0.944374 0.594595 0.386166
0.278830 0.652421 0.363297
0.360485 0.657880 0.368270
0.446271 0.663615 0.373495
0.534913 0.669542 0.378893
0.625761 0.675616 0.384426
0.718417 0.681810 0.390068
0.812609 0.688108 0.395805
0.908141 0.694495 0.401623
0.966039 0.698366 0.405149
0.300854 0.757913 0.382595
0.382510 0.763372 0.387568
0.468295 0.769108 0.392792
0.556937 0.775034 0.398190
0.647785 0.781108 0.403723
0.740441 0.787303 0.409366
0.834634 0.793600 0.415102
0.930166 0.799987 0.420920
0.988064 0.803858 0.424446
0.323192 0.864905 0.402167
0.404847 0.870364 0.407139
0.490633 0.876099 0.412364
0.579274 0.882026 0.417762
0.670122 0.888100 0.423295
0.762778 0.894295 0.428937
0.856971 0.900592 0.434674
0.952503 0.906979 0.440492
1.000000 0.910850 0.444018
0.336730 0.929748 0.414028
0.418385 0.935207 0.419001
0.504170 0.940943 0.424225
0.592812 0.946869 0.429624
0.683660 0.952943 0.435156
0.776316 0.959138 0.440799
0.870509 0.965435 0.446535
0.966041 0.971822 0.452353
1.000000 0.975693 0.455879
0.178138 0.162114 0.347341
0.259793 0.167573 0.352313
0.345579 0.173309 0.357538
0.434220 0.179235 0.362936
0.525069 0.185309 0.368469
0.617725 0.191504 0.374111
0.711917 0.197801 0.379848
0.807449 0.204188 0.385666
0.865347 0.208059 0.389192
0.197231 0.253564 0.364069
0.278886 0.259024 0.369042
0.364672 0.264759 0.374267
0.453313 0.270685 0.379665
0.544161 0.276759 0.385197
0.636817 0.282954 0.390840
0.731010 0.289252 0.396577
0.826542 0.295639 0.402394
0.884440 0.299509 0.405920
0.217289 0.349641 0.381644
0.298944 0.355100 0.386617
0.384730 0.360836 0.391842
0.473372 0.366762 0.397240
0.564220 0.372836 0.402772
0.656876 0.379031 0.408415
0.751069 0.385328 0.414152
0.846600 0.391715 0.419969
0.904498 0.395586 0.423495
0.238015 0.448916 0.399805
0.319671 0.454375 0.404777
0.405456 0.460111 0.410002
0.494098 0.466037 0.415400
0.584946 0.472111 0.420933
0.677602 0.478306 0.426575
0.771795 0.484603 0.432312
0.867327 0.490990 0.438130
0.925225 0.494861 0.441656
0.259258 0.550662 0.418417
0.340913 0.556121 0.423390
0.426698 0.561857 0.428614
0.515340 0.567783 0.434012
0.606188 0.573857 0.439545
0.698844 0.580052 0.445188
0.793037 0.586349 0.450924
0.888569 0.592736 0.456742
0.946467 0.596607 0.460268
0.280923 0.654433 0.437399
0.362578 0.659893 0.442372
0.448363 0.665628 0.447596
0.537005 0.671554 0.452995
0.627853 0.677628 0.458527
0.720509 0.683823 0.464170
0.814702 0.690121 0.469906
0.910234 0.696508 0.475724
0.968132 0.700378 0.479250
0.302947 0.759925 0.456697
0.384602 0.765385 0.461670
0.470388 0.771120 0.466894
0.559029 0.777047 0.472292
0.649877 0.783120 0.477825
0.742533 0.789315 0.483468
0.836726 0.795613 0.489204
0.932258 0.802000 0.495022
0.990156 0.805871 0.498548
0.325284 0.866917 0.476268
0.406939 0.872377 0.481241
0.492725 0.878112 0.486466
0.581366 0.884038 0.491864
0.672215 0.890112 0.497397
0.764871 0.896307 0.503039
0.859063 0.902605 0.508776
0.954595 0.908992 0.514594
1.000000 0.912863 0.518120
0.338822 0.931761 0.488130
0.420477 0.937220 0.493103
0.506263 0.942955 0.498327
0.594904 0.948882 0.503726
0.685752 0.954956 0.509258
0.778408 0.961151 0.514901
0.872601 0.967448 0.520637
0.968133 0.973835 0.526455
1.000000 0.977706 0.529981
0.180283 0.164177 0.423287
0.261938 0.169636 0.428260
0.347723 0.175371 0.433484
0.436365 0.181298 0.438883
0.527213 0.187371 0.444415
0.619869 0.193566 0.450058
0.714062 0.199864 0.455794
0.809594 0.206251 0.461612
0.867492 0.210122 0.465138
0.199375 0.255627 0.440016
0.281030 0.261086 0.444989
0.366816 0.266822 0.450213
0.455457 0.272748 0.455611
0.546306 0.278822 0.461144
0.638962 0.285017 0.466787
0.733154 0.291314 0.472523
0.828686 0.297701 0.478341
0.886584 0.301572 0.481867
0.219434 0.351704 0.457591
0.301089 0.357163 0.462564
0.386874 0.362898 0.467788
0.475516 0.368825 0.473186
0.566364 0.374899 0.478719
0.659020 0.381093 0.484362
0.753213 0.387391 0.490098
0.848745 0.393778 0.495916
0.906643 0.397649 0.499442
0.240160 0.450979 0.475751
0.321815 0.456438 0.480724
0.407601 0.462173 0.485948
0.496242 0.468100 0.491346
0.587090 0.474173 0.496879
0.679746 0.480368 0.502522
0.773939 0.486666 0.508258
0.869471 0.493053 0.514076
0.927369 0.496924 0.517602
0.261402 0.552725 0.494363
0.343057 0.558184 0.499336
0.428843 0.563920 0.504560
0.517484 0.569846 0.509959
0.608332 0.575920 0.515491
0.700989 0.582115 0.521134
0.795181 0.588412 0.526870
0.890713 0.594799 0.532688
0.948611 0.598670 0.536214
0.283067 0.656496 0.513346
0.364722 0.661955 0.518319
0.450508 0.667691 0.523543
0.539149 0.673617 0.528941
0.629997 0.679691 0.534474
0.722654 0.685886 0.540117
0.816846 0.692183 0.545853
0.912378 0.698570 0.551671
0.970276 0.702441 0.555197
0.305091 0.761988 0.532643
0.386746 0.767447 0.537616
0.472532 0.773183 0.542840
0.561173 0.779109 0.548239
0.652022 0.785183 0.553771
0.744678 0.791378 0.559414
0.838870 0.797675 0.565150
0.934402 0.804062 0.570968
0.992300 0.807933 0.574494
0.327429 0.868980 0.552215
0.409084 0.874439 0.557188
0.494869 0.880175 0.562412
0.583511 0.886101 0.567810
0.674359 0.892175 0.573343
0.767015 0.898370 0.578986
0.861208 0.904667 0.584722
0.956740 0.911054 0.590540
1.000000 0.914925 0.594066
0.340966 0.933824 0.564077
0.422621 0.939283 0.569049
0.508407 0.945018 0.574274
0.597049 0.950945 0.579672
0.687897 0.957018 0.585205
0.780553 0.963213 0.590847
0.874746 0.969511 0.596584
0.970277 0.975898 0.602402
1.000000 0.979769 0.605928
0.182470 0.166280 0.500745
0.264125 0.171740 0.505718
0.349910 0.177475 0.510942
0.438552 0.183401 0.516340
0.529400 0.189475 0.521873
0.622056 0.195670 0.527516
0.716249 0.201968 0.533252
0.811781 0.208355 0.539070
0.869679 0.212225 0.542596
0.201562 0.257731 0.517474
0.283217 0.263190 0.522447
0.369003 0.268926 0.527671
0.457645 0.274852 0.533069
0.548493 0.280926 0.538602
0.641149 0.287121 0.544245
0.735342 0.293418 0.549981
0.830873 0.299805 0.555799
0.888771 0.303676 0.559325
0.221621 0.353807 0.535049
0.303276 0.359267 0.540022
0.389062 0.365002 0.545246
0.477703 0.370928 0.550644
0.568551 0.377002 0.556177
0.661207 0.383197 0.561820
0.755400 0.389495 0.567556
0.850932 0.395882 0.573374
0.908830 0.399753 0.576900
0.242347 0.453082 0.553209
0.324002 0.458542 0.558182
0.409788 0.464277 0.563406
0.498429 0.470203 0.568804
0.589277 0.476277 0.574337
0.681934 0.482472 0.579980
0.776126 0.488770 0.585716
0.871658 0.495157 0.591534
0.929556 0.499027 0.595060
0.263589 0.554829 0.571821
0.345244 0.560288 0.576794
0.431030 0.566023 0.582018
0.519671 0.571950 0.587417
0.610520 0.578024 0.592949
0.703176 0.584218 0.598592
0.797368 0.590516 0.604328
0.892900 0.596903 0.610146
0.950798 0.600774 0.613672
0.285254 0.658600 0.590804
0.366909 0.664059 0.595777
0.452695 0.669795 0.601001
0.541336 0.675721 0.606399
0.632184 0.681795 0.611932
0.724841 0.687990 0.617575
0.819033 0.694287 0.623311
0.914565 0.700674 0.629129
0.972463 0.704545 0.632655
0.307278 0.764092 0.610101
0.388933 0.769551 0.615074
0.474719 0.775287 0.620298
0.563361 0.781213 0.625697
0.654209 0.787287 0.631229
0.746865 0.793482 0.636872
0.841058 0.799779 0.642608
0.936589 0.806166 0.648426
0.994487 0.810037 0.651952
0.329616 0.871084 0.629673
0.411271 0.876543 0.634646
0.497056 0.882279 0.639870
0.585698 0.888205 0.645268
0.676546 0.894279 0.650801
0.769202 0.900474 0.656444
0.863395 0.906771 0.662180
0.958927 0.913158 0.667998
1.000000 0.917029 0.671524
0.343153 0.935927 0.641535
0.424808 0.941387 0.646507
0.510594 0.947122 0.651732
0.599236 0.953048 0.657130
0.690084 0.959122 0.662663
0.782740 0.965317 0.668305
0.876933 0.971614 0.674042
0.972465 0.978002 0.679860
1.000000 0.981872 0.683386
0.184693 0.168419 0.579488
0.266348 0.173878 0.584460
0.352134 0.179614 0.589685
0.440775 0.185540 0.595083
0.531623 0.191614 0.600616
0.624280 0.197809 0.606258
0.718472 0.204106 0.611995
0.814004 0.210493 0.617813
0.871902 0.214364 0.621339
0.203786 0.259869 0.596216
0.285441 0.265329 0.601189
0.371226 0.271064 0.606414
0.459868 0.276991 0.611812
0.550716 0.283064 0.617344
0.643372 0.289259 0.622987
0.737565 0.295557 0.628724
0.833097 0.301944 0.634541
0.890995 0.305815 0.638067
0.223844 0.355946 0.613791
0.305499 0.361405 0.618764
0.391285 0.367141 0.623989
0.479926 0.373067 0.629387
0.570775 0.379141 0.634919
0.663431 0.385336 0.640562
0.757623 0.391633 0.646299
0.853155 0.398020 0.652116
0.911053 0.401891 0.655642
0.244570 0.455221 0.631952
0.326225 0.460680 0.636924
0.412011 0.466416 0.642149
0.500653 0.472342 0.647547
0.591501 0.478416 0.653080
0.684157 0.484611 0.658722
0.778350 0.490908 0.664459
0.873882 0.497295 0.670277
0.931779 0.501166 0.673803
0.265813 0.556967 0.650564
0.347468 0.562427 0.655537
0.433253 0.568162 0.660761
0.521895 0.574088 0.666159
0.612743 0.580162 0.671692
0.705399 0.586357 0.677335
0.799592 0.592654 0.683071
0.895124 0.599042 0.688889
0.953022 0.602912 0.692415
0.287477 0.660738 0.669546
0.369133 0.666198 0.674519
0.454918 0.671933 0.679743
0.543560 0.677860 0.685142
0.634408 0.683933 0.690674
0.727064 0.690128 0.696317
0.821257 0.696426 0.702053
0.916789 0.702813 0.707871
0.974687 0.706684 0.711397
0.309502 0.766231 0.688844
0.391157 0.771690 0.693817
0.476942 0.777425 0.699041
0.565584 0.783352 0.704439
0.656432 0.789426 0.709972
0.749088 0.795620 0.715615
0.843281 0.801918 0.721351
0.938813 0.808305 0.727169
0.996711 0.812176 0.730695
0.331839 0.873223 0.708415
0.413494 0.878682 0.713388
0.499280 0.884417 0.718613
0.587921 0.890344 0.724011
0.678769 0.896418 0.729544
0.771426 0.902612 0.735186
0.865618 0.908910 0.740923
0.961150 0.915297 0.746741
1.000000 0.919168 0.750267
0.345377 0.938066 0.720277
0.427032 0.943525 0.725250
0.512818 0.949261 0.730474
0.601459 0.955187 0.735873
0.692307 0.961261 0.741405
0.784963 0.967456 0.747048
0.879156 0.973753 0.752784
0.974688 0.980140 0.758602
1.000000 0.984011 0.762128
0.186948 0.170588 0.659350
0.268603 0.176047 0.664322
0.354389 0.181783 0.669547
0.443030 0.187709 0.674945
0.533878 0.193783 0.680478
0.626535 0.199978 0.686120
0.720727 0.206275 0.691857
0.816259 0.212662 0.697675
0.874157 0.216533 0.701201
0.206041 0.262039 0.676078
0.287696 0.267498 0.681051
0.373481 0.273233 0.686276
0.462123 0.279160 0.691674
0.552971 0.285234 0.697206
0.645627 0.291428 0.702849
0.739820 0.297726 0.708586
0.835352 0.304113 0.714403
0.893250 0.307984 0.717929
0.226099 0.358115 0.693653
0.307754 0.363574 0.698626
0.393540 0.369310 0.703851
0.482181 0.375236 0.709249
0.573029 0.381310 0.714782
0.665686 0.387505 0.720424
0.759878 0.393802 0.726161
0.855410 0.400189 0.731979
0.913308 0.404060 0.735505
0.246825 0.457390 0.711814
0.328480 0.462849 0.716786
0.414266 0.468585 0.722011
0.502908 0.474511 0.727409
0.593756 0.480585 0.732942
0.686412 0.486780 0.738584
0.780605 0.493077 0.744321
0.876136 0.499464 0.750139
0.934034 0.503335 0.753665
0.268068 0.559136 0.730426
0.349723 0.564596 0.735399
0.435508 0.570331 0.740623
0.524150 0.576257 0.746021
0.614998 0.582331 0.751554
0.707654 0.588526 0.757197
0.801847 0.594824 0.762933
0.897379 0.601211 0.768751
0.955277 0.605082 0.772277
0.289732 0.662908 0.749408
0.371388 0.668367 0.754381
0.457173 0.674102 0.759606
0.545815 0.680029 0.765004
0.636663 0.686102 0.770536
0.729319 0.692297 0.776179
0.823512 0.698595 0.781916
0.919044 0.704982 0.787733
0.976941 0.708853 0.791259
0.311757 0.768400 0.768706
0.393412 0.773859 0.773679
0.479197 0.779594 0.778903
0.567839 0.785521 0.784301
0.658687 0.791595 0.789834
0.751343 0.797789 0.795477
0.845536 0.804087 0.801213
0.941068 0.810474 0.807031
0.998966 0.814345 0.810557
0.334094 0.875392 0.788278
0.415749 0.880851 0.793250
0.501535 0.886586 0.798475
0.590176 0.892513 0.803873
0.681024 0.898587 0.809406
0.773680 0.904781 0.815048
0.867873 0.911079 0.820785
0.963405 0.917466 0.826603
1.000000 0.921337 0.830129
0.347632 0.940235 0.800139
0.429287 0.945694 0.805112
0.515073 0.951430 0.810336
0.603714 0.957356 0.815735
0.694562 0.963430 0.821267
0.787218 0.969625 0.826910
0.881411 0.975922 0.832646
0.976943 0.982309 0.838464
1.000000 0.986180 0.841990
0.188315 0.171903 0.707751
0.269970 0.177362 0.712723
0.355755 0.183097 0.717948
0.444397 0.189024 0.723346
0.535245 0.195098 0.728879
0.627901 0.201292 0.734522
0.722094 0.207590 0.740258
0.817626 0.213977 0.746076
0.875524 0.217848 0.749602
0.207407 0.263353 0.724480
0.289062 0.268812 0.729452
0.374848 0.274548 0.734677
0.463490 0.280474 0.740075
0.554338 0.286548 0.745608
0.646994 0.292743 0.751250
0.741187 0.299040 0.756987
0.836718 0.305427 0.762805
0.894616 0.309298 0.766331
0.227466 0.359430 0.742055
0.309121 0.364889 0.747027
0.394907 0.370624 0.752252
0.483548 0.376551 0.757650
0.574396 0.382625 0.763183
0.667052 0.388819 0.768825
0.761245 0.395117 0.774562
0.856777 0.401504 0.780380
0.914675 0.405375 0.783906
0.248192 0.458705 0.760215
0.329847 0.464164 0.765187
0.415633 0.469899 0.770412
0.504274 0.475826 0.775810
0.595122 0.481900 0.781343
0.687778 0.488094 0.786985
0.781971 0.494392 0.792722
0.877503 0.500779 0.798540
0.935401 0.504650 0.802066
0.269434 0.560451 0.778827
0.351089 0.565910 0.783800
0.436875 0.571646 0.789024
0.525516 0.577572 0.794422
0.616365 0.583646 0.799955
0.709021 0.589841 0.805598
0.803213 0.596138 0.811334
0.898745 0.602525 0.817152
0.956643 0.606396 0.820678
0.291099 0.664222 0.797809
0.372754 0.669681 0.802782
0.458540 0.675417 0.808007
0.547181 0.681343 0.813405
0.638029 0.687417 0.818937
0.730686 0.693612 0.824580
0.824878 0.699909 0.830317
0.920410 0.706296 0.836134
0.978308 0.710167 0.839660
0.313123 0.769714 0.817107
0.394778 0.775174 0.822080
0.480564 0.780909 0.827304
0.569206 0.786835 0.832702
0.660054 0.792909 0.838235
0.752710 0.799104 0.843878
0.846903 0.805401 0.849614
0.942434 0.811789 0.855432
1.000000 0.815659 0.858958
0.335461 0.876706 0.836679
0.417116 0.882165 0.841651
0.502901 0.887901 0.846876
0.591543 0.893827 0.852274
0.682391 0.899901 0.857807
0.775047 0.906096 0.863449
0.869240 0.912393 0.869186
0.964772 0.918780 0.875004
1.000000 0.922651 0.878530
0.348998 0.941550 0.848540
0.430653 0.947009 0.853513
0.516439 0.952744 0.858737
0.605081 0.958671 0.864136
0.695929 0.964745 0.869668
0.788585 0.970939 0.875311
0.882778 0.977237 0.881047
0.978310 0.983624 0.886865
1.000000 0.987495 0.890391
