library/cube/Editorial_Punch_001.cube
# CINEGRADE LAB — Premium Cinematic LUT
# Title: Editorial Punch
# Category: Hyperreal Fashion
# Description: Punchy, saturated, with flawless skin rendering for fashion editorials
# Mood: Bold, vibrant, high-impact
# Variant: 2
# Generated: 2026-05-21T16:12:20.507147
TITLE "Editorial Punch"
LUT_3D_SIZE 5
0.000000 0.000000 0.000000
0.219685 0.000000 0.000000
0.566929 0.000000 0.000000
0.914173 0.000000 0.000000
1.000000 0.000000 0.000000
0.000000 0.203131 0.000000
0.196128 0.196128 0.000000
0.597333 0.198761 0.000000
0.966280 0.187471 0.000000
1.000000 0.180328 0.000000
0.000000 0.524208 0.000000
0.158893 0.517205 0.000000
0.506137 0.506137 0.000000
0.926717 0.514970 0.000000
1.000000 0.507827 0.000000
0.000000 0.845285 0.000000
0.121658 0.838283 0.000000
0.468902 0.827214 0.000000
0.816146 0.816146 0.000000
1.000000 0.809143 0.000000
0.000000 1.000000 0.000000
0.098101 1.000000 0.000000
0.445345 1.000000 0.000000
0.792589 1.000000 0.000000
1.000000 1.000000 0.000000
0.000000 0.000000 0.224309
0.217307 0.000000 0.217307
0.564551 0.000000 0.206238
0.911795 0.000000 0.195170
1.000000 0.000000 0.188167
0.000000 0.200753 0.200753
0.193750 0.193750 0.193750
0.540994 0.182682 0.182682
0.888238 0.171613 0.171613
1.000000 0.164611 0.164611
0.000000 0.521830 0.163517
0.156515 0.514827 0.156515
0.503759 0.503759 0.145446
0.924191 0.512544 0.134378
1.000000 0.505402 0.127375
0.000000 0.842907 0.126282
0.119280 0.835905 0.119280
0.466524 0.824836 0.108211
0.813768 0.813768 0.097143
1.000000 0.832901 0.090140
0.000000 1.000000 0.102725
0.095723 1.000000 0.095723
0.442967 1.000000 0.084654
0.790211 1.000000 0.073586
1.000000 1.000000 0.066583
0.000000 0.000000 0.578863
0.213548 0.000000 0.571860
0.560792 0.000000 0.560792
0.908036 0.000000 0.549724
1.000000 0.000000 0.542721
0.000000 0.196994 0.555306
0.189991 0.189991 0.548304
0.537235 0.178923 0.537235
0.884479 0.167854 0.526167
1.000000 0.160852 0.519164
0.000000 0.518071 0.518071
0.152756 0.511068 0.511068
0.500000 0.500000 0.500000
0.847244 0.488932 0.488932
1.000000 0.481929 0.481929
0.000000 0.839148 0.480836
0.115521 0.832146 0.473833
0.462765 0.821077 0.462765
0.810009 0.810009 0.451696
1.000000 0.829067 0.444694
0.000000 1.000000 0.457279
0.091964 1.000000 0.450276
0.439208 1.000000 0.439208
0.786452 1.000000 0.428140
1.000000 1.000000 0.421137
0.000000 0.000000 0.933417
0.209789 0.000000 0.926414
0.557033 0.000000 0.915346
0.904277 0.000000 0.904277
1.000000 0.000000 0.897275
0.000000 0.193235 0.909860
0.186232 0.186232 0.902857
0.533476 0.175164 0.891789
0.880720 0.164095 0.880720
1.000000 0.157093 0.873718
0.000000 0.514312 0.872625
0.148997 0.507310 0.865622
0.496241 0.496241 0.854554
0.843485 0.485173 0.843485
1.000000 0.478170 0.836483
0.000000 0.835389 0.835389
0.111762 0.828387 0.828387
0.459006 0.817318 0.817318
0.806250 0.806250 0.806250
1.000000 0.799247 0.799247
0.000000 1.000000 0.811833
0.088205 1.000000 0.804830
0.435449 1.000000 0.793762
0.782693 1.000000 0.782693
1.000000 1.000000 0.775691
0.000000 0.000000 1.000000
0.207411 0.000000 1.000000
0.554655 0.000000 1.000000
0.901899 0.000000 1.000000
1.000000 0.000000 1.000000
0.000000 0.190857 1.000000
0.183854 0.183854 1.000000
0.531098 0.172786 1.000000
0.878342 0.161717 1.000000
1.000000 0.154715 1.000000
0.000000 0.511934 1.000000
0.146619 0.504931 1.000000
0.493863 0.493863 1.000000
0.841107 0.482795 1.000000
1.000000 0.475792 1.000000
0.000000 0.833011 1.000000
0.109384 0.826009 1.000000
0.456628 0.814940 1.000000
0.803872 0.803872 1.000000
1.000000 0.796869 1.000000
0.000000 1.000000 1.000000
0.085827 1.000000 1.000000
0.433071 1.000000 1.000000
0.780315 1.000000 1.000000
1.000000 1.000000 1.000000
