library/cube/Editorial_Punch_001.cube
# CINEGRADE LAB — Premium Cinematic LUT
# Title: Editorial Punch
# Category: Hyperreal Fashion
# Description: Punchy, saturated, with flawless skin rendering for fashion editorials
# Mood: Bold, vibrant, high-impact
# Variant: 2
# Generated: 2026-05-21T16:12:20.507147
TITLE "Editorial Punch"
LUT_3D_SIZE 33
0.000000 0.000000 0.000000
0.000000 0.000000 0.000000
0.000000 0.000000 0.000000
0.002657 0.000000 0.000000
0.046063 0.000000 0.000000
0.089468 0.000000 0.000000
0.132874 0.000000 0.000000
0.176279 0.000000 0.000000
0.219685 0.000000 0.000000
0.263090 0.000000 0.000000
0.306496 0.000000 0.000000
0.349901 0.000000 0.000000
0.393307 0.000000 0.000000
0.436712 0.000000 0.000000
0.480118 0.000000 0.000000
0.523523 0.000000 0.000000
0.566929 0.000000 0.000000
0.610335 0.000000 0.000000
0.653740 0.000000 0.000000
0.697146 0.000000 0.000000
0.740551 0.000000 0.000000
0.783957 0.000000 0.000000
0.827362 0.000000 0.000000
0.870768 0.000000 0.000000
0.914173 0.000000 0.000000
0.957579 0.000000 0.000000
1.000000 0.000000 0.000000
1.000000 0.000000 0.000000
1.000000 0.000000 0.000000
1.000000 0.000000 0.000000
1.000000 0.000000 0.000000
1.000000 0.000000 0.000000
1.000000 0.000000 0.000000
0.000000 0.000000 0.000000
0.000000 0.000000 0.000000
0.020000 0.010000 0.000000
0.022824 0.009914 0.000000
0.068942 0.008502 0.000000
0.115060 0.007091 0.000000
0.132874 0.000000 0.000000
0.176279 0.000000 0.000000
0.219685 0.000000 0.000000
0.263090 0.000000 0.000000
0.306496 0.000000 0.000000
0.349901 0.000000 0.000000
0.393307 0.000000 0.000000
0.436712 0.000000 0.000000
0.480118 0.000000 0.000000
0.523523 0.000000 0.000000
0.566929 0.000000 0.000000
0.610335 0.000000 0.000000
0.653740 0.000000 0.000000
0.697146 0.000000 0.000000
0.740551 0.000000 0.000000
0.783957 0.000000 0.000000
0.827362 0.000000 0.000000
0.870768 0.000000 0.000000
0.914173 0.000000 0.000000
0.957579 0.000000 0.000000
1.000000 0.000000 0.000000
1.000000 0.000000 0.000000
1.000000 0.000000 0.000000
1.000000 0.000000 0.000000
1.000000 0.000000 0.000000
1.000000 0.000000 0.000000
1.000000 0.000000 0.000000
0.000000 0.000000 0.000000
0.000000 0.000000 0.000000
0.000000 0.000000 0.000000
0.022824 0.009914 0.000000
0.068942 0.008502 0.000000
0.115060 0.007091 0.000000
0.161179 0.005680 0.000000
0.207297 0.004269 0.000000
0.253415 0.002857 0.000000
0.299534 0.001446 0.000000
0.345652 0.000035 0.000000
0.391770 0.000000 0.000000
0.393307 0.000000 0.000000
0.436712 0.000000 0.000000
0.480118 0.000000 0.000000
0.523523 0.000000 0.000000
0.566929 0.000000 0.000000
0.610335 0.000000 0.000000
0.653740 0.000000 0.000000
0.697146 0.000000 0.000000
0.740551 0.000000 0.000000
0.783957 0.000000 0.000000
0.827362 0.000000 0.000000
0.870768 0.000000 0.000000
0.914173 0.000000 0.000000
0.957579 0.000000 0.000000
1.000000 0.000000 0.000000
1.000000 0.000000 0.000000
1.000000 0.000000 0.000000
1.000000 0.000000 0.000000
1.000000 0.000000 0.000000
1.000000 0.000000 0.000000
1.000000 0.000000 0.000000
0.000000 0.002457 0.000000
0.000000 0.002457 0.000000
0.000000 0.002457 0.000000
0.002373 0.002373 0.000000
0.045778 0.000989 0.000000
0.114757 0.009598 0.000000
0.160876 0.008186 0.000000
0.206994 0.006775 0.000000
0.253113 0.005364 0.000000
0.299231 0.003953 0.000000
0.345349 0.002541 0.000000
0.391468 0.001130 0.000000
0.437586 0.000000 0.000000
0.483704 0.000000 0.000000
0.529823 0.000000 0.000000
0.575941 0.000000 0.000000
0.622059 0.000000 0.000000
0.610050 0.000000 0.000000
0.653455 0.000000 0.000000
0.696861 0.000000 0.000000
0.740266 0.000000 0.000000
0.783672 0.000000 0.000000
0.827077 0.000000 0.000000
0.870483 0.000000 0.000000
0.913888 0.000000 0.000000
0.957294 0.000000 0.000000
1.000000 0.000000 0.000000
1.000000 0.000000 0.000000
1.000000 0.000000 0.000000
1.000000 0.000000 0.000000
1.000000 0.000000 0.000000
1.000000 0.000000 0.000000
1.000000 0.000000 0.000000
0.000000 0.042592 0.000000
0.000000 0.042592 0.000000
0.000000 0.042592 0.000000
0.000000 0.042507 0.000000
0.041124 0.041124 0.000000
0.084529 0.039740 0.000000
0.155931 0.049124 0.000000
0.202049 0.047712 0.000000
0.248167 0.046301 0.000000
0.294286 0.044890 0.000000
0.340404 0.043479 0.000000
0.386522 0.042067 0.000000
0.432641 0.040656 0.000000
0.478759 0.039245 0.000000
0.524877 0.037834 0.000000
0.570996 0.036423 0.000000
0.617114 0.035011 0.000000
0.663232 0.033600 0.000000
0.709351 0.032189 0.000000
0.755469 0.030778 0.000000
0.801587 0.029366 0.000000
0.847706 0.027955 0.000000
0.893824 0.026544 0.000000
0.865828 0.014836 0.000000
0.909234 0.013452 0.000000
0.952639 0.012069 0.000000
0.996045 0.010685 0.000000
1.000000 0.009302 0.000000
1.000000 0.007918 0.000000
1.000000 0.006535 0.000000
1.000000 0.006450 0.000000
1.000000 0.006450 0.000000
1.000000 0.006450 0.000000
0.000000 0.082727 0.000000
0.000000 0.082727 0.000000
0.000000 0.082727 0.000000
0.000000 0.082642 0.000000
0.036469 0.081258 0.000000
0.079875 0.079875 0.000000
0.123280 0.078491 0.000000
0.197104 0.088650 0.000000
0.243222 0.087239 0.000000
0.289340 0.085827 0.000000
0.335459 0.084416 0.000000
0.381577 0.083005 0.000000
0.427695 0.081594 0.000000
0.473814 0.080182 0.000000
0.519932 0.078771 0.000000
0.566050 0.077360 0.000000
0.612169 0.075949 0.000000
0.658287 0.074537 0.000000
0.704405 0.073126 0.000000
0.750524 0.071715 0.000000
0.796642 0.070304 0.000000
0.842760 0.068893 0.000000
0.888879 0.067481 0.000000
0.934997 0.066070 0.000000
0.981115 0.064659 0.000000
1.000000 0.063248 0.000000
1.000000 0.061836 0.000000
1.000000 0.060425 0.000000
1.000000 0.048053 0.000000
1.000000 0.046669 0.000000
1.000000 0.046585 0.000000
1.000000 0.046585 0.000000
1.000000 0.046585 0.000000
0.000000 0.122861 0.000000
0.000000 0.122861 0.000000
0.000000 0.122861 0.000000
0.000000 0.122777 0.000000
0.031815 0.121393 0.000000
0.075220 0.120009 0.000000
0.118626 0.118626 0.000000
0.162031 0.117242 0.000000
0.205437 0.115859 0.000000
0.284395 0.126765 0.000000
0.330513 0.125353 0.000000
0.376632 0.123942 0.000000
0.422750 0.122531 0.000000
0.468868 0.121120 0.000000
0.514987 0.119709 0.000000
0.561105 0.118297 0.000000
0.607223 0.116886 0.000000
0.653342 0.115475 0.000000
0.699460 0.114064 0.000000
0.745578 0.112652 0.000000
0.791697 0.111241 0.000000
0.837815 0.109830 0.000000
0.883934 0.108419 0.000000
0.930052 0.107007 0.000000
0.976170 0.105596 0.000000
1.000000 0.104185 0.000000
1.000000 0.102774 0.000000
1.000000 0.101363 0.000000
1.000000 0.099951 0.000000
1.000000 0.098540 0.000000
1.000000 0.098454 0.000000
1.000000 0.098454 0.000000
1.000000 0.098454 0.000000
0.000000 0.162996 0.000000
0.000000 0.162996 0.000000
0.000000 0.162996 0.000000
0.000000 0.162911 0.000000
0.027160 0.161528 0.000000
0.070566 0.160144 0.000000
0.113971 0.158761 0.000000
0.157377 0.157377 0.000000
0.200782 0.155993 0.000000
0.244188 0.154610 0.000000
0.325568 0.166291 0.000000
0.371686 0.164880 0.000000
0.417805 0.163468 0.000000
0.463923 0.162057 0.000000
0.510041 0.160646 0.000000
0.556160 0.159235 0.000000
0.602278 0.157823 0.000000
0.648396 0.156412 0.000000
0.694515 0.155001 0.000000
0.740633 0.153590 0.000000
0.786752 0.152178 0.000000
0.832870 0.150767 0.000000
0.878988 0.149356 0.000000
0.925107 0.147945 0.000000
0.971225 0.146534 0.000000
1.000000 0.145122 0.000000
1.000000 0.143711 0.000000
1.000000 0.142300 0.000000
1.000000 0.140889 0.000000
1.000000 0.139477 0.000000
1.000000 0.139391 0.000000
1.000000 0.139391 0.000000
1.000000 0.139391 0.000000
0.000000 0.203131 0.000000
0.000000 0.203131 0.000000
0.000000 0.203131 0.000000
0.000000 0.203046 0.000000
0.022506 0.201662 0.000000
0.065912 0.200279 0.000000
0.109317 0.198895 0.000000
0.152723 0.197512 0.000000
0.196128 0.196128 0.000000
0.239534 0.194745 0.000000
0.282939 0.193361 0.000000
0.326345 0.191977 0.000000
0.412859 0.204406 0.000000
0.458978 0.202994 0.000000
0.505096 0.201583 0.000000
0.551215 0.200172 0.000000
0.597333 0.198761 0.000000
0.643451 0.197350 0.000000
0.689570 0.195938 0.000000
0.735688 0.194527 0.000000
0.781806 0.193116 0.000000
0.827925 0.191705 0.000000
0.874043 0.190293 0.000000
0.920161 0.188882 0.000000
0.966280 0.187471 0.000000
1.000000 0.186060 0.000000
1.000000 0.184648 0.000000
1.000000 0.183237 0.000000
1.000000 0.181826 0.000000
1.000000 0.180415 0.000000
1.000000 0.180328 0.000000
1.000000 0.180328 0.000000
1.000000 0.180328 0.000000
0.000000 0.243265 0.000000
0.000000 0.243265 0.000000
0.000000 0.243265 0.000000
0.000000 0.243181 0.000000
0.017852 0.241797 0.000000
0.061257 0.240413 0.000000
0.104663 0.239030 0.000000
0.148068 0.237646 0.000000
0.191474 0.236263 0.000000
0.234879 0.234879 0.000000
0.278285 0.233496 0.000000
0.321690 0.232112 0.000000
0.365096 0.230729 0.000000
0.454033 0.243932 0.000000
0.500151 0.242521 0.000000
0.546269 0.241109 0.000000
0.592388 0.239698 0.000000
0.638506 0.238287 0.000000
0.684624 0.236876 0.000000
0.730743 0.235464 0.000000
0.776861 0.234053 0.000000
0.822979 0.232642 0.000000
0.869098 0.231231 0.000000
0.915216 0.229820 0.000000
0.961334 0.228408 0.000000
1.000000 0.226997 0.000000
1.000000 0.225586 0.000000
1.000000 0.224175 0.000000
1.000000 0.222763 0.000000
1.000000 0.221352 0.000000
1.000000 0.221266 0.000000
1.000000 0.221266 0.000000
1.000000 0.221266 0.000000
0.000000 0.283400 0.000000
0.000000 0.283400 0.000000
0.000000 0.283400 0.000000
0.000000 0.283315 0.000000
0.013197 0.281932 0.000000
0.056603 0.280548 0.000000
0.100008 0.279165 0.000000
0.143414 0.277781 0.000000
0.186819 0.276397 0.000000
0.230225 0.275014 0.000000
0.273630 0.273630 0.000000
0.317036 0.272247 0.000000
0.360441 0.270863 0.000000
0.403847 0.269480 0.000000
0.495206 0.283458 0.000000
0.541324 0.282047 0.000000
0.587442 0.280636 0.000000
0.633561 0.279224 0.000000
0.679679 0.277813 0.000000
0.725797 0.276402 0.000000
0.771916 0.274991 0.000000
0.818034 0.273579 0.000000
0.864152 0.272168 0.000000
0.910271 0.270757 0.000000
0.956389 0.269346 0.000000
1.000000 0.267934 0.000000
1.000000 0.266523 0.000000
1.000000 0.265112 0.000000
1.000000 0.263701 0.000000
1.000000 0.262290 0.000000
1.000000 0.262203 0.000000
1.000000 0.262203 0.000000
1.000000 0.262203 0.000000
0.000000 0.323535 0.000000
0.000000 0.323535 0.000000
0.000000 0.323535 0.000000
0.000000 0.323450 0.000000
0.008543 0.322066 0.000000
0.051948 0.320683 0.000000
0.095354 0.319299 0.000000
0.138759 0.317916 0.000000
0.182165 0.316532 0.000000
0.225570 0.315149 0.000000
0.268976 0.313765 0.000000
0.312381 0.312381 0.000000
0.355787 0.310998 0.000000
0.399192 0.309614 0.000000
0.442598 0.308231 0.000000
0.486003 0.306847 0.000000
0.582497 0.321573 0.000000
0.628615 0.320162 0.000000
0.674734 0.318750 0.000000
0.720852 0.317339 0.000000
0.766970 0.315928 0.000000
0.813089 0.314517 0.000000
0.859207 0.313106 0.000000
0.905325 0.311694 0.000000
0.951444 0.310283 0.000000
0.997562 0.308872 0.000000
1.000000 0.307461 0.000000
1.000000 0.306049 0.000000
1.000000 0.304638 0.000000
1.000000 0.303227 0.000000
1.000000 0.303140 0.000000
1.000000 0.303140 0.000000
1.000000 0.303140 0.000000
0.000000 0.363669 0.000000
0.000000 0.363669 0.000000
0.000000 0.363669 0.000000
0.000000 0.363585 0.000000
0.003889 0.362201 0.000000
0.047294 0.360817 0.000000
0.090700 0.359434 0.000000
0.134105 0.358050 0.000000
0.177511 0.356667 0.000000
0.220916 0.355283 0.000000
0.264322 0.353900 0.000000
0.307727 0.352516 0.000000
0.351133 0.351133 0.000000
0.394538 0.349749 0.000000
0.437944 0.348365 0.000000
0.481349 0.346982 0.000000
0.524755 0.345598 0.000000
0.623670 0.361099 0.000000
0.669788 0.359688 0.000000
0.715907 0.358277 0.000000
0.762025 0.356865 0.000000
0.808143 0.355454 0.000000
0.854262 0.354043 0.000000
0.900380 0.352632 0.000000
0.946498 0.351220 0.000000
0.992617 0.349809 0.000000
1.000000 0.348398 0.000000
1.000000 0.346987 0.000000
1.000000 0.345575 0.000000
1.000000 0.344164 0.000000
1.000000 0.344078 0.000000
1.000000 0.344078 0.000000
1.000000 0.344078 0.000000
0.000000 0.403804 0.000000
0.000000 0.403804 0.000000
0.000000 0.403804 0.000000
0.000000 0.403719 0.000000
0.000000 0.402336 0.000000
0.042640 0.400952 0.000000
0.086045 0.399569 0.000000
0.129451 0.398185 0.000000
0.172856 0.396801 0.000000
0.216262 0.395418 0.000000
0.259667 0.394034 0.000000
0.303073 0.392651 0.000000
0.346478 0.391267 0.000000
0.389884 0.389884 0.000000
0.433289 0.388500 0.000000
0.476695 0.387117 0.000000
0.520100 0.385733 0.000000
0.563506 0.384349 0.000000
0.606911 0.382966 0.000000
0.710961 0.399214 0.000000
0.757080 0.397803 0.000000
0.803198 0.396391 0.000000
0.849316 0.394980 0.000000
0.895435 0.393569 0.000000
0.941553 0.392158 0.000000
0.987672 0.390747 0.000000
1.000000 0.389335 0.000000
1.000000 0.387924 0.000000
1.000000 0.386513 0.000000
1.000000 0.385102 0.000000
1.000000 0.385015 0.000000
1.000000 0.385015 0.000000
1.000000 0.385015 0.000000
0.000000 0.443939 0.000000
0.000000 0.443939 0.000000
0.000000 0.443939 0.000000
0.000000 0.443854 0.000000
0.000000 0.442470 0.000000
0.037985 0.441087 0.000000
0.081391 0.439703 0.000000
0.124796 0.438320 0.000000
0.168202 0.436936 0.000000
0.211607 0.435553 0.000000
0.255013 0.434169 0.000000
0.298418 0.432785 0.000000
0.341824 0.431402 0.000000
0.385229 0.430018 0.000000
0.428635 0.428635 0.000000
0.472040 0.427251 0.000000
0.515446 0.425868 0.000000
0.558851 0.424484 0.000000
0.602257 0.423101 0.000000
0.645662 0.421717 0.000000
0.752135 0.438740 0.000000
0.798253 0.437329 0.000000
0.844371 0.435918 0.000000
0.890490 0.434506 0.000000
0.936608 0.433095 0.000000
0.982726 0.431684 0.000000
1.000000 0.430273 0.000000
1.000000 0.428861 0.000000
1.000000 0.427450 0.000000
1.000000 0.426039 0.000000
1.000000 0.425953 0.000000
1.000000 0.425953 0.000000
1.000000 0.425953 0.000000
0.000000 0.484073 0.000000
0.000000 0.484073 0.000000
0.000000 0.484073 0.000000
0.000000 0.483989 0.000000
0.000000 0.482605 0.000000
0.033331 0.481221 0.000000
0.076736 0.479838 0.000000
0.120142 0.478454 0.000000
0.163547 0.477071 0.000000
0.206953 0.475687 0.000000
0.250358 0.474304 0.000000
0.293764 0.472920 0.000000
0.337169 0.471537 0.000000
0.380575 0.470153 0.000000
0.423980 0.468769 0.000000
0.467386 0.467386 0.000000
0.510791 0.466002 0.000000
0.554197 0.464619 0.000000
0.597602 0.463235 0.000000
0.641008 0.461852 0.000000
0.684413 0.460468 0.000000
0.793308 0.478266 0.000000
0.839426 0.476855 0.000000
0.885544 0.475444 0.000000
0.931663 0.474033 0.000000
0.977781 0.472621 0.000000
1.000000 0.471210 0.000000
1.000000 0.469799 0.000000
1.000000 0.468388 0.000000
1.000000 0.466976 0.000000
1.000000 0.466890 0.000000
1.000000 0.466890 0.000000
1.000000 0.466890 0.000000
0.000000 0.524208 0.000000
0.000000 0.524208 0.000000
0.000000 0.524208 0.000000
0.000000 0.524123 0.000000
0.000000 0.522740 0.000000
0.028676 0.521356 0.000000
0.072082 0.519973 0.000000
0.115487 0.518589 0.000000
0.158893 0.517205 0.000000
0.202298 0.515822 0.000000
0.245704 0.514438 0.000000
0.289109 0.513055 0.000000
0.332515 0.511671 0.000000
0.375920 0.510288 0.000000
0.419326 0.508904 0.000000
0.462731 0.507521 0.000000
0.506137 0.506137 0.000000
0.549543 0.504753 0.000000
0.592948 0.503370 0.000000
0.636354 0.501986 0.000000
0.679759 0.500603 0.000000
0.723165 0.499219 0.000000
0.766570 0.497836 0.000000
0.880599 0.516381 0.000000
0.926717 0.514970 0.000000
0.972836 0.513559 0.000000
1.000000 0.512147 0.000000
1.000000 0.510736 0.000000
1.000000 0.509325 0.000000
1.000000 0.507914 0.000000
1.000000 0.507827 0.000000
1.000000 0.507827 0.000000
1.000000 0.507827 0.000000
0.000000 0.564343 0.000000
0.000000 0.564343 0.000000
0.000000 0.564343 0.000000
0.000000 0.564258 0.000000
0.000000 0.562874 0.000000
0.024022 0.561491 0.000000
0.067428 0.560107 0.000000
0.110833 0.558724 0.000000
0.154239 0.557340 0.000000
0.197644 0.555957 0.000000
0.241050 0.554573 0.000000
0.284455 0.553189 0.000000
0.327861 0.551806 0.000000
0.371266 0.550422 0.000000
0.414672 0.549039 0.000000
0.458077 0.547655 0.000000
0.501483 0.546272 0.000000
0.544888 0.544888 0.000000
0.588294 0.543505 0.000000
0.631699 0.542121 0.000000
0.675105 0.540737 0.000000
0.718510 0.539354 0.000000
0.761916 0.537970 0.000000
0.805321 0.536587 0.000000
0.921772 0.555907 0.000000
0.967890 0.554496 0.000000
1.000000 0.553085 0.000000
1.000000 0.551674 0.000000
1.000000 0.550262 0.000000
1.000000 0.548851 0.000000
1.000000 0.548765 0.000000
1.000000 0.548765 0.000000
1.000000 0.548765 0.000000
0.000000 0.604477 0.000000
0.000000 0.604477 0.000000
0.000000 0.604477 0.000000
0.000000 0.604393 0.000000
0.000000 0.603009 0.000000
0.019368 0.601626 0.000000
0.062773 0.600242 0.000000
0.106179 0.598858 0.000000
0.149584 0.597475 0.000000
0.192990 0.596091 0.000000
0.236395 0.594708 0.000000
0.279801 0.593324 0.000000
0.323206 0.591941 0.000000
0.366612 0.590557 0.000000
0.410017 0.589173 0.000000
0.453423 0.587790 0.000000
0.496828 0.586406 0.000000
0.540234 0.585023 0.000000
0.583639 0.583639 0.000000
0.627045 0.582256 0.000000
0.670450 0.580872 0.000000
0.713856 0.579489 0.000000
0.757261 0.578105 0.000000
0.800667 0.576721 0.000000
0.844072 0.575338 0.000000
0.962945 0.595433 0.000000
1.000000 0.594022 0.000000
1.000000 0.592611 0.000000
1.000000 0.591200 0.000000
1.000000 0.589788 0.000000
1.000000 0.589702 0.000000
1.000000 0.589702 0.000000
1.000000 0.589702 0.000000
0.000000 0.644612 0.000000
0.000000 0.644612 0.000000
0.000000 0.644612 0.000000
0.000000 0.644527 0.000000
0.000000 0.643144 0.000000
0.014713 0.641760 0.000000
0.058119 0.640377 0.000000
0.101524 0.638993 0.000000
0.144930 0.637610 0.000000
0.188335 0.636226 0.000000
0.231741 0.634842 0.000000
0.275146 0.633459 0.000000
0.318552 0.632075 0.000000
0.361957 0.630692 0.000000
0.405363 0.629308 0.000000
0.448768 0.627925 0.000000
0.492174 0.626541 0.000000
0.535579 0.625157 0.000000
0.578985 0.623774 0.000000
0.622390 0.622390 0.000000
0.665796 0.621007 0.000000
0.709201 0.619623 0.000000
0.752607 0.618240 0.000000
0.796012 0.616856 0.000000
0.839418 0.615473 0.000000
0.882823 0.614089 0.000000
0.926229 0.612705 0.000000
1.000000 0.633548 0.000000
1.000000 0.632137 0.000000
1.000000 0.630726 0.000000
1.000000 0.630639 0.000000
1.000000 0.630639 0.000000
1.000000 0.630639 0.000000
0.000000 0.684747 0.000000
0.000000 0.684747 0.000000
0.000000 0.684747 0.000000
0.000000 0.684662 0.000000
0.000000 0.683278 0.000000
0.010059 0.681895 0.000000
0.053464 0.680511 0.000000
0.096870 0.679128 0.000000
0.140275 0.677744 0.000000
0.183681 0.676361 0.000000
0.227086 0.674977 0.000000
0.270492 0.673594 0.000000
0.313897 0.672210 0.000000
0.357303 0.670826 0.000000
0.400708 0.669443 0.000000
0.444114 0.668059 0.000000
0.487519 0.666676 0.000000
0.530925 0.665292 0.000000
0.574330 0.663909 0.000000
0.617736 0.662525 0.000000
0.661141 0.661141 0.000000
0.704547 0.659758 0.000000
0.747952 0.658374 0.000000
0.791358 0.656991 0.000000
0.834763 0.655607 0.000000
0.878169 0.654224 0.000000
0.921574 0.652840 0.000000
0.964980 0.651457 0.000000
1.000000 0.673074 0.000000
1.000000 0.671663 0.000000
1.000000 0.671577 0.000000
1.000000 0.671577 0.000000
1.000000 0.671577 0.000000
0.000000 0.724881 0.000000
0.000000 0.724881 0.000000
0.000000 0.724881 0.000000
0.000000 0.724797 0.000000
0.000000 0.723413 0.000000
0.005405 0.722030 0.000000
0.048810 0.720646 0.000000
0.092216 0.719262 0.000000
0.135621 0.717879 0.000000
0.179027 0.716495 0.000000
0.222432 0.715112 0.000000
0.265838 0.713728 0.000000
0.309243 0.712345 0.000000
0.352649 0.710961 0.000000
0.396054 0.709577 0.000000
0.439460 0.708194 0.000000
0.482865 0.706810 0.000000
0.526271 0.705427 0.000000
0.569676 0.704043 0.000000
0.613082 0.702660 0.000000
0.656487 0.701276 0.000000
0.699893 0.699893 0.000000
0.743298 0.698509 0.000000
0.786704 0.697125 0.000000
0.830109 0.695742 0.000000
0.873515 0.694358 0.000000
0.916920 0.692975 0.000000
0.960326 0.691591 0.000000
1.000000 0.690208 0.000000
1.000000 0.688824 0.000000
1.000000 0.712514 0.000000
1.000000 0.712514 0.000000
1.000000 0.712514 0.000000
0.000000 0.765016 0.000000
0.000000 0.765016 0.000000
0.000000 0.765016 0.000000
0.000000 0.764931 0.000000
0.000000 0.763548 0.000000
0.000750 0.762164 0.000000
0.044156 0.760781 0.000000
0.087561 0.759397 0.000000
0.130967 0.758014 0.000000
0.174372 0.756630 0.000000
0.217778 0.755246 0.000000
0.261183 0.753863 0.000000
0.304589 0.752479 0.000000
0.347994 0.751096 0.000000
0.391400 0.749712 0.000000
0.434805 0.748329 0.000000
0.478211 0.746945 0.000000
0.521616 0.745561 0.000000
0.565022 0.744178 0.000000
0.608427 0.742794 0.000000
0.651833 0.741411 0.000000
0.695238 0.740027 0.000000
0.738644 0.738644 0.000000
0.782049 0.737260 0.000000
0.825455 0.735877 0.000000
0.868860 0.734493 0.000000
0.912266 0.733109 0.000000
0.955671 0.731726 0.000000
0.999077 0.730342 0.000000
1.000000 0.728959 0.000000
1.000000 0.728874 0.000000
1.000000 0.753452 0.000000
1.000000 0.753452 0.000000
0.000000 0.805151 0.000000
0.000000 0.805151 0.000000
0.000000 0.805151 0.000000
0.000000 0.805066 0.000000
0.000000 0.803682 0.000000
0.000000 0.802299 0.000000
0.039501 0.800915 0.000000
0.082907 0.799532 0.000000
0.126312 0.798148 0.000000
0.169718 0.796765 0.000000
0.213123 0.795381 0.000000
0.256529 0.793998 0.000000
0.299934 0.792614 0.000000
0.343340 0.791230 0.000000
0.386745 0.789847 0.000000
0.430151 0.788463 0.000000
0.473556 0.787080 0.000000
0.516962 0.785696 0.000000
0.560367 0.784313 0.000000
0.603773 0.782929 0.000000
0.647178 0.781545 0.000000
0.690584 0.780162 0.000000
0.733989 0.778778 0.000000
0.777395 0.777395 0.000000
0.820800 0.776011 0.000000
0.864206 0.774628 0.000000
0.907611 0.773244 0.000000
0.951017 0.771861 0.000000
0.994422 0.770477 0.000000
1.000000 0.769093 0.000000
1.000000 0.769009 0.000000
1.000000 0.769009 0.000000
1.000000 0.794389 0.000000
0.000000 0.845285 0.000000
0.000000 0.845285 0.000000
0.000000 0.845285 0.000000
0.000000 0.845201 0.000000
0.000000 0.843817 0.000000
0.000000 0.842434 0.000000
0.034847 0.841050 0.000000
0.078252 0.839666 0.000000
0.121658 0.838283 0.000000
0.165063 0.836899 0.000000
0.208469 0.835516 0.000000
0.251874 0.834132 0.000000
0.295280 0.832749 0.000000
0.338685 0.831365 0.000000
0.382091 0.829982 0.000000
0.425496 0.828598 0.000000
0.468902 0.827214 0.000000
0.512307 0.825831 0.000000
0.555713 0.824447 0.000000
0.599118 0.823064 0.000000
0.642524 0.821680 0.000000
0.685929 0.820297 0.000000
0.729335 0.818913 0.000000
0.772740 0.817529 0.000000
0.816146 0.816146 0.000000
0.859551 0.814762 0.000000
0.902957 0.813379 0.000000
0.946362 0.811995 0.000000
0.989768 0.810612 0.000000
1.000000 0.809228 0.000000
1.000000 0.809143 0.000000
1.000000 0.809143 0.000000
1.000000 0.809143 0.000000
0.000000 0.885420 0.000000
0.000000 0.885420 0.000000
0.000000 0.885420 0.000000
0.000000 0.885335 0.000000
0.000000 0.883952 0.000000
0.000000 0.882568 0.000000
0.030192 0.881185 0.000000
0.073598 0.879801 0.000000
0.117004 0.878418 0.000000
0.160409 0.877034 0.000000
0.203815 0.875650 0.000000
0.247220 0.874267 0.000000
0.290626 0.872883 0.000000
0.334031 0.871500 0.000000
0.377437 0.870116 0.000000
0.420842 0.868733 0.000000
0.464248 0.867349 0.000000
0.507653 0.865966 0.000000
0.551059 0.864582 0.000000
0.594464 0.863198 0.000000
0.637870 0.861815 0.000000
0.681275 0.860431 0.000000
0.724681 0.859048 0.000000
0.768086 0.857664 0.000000
0.811492 0.856281 0.000000
0.854897 0.854897 0.000000
0.898303 0.853513 0.000000
0.941708 0.852130 0.000000
0.985114 0.850746 0.000000
1.000000 0.849363 0.000000
1.000000 0.849278 0.000000
1.000000 0.849278 0.000000
1.000000 0.849278 0.000000
0.000000 0.925555 0.000000
0.000000 0.925555 0.000000
0.000000 0.925555 0.000000
0.000000 0.925470 0.000000
0.000000 0.924086 0.000000
0.000000 0.922703 0.000000
0.025538 0.921319 0.000000
0.068944 0.919936 0.000000
0.112349 0.918552 0.000000
0.155755 0.917169 0.000000
0.199160 0.915785 0.000000
0.242566 0.914402 0.000000
0.285971 0.913018 0.000000
0.329377 0.911634 0.000000
0.372782 0.910251 0.000000
0.416188 0.908867 0.000000
0.459593 0.907484 0.000000
0.502999 0.906100 0.000000
0.546404 0.904717 0.000000
