library/cube/Editorial_Punch_001.cube
# CINEGRADE LAB — Premium Cinematic LUT
# Title: Editorial Punch
# Category: Hyperreal Fashion
# Description: Punchy, saturated, with flawless skin rendering for fashion editorials
# Mood: Bold, vibrant, high-impact
# Variant: 2
# Generated: 2026-05-21T16:12:20.507147
TITLE "Editorial Punch"
LUT_3D_SIZE 9
0.000000 0.000000 0.000000
0.046063 0.000000 0.000000
0.219685 0.000000 0.000000
0.393307 0.000000 0.000000
0.566929 0.000000 0.000000
0.740551 0.000000 0.000000
0.914173 0.000000 0.000000
1.000000 0.000000 0.000000
1.000000 0.000000 0.000000
0.000000 0.042592 0.000000
0.041124 0.041124 0.000000
0.248167 0.046301 0.000000
0.432641 0.040656 0.000000
0.617114 0.035011 0.000000
0.801587 0.029366 0.000000
0.909234 0.013452 0.000000
1.000000 0.007918 0.000000
1.000000 0.006450 0.000000
0.000000 0.203131 0.000000
0.022506 0.201662 0.000000
0.196128 0.196128 0.000000
0.412859 0.204406 0.000000
0.597333 0.198761 0.000000
0.781806 0.193116 0.000000
0.966280 0.187471 0.000000
1.000000 0.181826 0.000000
1.000000 0.180328 0.000000
0.000000 0.363669 0.000000
0.003889 0.362201 0.000000
0.177511 0.356667 0.000000
0.351133 0.351133 0.000000
0.524755 0.345598 0.000000
0.762025 0.356865 0.000000
0.946498 0.351220 0.000000
1.000000 0.345575 0.000000
1.000000 0.344078 0.000000
0.000000 0.524208 0.000000
0.000000 0.522740 0.000000
0.158893 0.517205 0.000000
0.332515 0.511671 0.000000
0.506137 0.506137 0.000000
0.679759 0.500603 0.000000
0.926717 0.514970 0.000000
1.000000 0.509325 0.000000
1.000000 0.507827 0.000000
0.000000 0.684747 0.000000
0.000000 0.683278 0.000000
0.140275 0.677744 0.000000
0.313897 0.672210 0.000000
0.487519 0.666676 0.000000
0.661141 0.661141 0.000000
0.834763 0.655607 0.000000
1.000000 0.673074 0.000000
1.000000 0.671577 0.000000
0.000000 0.845285 0.000000
0.000000 0.843817 0.000000
0.121658 0.838283 0.000000
0.295280 0.832749 0.000000
0.468902 0.827214 0.000000
0.642524 0.821680 0.000000
0.816146 0.816146 0.000000
0.989768 0.810612 0.000000
1.000000 0.809143 0.000000
0.000000 1.000000 0.000000
0.000000 1.000000 0.000000
0.103040 0.998822 0.000000
0.276662 0.993287 0.000000
0.450284 0.987753 0.000000
0.623906 0.982219 0.000000
0.797528 0.976685 0.000000
0.971150 0.971150 0.000000
1.000000 0.969682 0.000000
0.000000 1.000000 0.000000
0.000000 1.000000 0.000000
0.098101 1.000000 0.000000
0.271723 1.000000 0.000000
0.445345 1.000000 0.000000
0.618967 1.000000 0.000000
0.792589 1.000000 0.000000
0.966211 1.000000 0.000000
1.000000 1.000000 0.000000
0.000000 0.000000 0.047033
0.045564 0.000000 0.045564
0.219186 0.000000 0.040030
0.392808 0.000000 0.034496
0.566430 0.000000 0.028962
0.740052 0.000000 0.023427
0.913674 0.000000 0.017893
1.000000 0.000000 0.012359
1.000000 0.000000 0.010891
0.000000 0.042093 0.042093
0.040625 0.040625 0.040625
0.214247 0.035091 0.035091
0.387869 0.029557 0.029557
0.561491 0.024022 0.024022
0.735113 0.018488 0.018488
0.908735 0.012954 0.012954
1.000000 0.007420 0.007420
1.000000 0.005951 0.005951
0.000000 0.202632 0.023476
0.022007 0.201164 0.022007
0.195629 0.195629 0.016473
0.412330 0.203897 0.010939
0.596803 0.198252 0.005405
0.781276 0.192607 0.000000
0.965750 0.186962 0.000000
1.000000 0.167958 0.000000
1.000000 0.166490 0.000000
0.000000 0.363171 0.004858
0.003390 0.361702 0.003390
0.177012 0.356168 0.000000
0.350634 0.350634 0.000000
0.577022 0.362002 0.000000
0.761495 0.356357 0.000000
0.945969 0.350712 0.000000
1.000000 0.345067 0.000000
1.000000 0.343569 0.000000
0.000000 0.523709 0.000000
0.000000 0.522241 0.000000
0.158394 0.516707 0.000000
0.332016 0.511173 0.000000
0.505638 0.505638 0.000000
0.679260 0.500104 0.000000
0.926188 0.514461 0.000000
1.000000 0.508816 0.000000
1.000000 0.507319 0.000000
0.000000 0.684248 0.000000
0.000000 0.682780 0.000000
0.139777 0.677246 0.000000
0.313399 0.671711 0.000000
0.487021 0.666177 0.000000
0.660643 0.660643 0.000000
0.834265 0.655109 0.000000
1.000000 0.672566 0.000000
1.000000 0.671068 0.000000
0.000000 0.844787 0.000000
0.000000 0.843318 0.000000
0.121159 0.837784 0.000000
0.294781 0.832250 0.000000
0.468403 0.826716 0.000000
0.642025 0.821182 0.000000
0.815647 0.815647 0.000000
0.989269 0.810113 0.000000
1.000000 0.834818 0.000000
0.000000 1.000000 0.000000
0.000000 1.000000 0.000000
0.102542 0.998323 0.000000
0.276164 0.992789 0.000000
0.449786 0.987254 0.000000
0.623408 0.981720 0.000000
0.797030 0.976186 0.000000
0.970652 0.970652 0.000000
1.000000 0.969183 0.000000
0.000000 1.000000 0.000000
0.000000 1.000000 0.000000
0.097602 1.000000 0.000000
0.271224 1.000000 0.000000
0.444846 1.000000 0.000000
0.618468 1.000000 0.000000
0.792090 1.000000 0.000000
0.965712 1.000000 0.000000
1.000000 1.000000 0.000000
0.000000 0.000000 0.224309
0.043685 0.000000 0.222841
0.217307 0.000000 0.217307
0.390929 0.000000 0.211773
0.564551 0.000000 0.206238
0.738173 0.000000 0.200704
0.911795 0.000000 0.195170
1.000000 0.000000 0.189636
1.000000 0.000000 0.188167
0.000000 0.040214 0.219370
0.038746 0.038746 0.217902
0.212368 0.033211 0.212368
0.385990 0.027677 0.206833
0.559612 0.022143 0.201299
0.733234 0.016609 0.195765
0.906856 0.011074 0.190231
1.000000 0.005540 0.184696
1.000000 0.004072 0.183228
0.000000 0.200753 0.200753
0.020128 0.199284 0.199284
0.193750 0.193750 0.193750
0.367372 0.188216 0.188216
0.540994 0.182682 0.182682
0.714616 0.177147 0.177147
0.888238 0.171613 0.171613
1.000000 0.166079 0.166079
1.000000 0.164611 0.164611
0.000000 0.361291 0.182135
0.001510 0.359823 0.180667
0.175132 0.354289 0.175132
0.348754 0.348754 0.169598
0.575025 0.360085 0.164064
0.759498 0.354440 0.158530
0.943972 0.348795 0.152995
1.000000 0.343150 0.147461
1.000000 0.325149 0.145993
0.000000 0.521830 0.163517
0.000000 0.520362 0.162049
0.156515 0.514827 0.156515
0.330137 0.509293 0.150981
0.503759 0.503759 0.145446
0.739717 0.518189 0.139912
0.924191 0.512544 0.134378
1.000000 0.506899 0.128844
1.000000 0.505402 0.127375
0.000000 0.682369 0.144900
0.000000 0.680900 0.143432
0.137897 0.675366 0.137897
0.311519 0.669832 0.132363
0.485141 0.664298 0.126829
0.658763 0.658763 0.121295
0.832385 0.653229 0.115760
1.000000 0.670649 0.110226
1.000000 0.669151 0.108758
0.000000 0.842907 0.126282
0.000000 0.841439 0.124814
0.119280 0.835905 0.119280
0.292902 0.830371 0.113746
0.466524 0.824836 0.108211
0.640146 0.819302 0.102677
0.813768 0.813768 0.097143
0.987390 0.808234 0.091609
1.000000 0.832901 0.090140
0.000000 1.000000 0.107665
0.000000 1.000000 0.106196
0.100662 0.996444 0.100662
0.274284 0.990909 0.095128
0.447906 0.985375 0.089594
0.621528 0.979841 0.084060
0.795150 0.974307 0.078525
0.968772 0.968772 0.072991
1.000000 0.967304 0.071523
0.000000 1.000000 0.102725
0.000000 1.000000 0.101257
0.095723 1.000000 0.095723
0.269345 1.000000 0.090189
0.442967 1.000000 0.084654
0.616589 1.000000 0.079120
0.790211 1.000000 0.073586
0.963833 1.000000 0.068052
1.000000 1.000000 0.066583
0.000000 0.000000 0.401586
0.041805 0.000000 0.400118
0.215427 0.000000 0.394584
0.389049 0.000000 0.389049
0.562671 0.000000 0.383515
0.736293 0.000000 0.377981
0.909915 0.000000 0.372447
1.000000 0.000000 0.366912
1.000000 0.000000 0.365444
0.000000 0.038334 0.396647
0.036866 0.036866 0.395179
0.210488 0.031332 0.389644
0.384110 0.025798 0.384110
0.557732 0.020263 0.378576
0.731354 0.014729 0.373042
0.904976 0.009195 0.367507
1.000000 0.003661 0.361973
1.000000 0.002192 0.360505
0.000000 0.198873 0.378029
0.018249 0.197405 0.376561
0.191871 0.191871 0.371027
0.365493 0.186336 0.365493
0.539115 0.180802 0.359958
0.712737 0.175268 0.354424
0.886359 0.169734 0.348890
1.000000 0.164199 0.343356
1.000000 0.162731 0.341887
0.000000 0.359412 0.359412
0.000000 0.357943 0.357943
0.173253 0.352409 0.352409
0.346875 0.346875 0.346875
0.520497 0.341341 0.341341
0.694119 0.335807 0.335807
0.867741 0.330272 0.330272
1.000000 0.324738 0.324738
1.000000 0.323270 0.323270
0.000000 0.519950 0.340794
0.000000 0.518482 0.339326
0.154635 0.512948 0.333792
0.328257 0.507414 0.328257
0.501879 0.501879 0.322723
0.737720 0.516272 0.317189
0.922194 0.510627 0.311655
1.000000 0.504982 0.306120
1.000000 0.503485 0.304652
0.000000 0.680489 0.322177
0.000000 0.679021 0.320708
0.136018 0.673487 0.315174
0.309640 0.667952 0.309640
0.483262 0.662418 0.304106
0.656884 0.656884 0.298571
0.902413 0.674377 0.293037
1.000000 0.668732 0.287503
1.000000 0.667234 0.286035
0.000000 0.841028 0.303559
0.000000 0.839560 0.302091
0.117400 0.834025 0.296557
0.291022 0.828491 0.291022
0.464644 0.822957 0.285488
0.638266 0.817423 0.279954
0.811888 0.811888 0.274420
0.985510 0.806354 0.268885
1.000000 0.830984 0.267417
0.000000 1.000000 0.284942
0.000000 1.000000 0.283473
0.098783 0.994564 0.277939
0.272405 0.989030 0.272405
0.446027 0.983496 0.266871
0.619649 0.977961 0.261336
0.793271 0.972427 0.255802
0.966893 0.966893 0.250268
1.000000 0.965425 0.248800
0.000000 1.000000 0.280002
0.000000 1.000000 0.278534
0.093843 1.000000 0.273000
0.267465 1.000000 0.267465
0.441087 1.000000 0.261931
0.614709 1.000000 0.256397
0.788331 1.000000 0.250863
0.961953 1.000000 0.245328
1.000000 1.000000 0.243860
0.000000 0.000000 0.578863
0.039926 0.000000 0.577395
0.213548 0.000000 0.571860
0.387170 0.000000 0.566326
0.560792 0.000000 0.560792
0.734414 0.000000 0.555258
0.908036 0.000000 0.549724
1.000000 0.000000 0.544189
1.000000 0.000000 0.542721
0.000000 0.036455 0.573924
0.034987 0.034987 0.572455
0.208609 0.029452 0.566921
0.382231 0.023918 0.561387
0.555853 0.018384 0.555853
0.729475 0.012850 0.550318
0.903097 0.007315 0.544784
1.000000 0.001781 0.539250
1.000000 0.000313 0.537782
0.000000 0.196994 0.555306
0.016369 0.195525 0.553838
0.189991 0.189991 0.548304
0.363613 0.184457 0.542769
0.537235 0.178923 0.537235
0.710857 0.173388 0.531701
0.884479 0.167854 0.526167
1.000000 0.162320 0.520632
1.000000 0.160852 0.519164
0.000000 0.357532 0.536689
0.000000 0.356064 0.535220
0.171374 0.350530 0.529686
0.344996 0.344996 0.524152
0.518618 0.339461 0.518618
0.692240 0.333927 0.513083
0.865862 0.328393 0.507549
1.000000 0.322859 0.502015
1.000000 0.321390 0.500547
0.000000 0.518071 0.518071
0.000000 0.516603 0.516603
0.152756 0.511068 0.511068
0.326378 0.505534 0.505534
0.500000 0.500000 0.500000
0.673622 0.494466 0.494466
0.847244 0.488932 0.488932
1.000000 0.483397 0.483397
1.000000 0.481929 0.481929
0.000000 0.678610 0.499453
0.000000 0.677141 0.497985
0.134138 0.671607 0.492451
0.307760 0.666073 0.486917
0.481382 0.660539 0.481382
0.655004 0.655004 0.475848
0.900416 0.672460 0.470314
1.000000 0.666815 0.464780
1.000000 0.665317 0.463311
0.000000 0.839148 0.480836
0.000000 0.837680 0.479368
0.115521 0.832146 0.473833
0.289143 0.826612 0.468299
0.462765 0.821077 0.462765
0.636387 0.815543 0.457231
0.810009 0.810009 0.451696
1.000000 0.830564 0.446162
1.000000 0.829067 0.444694
0.000000 0.999687 0.462218
0.000000 0.998219 0.460750
0.096903 0.992685 0.455216
0.270525 0.987150 0.449682
0.444147 0.981616 0.444147
0.617769 0.976082 0.438613
0.791391 0.970548 0.433079
0.965013 0.965013 0.427545
1.000000 0.963545 0.426076
0.000000 1.000000 0.457279
0.000000 1.000000 0.455811
0.091964 1.000000 0.450276
0.265586 1.000000 0.444742
0.439208 1.000000 0.439208
0.612830 1.000000 0.433674
0.786452 1.000000 0.428140
0.960074 1.000000 0.422605
1.000000 1.000000 0.421137
0.000000 0.000000 0.756140
0.038047 0.000000 0.754672
0.211669 0.000000 0.749137
0.385291 0.000000 0.743603
0.558913 0.000000 0.738069
0.732535 0.000000 0.732535
0.906157 0.000000 0.727000
1.000000 0.000000 0.721466
1.000000 0.000000 0.719998
0.000000 0.034575 0.751200
0.033107 0.033107 0.749732
0.206729 0.027573 0.744198
0.380351 0.022039 0.738664
0.553973 0.016504 0.733129
0.727595 0.010970 0.727595
0.901217 0.005436 0.722061
1.000000 0.000000 0.716527
1.000000 0.000000 0.715058
0.000000 0.195114 0.732583
0.014490 0.193646 0.731115
0.188112 0.188112 0.725580
0.361734 0.182577 0.720046
0.535356 0.177043 0.714512
0.708978 0.171509 0.708978
0.882600 0.165975 0.703443
1.000000 0.160440 0.697909
1.000000 0.158972 0.696441
0.000000 0.355653 0.713965
0.000000 0.354185 0.712497
0.169494 0.348650 0.706963
0.343116 0.343116 0.701429
0.516738 0.337582 0.695894
0.690360 0.332048 0.690360
0.863982 0.326513 0.684826
1.000000 0.320979 0.679292
1.000000 0.319511 0.677823
0.000000 0.516192 0.695348
0.000000 0.514723 0.693880
0.150877 0.509189 0.688345
0.324499 0.503655 0.682811
0.498121 0.498121 0.677277
0.671743 0.492586 0.671743
0.845365 0.487052 0.666208
1.000000 0.481518 0.660674
1.000000 0.480050 0.659206
0.000000 0.676730 0.676730
0.000000 0.675262 0.675262
0.132259 0.669728 0.669728
0.305881 0.664193 0.664193
0.479503 0.658659 0.658659
0.653125 0.653125 0.653125
0.826747 0.647591 0.647591
1.000000 0.642057 0.642057
1.000000 0.640588 0.640588
0.000000 0.837269 0.658113
0.000000 0.835801 0.656644
0.113641 0.830266 0.651110
0.287263 0.824732 0.645576
0.460885 0.819198 0.640042
0.634507 0.813664 0.634507
0.808129 0.808129 0.628973
1.000000 0.828647 0.623439
1.000000 0.827149 0.621971
0.000000 0.997808 0.639495
0.000000 0.996339 0.638027
0.095024 0.990805 0.632493
0.268646 0.985271 0.626958
0.442268 0.979737 0.621424
0.615890 0.974202 0.615890
0.789512 0.968668 0.610356
0.963134 0.963134 0.604821
1.000000 0.990899 0.603353
0.000000 1.000000 0.634556
0.000000 1.000000 0.633088
0.090085 1.000000 0.627553
0.263707 1.000000 0.622019
0.437329 1.000000 0.616485
0.610951 1.000000 0.610951
0.784573 1.000000 0.605416
0.958195 1.000000 0.599882
1.000000 1.000000 0.598414
0.000000 0.000000 0.933417
0.036167 0.000000 0.931948
0.209789 0.000000 0.926414
0.383411 0.000000 0.920880
0.557033 0.000000 0.915346
0.730655 0.000000 0.909811
0.904277 0.000000 0.904277
1.000000 0.000000 0.898743
1.000000 0.000000 0.897275
0.000000 0.032696 0.928477
0.031228 0.031228 0.927009
0.204850 0.025693 0.921475
0.378472 0.020159 0.915940
0.552094 0.014625 0.910406
0.725716 0.009091 0.904872
0.899338 0.003557 0.899338
1.000000 0.000000 0.893804
1.000000 0.000000 0.892335
0.000000 0.193235 0.909860
0.012610 0.191766 0.908391
0.186232 0.186232 0.902857
0.359854 0.180698 0.897323
0.533476 0.175164 0.891789
0.707098 0.169629 0.886254
0.880720 0.164095 0.880720
1.000000 0.158561 0.875186
1.000000 0.157093 0.873718
0.000000 0.353773 0.891242
0.000000 0.352305 0.889774
0.167615 0.346771 0.884240
0.341237 0.341237 0.878705
0.514859 0.335702 0.873171
0.688481 0.330168 0.867637
0.862103 0.324634 0.862103
1.000000 0.319100 0.856568
1.000000 0.317631 0.855100
0.000000 0.514312 0.872625
0.000000 0.512844 0.871156
0.148997 0.507310 0.865622
0.322619 0.501775 0.860088
0.496241 0.496241 0.854554
0.669863 0.490707 0.849019
0.843485 0.485173 0.843485
1.000000 0.479638 0.837951
1.000000 0.478170 0.836483
0.000000 0.674851 0.854007
0.000000 0.673383 0.852539
0.130380 0.667848 0.847005
0.304002 0.662314 0.841470
0.477624 0.656780 0.835936
0.651246 0.651246 0.830402
0.824868 0.645711 0.824868
0.998490 0.640177 0.819333
1.000000 0.638709 0.817865
0.000000 0.835389 0.835389
0.000000 0.833921 0.833921
0.111762 0.828387 0.828387
0.285384 0.822853 0.822853
0.459006 0.817318 0.817318
0.632628 0.811784 0.811784
0.806250 0.806250 0.806250
0.979872 0.800716 0.800716
1.000000 0.799247 0.799247
0.000000 0.995928 0.816772
0.000000 0.994460 0.815304
0.093144 0.988926 0.809769
0.266766 0.983391 0.804235
0.440388 0.977857 0.798701
0.614010 0.972323 0.793167
0.787632 0.966789 0.787632
0.961254 0.961254 0.782098
1.000000 0.988982 0.780630
0.000000 1.000000 0.811833
0.000000 1.000000 0.810364
0.088205 1.000000 0.804830
0.261827 1.000000 0.799296
0.435449 1.000000 0.793762
0.609071 1.000000 0.788227
0.782693 1.000000 0.782693
0.956315 1.000000 0.777159
1.000000 1.000000 0.775691
0.000000 0.000000 1.000000
0.034288 0.000000 1.000000
0.207910 0.000000 1.000000
0.381532 0.000000 1.000000
0.555154 0.000000 1.000000
0.728776 0.000000 1.000000
0.902398 0.000000 1.000000
1.000000 0.000000 1.000000
1.000000 0.000000 1.000000
0.000000 0.030817 1.000000
0.029348 0.029348 1.000000
0.202970 0.023814 1.000000
0.376592 0.018280 1.000000
0.550214 0.012746 1.000000
0.723836 0.007211 1.000000
0.897458 0.001677 1.000000
1.000000 0.000000 1.000000
1.000000 0.000000 1.000000
0.000000 0.191355 1.000000
0.010731 0.189887 1.000000
0.184353 0.184353 1.000000
0.357975 0.178818 1.000000
0.531597 0.173284 1.000000
0.705219 0.167750 1.000000
0.878841 0.162216 1.000000
1.000000 0.156682 1.000000
1.000000 0.155213 1.000000
0.000000 0.351894 1.000000
0.000000 0.350426 1.000000
0.165735 0.344891 1.000000
0.339357 0.339357 1.000000
0.512979 0.333823 1.000000
0.686601 0.328289 1.000000
0.860223 0.322754 1.000000
1.000000 0.317220 1.000000
1.000000 0.315752 1.000000
0.000000 0.512433 1.000000
0.000000 0.510964 1.000000
0.147118 0.505430 1.000000
0.320740 0.499896 1.000000
0.494362 0.494362 1.000000
0.667984 0.488827 1.000000
0.841606 0.483293 1.000000
1.000000 0.477759 1.000000
1.000000 0.476291 1.000000
0.000000 0.672971 1.000000
0.000000 0.671503 1.000000
0.128500 0.665969 1.000000
0.302122 0.660435 1.000000
0.475744 0.654900 1.000000
0.649366 0.649366 1.000000
0.822988 0.643832 1.000000
0.996610 0.638298 0.996610
1.000000 0.636829 0.995142
0.000000 0.833510 1.000000
0.000000 0.832042 1.000000
0.109883 0.826508 1.000000
0.283505 0.820973 1.000000
0.457127 0.815439 0.994595
0.630749 0.809905 0.989061
0.804371 0.804371 0.983527
0.977993 0.798836 0.977993
1.000000 0.797368 0.976524
0.000000 0.994049 0.994049
0.000000 0.992580 0.992580
0.091265 0.987046 0.987046
0.264887 0.981512 0.981512
0.438509 0.975978 0.975978
0.612131 0.970443 0.970443
0.785753 0.964909 0.964909
0.959375 0.959375 0.959375
1.000000 0.957907 0.957907
0.000000 1.000000 0.989109
0.000000 1.000000 0.987641
0.086326 1.000000 0.982107
0.259948 1.000000 0.976573
0.433570 1.000000 0.971038
0.607192 1.000000 0.965504
0.780814 1.000000 0.959970
0.954436 1.000000 0.954436
1.000000 1.000000 0.952967
0.000000 0.000000 1.000000
0.033789 0.000000 1.000000
0.207411 0.000000 1.000000
0.381033 0.000000 1.000000
0.554655 0.000000 1.000000
0.728277 0.000000 1.000000
0.901899 0.000000 1.000000
1.000000 0.000000 1.000000
1.000000 0.000000 1.000000
0.000000 0.030318 1.000000
0.028850 0.028850 1.000000
0.202472 0.023315 1.000000
0.376094 0.017781 1.000000
0.549716 0.012247 1.000000
0.723338 0.006713 1.000000
0.896960 0.001178 1.000000
1.000000 0.000000 1.000000
1.000000 0.000000 1.000000
0.000000 0.190857 1.000000
0.010232 0.189388 1.000000
0.183854 0.183854 1.000000
0.357476 0.178320 1.000000
0.531098 0.172786 1.000000
0.704720 0.167251 1.000000
0.878342 0.161717 1.000000
1.000000 0.156183 1.000000
1.000000 0.154715 1.000000
0.000000 0.351395 1.000000
0.000000 0.349927 1.000000
0.165237 0.344393 1.000000
0.338859 0.338859 1.000000
0.512481 0.333324 1.000000
0.686103 0.327790 1.000000
0.859725 0.322256 1.000000
1.000000 0.316722 1.000000
1.000000 0.315253 1.000000
0.000000 0.511934 1.000000
0.000000 0.510466 1.000000
0.146619 0.504931 1.000000
0.320241 0.499397 1.000000
0.493863 0.493863 1.000000
0.667485 0.488329 1.000000
0.841107 0.482795 1.000000
1.000000 0.477260 1.000000
1.000000 0.475792 1.000000
0.000000 0.672473 1.000000
0.000000 0.671004 1.000000
0.128001 0.665470 1.000000
0.301623 0.659936 1.000000
0.475245 0.654402 1.000000
0.648867 0.648867 1.000000
0.822489 0.643333 1.000000
0.996111 0.637799 1.000000
1.000000 0.636331 1.000000
0.000000 0.833011 1.000000
0.000000 0.831543 1.000000
0.109384 0.826009 1.000000
0.283006 0.820475 1.000000
0.456628 0.814940 1.000000
0.630250 0.809406 1.000000
0.803872 0.803872 1.000000
0.977494 0.798338 1.000000
1.000000 0.796869 1.000000
0.000000 0.993550 1.000000
0.000000 0.992082 1.000000
0.090766 0.986548 1.000000
0.264388 0.981013 1.000000
0.438010 0.975479 1.000000
0.611632 0.969945 1.000000
0.785254 0.964411 1.000000
0.958876 0.958876 1.000000
1.000000 0.957408 1.000000
0.000000 1.000000 1.000000
0.000000 1.000000 1.000000
0.085827 1.000000 1.000000
0.259449 1.000000 1.000000
0.433071 1.000000 1.000000
0.606693 1.000000 1.000000
0.780315 1.000000 1.000000
0.953937 1.000000 1.000000
1.000000 1.000000 1.000000
