library/cube/Electric_Avenue_002.cube
# CINEGRADE LAB — Premium Cinematic LUT
# Title: Electric Avenue
# Category: Night Neon
# Description: Cyberpunk-inspired with neon glow enhancement and deep shadow work
# Mood: Electric, urban, futuristic
# Variant: 3
# Generated: 2026-05-21T16:12:22.492031
TITLE "Electric Avenue"
LUT_3D_SIZE 5
0.000000 0.012872 0.015747
0.141648 0.007461 0.010039
0.548685 0.000000 0.000000
0.971193 0.000000 0.000000
0.992397 0.000000 0.000000
0.000000 0.138037 0.000000
0.107757 0.133203 0.000000
0.569110 0.118784 0.000000
1.000000 0.104975 0.000000
1.000000 0.103393 0.000000
0.000000 0.489385 0.000000
0.077639 0.484111 0.000000
0.437111 0.472376 0.000000
1.000000 0.454489 0.000000
1.000000 0.452891 0.000000
0.000000 0.838280 0.000000
0.046157 0.832944 0.000000
0.415998 0.821027 0.000000
0.790456 0.809167 0.000000
1.000000 0.801639 0.000000
0.000000 1.000000 0.000000
0.027803 1.000000 0.000000
0.403540 1.000000 0.000000
0.781331 1.000000 0.000000
1.000000 1.000000 0.000000
0.000000 0.010734 0.191606
0.141001 0.005259 0.192191
0.550697 0.000000 0.178001
0.975538 0.000000 0.163526
0.996384 0.000000 0.160721
0.000000 0.177690 0.191028
0.107114 0.131378 0.135758
0.570403 0.116591 0.156469
1.000000 0.102769 0.141942
1.000000 0.101236 0.139760
0.000000 0.644192 0.135751
0.076863 0.482228 0.093478
0.437581 0.470511 0.081871
1.000000 0.452293 0.099284
1.000000 0.450758 0.097739
0.000000 0.836390 0.057834
0.045232 0.831113 0.053073
0.415877 0.819240 0.041653
0.790876 0.807432 0.030231
1.000000 0.799638 0.057947
0.000000 1.000000 0.033508
0.026677 1.000000 0.029000
0.402783 1.000000 0.017768
0.780683 1.000000 0.006628
1.000000 1.000000 0.000000
0.000000 0.005654 0.677785
0.109572 0.002143 0.559251
0.549593 0.000000 0.678874
0.976727 0.000000 0.661837
0.997229 0.000000 0.656709
0.000000 0.130913 0.647785
0.103022 0.126133 0.639987
0.568626 0.111418 0.649619
1.000000 0.097597 0.633094
1.000000 0.096122 0.629135
0.000000 0.638419 0.675489
0.055653 0.632997 0.668281
0.435622 0.466297 0.471640
1.000000 0.447168 0.585124
1.000000 0.445703 0.582350
0.000000 1.000000 0.623477
0.018766 1.000000 0.617116
0.413346 0.815131 0.428209
0.788847 0.803380 0.416093
1.000000 0.794739 0.539625
0.000000 1.000000 0.616190
0.023196 1.000000 0.414159
0.399631 1.000000 0.402552
0.777596 1.000000 0.391175
1.000000 1.000000 0.384349
0.000000 0.001176 1.000000
0.105303 0.000000 1.000000
0.438547 0.000000 0.943078
0.978294 0.000000 1.000000
0.998385 0.000000 1.000000
0.000000 0.126311 1.000000
0.099527 0.121512 1.000000
0.450660 0.111869 0.910889
1.000000 0.092745 1.000000
1.000000 0.091278 1.000000
0.000000 0.477378 1.000000
0.068949 0.472203 1.000000
0.432007 0.460508 1.000000
1.000000 0.442218 1.000000
1.000000 0.440788 1.000000
0.000000 1.000000 1.000000
0.015182 1.000000 1.000000
0.387163 1.000000 1.000000
0.786716 0.799358 0.801404
1.000000 0.789901 1.000000
0.000000 1.000000 1.000000
0.017526 1.000000 1.000000
0.394232 1.000000 1.000000
0.774406 1.000000 0.775597
1.000000 1.000000 0.768773
0.000000 0.000390 1.000000
0.105770 0.000000 1.000000
0.439626 0.000000 1.000000
0.784816 0.000000 1.000000
1.000000 0.000000 1.000000
0.000000 0.125478 1.000000
0.099794 0.120681 1.000000
0.450965 0.109515 1.000000
0.810884 0.098191 1.000000
1.000000 0.090809 1.000000
0.000000 0.476432 1.000000
0.069032 0.471283 1.000000
0.433191 0.459597 1.000000
0.803512 0.447875 1.000000
1.000000 0.440342 1.000000
0.000000 1.000000 1.000000
0.036870 0.820276 1.000000
0.409640 0.808527 1.000000
0.785984 0.796867 1.000000
1.000000 0.789592 1.000000
0.000000 1.000000 1.000000
0.017675 1.000000 1.000000
0.394617 1.000000 1.000000
0.772571 1.000000 1.000000
1.000000 1.000000 1.000000
