library/cube/Electric_Avenue_002.cube
# CINEGRADE LAB — Premium Cinematic LUT
# Title: Electric Avenue
# Category: Night Neon
# Description: Cyberpunk-inspired with neon glow enhancement and deep shadow work
# Mood: Electric, urban, futuristic
# Variant: 3
# Generated: 2026-05-21T16:12:22.492031
TITLE "Electric Avenue"
LUT_3D_SIZE 33
0.000000 0.012872 0.015747
0.000000 0.012701 0.015538
0.000000 0.012532 0.015331
0.000000 0.012364 0.015125
0.000000 0.012197 0.014921
0.000000 0.012031 0.014718
0.042474 0.010615 0.013265
0.091927 0.009041 0.011655
0.141648 0.007461 0.010039
0.191632 0.005875 0.008416
0.241878 0.004282 0.006788
0.292382 0.002683 0.005153
0.343143 0.001078 0.003513
0.394156 0.000000 0.001866
0.445419 0.000000 0.000214
0.496930 0.000000 0.000000
0.548685 0.000000 0.000000
0.600682 0.000000 0.000000
0.652918 0.000000 0.000000
0.705390 0.000000 0.000000
0.758095 0.000000 0.000000
0.811031 0.000000 0.000000
0.864194 0.000000 0.000000
0.917583 0.000000 0.000000
0.971193 0.000000 0.000000
0.977109 0.000000 0.000000
0.979346 0.000000 0.000000
0.981566 0.000000 0.000000
0.983768 0.000000 0.000000
0.985952 0.000000 0.000000
0.988118 0.000000 0.000000
0.990267 0.000000 0.000000
0.992397 0.000000 0.000000
0.000000 0.012303 0.015051
0.000000 0.012136 0.014847
0.000000 0.011970 0.014644
0.000000 0.011806 0.014443
0.000000 0.011643 0.014243
0.000000 0.011481 0.014045
0.042940 0.010057 0.012586
0.092837 0.008475 0.010968
0.142994 0.006886 0.009344
0.193410 0.005291 0.007713
0.244081 0.003690 0.006077
0.295004 0.002083 0.004436
0.346176 0.000470 0.002788
0.397595 0.000000 0.001135
0.449258 0.000000 0.000000
0.501162 0.000000 0.000000
0.553305 0.000000 0.000000
0.605682 0.000000 0.000000
0.658293 0.000000 0.000000
0.711133 0.000000 0.000000
0.764200 0.000000 0.000000
0.817491 0.000000 0.000000
0.871004 0.000000 0.000000
0.924735 0.000000 0.000000
0.978682 0.000000 0.000000
0.984565 0.000000 0.000000
0.986743 0.000000 0.000000
0.988903 0.000000 0.000000
0.991044 0.000000 0.000000
0.993168 0.000000 0.000000
0.995274 0.000000 0.000000
0.997362 0.000000 0.000000
0.999432 0.000000 0.000000
0.000000 0.011747 0.014370
0.000000 0.011584 0.014171
0.000000 0.011422 0.013973
0.000000 0.011262 0.013777
0.000000 0.011102 0.013582
0.000000 0.010944 0.013388
0.043394 0.009513 0.011922
0.093724 0.007922 0.010297
0.144309 0.006325 0.008665
0.195145 0.004722 0.007027
0.246230 0.003113 0.005384
0.297561 0.001498 0.003735
0.349135 0.000000 0.002081
0.400949 0.000000 0.000421
0.453002 0.000000 0.000000
0.505288 0.000000 0.000000
0.557807 0.000000 0.000000
0.610555 0.000000 0.000000
0.663529 0.000000 0.000000
0.716727 0.000000 0.000000
0.770145 0.000000 0.000000
0.823782 0.000000 0.000000
0.877633 0.000000 0.000000
0.931696 0.000000 0.000000
0.985969 0.000000 0.000000
0.991820 0.000000 0.000000
0.993937 0.000000 0.000000
0.996036 0.000000 0.000000
0.998118 0.000000 0.000000
1.000000 0.000000 0.000000
1.000000 0.000000 0.000000
1.000000 0.000000 0.000000
1.000000 0.000000 0.000000
0.000000 0.011203 0.013706
0.000000 0.011044 0.013511
0.000000 0.010886 0.013318
0.000000 0.010730 0.013126
0.000000 0.010574 0.012936
0.000000 0.010420 0.012747
0.043837 0.008982 0.011275
0.094590 0.007383 0.009642
0.145591 0.005778 0.008003
0.196837 0.004167 0.006358
0.248326 0.002550 0.004708
0.300054 0.000927 0.003053
0.352019 0.000000 0.001392
0.404219 0.000000 0.000000
0.456649 0.000000 0.000000
0.509308 0.000000 0.000000
0.562193 0.000000 0.000000
0.615300 0.000000 0.000000
0.668628 0.000000 0.000000
0.722172 0.000000 0.000000
0.775931 0.000000 0.000000
0.829902 0.000000 0.000000
0.884081 0.000000 0.000000
0.938466 0.000000 0.000000
0.993055 0.000000 0.000000
0.998871 0.000000 0.000000
1.000000 0.000000 0.000000
1.000000 0.000000 0.000000
1.000000 0.000000 0.000000
1.000000 0.000000 0.000000
1.000000 0.000000 0.000000
1.000000 0.000000 0.000000
1.000000 0.000000 0.000000
0.000000 0.010673 0.013057
0.000000 0.010518 0.012867
0.000000 0.010364 0.012679
0.000000 0.010211 0.012492
0.000000 0.010059 0.012306
0.000000 0.009908 0.012122
0.044270 0.008464 0.010644
0.095434 0.006857 0.009003
0.146841 0.005244 0.007358
0.198486 0.003625 0.005706
0.250368 0.002001 0.004050
0.302483 0.000371 0.002388
0.354829 0.000000 0.000721
0.407403 0.000000 0.000000
0.460201 0.000000 0.000000
0.513221 0.000000 0.000000
0.566461 0.000000 0.000000
0.619918 0.000000 0.000000
0.673588 0.000000 0.000000
0.727469 0.000000 0.000000
0.781558 0.000000 0.000000
0.835852 0.000000 0.000000
0.890349 0.000000 0.000000
0.945045 0.000000 0.000000
0.999939 0.000000 0.000000
1.000000 0.000000 0.000000
1.000000 0.000000 0.000000
1.000000 0.000000 0.000000
1.000000 0.000000 0.000000
1.000000 0.000000 0.000000
1.000000 0.000000 0.000000
1.000000 0.000000 0.000000
1.000000 0.000000 0.000000
0.000000 0.010155 0.012424
0.000000 0.010004 0.012239
0.000000 0.009854 0.012055
0.000000 0.009705 0.011873
0.000000 0.009557 0.011692
0.000000 0.009410 0.011512
0.044691 0.007959 0.010028
0.096257 0.006344 0.008381
0.148059 0.004724 0.006729
0.200093 0.003098 0.005071
0.252357 0.001467 0.003408
0.304849 0.000000 0.001740
0.357564 0.000000 0.000067
0.410501 0.000000 0.000000
0.463657 0.000000 0.000000
0.517028 0.000000 0.000000
0.570613 0.000000 0.000000
0.624408 0.000000 0.000000
0.678410 0.000000 0.000000
0.732616 0.000000 0.000000
0.787025 0.000000 0.000000
0.841632 0.000000 0.000000
0.896436 0.000000 0.000000
0.951433 0.000000 0.000000
1.000000 0.000000 0.000000
1.000000 0.000000 0.000000
1.000000 0.000000 0.000000
1.000000 0.000000 0.000000
1.000000 0.000000 0.000000
1.000000 0.000000 0.000000
1.000000 0.000000 0.000000
1.000000 0.000000 0.000000
1.000000 0.000000 0.000000
0.000000 0.049619 0.007694
0.000000 0.049460 0.007515
0.000000 0.049302 0.007337
0.000000 0.049146 0.007161
0.000000 0.048991 0.006985
0.000000 0.048837 0.006812
0.031771 0.047632 0.005587
0.092954 0.045736 0.003671
0.145142 0.044098 0.002014
0.197555 0.042454 0.000351
0.250192 0.040806 0.000000
0.303050 0.039152 0.000000
0.356126 0.037493 0.000000
0.409417 0.035830 0.000000
0.462920 0.034162 0.000000
0.516633 0.032488 0.000000
0.570553 0.030811 0.000000
0.624676 0.029128 0.000000
0.679001 0.027441 0.000000
0.733524 0.025750 0.000000
0.788242 0.024054 0.000000
0.843153 0.022354 0.000000
0.898254 0.020650 0.000000
0.953542 0.018942 0.000000
1.000000 0.017229 0.000000
1.000000 0.016937 0.000000
1.000000 0.016756 0.000000
1.000000 0.016576 0.000000
1.000000 0.016399 0.000000
1.000000 0.016222 0.000000
1.000000 0.016048 0.000000
1.000000 0.015875 0.000000
1.000000 0.015704 0.000000
0.000000 0.093862 0.002490
0.000000 0.093695 0.002317
0.000000 0.093529 0.002145
0.000000 0.093365 0.001974
0.000000 0.093202 0.001805
0.000000 0.093040 0.001637
0.027506 0.091819 0.000410
0.069381 0.090467 0.000000
0.141702 0.088247 0.000000
0.194484 0.086586 0.000000
0.247484 0.084919 0.000000
0.300698 0.083248 0.000000
0.354124 0.081573 0.000000
0.407758 0.079892 0.000000
0.461599 0.078207 0.000000
0.515642 0.076518 0.000000
0.569886 0.074824 0.000000
0.624328 0.073126 0.000000
0.678965 0.071424 0.000000
0.733793 0.069717 0.000000
0.788811 0.068007 0.000000
0.844014 0.066292 0.000000
0.899402 0.064574 0.000000
0.954970 0.062852 0.000000
1.000000 0.061125 0.000000
1.000000 0.060829 0.000000
1.000000 0.060643 0.000000
1.000000 0.060460 0.000000
1.000000 0.060278 0.000000
1.000000 0.060098 0.000000
1.000000 0.059920 0.000000
1.000000 0.059744 0.000000
1.000000 0.059570 0.000000
0.000000 0.138037 0.000000
0.000000 0.137862 0.000000
0.000000 0.137689 0.000000
0.000000 0.137518 0.000000
0.000000 0.137347 0.000000
0.000000 0.137179 0.000000
0.023240 0.135943 0.000000
0.065412 0.134575 0.000000
0.107757 0.133203 0.000000
0.191379 0.130656 0.000000
0.244730 0.128973 0.000000
0.298289 0.127286 0.000000
0.352054 0.125594 0.000000
0.406022 0.123898 0.000000
0.460188 0.122197 0.000000
0.514552 0.120493 0.000000
0.569110 0.118784 0.000000
0.623860 0.117071 0.000000
0.678797 0.115354 0.000000
0.733921 0.113634 0.000000
0.789227 0.111909 0.000000
0.844713 0.110181 0.000000
0.900376 0.108449 0.000000
0.956214 0.106714 0.000000
1.000000 0.104975 0.000000
1.000000 0.104674 0.000000
1.000000 0.104485 0.000000
1.000000 0.104299 0.000000
1.000000 0.104114 0.000000
1.000000 0.103931 0.000000
1.000000 0.103750 0.000000
1.000000 0.103571 0.000000
1.000000 0.103393 0.000000
0.000000 0.182147 0.000000
0.000000 0.181966 0.000000
0.000000 0.181786 0.000000
0.000000 0.181608 0.000000
0.000000 0.181431 0.000000
0.000000 0.181256 0.000000
0.018973 0.180007 0.000000
0.061433 0.178624 0.000000
0.104061 0.177238 0.000000
0.146855 0.175849 0.000000
0.189813 0.174456 0.000000
0.295824 0.171267 0.000000
0.349917 0.169560 0.000000
0.404207 0.167849 0.000000
0.458690 0.166134 0.000000
0.513363 0.164415 0.000000
0.568224 0.162692 0.000000
0.623270 0.160966 0.000000
0.678498 0.159236 0.000000
0.733906 0.157502 0.000000
0.789490 0.155764 0.000000
0.845248 0.154024 0.000000
0.901177 0.152279 0.000000
0.957273 0.150532 0.000000
1.000000 0.148781 0.000000
1.000000 0.148477 0.000000
1.000000 0.148286 0.000000
1.000000 0.148096 0.000000
1.000000 0.147909 0.000000
1.000000 0.147723 0.000000
1.000000 0.147540 0.000000
1.000000 0.147359 0.000000
1.000000 0.147179 0.000000
0.000000 0.226196 0.000000
0.000000 0.226009 0.000000
0.000000 0.225823 0.000000
0.000000 0.225638 0.000000
0.000000 0.225456 0.000000
0.000000 0.225275 0.000000
0.014704 0.224012 0.000000
0.057443 0.222616 0.000000
0.100346 0.221217 0.000000
0.143409 0.219815 0.000000
0.186631 0.218409 0.000000
0.230010 0.217001 0.000000
0.347713 0.213475 0.000000
0.402314 0.211750 0.000000
0.457102 0.210022 0.000000
0.512074 0.208289 0.000000
0.567227 0.206553 0.000000
0.622560 0.204814 0.000000
0.678068 0.203071 0.000000
0.733749 0.201325 0.000000
0.789600 0.199576 0.000000
0.845619 0.197823 0.000000
0.901802 0.196068 0.000000
0.958147 0.194309 0.000000
1.000000 0.192548 0.000000
1.000000 0.192240 0.000000
1.000000 0.192047 0.000000
1.000000 0.191856 0.000000
1.000000 0.191666 0.000000
1.000000 0.191479 0.000000
1.000000 0.191294 0.000000
1.000000 0.191111 0.000000
1.000000 0.190930 0.000000
0.000000 0.270187 0.000000
0.000000 0.269994 0.000000
0.000000 0.269802 0.000000
0.000000 0.269613 0.000000
0.000000 0.269425 0.000000
0.000000 0.269239 0.000000
0.010432 0.267964 0.000000
0.053443 0.266556 0.000000
0.096612 0.265144 0.000000
0.139936 0.263729 0.000000
0.183414 0.262312 0.000000
0.227043 0.260892 0.000000
0.270822 0.259470 0.000000
0.400342 0.255604 0.000000
0.455424 0.253863 0.000000
0.510685 0.252118 0.000000
0.566120 0.250370 0.000000
0.621728 0.248619 0.000000
0.677505 0.246864 0.000000
0.733449 0.245107 0.000000
0.789557 0.243347 0.000000
0.845826 0.241583 0.000000
0.902253 0.239817 0.000000
0.958836 0.238048 0.000000
1.000000 0.236277 0.000000
1.000000 0.235968 0.000000
1.000000 0.235773 0.000000
1.000000 0.235580 0.000000
1.000000 0.235390 0.000000
1.000000 0.235201 0.000000
1.000000 0.235015 0.000000
1.000000 0.234831 0.000000
1.000000 0.234650 0.000000
0.000000 0.314123 0.000000
0.000000 0.313925 0.000000
0.000000 0.313729 0.000000
0.000000 0.313534 0.000000
0.000000 0.313342 0.000000
0.000000 0.313151 0.000000
0.006159 0.311866 0.000000
0.049432 0.310445 0.000000
0.092858 0.309022 0.000000
0.136434 0.307596 0.000000
0.180160 0.306168 0.000000
0.224031 0.304737 0.000000
0.268047 0.303304 0.000000
0.312204 0.301869 0.000000
0.453657 0.297661 0.000000
0.509195 0.295905 0.000000
0.564901 0.294145 0.000000
0.620774 0.292383 0.000000
0.676810 0.290618 0.000000
0.733006 0.288851 0.000000
0.789360 0.287080 0.000000
0.845869 0.285307 0.000000
0.902529 0.283532 0.000000
0.959339 0.281754 0.000000
1.000000 0.279973 0.000000
1.000000 0.279663 0.000000
1.000000 0.279467 0.000000
1.000000 0.279273 0.000000
1.000000 0.279082 0.000000
1.000000 0.278894 0.000000
1.000000 0.278707 0.000000
1.000000 0.278523 0.000000
1.000000 0.278341 0.000000
0.000000 0.358007 0.000000
0.000000 0.357805 0.000000
0.000000 0.357605 0.000000
0.000000 0.357407 0.000000
0.000000 0.357210 0.000000
0.000000 0.357015 0.000000
0.001882 0.355720 0.000000
0.045409 0.354288 0.000000
0.089084 0.352854 0.000000
0.132904 0.351418 0.000000
0.176868 0.349980 0.000000
0.220974 0.348539 0.000000
0.265218 0.347096 0.000000
0.309599 0.345652 0.000000
0.354114 0.344205 0.000000
0.507604 0.339652 0.000000
0.563572 0.337883 0.000000
0.619698 0.336111 0.000000
0.675982 0.334336 0.000000
0.732420 0.332559 0.000000
0.789009 0.330780 0.000000
0.845747 0.328998 0.000000
0.902630 0.327214 0.000000
0.959656 0.325428 0.000000
1.000000 0.323639 0.000000
1.000000 0.323328 0.000000
1.000000 0.323132 0.000000
1.000000 0.322939 0.000000
1.000000 0.322748 0.000000
1.000000 0.322559 0.000000
1.000000 0.322373 0.000000
1.000000 0.322189 0.000000
1.000000 0.322008 0.000000
0.000000 0.401844 0.000000
0.000000 0.401638 0.000000
0.000000 0.401434 0.000000
0.000000 0.401232 0.000000
0.000000 0.401033 0.000000
0.000000 0.400835 0.000000
0.000000 0.399530 0.000000
0.041374 0.398088 0.000000
0.085289 0.396644 0.000000
0.129345 0.395198 0.000000
0.173540 0.393751 0.000000
0.217870 0.392301 0.000000
0.262334 0.390850 0.000000
0.306930 0.389397 0.000000
0.351656 0.387942 0.000000
0.396508 0.386485 0.000000
0.562130 0.381586 0.000000
0.618500 0.379805 0.000000
0.675021 0.378022 0.000000
0.731690 0.376236 0.000000
0.788503 0.374449 0.000000
0.845459 0.372659 0.000000
0.902554 0.370867 0.000000
0.959786 0.369074 0.000000
1.000000 0.367278 0.000000
1.000000 0.366967 0.000000
1.000000 0.366772 0.000000
1.000000 0.366579 0.000000
1.000000 0.366389 0.000000
1.000000 0.366201 0.000000
1.000000 0.366015 0.000000
1.000000 0.365833 0.000000
1.000000 0.365652 0.000000
0.000000 0.445635 0.000000
0.000000 0.445426 0.000000
0.000000 0.445220 0.000000
0.000000 0.445015 0.000000
0.000000 0.444813 0.000000
0.000000 0.444612 0.000000
0.000000 0.443299 0.000000
0.037328 0.441848 0.000000
0.081475 0.440395 0.000000
0.125757 0.438941 0.000000
0.170173 0.437485 0.000000
0.214720 0.436027 0.000000
0.259396 0.434568 0.000000
0.304199 0.433107 0.000000
0.349125 0.431645 0.000000
0.394174 0.430181 0.000000
0.439343 0.428716 0.000000
0.617179 0.423469 0.000000
0.673927 0.421678 0.000000
0.730816 0.419885 0.000000
0.787843 0.418090 0.000000
0.845006 0.416294 0.000000
0.902303 0.414495 0.000000
0.959730 0.412695 0.000000
1.000000 0.410894 0.000000
1.000000 0.410583 0.000000
1.000000 0.410389 0.000000
1.000000 0.410197 0.000000
1.000000 0.410009 0.000000
1.000000 0.409822 0.000000
1.000000 0.409639 0.000000
1.000000 0.409458 0.000000
1.000000 0.409279 0.000000
0.000000 0.489385 0.000000
0.000000 0.489174 0.000000
0.000000 0.488965 0.000000
0.000000 0.488758 0.000000
0.000000 0.488554 0.000000
0.000000 0.488352 0.000000
0.000000 0.487030 0.000000
0.033269 0.485571 0.000000
0.077639 0.484111 0.000000
0.122140 0.482649 0.000000
0.166769 0.481185 0.000000
0.211524 0.479720 0.000000
0.256403 0.478254 0.000000
0.301403 0.476786 0.000000
0.346523 0.475317 0.000000
0.391760 0.473847 0.000000
0.437111 0.472376 0.000000
0.482576 0.470904 0.000000
0.672698 0.465309 0.000000
0.729797 0.463509 0.000000
0.787028 0.461708 0.000000
0.844388 0.459905 0.000000
0.901875 0.458101 0.000000
0.959486 0.456296 0.000000
1.000000 0.454489 0.000000
1.000000 0.454180 0.000000
1.000000 0.453987 0.000000
1.000000 0.453798 0.000000
1.000000 0.453611 0.000000
1.000000 0.453427 0.000000
1.000000 0.453245 0.000000
1.000000 0.453067 0.000000
1.000000 0.452891 0.000000
0.000000 0.533096 0.000000
0.000000 0.532884 0.000000
0.000000 0.532673 0.000000
0.000000 0.532465 0.000000
0.000000 0.532259 0.000000
0.000000 0.532056 0.000000
0.000000 0.530727 0.000000
0.029197 0.529261 0.000000
0.073782 0.527794 0.000000
0.118492 0.526325 0.000000
0.163326 0.524855 0.000000
0.208280 0.523383 0.000000
0.253354 0.521911 0.000000
0.298544 0.520437 0.000000
0.343848 0.518963 0.000000
0.389264 0.517488 0.000000
0.434790 0.516011 0.000000
0.480423 0.514534 0.000000
0.526162 0.513057 0.000000
0.728633 0.507111 0.000000
0.786057 0.505305 0.000000
0.843603 0.503497 0.000000
0.901270 0.501688 0.000000
0.959055 0.499878 0.000000
1.000000 0.498068 0.000000
1.000000 0.497760 0.000000
1.000000 0.497570 0.000000
1.000000 0.497383 0.000000
1.000000 0.497199 0.000000
1.000000 0.497018 0.000000
1.000000 0.496839 0.000000
1.000000 0.496664 0.000000
1.000000 0.496491 0.000000
0.000000 0.576773 0.000000
0.000000 0.576559 0.000000
0.000000 0.576348 0.000000
0.000000 0.576139 0.000000
0.000000 0.575932 0.000000
0.000000 0.575728 0.000000
0.000000 0.574394 0.000000
0.025112 0.572921 0.000000
0.069903 0.571447 0.000000
0.114815 0.569973 0.000000
0.159844 0.568497 0.000000
0.204990 0.567020 0.000000
0.250249 0.565542 0.000000
0.295620 0.564064 0.000000
0.341100 0.562585 0.000000
0.386687 0.561105 0.000000
0.432378 0.559624 0.000000
0.478172 0.558144 0.000000
0.524066 0.556662 0.000000
0.570059 0.555180 0.000000
0.616146 0.553698 0.000000
0.842652 0.547072 0.000000
0.900488 0.545260 0.000000
0.958436 0.543446 0.000000
1.000000 0.541632 0.000000
1.000000 0.541327 0.000000
1.000000 0.541141 0.000000
1.000000 0.540957 0.000000
1.000000 0.540776 0.000000
1.000000 0.540598 0.000000
1.000000 0.540423 0.000000
1.000000 0.540251 0.000000
1.000000 0.540082 0.000000
0.000000 0.620417 0.000000
0.000000 0.620203 0.000000
0.000000 0.619992 0.000000
0.000000 0.619783 0.000000
0.000000 0.619576 0.000000
0.000000 0.619372 0.000000
0.000000 0.618033 0.000000
0.021014 0.616555 0.000000
0.066002 0.615076 0.000000
0.111106 0.613596 0.000000
0.156323 0.612115 0.000000
0.201651 0.610634 0.000000
0.247088 0.609152 0.000000
0.292631 0.607669 0.000000
0.338278 0.606186 0.000000
0.384027 0.604703 0.000000
0.429876 0.603219 0.000000
0.475822 0.601735 0.000000
0.521863 0.600251 0.000000
0.567998 0.598766 0.000000
0.614223 0.597281 0.000000
0.660536 0.595797 0.000000
0.899529 0.588819 0.000000
0.957629 0.587003 0.000000
1.000000 0.585187 0.000000
1.000000 0.584885 0.000000
1.000000 0.584702 0.000000
1.000000 0.584523 0.000000
1.000000 0.584346 0.000000
1.000000 0.584172 0.000000
1.000000 0.584001 0.000000
1.000000 0.583833 0.000000
1.000000 0.583668 0.000000
0.000000 0.664033 0.000000
0.000000 0.663820 0.000000
0.000000 0.663609 0.000000
0.000000 0.663400 0.000000
0.000000 0.663194 0.000000
0.000000 0.662991 0.000000
0.000000 0.661647 0.000000
0.016902 0.660165 0.000000
0.062079 0.658681 0.000000
0.107367 0.657197 0.000000
0.152763 0.655712 0.000000
0.198265 0.654227 0.000000
0.243871 0.652742 0.000000
0.289577 0.651256 0.000000
0.335383 0.649770 0.000000
0.381286 0.648284 0.000000
0.427283 0.646798 0.000000
0.473373 0.645312 0.000000
0.519553 0.643825 0.000000
0.565820 0.642339 0.000000
0.612174 0.640853 0.000000
0.658610 0.639367 0.000000
0.705128 0.637881 0.000000
0.956633 0.630552 0.000000
1.000000 0.628734 0.000000
1.000000 0.628437 0.000000
1.000000 0.628258 0.000000
1.000000 0.628083 0.000000
1.000000 0.627911 0.000000
1.000000 0.627742 0.000000
1.000000 0.627576 0.000000
1.000000 0.627413 0.000000
1.000000 0.627253 0.000000
0.000000 0.707624 0.000000
0.000000 0.707412 0.000000
0.000000 0.707202 0.000000
0.000000 0.706995 0.000000
0.000000 0.706790 0.000000
0.000000 0.706588 0.000000
0.000000 0.705241 0.000000
0.012776 0.703754 0.000000
0.058134 0.702267 0.000000
0.103597 0.700780 0.000000
0.149163 0.699292 0.000000
0.194831 0.697805 0.000000
0.240596 0.696317 0.000000
0.286458 0.694829 0.000000
0.332414 0.693341 0.000000
0.378462 0.691853 0.000000
0.424600 0.690365 0.000000
0.470824 0.688877 0.000000
0.517134 0.687390 0.000000
0.563526 0.685903 0.000000
0.609999 0.684416 0.000000
0.656551 0.682930 0.000000
0.703178 0.681444 0.000000
0.749879 0.679959 0.000000
1.000000 0.672278 0.000000
1.000000 0.671985 0.000000
1.000000 0.671812 0.000000
1.000000 0.671642 0.000000
1.000000 0.671475 0.000000
1.000000 0.671311 0.000000
1.000000 0.671151 0.000000
1.000000 0.670993 0.000000
1.000000 0.670839 0.000000
0.000000 0.751194 0.000000
0.000000 0.750983 0.000000
0.000000 0.750774 0.000000
0.000000 0.750569 0.000000
0.000000 0.750366 0.000000
0.000000 0.750166 0.000000
0.000000 0.748817 0.000000
0.008635 0.747327 0.000000
0.054165 0.745838 0.000000
0.099795 0.744348 0.000000
0.145523 0.742858 0.000000
0.191347 0.741369 0.000000
0.237265 0.739879 0.000000
0.283273 0.738390 0.000000
0.329371 0.736901 0.000000
0.375555 0.735412 0.000000
0.421824 0.733923 0.000000
0.468175 0.732435 0.000000
0.514607 0.730948 0.000000
0.561115 0.729461 0.000000
0.607700 0.727974 0.000000
0.654357 0.726488 0.000000
0.701086 0.725003 0.000000
0.747883 0.723519 0.000000
0.794747 0.722036 0.000000
1.000000 0.715533 0.000000
1.000000 0.715366 0.000000
1.000000 0.715202 0.000000
1.000000 0.715041 0.000000
1.000000 0.714883 0.000000
1.000000 0.714729 0.000000
1.000000 0.714578 0.000000
1.000000 0.714430 0.000000
0.000000 0.794744 0.000000
0.000000 0.794535 0.000000
0.000000 0.794330 0.000000
0.000000 0.794127 0.000000
0.000000 0.793927 0.000000
0.000000 0.793729 0.000000
0.000000 0.792378 0.000000
0.004480 0.790887 0.000000
0.050173 0.789395 0.000000
0.095962 0.787904 0.000000
0.141843 0.786413 0.000000
0.187815 0.784923 0.000000
0.233876 0.783433 0.000000
0.280023 0.781943 0.000000
0.326253 0.780453 0.000000
0.372566 0.778964 0.000000
0.418957 0.777476 0.000000
0.465426 0.775988 0.000000
0.511970 0.774502 0.000000
0.558587 0.773015 0.000000
0.605274 0.771530 0.000000
0.652029 0.770046 0.000000
0.698851 0.768563 0.000000
0.745736 0.767080 0.000000
0.792682 0.765599 0.000000
0.839687 0.764119 0.000000
1.000000 0.758924 0.000000
1.000000 0.758767 0.000000
1.000000 0.758612 0.000000
1.000000 0.758461 0.000000
1.000000 0.758314 0.000000
1.000000 0.758170 0.000000
1.000000 0.758029 0.000000
0.000000 0.838280 0.000000
0.000000 0.838074 0.000000
0.000000 0.837871 0.000000
0.000000 0.837671 0.000000
0.000000 0.837474 0.000000
0.000000 0.837280 0.000000
0.000000 0.835928 0.000000
0.000309 0.834436 0.000000
0.046157 0.832944 0.000000
0.092096 0.831452 0.000000
0.138122 0.829961 0.000000
0.184234 0.828470 0.000000
0.230429 0.826980 0.000000
0.276705 0.825491 0.000000
0.323060 0.824002 0.000000
0.369492 0.822514 0.000000
0.415998 0.821027 0.000000
0.462577 0.819540 0.000000
0.509225 0.818055 0.000000
0.555941 0.816571 0.000000
0.602722 0.815088 0.000000
0.649567 0.813606 0.000000
0.696472 0.812125 0.000000
0.743436 0.810646 0.000000
0.790456 0.809167 0.000000
0.837531 0.807691 0.000000
0.884657 0.806215 0.000000
1.000000 0.802340 0.000000
1.000000 0.802193 0.000000
1.000000 0.802049 0.000000
1.000000 0.801909 0.000000
1.000000 0.801772 0.000000
1.000000 0.801639 0.000000
0.000000 0.881803 0.000000
0.000000 0.881601 0.000000
0.000000 0.881402 0.000000
0.000000 0.881206 0.000000
0.000000 0.881013 0.000000
0.000000 0.880823 0.000000
0.000000 0.879471 0.000000
0.000000 0.877978 0.000000
0.042118 0.876486 0.000000
0.088197 0.874995 0.000000
0.134359 0.873504 0.000000
0.180602 0.872014 0.000000
0.226924 0.870525 0.000000
0.273321 0.869037 0.000000
0.319792 0.867550 0.000000
0.366335 0.866064 0.000000
0.412947 0.864578 0.000000
0.459626 0.863094 0.000000
0.506370 0.861612 0.000000
0.553177 0.860130 0.000000
0.600044 0.858650 0.000000
0.646969 0.857171 0.000000
0.693949 0.855694 0.000000
0.740984 0.854218 0.000000
0.788070 0.852744 0.000000
0.835204 0.851271 0.000000
0.882386 0.849801 0.000000
0.929612 0.848332 0.000000
1.000000 0.845785 0.000000
1.000000 0.845649 0.000000
1.000000 0.845517 0.000000
1.000000 0.845389 0.000000
1.000000 0.845264 0.000000
0.000000 0.924425 0.000000
0.000000 0.924255 0.000000
0.000000 0.924088 0.000000
0.000000 0.923924 0.000000
0.000000 0.923762 0.000000
0.000000 0.923603 0.000000
0.000000 0.922278 0.000000
0.000000 0.920811 0.000000
0.038124 0.919345 0.000000
0.084333 0.917880 0.000000
0.130621 0.916415 0.000000
0.176984 0.914950 0.000000
0.223420 0.913486 0.000000
0.269928 0.912023 0.000000
0.316504 0.910560 0.000000
0.363147 0.909098 0.000000
0.409854 0.907638 0.000000
0.456623 0.906178 0.000000
0.503452 0.904719 0.000000
