library/cube/Electric_Avenue_002.cube
# CINEGRADE LAB — Premium Cinematic LUT
# Title: Electric Avenue
# Category: Night Neon
# Description: Cyberpunk-inspired with neon glow enhancement and deep shadow work
# Mood: Electric, urban, futuristic
# Variant: 3
# Generated: 2026-05-21T16:12:22.492031
TITLE "Electric Avenue"
LUT_3D_SIZE 9
0.000000 0.012872 0.015747
0.000000 0.012197 0.014921
0.141648 0.007461 0.010039
0.343143 0.001078 0.003513
0.548685 0.000000 0.000000
0.758095 0.000000 0.000000
0.971193 0.000000 0.000000
0.983768 0.000000 0.000000
0.992397 0.000000 0.000000
0.000000 0.010673 0.013057
0.000000 0.010059 0.012306
0.146841 0.005244 0.007358
0.354829 0.000000 0.000721
0.566461 0.000000 0.000000
0.781558 0.000000 0.000000
0.999939 0.000000 0.000000
1.000000 0.000000 0.000000
1.000000 0.000000 0.000000
0.000000 0.138037 0.000000
0.000000 0.137347 0.000000
0.107757 0.133203 0.000000
0.352054 0.125594 0.000000
0.569110 0.118784 0.000000
0.789227 0.111909 0.000000
1.000000 0.104975 0.000000
1.000000 0.104114 0.000000
1.000000 0.103393 0.000000
0.000000 0.314123 0.000000
0.000000 0.313342 0.000000
0.092858 0.309022 0.000000
0.268047 0.303304 0.000000
0.564901 0.294145 0.000000
0.789360 0.287080 0.000000
1.000000 0.279973 0.000000
1.000000 0.279082 0.000000
1.000000 0.278341 0.000000
0.000000 0.489385 0.000000
0.000000 0.488554 0.000000
0.077639 0.484111 0.000000
0.256403 0.478254 0.000000
0.437111 0.472376 0.000000
0.787028 0.461708 0.000000
1.000000 0.454489 0.000000
1.000000 0.453611 0.000000
1.000000 0.452891 0.000000
0.000000 0.664033 0.000000
0.000000 0.663194 0.000000
0.062079 0.658681 0.000000
0.243871 0.652742 0.000000
0.427283 0.646798 0.000000
0.612174 0.640853 0.000000
1.000000 0.628734 0.000000
1.000000 0.627911 0.000000
1.000000 0.627253 0.000000
0.000000 0.838280 0.000000
0.000000 0.837474 0.000000
0.046157 0.832944 0.000000
0.230429 0.826980 0.000000
0.415998 0.821027 0.000000
0.602722 0.815088 0.000000
0.790456 0.809167 0.000000
1.000000 0.802193 0.000000
1.000000 0.801639 0.000000
0.000000 1.000000 0.000000
0.000000 1.000000 0.000000
0.030162 1.000000 0.000000
0.216317 0.998640 0.000000
0.403451 0.993172 0.000000
0.591420 0.987692 0.000000
0.780081 0.982206 0.000000
0.969288 0.976716 0.000000
1.000000 0.975496 0.000000
0.000000 1.000000 0.000000
0.000000 1.000000 0.000000
0.027803 1.000000 0.000000
0.215343 1.000000 0.000000
0.403540 1.000000 0.000000
0.592250 1.000000 0.000000
0.781331 1.000000 0.000000
0.970637 1.000000 0.000000
1.000000 1.000000 0.000000
0.000000 0.012640 0.015464
0.000000 0.011971 0.014645
0.142195 0.007227 0.009756
0.344376 0.000831 0.003218
0.550565 0.000000 0.000000
0.760580 0.000000 0.000000
0.974242 0.000000 0.000000
0.986731 0.000000 0.000000
0.995262 0.000000 0.000000
0.000000 0.010462 0.012799
0.000000 0.009855 0.012056
0.147337 0.005032 0.007102
0.355943 0.000000 0.000455
0.568152 0.000000 0.000000
0.783785 0.000000 0.000000
1.000000 0.000000 0.000000
1.000000 0.000000 0.000000
1.000000 0.000000 0.000000
0.000000 0.179826 0.000000
0.000000 0.137119 0.000000
0.108121 0.132972 0.000000
0.353052 0.125353 0.000000
0.570616 0.118536 0.000000
0.791200 0.111655 0.000000
1.000000 0.104717 0.000000
1.000000 0.103866 0.000000
1.000000 0.103156 0.000000
0.000000 0.313854 0.000000
0.000000 0.313083 0.000000
0.093184 0.308764 0.000000
0.268757 0.303046 0.000000
0.566223 0.293879 0.000000
0.791080 0.286812 0.000000
1.000000 0.279705 0.000000
1.000000 0.278826 0.000000
1.000000 0.278098 0.000000
0.000000 0.489099 0.000000
0.000000 0.488280 0.000000
0.077927 0.483841 0.000000
0.257020 0.477987 0.000000
0.438025 0.472113 0.000000
0.788493 0.461440 0.000000
1.000000 0.454225 0.000000
1.000000 0.453362 0.000000
1.000000 0.452656 0.000000
0.000000 0.663744 0.000000
0.000000 0.662919 0.000000
0.062327 0.658413 0.000000
0.244393 0.652480 0.000000
0.428047 0.646544 0.000000
0.613146 0.640607 0.000000
1.000000 0.628489 0.000000
1.000000 0.627682 0.000000
1.000000 0.627041 0.000000
0.000000 0.838001 0.000000
0.000000 0.837212 0.000000
0.046364 0.832692 0.000000
0.230854 0.826738 0.000000
0.416610 0.820796 0.000000
0.603488 0.814868 0.000000
0.791343 0.808961 0.000000
1.000000 0.801998 0.000000
1.000000 0.801464 0.000000
0.000000 1.000000 0.000000
0.000000 1.000000 0.000000
0.030308 1.000000 0.000000
0.216629 0.998585 0.000000
0.403896 0.993118 0.000000
0.591965 0.987640 0.000000
0.780694 0.982155 0.000000
0.969936 0.976668 0.000000
1.000000 0.975455 0.000000
0.000000 1.000000 0.000000
0.000000 1.000000 0.000000
0.027904 1.000000 0.000000
0.215555 1.000000 0.000000
0.403831 1.000000 0.000000
0.592587 1.000000 0.000000
0.781681 1.000000 0.000000
0.970968 1.000000 0.000000
1.000000 1.000000 0.000000
0.000000 0.010734 0.191606
0.000000 0.010355 0.160962
0.141001 0.005259 0.192191
0.343866 0.000000 0.185134
0.550697 0.000000 0.178001
0.761315 0.000000 0.170796
0.975538 0.000000 0.163526
0.987946 0.000000 0.162048
0.996384 0.000000 0.160721
0.000000 0.008593 0.187291
0.000000 0.007996 0.186087
0.146106 0.003101 0.187916
0.355327 0.000000 0.180802
0.568110 0.000000 0.173623
0.784277 0.000000 0.166384
1.000000 0.000000 0.159091
1.000000 0.000000 0.157762
1.000000 0.000000 0.156587
0.000000 0.177690 0.191028
0.000000 0.176977 0.189903
0.107114 0.131378 0.135758
0.352333 0.123411 0.163662
0.570403 0.116591 0.156469
0.791451 0.109709 0.149227
1.000000 0.102769 0.141942
1.000000 0.101932 0.140773
1.000000 0.101236 0.139760
0.000000 0.411502 0.163103
0.000000 0.410653 0.162129
0.092150 0.307155 0.114372
0.268105 0.301438 0.108554
0.565837 0.291929 0.134800
0.791090 0.284864 0.127576
1.000000 0.277759 0.120319
1.000000 0.276896 0.119311
1.000000 0.276182 0.118460
0.000000 0.644192 0.135751
0.000000 0.486660 0.097850
0.076863 0.482228 0.093478
0.256282 0.476379 0.087685
0.437581 0.470511 0.081871
0.788257 0.459502 0.106497
1.000000 0.452293 0.099284
1.000000 0.451446 0.098432
1.000000 0.450758 0.097739
0.000000 0.662115 0.077990
0.000000 0.661306 0.077369
0.061231 0.656811 0.073052
0.243567 0.650886 0.067296
0.427459 0.644958 0.061527
0.612763 0.639031 0.055750
1.000000 0.626583 0.078813
1.000000 0.625795 0.078115
1.000000 0.625173 0.077575
0.000000 0.836390 0.057834
0.000000 0.835619 0.057329
0.045232 0.831113 0.053073
0.229938 0.825170 0.047365
0.415877 0.819240 0.041653
0.602904 0.813326 0.035940
0.790876 0.807432 0.030231
1.000000 0.800152 0.058337
1.000000 0.799638 0.057947
0.000000 1.000000 0.038482
0.000000 1.000000 0.038035
0.029122 1.000000 0.033797
0.215604 0.997205 0.028101
0.402999 0.991739 0.022414
0.591165 0.986264 0.016740
0.779956 0.980782 0.011082
0.969229 0.975300 0.005445
1.000000 0.973762 0.038894
0.000000 1.000000 0.033508
0.000000 1.000000 0.033165
0.026677 1.000000 0.029000
0.214434 1.000000 0.023374
0.402783 1.000000 0.017768
0.591581 1.000000 0.012184
0.780683 1.000000 0.006628
0.969945 1.000000 0.001103
1.000000 1.000000 0.000000
0.000000 0.008191 0.434935
0.000000 0.007546 0.432916
0.111057 0.004282 0.358049
0.342683 0.000000 0.436472
0.550153 0.000000 0.428659
0.761367 0.000000 0.420797
0.976147 0.000000 0.412889
0.988474 0.000000 0.410814
0.996821 0.000000 0.408909
0.000000 0.006092 0.428364
0.000000 0.005507 0.426533
0.115163 0.002188 0.352366
0.354044 0.000000 0.429998
0.567397 0.000000 0.422210
0.784091 0.000000 0.414384
1.000000 0.000000 0.406524
1.000000 0.000000 0.404666
1.000000 0.000000 0.402981
0.000000 0.133413 0.409131
0.000000 0.132756 0.407502
0.104932 0.128616 0.402421
0.350953 0.120822 0.410951
0.569522 0.114001 0.403219
0.791029 0.107119 0.395460
1.000000 0.100180 0.387679
1.000000 0.099357 0.386049
1.000000 0.098675 0.384595
0.000000 0.408623 0.434968
0.000000 0.407790 0.433423
0.079139 0.403396 0.428344
0.266926 0.299317 0.305011
0.564787 0.289338 0.379945
0.790429 0.282276 0.372274
1.000000 0.275175 0.364591
1.000000 0.274328 0.363190
1.000000 0.273631 0.361967
0.000000 0.641302 0.405792
0.000000 0.640390 0.404467
0.057930 0.635850 0.399530
0.255021 0.474262 0.282990
0.436608 0.468401 0.276858
0.787355 0.456928 0.349888
1.000000 0.449727 0.342319
1.000000 0.448898 0.341143
1.000000 0.448227 0.340146
0.000000 0.873154 0.377412
0.000000 0.872219 0.376299
0.059619 0.654701 0.267666
0.242220 0.648786 0.261631
0.426345 0.642868 0.255601
0.611850 0.636952 0.249580
1.000000 0.624047 0.320841
1.000000 0.623278 0.319886
1.000000 0.622675 0.319111
0.000000 1.000000 0.356602
0.000000 0.833522 0.251338
0.043587 0.829029 0.246845
0.228502 0.823099 0.240914
0.414618 0.817182 0.234997
0.601790 0.811282 0.229096
0.789874 0.805403 0.223217
1.000000 0.797679 0.299398
1.000000 0.797185 0.298841
0.000000 1.000000 0.353490
0.000000 1.000000 0.231311
0.027423 1.000000 0.226893
0.214061 0.995319 0.221032
0.401580 0.989855 0.215198
0.589836 0.984382 0.209393
0.778685 0.978905 0.203622
0.967983 0.973427 0.197890
1.000000 0.971439 0.279367
0.000000 1.000000 0.226389
0.000000 1.000000 0.225908
0.024938 1.000000 0.221619
0.212796 1.000000 0.215886
0.401214 1.000000 0.210188
0.590047 1.000000 0.204531
0.779152 1.000000 0.198918
0.968385 1.000000 0.193354
1.000000 1.000000 0.192131
0.000000 0.005654 0.677785
0.000000 0.005022 0.675085
0.109572 0.002143 0.559251
0.272959 0.000000 0.552344
0.549593 0.000000 0.678874
0.761398 0.000000 0.670367
0.976727 0.000000 0.661837
0.988974 0.000000 0.659177
0.997229 0.000000 0.656709
0.000000 0.003598 0.669003
0.000000 0.003025 0.666557
0.112617 0.000000 0.660768
0.282013 0.000000 0.545016
0.566668 0.000000 0.670400
0.783883 0.000000 0.662000
1.000000 0.000000 0.653588
1.000000 0.000000 0.651214
1.000000 0.000000 0.649034
0.000000 0.130913 0.647785
0.000000 0.130270 0.645606
0.103022 0.126133 0.639987
0.276852 0.121632 0.525217
0.568626 0.111418 0.649619
0.790585 0.104535 0.641356
1.000000 0.097597 0.633094
1.000000 0.096788 0.631016
1.000000 0.096122 0.629135
0.000000 0.405751 0.706435
0.000000 0.306195 0.620522
0.088018 0.301893 0.615085
0.264722 0.296184 0.608287
0.563721 0.286754 0.624785
0.789746 0.279695 0.616681
1.000000 0.272598 0.608586
1.000000 0.271767 0.606806
1.000000 0.271086 0.605224
0.000000 0.638419 0.675489
0.000000 0.637526 0.673683
0.055653 0.632997 0.668281
0.235723 0.627051 0.661504
0.435622 0.466297 0.471640
0.619161 0.460430 0.465219
1.000000 0.447168 0.585124
1.000000 0.446357 0.583637
1.000000 0.445703 0.582350
0.000000 0.870277 0.645588
0.000000 0.869363 0.644070
0.034091 0.864757 0.638892
0.216968 0.858726 0.632322
0.425217 0.640784 0.449507
0.610916 0.634879 0.443252
1.000000 0.621518 0.562685
1.000000 0.620768 0.561488
1.000000 0.620184 0.560491
0.000000 1.000000 0.623477
0.000000 1.000000 0.622150
0.018766 1.000000 0.617116
0.227058 0.821035 0.434321
0.413346 0.815131 0.428209
0.600656 0.809244 0.422132
0.788847 0.803380 0.416093
1.000000 0.795212 0.540336
1.000000 0.794739 0.539625
0.000000 1.000000 0.619352
0.000000 1.000000 0.618311
0.025722 0.998884 0.419872
0.212510 0.993435 0.413858
0.400146 0.987974 0.407888
0.588487 0.982504 0.401964
0.777388 0.977030 0.396091
0.966706 0.971557 0.390274
1.000000 0.969119 0.519779
0.000000 1.000000 0.616190
0.000000 1.000000 0.615436
0.023196 1.000000 0.414159
0.211150 1.000000 0.408329
0.399631 1.000000 0.402552
0.588494 1.000000 0.396833
0.777596 1.000000 0.391175
0.966793 1.000000 0.385583
1.000000 1.000000 0.384349
0.000000 0.003125 0.920161
0.000000 0.002505 0.916795
0.106659 0.000000 0.910202
0.272006 0.000000 0.752638
0.438999 0.000000 0.745189
0.761407 0.000000 0.919515
0.977278 0.000000 0.910376
0.989444 0.000000 0.907146
0.997607 0.000000 0.904127
0.000000 0.001110 0.909213
0.000000 0.000549 0.906166
0.110727 0.000000 0.899785
0.280978 0.000000 0.743676
0.452566 0.000000 0.736375
0.783653 0.000000 0.909240
1.000000 0.000000 0.900290
1.000000 0.000000 0.897414
1.000000 0.000000 0.894752
0.000000 0.128420 0.886055
0.000000 0.127789 0.883340
0.101111 0.123656 0.877196
0.274338 0.118130 0.869733
0.451389 0.113955 0.715306
0.790117 0.101958 0.886923
1.000000 0.095020 0.878192
1.000000 0.094226 0.875681
1.000000 0.093574 0.873387
0.000000 0.304418 0.858983
0.000000 0.303704 0.856603
0.086085 0.299408 0.850708
0.263156 0.293702 0.843468
0.443719 0.289353 0.690232
0.789039 0.277120 0.860804
1.000000 0.270028 0.852312
1.000000 0.269213 0.850167
1.000000 0.268548 0.848240
0.000000 0.635645 0.934287
0.000000 0.634762 0.932935
0.070725 0.474494 0.825395
0.251092 0.468665 0.818390
0.433241 0.462820 0.811428
0.618406 0.458340 0.659522
1.000000 0.444616 0.827707
1.000000 0.443822 0.825923
1.000000 0.443186 0.824359
0.000000 0.867482 0.905842
0.000000 0.866581 0.904713
0.031843 0.861982 0.899899
0.214969 0.855957 0.893670
0.399552 0.849939 0.887461
0.609963 0.632813 0.636773
0.797021 0.626925 0.630344
1.000000 0.618265 0.802927
1.000000 0.617700 0.801722
0.000000 1.000000 0.884934
0.000000 1.000000 0.883931
0.016438 1.000000 0.879198
0.201689 1.000000 0.873044
0.388081 1.000000 0.866923
0.599503 0.807214 0.615053
0.787794 0.801365 0.608866
1.000000 0.792754 0.781158
1.000000 0.792301 0.780307
0.000000 1.000000 0.881824
0.000000 1.000000 0.881043
0.017871 1.000000 0.876490
0.204789 1.000000 0.870510
0.398698 0.986095 0.600489
0.587118 0.980629 0.594457
0.776066 0.975159 0.588494
0.965397 0.969690 0.582603
1.000000 0.966802 0.760134
0.000000 1.000000 0.879458
0.000000 1.000000 0.878898
0.018904 1.000000 0.874538
0.209495 1.000000 0.600710
0.398032 1.000000 0.594865
0.586920 1.000000 0.589094
0.776014 1.000000 0.583403
0.965170 1.000000 0.577795
1.000000 1.000000 0.576562
0.000000 0.001176 1.000000
0.000000 0.000537 1.000000
0.105303 0.000000 1.000000
0.271061 0.000000 0.950936
0.438547 0.000000 0.943078
0.761921 0.000000 1.000000
0.978294 0.000000 1.000000
0.990345 0.000000 1.000000
0.998385 0.000000 1.000000
0.000000 0.000000 1.000000
0.000000 0.000000 1.000000
0.109251 0.000000 1.000000
0.278535 0.000000 1.000000
0.451974 0.000000 0.933034
0.626574 0.000000 0.925392
1.000000 0.000000 1.000000
1.000000 0.000000 1.000000
1.000000 0.000000 1.000000
0.000000 0.126311 1.000000
0.000000 0.125667 1.000000
0.099527 0.121512 1.000000
0.273145 0.115963 1.000000
0.450660 0.111869 0.910889
0.628945 0.106252 0.903476
1.000000 0.092745 1.000000
1.000000 0.091940 1.000000
1.000000 0.091278 1.000000
0.000000 0.302214 1.000000
0.000000 0.301491 1.000000
0.084402 0.297180 1.000000
0.261812 0.291457 1.000000
0.441295 0.285703 1.000000
0.624279 0.281497 0.877722
1.000000 0.267679 1.000000
1.000000 0.266858 1.000000
1.000000 0.266188 1.000000
0.000000 0.477378 1.000000
0.000000 0.476618 1.000000
0.068949 0.472203 1.000000
0.249603 0.466363 1.000000
0.432007 0.460508 1.000000
0.617636 0.456261 0.853189
1.000000 0.442218 1.000000
1.000000 0.441424 1.000000
1.000000 0.440788 1.000000
0.000000 0.865806 1.000000
0.000000 0.864910 1.000000
0.030689 0.860311 1.000000
0.236498 0.640894 1.000000
0.421276 0.634994 1.000000
0.607337 0.629099 1.000000
0.796202 0.624880 0.823273
1.000000 0.615848 1.000000
1.000000 0.615289 1.000000
0.000000 1.000000 1.000000
0.000000 1.000000 1.000000
0.015182 1.000000 1.000000
0.200619 1.000000 1.000000
0.387163 1.000000 1.000000
0.574671 1.000000 1.000000
0.786716 0.799358 0.801404
0.975772 0.793550 0.795185
1.000000 0.789901 1.000000
0.000000 1.000000 1.000000
0.000000 1.000000 1.000000
0.016550 1.000000 1.000000
0.203601 1.000000 1.000000
0.391436 1.000000 1.000000
0.579913 1.000000 1.000000
0.774719 0.973290 0.780780
0.964058 0.967826 0.774844
1.000000 0.964497 0.999473
0.000000 1.000000 1.000000
0.000000 1.000000 1.000000
0.017526 1.000000 1.000000
0.205648 1.000000 1.000000
0.394232 1.000000 1.000000
0.585326 1.000000 0.781301
0.774406 1.000000 0.775597
0.963515 1.000000 0.769990
1.000000 1.000000 0.768773
0.000000 0.000609 1.000000
0.000000 0.000000 1.000000
0.105359 0.000000 1.000000
0.270288 0.000000 1.000000
0.438521 0.000000 1.000000
0.609331 0.000000 1.000000
0.981109 0.000000 1.000000
0.993074 0.000000 1.000000
1.000000 0.000000 1.000000
0.000000 0.000000 1.000000
0.000000 0.000000 1.000000
0.109243 0.000000 1.000000
0.278983 0.000000 1.000000
0.451719 0.000000 1.000000
0.626693 0.000000 1.000000
1.000000 0.000000 1.000000
1.000000 0.000000 1.000000
1.000000 0.000000 1.000000
0.000000 0.125699 1.000000
0.000000 0.125057 1.000000
0.099463 0.120895 1.000000
0.273482 0.115338 1.000000
0.449865 0.109736 1.000000
0.628795 0.104421 1.000000
0.809477 0.098745 1.000000
1.000000 0.091675 1.000000
1.000000 0.091023 1.000000
0.000000 0.301556 1.000000
0.000000 0.300838 1.000000
0.084283 0.296524 1.000000
0.262040 0.290796 1.000000
0.441837 0.285040 1.000000
0.623869 0.279597 1.000000
0.807318 0.273797 1.000000
1.000000 0.266589 1.000000
1.000000 0.265931 1.000000
0.000000 0.476691 1.000000
0.000000 0.475939 1.000000
0.068777 0.471525 1.000000
0.249723 0.465685 1.000000
0.432387 0.459831 1.000000
0.616624 0.453967 1.000000
0.802641 0.448448 1.000000
1.000000 0.441164 1.000000
1.000000 0.440543 1.000000
0.000000 0.865496 1.000000
0.000000 0.650571 1.000000
0.052922 0.646110 1.000000
0.236512 0.640214 1.000000
0.421495 0.634319 1.000000
0.607728 0.628431 1.000000
0.795426 0.622911 1.000000
1.000000 0.615613 1.000000
1.000000 0.615070 1.000000
0.000000 1.000000 1.000000
0.000000 1.000000 1.000000
0.015338 1.000000 1.000000
0.200962 1.000000 1.000000
0.409138 0.808717 1.000000
0.596820 0.802861 1.000000
0.785285 0.797030 1.000000
0.974754 0.791595 0.984486
1.000000 0.789723 1.000000
0.000000 1.000000 1.000000
0.000000 1.000000 1.000000
0.016667 1.000000 1.000000
0.203850 1.000000 1.000000
0.391786 1.000000 1.000000
0.580330 1.000000 1.000000
0.769338 1.000000 1.000000
0.962697 0.965974 0.966005
1.000000 0.964799 0.964818
0.000000 1.000000 1.000000
0.000000 1.000000 1.000000
0.017602 1.000000 1.000000
0.205802 1.000000 1.000000
0.394432 1.000000 1.000000
0.583347 1.000000 1.000000
0.772404 1.000000 1.000000
0.961829 1.000000 0.962098
1.000000 1.000000 0.960985
0.000000 0.000390 1.000000
0.000000 0.000000 1.000000
0.105770 0.000000 1.000000
0.271209 0.000000 1.000000
0.439626 0.000000 1.000000
0.610876 0.000000 1.000000
0.784816 0.000000 1.000000
0.995803 0.000000 1.000000
1.000000 0.000000 1.000000
0.000000 0.000000 1.000000
0.000000 0.000000 1.000000
0.109612 0.000000 1.000000
0.279807 0.000000 1.000000
0.452657 0.000000 1.000000
0.628017 0.000000 1.000000
0.805744 0.000000 1.000000
1.000000 0.000000 1.000000
1.000000 0.000000 1.000000
0.000000 0.125478 1.000000
0.000000 0.124844 1.000000
0.099794 0.120681 1.000000
0.274214 0.115120 1.000000
0.450965 0.109515 1.000000
0.629903 0.103871 1.000000
0.810884 0.098191 1.000000
1.000000 0.091450 1.000000
1.000000 0.090809 1.000000
0.000000 0.301309 1.000000
0.000000 0.300601 1.000000
0.084577 0.296289 1.000000
0.262679 0.290561 1.000000
0.442789 0.284805 1.000000
0.624763 0.279025 1.000000
0.808456 0.273225 1.000000
0.993726 0.267409 1.000000
1.000000 0.265717 1.000000
0.000000 0.476432 1.000000
0.000000 0.475692 1.000000
0.069032 0.471283 1.000000
0.250269 0.465446 1.000000
0.433191 0.459597 1.000000
0.617653 0.453738 1.000000
0.803512 0.447875 1.000000
0.990623 0.442012 1.000000
1.000000 0.440342 1.000000
0.000000 0.651058 1.000000
0.000000 0.650327 1.000000
0.053137 0.645875 1.000000
0.236962 0.639986 1.000000
0.422148 0.634100 1.000000
0.608552 0.628221 1.000000
0.796028 0.622352 1.000000
0.984434 0.616498 1.000000
1.000000 0.614897 1.000000
0.000000 1.000000 1.000000
0.000000 1.000000 1.000000
0.036870 0.820276 1.000000
0.222736 0.814392 1.000000
0.409640 0.808527 1.000000
0.597437 0.802684 1.000000
0.785984 0.796867 1.000000
0.975138 0.791080 1.000000
1.000000 0.789592 1.000000
0.000000 1.000000 1.000000
0.000000 1.000000 1.000000
0.016779 1.000000 1.000000
0.204089 1.000000 1.000000
0.392120 1.000000 1.000000
0.584374 0.976500 1.000000
0.773420 0.971035 1.000000
0.962752 0.965574 1.000000
1.000000 0.964404 1.000000
0.000000 1.000000 1.000000
0.000000 1.000000 1.000000
0.017675 1.000000 1.000000
0.205947 1.000000 1.000000
0.394617 1.000000 1.000000
0.583539 1.000000 1.000000
0.772571 1.000000 1.000000
0.961567 1.000000 1.000000
1.000000 1.000000 1.000000
