library/cube/Episode_One_004.cube
# CINEGRADE LAB — Premium Cinematic LUT
# Title: Episode One
# Category: Netflix Inspired
# Description: Cinematic teal/orange with filmic qualities inspired by streaming content
# Mood: Cinematic, binge-worthy, polished
# Variant: 5
# Generated: 2026-05-21T16:12:44.338806
TITLE "Episode One"
LUT_3D_SIZE 5
0.001526 0.014576 0.013706
0.141356 0.017034 0.016268
0.389224 0.022982 0.022296
0.648068 0.029426 0.028800
0.810319 0.033050 0.032463
0.019375 0.197255 0.026559
0.170276 0.200189 0.029883
0.434559 0.206815 0.036832
0.707056 0.213887 0.044163
0.870767 0.217799 0.048269
0.048497 0.491220 0.051505
0.207738 0.494702 0.055483
0.484101 0.502044 0.063193
0.766329 0.509811 0.071203
0.926247 0.514046 0.075560
0.078173 0.785479 0.077684
0.243457 0.789847 0.082235
0.528302 0.798182 0.090578
0.815625 0.806862 0.099101
0.968769 0.811664 0.103589
0.097114 0.963109 0.093626
0.266553 0.968324 0.098631
0.557039 0.977266 0.107426
0.846787 0.986186 0.116252
0.990423 0.990608 0.120625
0.003462 0.015929 0.200602
0.144539 0.018472 0.202278
0.394275 0.024521 0.207477
0.654690 0.031058 0.213177
0.817323 0.034736 0.216033
0.021335 0.198618 0.210478
0.173191 0.201642 0.213026
0.438874 0.208369 0.219242
0.712514 0.215533 0.225861
0.876069 0.219494 0.229240
0.050490 0.492648 0.232818
0.210434 0.496231 0.236107
0.487799 0.503681 0.243157
0.770720 0.511543 0.250516
0.930076 0.515830 0.254199
0.080216 0.787118 0.256680
0.245992 0.791593 0.260596
0.531517 0.800034 0.268320
0.819172 0.808806 0.276219
0.971461 0.813656 0.280047
0.099213 0.965003 0.270465
0.268972 0.970221 0.274840
0.559899 0.979170 0.283003
0.849814 0.988089 0.291181
0.992381 0.992471 0.294850
0.006275 0.018172 0.469018
0.148564 0.020793 0.469412
0.400113 0.026939 0.473399
0.662048 0.033561 0.477929
0.825006 0.037288 0.479624
0.024160 0.200862 0.474646
0.176938 0.203970 0.476070
0.443974 0.210792 0.481218
0.718714 0.218043 0.486798
0.882056 0.222047 0.489133
0.053336 0.494952 0.493259
0.213955 0.498631 0.495545
0.492283 0.506182 0.501631
0.775830 0.514132 0.508039
0.934607 0.518467 0.510754
0.083102 0.789625 0.513783
0.249347 0.794200 0.516771
0.535520 0.802743 0.523584
0.823480 0.811600 0.530569
0.974884 0.816493 0.533447
0.102140 0.967720 0.524432
0.272203 0.972938 0.527884
0.563552 0.981890 0.535119
0.853626 0.990804 0.542343
0.995110 0.995143 0.544994
0.009086 0.020424 0.736505
0.152555 0.023122 0.735652
0.405868 0.029362 0.738462
0.669277 0.036069 0.741853
0.832507 0.039842 0.742417
0.026983 0.203120 0.738003
0.180658 0.206311 0.738332
0.449004 0.213227 0.742437
0.724805 0.220562 0.747003
0.887880 0.224608 0.748315
0.056183 0.497277 0.752981
0.217455 0.501051 0.754285
0.496709 0.508702 0.759424
0.780842 0.516738 0.764895
0.939006 0.521118 0.766653
0.085988 0.792158 0.770227
0.252686 0.796832 0.772298
0.539480 0.805474 0.778207
0.827720 0.814414 0.784280
0.978215 0.819347 0.786206
0.105065 0.970431 0.777759
0.275421 0.975648 0.780285
0.567175 0.984603 0.786584
0.857408 0.993511 0.792840
0.997800 0.997806 0.794449
0.010584 0.021375 0.880373
0.155268 0.024214 0.884330
0.410354 0.030606 0.891515
0.675247 0.037450 0.898830
0.838743 0.041316 0.902850
0.028690 0.204279 0.896142
0.183282 0.207598 0.899795
0.452938 0.214649 0.906822
0.729801 0.222103 0.913902
0.892589 0.226221 0.917300
0.058054 0.498649 0.920581
0.219988 0.502547 0.923867
0.500162 0.510323 0.930630
0.784866 0.518466 0.937367
0.942401 0.522909 0.940024
0.087990 0.793831 0.943006
0.255140 0.798621 0.945895
0.542544 0.807374 0.952326
0.831057 0.816405 0.958627
0.980627 0.821384 0.960485
0.107153 0.972298 0.952071
0.277797 0.977523 0.954472
0.569951 0.986486 0.960429
0.860348 0.995394 0.966145
0.999648 0.999648 0.967023
