library/cube/Episode_One_004.cube
# CINEGRADE LAB — Premium Cinematic LUT
# Title: Episode One
# Category: Netflix Inspired
# Description: Cinematic teal/orange with filmic qualities inspired by streaming content
# Mood: Cinematic, binge-worthy, polished
# Variant: 5
# Generated: 2026-05-21T16:12:44.338806
TITLE "Episode One"
LUT_3D_SIZE 33
0.001526 0.014576 0.013706
0.001501 0.014335 0.013480
0.001477 0.014097 0.013255
0.001454 0.013862 0.013033
0.021964 0.014261 0.013446
0.051513 0.014941 0.014139
0.081263 0.015630 0.014840
0.111211 0.016328 0.015550
0.141356 0.017034 0.016268
0.171693 0.017749 0.016994
0.202220 0.018472 0.017728
0.232934 0.019203 0.018470
0.263833 0.019943 0.019220
0.294915 0.020690 0.019977
0.326175 0.021446 0.020743
0.357613 0.022210 0.021516
0.389224 0.022982 0.022296
0.421007 0.023761 0.023084
0.452958 0.024548 0.023879
0.485076 0.025342 0.024682
0.517357 0.026144 0.025491
0.549799 0.026954 0.026308
0.582400 0.027771 0.027132
0.615157 0.028595 0.027962
0.648068 0.029426 0.028800
0.681130 0.030264 0.029644
0.714328 0.031109 0.030494
0.747453 0.031954 0.031344
0.780685 0.032804 0.032200
0.804548 0.033369 0.032769
0.806496 0.033261 0.032666
0.808419 0.033155 0.032564
0.810319 0.033050 0.032463
0.001446 0.013777 0.012953
0.001425 0.013545 0.012734
0.001404 0.013315 0.012517
0.001385 0.013089 0.012303
0.022133 0.013504 0.012730
0.052017 0.014203 0.013441
0.082097 0.014911 0.014160
0.112368 0.015627 0.014887
0.142829 0.016351 0.015622
0.173476 0.017084 0.016365
0.204308 0.017825 0.017116
0.235321 0.018574 0.017874
0.266513 0.019331 0.018640
0.297881 0.020096 0.019414
0.329422 0.020869 0.020195
0.361134 0.021650 0.020984
0.393015 0.022438 0.021780
0.425061 0.023233 0.022583
0.457270 0.024037 0.023393
0.489640 0.024847 0.024210
0.522167 0.025665 0.025035
0.554851 0.026490 0.025866
0.587687 0.027322 0.026704
0.620674 0.028161 0.027549
0.653809 0.029007 0.028400
0.687089 0.029860 0.029258
0.720450 0.030718 0.030120
0.753716 0.031576 0.030982
0.787080 0.032438 0.031848
0.811005 0.033013 0.032426
0.812872 0.032910 0.032327
0.814716 0.032809 0.032229
0.816536 0.032710 0.032133
0.001378 0.013007 0.012226
0.001360 0.012784 0.012014
0.001342 0.012563 0.011805
0.001326 0.012345 0.011598
0.022306 0.012776 0.012040
0.052515 0.013494 0.012768
0.082913 0.014220 0.013504
0.113497 0.014954 0.014248
0.144265 0.015696 0.014999
0.175213 0.016447 0.015759
0.206339 0.017205 0.016526
0.237641 0.017972 0.017301
0.269116 0.018746 0.018083
0.300761 0.019527 0.018872
0.332573 0.020317 0.019669
0.364551 0.021114 0.020473
0.396691 0.021918 0.021284
0.428991 0.022730 0.022102
0.461449 0.023549 0.022927
0.494061 0.024375 0.023759
0.526827 0.025208 0.024597
0.559742 0.026048 0.025443
0.592805 0.026896 0.026295
0.626013 0.027750 0.027153
0.659363 0.028610 0.028018
0.692854 0.029478 0.028889
0.726346 0.030347 0.029762
0.759738 0.031216 0.030635
0.793217 0.032090 0.031512
0.817193 0.032674 0.032098
0.818981 0.032577 0.032003
0.820745 0.032482 0.031910
0.822486 0.032388 0.031817
0.001350 0.012573 0.011553
0.001335 0.012359 0.011349
0.001321 0.012147 0.011147
0.001308 0.011937 0.010948
0.022513 0.012384 0.011404
0.053036 0.013119 0.012149
0.083743 0.013863 0.012901
0.114629 0.014615 0.013662
0.145693 0.015375 0.014430
0.176932 0.016142 0.015206
0.208344 0.016918 0.015989
0.239924 0.017701 0.016779
0.271672 0.018491 0.017577
0.303585 0.019290 0.018381
0.335659 0.020095 0.019193
0.367893 0.020908 0.020012
0.400284 0.021728 0.020838
0.432829 0.022555 0.021670
0.465526 0.023390 0.022510
0.498373 0.024231 0.023356
0.531367 0.025079 0.024208
0.564505 0.025934 0.025067
0.597786 0.026796 0.025933
0.631207 0.027664 0.026805
0.664765 0.028539 0.027683
0.698458 0.029420 0.028567
0.732050 0.030301 0.029450
0.765550 0.031181 0.030333
0.799128 0.032066 0.031219
0.823143 0.032658 0.031814
0.824852 0.032566 0.031723
0.826537 0.032476 0.031634
0.828199 0.032387 0.031546
0.004948 0.049611 0.014520
0.004935 0.049392 0.014323
0.004923 0.049176 0.014127
0.004912 0.048963 0.013934
0.026333 0.049412 0.014402
0.057160 0.050153 0.015163
0.088164 0.050902 0.015931
0.119342 0.051660 0.016706
0.150692 0.052425 0.017489
0.182211 0.053198 0.018279
0.213896 0.053979 0.019077
0.245746 0.054767 0.019882
0.277757 0.055563 0.020693
0.309926 0.056367 0.021512
0.342252 0.057177 0.022338
0.374732 0.057996 0.023170
0.407364 0.058821 0.024009
0.440144 0.059653 0.024855
0.473071 0.060493 0.025707
0.506142 0.061339 0.026566
0.539355 0.062192 0.027432
0.572708 0.063052 0.028303
0.606197 0.063919 0.029181
0.639821 0.064793 0.030065
0.673578 0.065672 0.030955
0.707464 0.066559 0.031851
0.741121 0.067441 0.032742
0.774712 0.068323 0.033633
0.808372 0.069209 0.034528
0.832414 0.069802 0.035129
0.834044 0.069708 0.035042
0.835651 0.069615 0.034956
0.837235 0.069523 0.034872
0.008549 0.086592 0.017504
0.008539 0.086370 0.017313
0.008529 0.086151 0.017123
0.008520 0.085935 0.016936
0.030150 0.086387 0.017417
0.061270 0.087135 0.018193
0.092562 0.087891 0.018976
0.124022 0.088654 0.019766
0.155648 0.089426 0.020564
0.187438 0.090205 0.021368
0.219388 0.090992 0.022180
0.251497 0.091787 0.022999
0.283761 0.092589 0.023824
0.316179 0.093398 0.024657
0.348748 0.094215 0.025496
0.381465 0.095039 0.026342
0.414329 0.095871 0.027194
0.447336 0.096709 0.028053
0.480484 0.097554 0.028918
0.513771 0.098407 0.029789
0.547195 0.099266 0.030667
0.580753 0.100131 0.031551
0.614443 0.101004 0.032441
0.648262 0.101883 0.033337
0.682209 0.102769 0.034239
0.716281 0.103661 0.035147
0.749967 0.104544 0.036045
0.783634 0.105428 0.036944
0.817360 0.106317 0.037847
0.841418 0.106911 0.038454
0.842970 0.106815 0.038370
0.844499 0.106720 0.038288
0.846005 0.106627 0.038207
0.012154 0.123523 0.020505
0.012145 0.123299 0.020320
0.012138 0.123078 0.020137
0.012131 0.122860 0.019956
0.033964 0.123317 0.020449
0.065368 0.124071 0.021240
0.096938 0.124834 0.022037
0.128671 0.125605 0.022842
0.160564 0.126383 0.023654
0.192614 0.127170 0.024473
0.224820 0.127963 0.025299
0.257179 0.128765 0.026131
0.289688 0.129574 0.026970
0.322346 0.130390 0.027816
0.355148 0.131214 0.028668
0.388094 0.132045 0.029527
0.421181 0.132883 0.030393
0.454406 0.133728 0.031264
0.487767 0.134580 0.032142
0.521262 0.135438 0.033026
0.554889 0.136304 0.033916
0.588644 0.137177 0.034812
0.622527 0.138056 0.035714
0.656534 0.138941 0.036621
0.690663 0.139833 0.037535
0.724913 0.140732 0.038454
0.758592 0.141615 0.039357
0.792319 0.142503 0.040264
0.826094 0.143395 0.041175
0.850158 0.143991 0.041788
0.851633 0.143893 0.041708
0.853085 0.143798 0.041629
0.854515 0.143705 0.041551
0.015762 0.160409 0.023524
0.015756 0.160184 0.023344
0.015751 0.159961 0.023168
0.015747 0.159742 0.022993
0.037775 0.160205 0.023499
0.069454 0.160967 0.024304
0.101292 0.161738 0.025116
0.133288 0.162516 0.025935
0.165439 0.163303 0.026761
0.197742 0.164096 0.027593
0.230195 0.164898 0.028433
0.262795 0.165707 0.029279
0.295540 0.166524 0.030131
0.328428 0.167347 0.030990
0.361456 0.168178 0.031856
0.394622 0.169017 0.032727
0.427924 0.169862 0.033605
0.461359 0.170715 0.034489
0.494925 0.171574 0.035379
0.528619 0.172440 0.036275
0.562440 0.173313 0.037177
0.596386 0.174193 0.038085
0.630453 0.175079 0.038999
0.664640 0.175972 0.039918
0.698944 0.176871 0.040843
0.733271 0.177774 0.041770
0.766998 0.178661 0.042681
0.800769 0.179552 0.043595
0.834578 0.180448 0.044512
0.858638 0.181045 0.045131
0.860037 0.180948 0.045055
0.861413 0.180853 0.044979
0.862767 0.180760 0.044905
0.019375 0.197255 0.026559
0.019371 0.197030 0.026386
0.019369 0.196807 0.026216
0.019367 0.196589 0.026047
0.041584 0.197057 0.026565
0.073528 0.197828 0.027384
0.105627 0.198607 0.028211
0.137877 0.199394 0.029044
0.170276 0.200189 0.029883
0.202822 0.200991 0.030730
0.235513 0.201801 0.031583
0.268346 0.202618 0.032442
0.301318 0.203443 0.033308
0.334428 0.204275 0.034179
0.367673 0.205115 0.035058
0.401051 0.205961 0.035942
0.434559 0.206815 0.036832
0.468196 0.207675 0.037728
0.501959 0.208543 0.038631
0.535845 0.209417 0.039539
0.569853 0.210298 0.040452
0.603980 0.211185 0.041372
0.638224 0.212080 0.042297
0.672584 0.212980 0.043227
0.707056 0.213887 0.044163
0.741424 0.214794 0.045097
0.775189 0.215686 0.046015
0.808988 0.216581 0.046936
0.842816 0.217480 0.047860
0.866861 0.218080 0.048485
0.868185 0.217984 0.048411
0.869487 0.217890 0.048339
0.870767 0.217799 0.048269
0.022993 0.234067 0.029613
0.022992 0.233842 0.029446
0.022991 0.233621 0.029282
0.022992 0.233404 0.029120
0.045392 0.233879 0.029649
0.077592 0.234659 0.030483
0.109941 0.235448 0.031323
0.142436 0.236244 0.032170
0.175076 0.237048 0.033023
0.207856 0.237859 0.033883
0.240776 0.238678 0.034749
0.273833 0.239504 0.035621
0.307025 0.240338 0.036499
0.340348 0.241179 0.037384
0.373802 0.242027 0.038275
0.407384 0.242883 0.039171
0.441091 0.243745 0.040074
0.474921 0.244614 0.040982
0.508872 0.245490 0.041896
0.542943 0.246373 0.042816
0.577130 0.247263 0.043741
0.611431 0.248159 0.044672
0.645845 0.249062 0.045608
0.680369 0.249971 0.046549
0.715002 0.250887 0.047496
0.749382 0.251798 0.048437
0.783169 0.252694 0.049361
0.816981 0.253593 0.050289
0.850813 0.254496 0.051218
0.874832 0.255100 0.051848
0.876082 0.255006 0.051778
0.877311 0.254914 0.051710
0.878518 0.254825 0.051642
0.026616 0.270849 0.032684
0.026617 0.270627 0.032524
0.026620 0.270408 0.032366
0.026624 0.270193 0.032210
0.049200 0.270676 0.032751
0.081647 0.271466 0.033599
0.114238 0.272264 0.034453
0.146969 0.273070 0.035313
0.179839 0.273884 0.036179
0.212846 0.274705 0.037052
0.245987 0.275534 0.037931
0.279259 0.276370 0.038816
0.312661 0.277213 0.039707
0.346191 0.278064 0.040604
0.379845 0.278921 0.041507
0.413622 0.279786 0.042416
0.447520 0.280658 0.043330
0.481536 0.281537 0.044250
0.515669 0.282422 0.045176
0.549915 0.283315 0.046107
0.584274 0.284214 0.047043
0.618742 0.285119 0.047985
0.653319 0.286031 0.048932
0.688001 0.286950 0.049885
0.722787 0.287875 0.050842
0.757146 0.288790 0.051788
0.790941 0.289690 0.052719
0.824750 0.290595 0.053652
0.858571 0.291502 0.054587
0.882555 0.292110 0.055221
0.883733 0.292019 0.055155
0.884890 0.291930 0.055090
0.886025 0.291844 0.055027
0.030245 0.307608 0.035774
0.030249 0.307389 0.035620
0.030255 0.307173 0.035469
0.030261 0.306960 0.035319
0.053008 0.307452 0.035872
0.085693 0.308253 0.036733
0.118516 0.309062 0.037600
0.151476 0.309878 0.038473
0.184568 0.310702 0.039353
0.217793 0.311534 0.040238
0.251146 0.312373 0.041130
0.284626 0.313219 0.042028
0.318230 0.314073 0.042931
0.351957 0.314934 0.043840
0.385804 0.315802 0.044755
0.419769 0.316677 0.045676
0.453850 0.317559 0.046602
0.488044 0.318448 0.047533
0.522350 0.319344 0.048470
0.556766 0.320246 0.049413
0.591289 0.321155 0.050360
0.625917 0.322070 0.051313
0.660649 0.322992 0.052271
0.695482 0.323921 0.053233
0.730414 0.324856 0.054201
0.764722 0.325774 0.055152
0.798509 0.326680 0.056088
0.832301 0.327589 0.057026
0.866096 0.328502 0.057966
0.890035 0.329114 0.058605
0.891142 0.329027 0.058543
0.892228 0.328942 0.058481
0.893294 0.328859 0.058421
0.033881 0.344348 0.038882
0.033888 0.344133 0.038735
0.033896 0.343921 0.038590
0.033905 0.343713 0.038446
0.056816 0.344213 0.039010
0.089731 0.345025 0.039885
0.122778 0.345845 0.040765
0.155957 0.346673 0.041651
0.189264 0.347508 0.042544
0.222698 0.348351 0.043442
0.256255 0.349201 0.044346
0.289934 0.350059 0.045256
0.323733 0.350923 0.046171
0.357650 0.351795 0.047092
0.391682 0.352674 0.048019
0.425827 0.353560 0.048951
0.460083 0.354453 0.049889
0.494448 0.355352 0.050832
0.528921 0.356258 0.051780
0.563498 0.357171 0.052733
0.598178 0.358091 0.053691
0.632959 0.359017 0.054654
0.667839 0.359950 0.055623
0.702816 0.360889 0.056596
0.737888 0.361834 0.057574
0.772113 0.362756 0.058528
0.805877 0.363668 0.059469
0.839638 0.364583 0.060412
0.873392 0.365500 0.061357
0.897277 0.366118 0.062000
0.898315 0.366035 0.061941
0.899332 0.365954 0.061883
0.900329 0.365877 0.061827
0.037523 0.381075 0.042009
0.037533 0.380864 0.041868
0.037544 0.380657 0.041729
0.037556 0.380454 0.041593
0.060625 0.380964 0.042168
0.093761 0.381788 0.043055
0.127025 0.382620 0.043948
0.160415 0.383460 0.044847
0.193928 0.384307 0.045752
0.227562 0.385161 0.046662
0.261316 0.386023 0.047579
0.295187 0.386892 0.048501
0.329172 0.387768 0.049428
0.363271 0.388651 0.050361
0.397480 0.389542 0.051299
0.431798 0.390439 0.052242
0.466222 0.391343 0.053191
0.500751 0.392254 0.054145
0.535382 0.393172 0.055104
0.570114 0.394096 0.056068
0.604945 0.395027 0.057037
0.639872 0.395964 0.058010
0.674893 0.396908 0.058989
0.710007 0.397858 0.059972
0.745212 0.398814 0.060960
0.779323 0.399740 0.061916
0.813051 0.400658 0.062862
0.846766 0.401578 0.063810
0.880466 0.402502 0.064759
0.904286 0.403124 0.065405
0.905256 0.403047 0.065350
0.906206 0.402972 0.065296
0.907136 0.402900 0.065243
0.041173 0.417792 0.045155
0.041186 0.417587 0.045021
0.041200 0.417386 0.044888
0.041215 0.417188 0.044758
0.064437 0.417709 0.045344
0.097785 0.418546 0.046244
0.131257 0.419391 0.047149
0.164849 0.420242 0.048061
0.198560 0.421102 0.048978
0.232388 0.421969 0.049900
0.266330 0.422843 0.050829
0.300385 0.423724 0.051762
0.334549 0.424612 0.052701
0.368822 0.425508 0.053645
0.403201 0.426410 0.054595
0.437685 0.427320 0.055550
0.472270 0.428236 0.056509
0.506955 0.429159 0.057474
0.541739 0.430088 0.058443
0.576618 0.431024 0.059418
0.611592 0.431967 0.060397
0.646658 0.432916 0.061381
0.681815 0.433871 0.062370
0.717059 0.434833 0.063363
0.752391 0.435801 0.064360
0.786358 0.436730 0.065318
0.820034 0.437654 0.066268
0.853690 0.438581 0.067220
0.887320 0.439510 0.068172
0.911068 0.440139 0.068822
0.911972 0.440067 0.068770
0.912856 0.439999 0.068720
0.913721 0.439933 0.068671
0.044831 0.454506 0.048320
0.044847 0.454307 0.048192
0.044864 0.454112 0.048066
0.044882 0.453922 0.047942
0.068250 0.454454 0.048538
0.101803 0.455304 0.049451
0.135475 0.456161 0.050369
0.169262 0.457026 0.051293
0.203163 0.457899 0.052222
0.237176 0.458778 0.053156
0.271299 0.459665 0.054096
0.305530 0.460559 0.055041
0.339866 0.461461 0.055991
0.374306 0.462369 0.056947
0.408848 0.463284 0.057907
0.443490 0.464206 0.058873
0.478229 0.465134 0.059843
0.513064 0.466070 0.060818
0.547992 0.467012 0.061798
0.583013 0.467960 0.062783
0.618123 0.468915 0.063772
0.653322 0.469877 0.064766
0.688607 0.470844 0.065765
0.723977 0.471818 0.066767
0.759429 0.472798 0.067774
0.793222 0.473731 0.068732
0.826833 0.474661 0.069686
0.860414 0.475595 0.070641
0.893963 0.476530 0.071597
0.917628 0.477165 0.072250
0.918467 0.477101 0.072202
0.919288 0.477039 0.072155
0.920089 0.476980 0.072109
0.048497 0.491220 0.051505
0.048516 0.491028 0.051383
0.048536 0.490841 0.051263
0.048558 0.490658 0.051145
0.072067 0.491202 0.051752
0.105816 0.492066 0.052677
0.139679 0.492937 0.053607
0.173654 0.493816 0.054543
0.207738 0.494702 0.055483
0.241929 0.495595 0.056429
0.276225 0.496495 0.057381
0.310624 0.497403 0.058337
0.345125 0.498317 0.059299
0.379725 0.499239 0.060265
0.414423 0.500167 0.061236
0.449215 0.501102 0.062212
0.484101 0.502044 0.063193
0.519079 0.502992 0.064179
0.554146 0.503947 0.065169
0.589301 0.504909 0.066164
0.624542 0.505877 0.067163
0.659867 0.506851 0.068166
0.695275 0.507831 0.069174
0.730763 0.508818 0.070186
0.766329 0.509811 0.071203
0.799919 0.510746 0.072160
0.833451 0.511684 0.073117
0.866945 0.512624 0.074075
0.900398 0.513566 0.075034
0.923973 0.514207 0.075689
0.924749 0.514151 0.075645
0.925507 0.514097 0.075602
0.926247 0.514046 0.075560
0.052171 0.527939 0.054708
0.052194 0.527756 0.054593
0.052217 0.527577 0.054479
0.052242 0.527402 0.054368
0.075887 0.527959 0.054985
0.109825 0.528837 0.055922
0.143872 0.529722 0.056864
0.178026 0.530615 0.057811
0.212285 0.531515 0.058763
0.246646 0.532422 0.059721
0.281109 0.533336 0.060683
0.315670 0.534258 0.061651
0.350328 0.535186 0.062623
0.385081 0.536122 0.063600
0.419927 0.537064 0.064582
0.454864 0.538012 0.065568
0.489890 0.538968 0.066559
0.525004 0.539930 0.067555
0.560204 0.540899 0.068555
0.595487 0.541874 0.069559
0.630852 0.542855 0.070568
0.666297 0.543843 0.071581
0.701821 0.544836 0.072598
0.737421 0.545836 0.073620
0.772972 0.546839 0.074641
0.806455 0.547781 0.075601
0.839895 0.548725 0.076561
0.873289 0.549672 0.077522
0.906633 0.550621 0.078482
0.930108 0.551270 0.079141
0.930824 0.551221 0.079100
0.931522 0.551176 0.079060
0.932202 0.551134 0.079022
0.055855 0.564668 0.057932
0.055881 0.564494 0.057822
0.055908 0.564324 0.057715
0.055936 0.564158 0.057610
0.079711 0.564728 0.058238
0.113830 0.565621 0.059186
0.148054 0.566521 0.060139
0.182380 0.567428 0.061098
0.216806 0.568343 0.062061
0.251331 0.569265 0.063030
0.285952 0.570194 0.064003
0.320668 0.571130 0.064981
0.355476 0.572072 0.065964
0.390375 0.573022 0.066952
0.425363 0.573978 0.067944
0.460438 0.574941 0.068940
0.495598 0.575911 0.069941
0.530842 0.576887 0.070947
0.566167 0.577870 0.071957
0.601573 0.578859 0.072971
0.637056 0.579854 0.073989
0.672615 0.580856 0.075011
0.708250 0.581863 0.076038
0.743957 0.582877 0.077068
0.779449 0.583888 0.078093
0.812835 0.584838 0.079056
0.846170 0.585790 0.080018
0.879450 0.586744 0.080980
0.912673 0.587700 0.081943
0.936041 0.588356 0.082603
0.936697 0.588317 0.082566
0.937337 0.588280 0.082530
0.937959 0.588247 0.082496
0.059549 0.601410 0.061174
0.059578 0.601246 0.061071
0.059608 0.601086 0.060970
0.059639 0.600931 0.060871
0.083539 0.601514 0.061509
0.117832 0.602422 0.062469
0.152225 0.603338 0.063434
0.186716 0.604260 0.064403
0.221303 0.605190 0.065378
0.255983 0.606127 0.066357
0.290757 0.607071 0.067341
0.325620 0.608022 0.068330
0.360572 0.608979 0.069323
0.395611 0.609944 0.070321
0.430734 0.610915 0.071323
0.465941 0.611893 0.072329
0.501228 0.612877 0.073340
0.536596 0.613868 0.074355
0.572041 0.614865 0.075374
0.607562 0.615868 0.076398
0.643158 0.616878 0.077425
0.678826 0.617894 0.078456
0.714565 0.618916 0.079491
0.750374 0.619944 0.080531
0.785789 0.620964 0.081559
0.819065 0.621921 0.082524
0.852282 0.622881 0.083488
0.885436 0.623843 0.084452
0.918524 0.624806 0.085416
0.941777 0.625470 0.086078
0.942376 0.625440 0.086045
0.942960 0.625414 0.086012
0.943527 0.625390 0.085981
0.063252 0.638171 0.064437
0.063285 0.638018 0.064340
0.063318 0.637868 0.064245
0.063353 0.637724 0.064152
0.087373 0.638322 0.064800
0.121832 0.639245 0.065771
0.156387 0.640177 0.066747
0.191035 0.641115 0.067727
0.225776 0.642060 0.068712
0.260606 0.643013 0.069702
0.295524 0.643972 0.070697
0.330529 0.644938 0.071696
0.365618 0.645911 0.072699
0.400789 0.646891 0.073707
0.436042 0.647878 0.074718
0.471374 0.648870 0.075735
0.506783 0.649870 0.076755
0.542268 0.650876 0.077779
0.577827 0.651888 0.078808
0.613458 0.652906 0.079840
0.649161 0.653931 0.080876
0.684932 0.654962 0.081916
0.720771 0.655998 0.082960
0.756675 0.657041 0.084008
0.791997 0.658070 0.085039
0.825150 0.659035 0.086005
0.858236 0.660003 0.086971
0.891252 0.660972 0.087936
0.924195 0.661942 0.088901
0.947324 0.662615 0.089565
0.947869 0.662595 0.089535
0.948398 0.662579 0.089506
0.948911 0.662566 0.089479
0.066966 0.674955 0.067719
0.067002 0.674812 0.067628
0.067039 0.674674 0.067540
0.067078 0.674541 0.067453
0.091212 0.675154 0.068110
0.125830 0.676094 0.069092
0.160540 0.677041 0.070079
0.195339 0.677996 0.071070
0.230226 0.678957 0.072066
0.265199 0.679926 0.073066
0.300256 0.680901 0.074070
0.335395 0.681883 0.075079
0.370615 0.682872 0.076092
0.405913 0.683868 0.077110
0.441289 0.684870 0.078131
0.476740 0.685878 0.079157
0.512265 0.686893 0.080186
0.547862 0.687915 0.081220
0.583529 0.688942 0.082257
0.619265 0.689976 0.083298
0.655068 0.691016 0.084343
0.690938 0.692062 0.085392
0.726871 0.693114 0.086444
0.762867 0.694171 0.087500
0.798079 0.695209 0.088533
0.831097 0.696183 0.089501
0.864040 0.697158 0.090467
0.896906 0.698135 0.091433
0.929690 0.699113 0.092398
0.952689 0.699794 0.093064
0.953181 0.699786 0.093037
0.953658 0.699781 0.093012
0.954120 0.699779 0.092988
0.070690 0.711765 0.071021
0.070730 0.711634 0.070936
0.070771 0.711508 0.070854
0.070813 0.711387 0.070773
0.095057 0.712015 0.071440
0.129828 0.712972 0.072433
0.164686 0.713936 0.073430
0.199629 0.714907 0.074431
0.234656 0.715885 0.075437
0.269765 0.716870 0.076447
0.304954 0.717862 0.077462
0.340221 0.718860 0.078480
0.375565 0.719865 0.079503
0.410985 0.720877 0.080530
0.446477 0.721895 0.081561
0.482042 0.722920 0.082595
0.517677 0.723951 0.083634
0.553380 0.724988 0.084676
0.589150 0.726031 0.085722
0.624985 0.727081 0.086772
0.660885 0.728136 0.087826
0.696847 0.729198 0.088883
0.732869 0.730265 0.089943
0.768951 0.731339 0.091007
0.804040 0.732385 0.092042
0.836911 0.733368 0.093010
0.869700 0.734351 0.093977
0.902404 0.735336 0.094943
0.935019 0.736322 0.095908
0.957879 0.737011 0.096574
0.958320 0.737014 0.096552
0.958747 0.737021 0.096530
0.959160 0.737030 0.096510
0.074426 0.748605 0.074342
0.074469 0.748487 0.074264
0.074514 0.748374 0.074188
0.074560 0.748265 0.074113
0.098909 0.748909 0.074789
0.133825 0.749883 0.075792
0.168824 0.750864 0.076799
0.203905 0.751852 0.077811
0.239066 0.752847 0.078827
0.274304 0.753849 0.079847
0.309619 0.754858 0.080871
0.345009 0.755873 0.081899
0.380472 0.756894 0.082931
0.416006 0.757923 0.083967
0.451610 0.758957 0.085007
0.487282 0.759998 0.086050
0.523021 0.761046 0.087098
0.558826 0.762099 0.088149
0.594693 0.763159 0.089203
0.630623 0.764225 0.090262
0.666614 0.765296 0.091323
0.702663 0.766374 0.092388
0.738771 0.767457 0.093457
0.774934 0.768546 0.094528
0.809887 0.769602 0.095564
0.842599 0.770593 0.096533
0.875222 0.771585 0.097500
0.907752 0.772577 0.098466
0.940187 0.773571 0.099431
0.962902 0.774270 0.100097
0.963295 0.774285 0.100078
0.963675 0.774303 0.100060
0.964040 0.774324 0.100043
0.078173 0.785479 0.077684
0.078220 0.785374 0.077611
0.078269 0.785274 0.077541
0.078318 0.785179 0.077473
0.102768 0.785839 0.078158
0.137823 0.786831 0.079171
0.172957 0.787830 0.080188
0.208169 0.788835 0.081209
0.243457 0.789847 0.082235
0.278819 0.790866 0.083264
0.314254 0.791892 0.084298
0.349760 0.792924 0.085335
0.385336 0.793963 0.086376
0.420979 0.795008 0.087421
0.456689 0.796060 0.088470
0.492464 0.797118 0.089522
0.528302 0.798182 0.090578
0.564202 0.799252 0.091638
0.600162 0.800328 0.092700
0.636182 0.801410 0.093767
0.672258 0.802498 0.094836
0.708391 0.803592 0.095909
0.744579 0.804692 0.096985
0.780820 0.805797 0.098065
0.815625 0.806862 0.099101
0.848168 0.807861 0.100070
0.880613 0.808861 0.101037
0.912959 0.809863 0.102002
0.945202 0.810864 0.102966
0.967766 0.811572 0.103633
0.968113 0.811599 0.103617
0.968447 0.811630 0.103602
0.968769 0.811664 0.103589
0.081932 0.822391 0.081045
0.081983 0.822300 0.080979
0.082035 0.822214 0.080914
0.082088 0.822132 0.080852
0.106634 0.822810 0.081545
0.141821 0.823819 0.082568
0.177084 0.824836 0.083595
0.212421 0.825859 0.084626
0.247830 0.826889 0.085661
0.283310 0.827925 0.086700
0.318860 0.828969 0.087743
0.354477 0.830018 0.088789
0.390159 0.831075 0.089839
0.425907 0.832137 0.090893
0.461717 0.833206 0.091950
0.497589 0.834281 0.093011
0.533521 0.835362 0.094075
0.569512 0.836449 0.095142
0.605560 0.837542 0.096213
0.641664 0.838641 0.097287
0.677823 0.839746 0.098365
0.714035 0.840856 0.099445
0.750299 0.841972 0.100529
0.786613 0.843094 0.101616
0.821262 0.844168 0.102652
0.853623 0.845176 0.103620
0.885881 0.846185 0.104586
0.918032 0.847194 0.105551
0.950073 0.848204 0.106513
0.972478 0.848921 0.107180
0.972782 0.848961 0.107168
0.973074 0.849004 0.107157
0.973353 0.849051 0.107146
0.085617 0.858443 0.084338
0.085675 0.858402 0.084282
0.085734 0.858365 0.084227
0.085794 0.858331 0.084173
0.110434 0.859059 0.084879
0.145751 0.860118 0.085914
0.181140 0.861184 0.086954
0.216599 0.862256 0.087997
0.252126 0.863333 0.089044
0.287721 0.864417 0.090094
0.323382 0.865505 0.091149
0.359106 0.866600 0.092206
0.394894 0.867700 0.093267
0.430742 0.868806 0.094332
0.466650 0.869917 0.095400
0.502617 0.871034 0.096471
0.538641 0.872155 0.097546
0.574720 0.873282 0.098623
0.610854 0.874414 0.099704
