library/cube/Episode_One_004.cube
# CINEGRADE LAB — Premium Cinematic LUT
# Title: Episode One
# Category: Netflix Inspired
# Description: Cinematic teal/orange with filmic qualities inspired by streaming content
# Mood: Cinematic, binge-worthy, polished
# Variant: 5
# Generated: 2026-05-21T16:12:44.338806
TITLE "Episode One"
LUT_3D_SIZE 9
0.001526 0.014576 0.013706
0.021964 0.014261 0.013446
0.141356 0.017034 0.016268
0.263833 0.019943 0.019220
0.389224 0.022982 0.022296
0.517357 0.026144 0.025491
0.648068 0.029426 0.028800
0.780685 0.032804 0.032200
0.810319 0.033050 0.032463
0.004948 0.049611 0.014520
0.026333 0.049412 0.014402
0.150692 0.052425 0.017489
0.277757 0.055563 0.020693
0.407364 0.058821 0.024009
0.539355 0.062192 0.027432
0.673578 0.065672 0.030955
0.808372 0.069209 0.034528
0.837235 0.069523 0.034872
0.019375 0.197255 0.026559
0.041584 0.197057 0.026565
0.170276 0.200189 0.029883
0.301318 0.203443 0.033308
0.434559 0.206815 0.036832
0.569853 0.210298 0.040452
0.707056 0.213887 0.044163
0.842816 0.217480 0.047860
0.870767 0.217799 0.048269
0.033881 0.344348 0.038882
0.056816 0.344213 0.039010
0.189264 0.347508 0.042544
0.323733 0.350923 0.046171
0.460083 0.354453 0.049889
0.598178 0.358091 0.053691
0.737888 0.361834 0.057574
0.873392 0.365500 0.061357
0.900329 0.365877 0.061827
0.048497 0.491220 0.051505
0.072067 0.491202 0.051752
0.207738 0.494702 0.055483
0.345125 0.498317 0.059299
0.484101 0.502044 0.063193
0.624542 0.505877 0.067163
0.766329 0.509811 0.071203
0.900398 0.513566 0.075034
0.926247 0.514046 0.075560
0.063252 0.638171 0.064437
0.087373 0.638322 0.064800
0.225776 0.642060 0.068712
0.365618 0.645911 0.072699
0.506783 0.649870 0.076755
0.649161 0.653931 0.080876
0.791997 0.658070 0.085039
0.924195 0.661942 0.088901
0.948911 0.662566 0.089479
0.078173 0.785479 0.077684
0.102768 0.785839 0.078158
0.243457 0.789847 0.082235
0.385336 0.793963 0.086376
0.528302 0.798182 0.090578
0.672258 0.802498 0.094836
0.815625 0.806862 0.099101
0.945202 0.810864 0.102966
0.968769 0.811664 0.103589
0.092791 0.928284 0.090752
0.117807 0.929074 0.091349
0.260398 0.933505 0.095587
0.403955 0.937986 0.099875
0.548391 0.942514 0.104209
0.693624 0.947086 0.108587
0.837165 0.951625 0.112930
0.963427 0.955648 0.116758
0.985843 0.956492 0.117404
0.097114 0.963109 0.093626
0.122446 0.963888 0.094292
0.266553 0.968324 0.098631
0.411440 0.972784 0.103010
0.557039 0.977266 0.107426
0.703286 0.981768 0.111875
0.846787 0.986186 0.116252
0.969127 0.989953 0.119989
0.990423 0.990608 0.120625
0.002054 0.014811 0.066040
0.022592 0.014512 0.065656
0.142514 0.017314 0.068370
0.265482 0.020250 0.071216
0.391325 0.023315 0.074187
0.519873 0.026503 0.077279
0.650962 0.029808 0.080485
0.783850 0.033206 0.083782
0.813413 0.033461 0.083932
0.005488 0.049871 0.066437
0.026961 0.049688 0.066204
0.151785 0.052728 0.069189
0.279278 0.055892 0.072294
0.409277 0.059175 0.075511
0.541626 0.062570 0.078835
0.676173 0.066072 0.082262
0.811120 0.069625 0.085736
0.839896 0.069948 0.085974
0.019923 0.197502 0.078084
0.042210 0.197323 0.077982
0.171306 0.200483 0.081205
0.302719 0.203764 0.084535
0.436297 0.207161 0.087967
0.571895 0.210669 0.091495
0.709372 0.214282 0.095114
0.845162 0.217890 0.098714
0.873014 0.218220 0.099023
0.034439 0.344604 0.090042
0.057442 0.344490 0.090070
0.190239 0.347815 0.093513
0.325025 0.351257 0.097051
0.461661 0.354813 0.100680
0.600012 0.358477 0.104395
0.739950 0.362244 0.108191
0.875362 0.365925 0.111878
0.902191 0.366314 0.112253
0.049067 0.491505 0.102324
0.072696 0.491511 0.102477
0.208664 0.495039 0.106122
0.346319 0.498683 0.109852
0.485535 0.502437 0.113662
0.626189 0.506296 0.117547
0.768128 0.510254 0.121502
0.902024 0.514022 0.125239
0.927760 0.514517 0.125674
0.063837 0.638504 0.114936
0.088009 0.638679 0.115210
0.226661 0.642447 0.119039
0.366726 0.646327 0.122944
0.508089 0.650313 0.126917
0.650641 0.654400 0.130957
0.793550 0.658561 0.135035
0.925516 0.662447 0.138803
0.950115 0.663086 0.139292
0.078774 0.785875 0.127879
0.103412 0.786260 0.128267
0.244308 0.790298 0.132264
0.386370 0.794442 0.136325
0.529498 0.798688 0.140445
0.673595 0.803030 0.144623
0.816992 0.807416 0.148803
0.946264 0.811429 0.152573
0.969713 0.812244 0.153107
0.093416 0.928825 0.140663
0.118467 0.929622 0.141173
0.261225 0.934064 0.145329
0.404930 0.938556 0.149535
0.549495 0.943093 0.153787
0.694840 0.947674 0.158081
0.838384 0.952218 0.162338
0.964275 0.956235 0.166066
0.986576 0.957079 0.166620
0.097748 0.963642 0.143242
0.123108 0.964420 0.143821
0.267351 0.968860 0.148077
0.412358 0.973323 0.152372
0.558061 0.977807 0.156703
0.704401 0.982311 0.161065
0.847895 0.986728 0.165352
0.969811 0.990481 0.168985
0.991000 0.991132 0.169524
0.003462 0.015929 0.200602
0.024097 0.015643 0.199881
0.144539 0.018472 0.202278
0.267989 0.021433 0.204812
0.394275 0.024521 0.207477
0.523230 0.027732 0.210267
0.654690 0.031058 0.213177
0.787836 0.034474 0.216180
0.817323 0.034736 0.216033
0.006900 0.051007 0.199880
0.028458 0.050837 0.199332
0.153739 0.053902 0.202020
0.281652 0.057090 0.204832
0.412035 0.060395 0.207762
0.544734 0.063811 0.210804
0.679597 0.067333 0.213952
0.814683 0.070901 0.217147
0.843369 0.071231 0.217105
0.021335 0.198618 0.210478
0.043697 0.198455 0.210082
0.173191 0.201642 0.213026
0.304966 0.204948 0.216081
0.438874 0.208369 0.219242
0.574770 0.211899 0.222504
0.712514 0.215533 0.225861
0.848318 0.219154 0.229195
0.876069 0.219494 0.229240
0.035855 0.345724 0.221456
0.058924 0.345629 0.221207
0.192062 0.348980 0.224387
0.327158 0.352449 0.227667
0.464073 0.356029 0.231041
0.602675 0.359717 0.234503
0.742834 0.363506 0.238050
0.878139 0.367198 0.241482
0.904859 0.367599 0.241604
0.050490 0.492648 0.232818
0.074176 0.492675 0.232711
0.210434 0.496231 0.236107
0.348350 0.499902 0.239591
0.487799 0.503681 0.243157
0.628660 0.507564 0.246802
0.770720 0.511543 0.250516
0.904456 0.515323 0.254007
0.930076 0.515830 0.254199
0.065269 0.639690 0.244562
0.089488 0.639887 0.244589
0.228384 0.643683 0.248180
0.368666 0.647590 0.251848
0.510222 0.651601 0.255588
0.652942 0.655712 0.259395
0.795918 0.659894 0.263239
0.927642 0.663790 0.266766
0.952123 0.664443 0.267017
0.080216 0.787118 0.256680
0.104895 0.787527 0.256830
0.245992 0.791593 0.260596
0.388233 0.795763 0.264427
0.531517 0.800034 0.268320
0.675750 0.804400 0.272269
0.819172 0.808806 0.276219
0.948130 0.812827 0.279747
0.971461 0.813656 0.280047
0.094876 0.930201 0.268674
0.119959 0.931004 0.268951
0.262881 0.935456 0.272878
0.406728 0.939956 0.276856
0.551418 0.944502 0.280880
0.696872 0.949089 0.284945
0.840414 0.953636 0.288969
0.965927 0.957645 0.292452
0.988113 0.958489 0.292767
0.099213 0.965003 0.270465
0.124598 0.965780 0.270813
0.268972 0.970221 0.274840
0.414094 0.974685 0.278905
0.559899 0.979170 0.283003
0.706328 0.983675 0.287133
0.849814 0.988089 0.291181
0.971301 0.991826 0.294559
0.992381 0.992471 0.294850
0.004869 0.017050 0.334928
0.025599 0.016777 0.333874
0.146556 0.019631 0.335958
0.270481 0.022617 0.338184
0.397205 0.025729 0.340547
0.526560 0.028962 0.343040
0.658385 0.032309 0.345657
0.791778 0.035742 0.348371
0.821187 0.036012 0.347929
0.008311 0.052145 0.333102
0.029953 0.051988 0.332243
0.155685 0.055078 0.334638
0.284011 0.058289 0.337161
0.414774 0.061616 0.339807
0.547817 0.065053 0.342570
0.682991 0.068595 0.345444
0.818203 0.072177 0.348364
0.846798 0.072514 0.348045
0.022748 0.199738 0.342664
0.045183 0.199592 0.341978
0.175068 0.202804 0.344647
0.307201 0.206135 0.347431
0.441433 0.209579 0.350326
0.577622 0.213131 0.353324
0.715628 0.216787 0.356422
0.851435 0.220420 0.359494
0.879083 0.220769 0.359276
0.037272 0.346848 0.352675
0.060405 0.346772 0.352154
0.193879 0.350150 0.355075
0.329279 0.353644 0.358098
0.466469 0.357249 0.361219
0.605316 0.360960 0.364432
0.745693 0.364771 0.367732
0.880879 0.368474 0.370911
0.907488 0.368886 0.370784
0.051913 0.493797 0.363129
0.075654 0.493845 0.362764
0.212197 0.497429 0.365914
0.350370 0.501125 0.369154
0.490048 0.504929 0.372480
0.631112 0.508836 0.375886
0.773287 0.512835 0.379362
0.906854 0.516627 0.382607
0.932358 0.517147 0.382559
0.066700 0.640881 0.374015
0.090967 0.641100 0.373796
0.230102 0.644925 0.377152
0.370597 0.648858 0.380585
0.512341 0.652894 0.384092
0.655227 0.657029 0.387668
0.798264 0.661231 0.391280
0.929739 0.665137 0.394566
0.954102 0.665804 0.394582
0.081659 0.788368 0.385314
0.106377 0.788800 0.385228
0.247672 0.792893 0.388765
0.390087 0.797090 0.392368
0.533524 0.801386 0.396032
0.677890 0.805776 0.399754
0.821335 0.810200 0.403474
0.949972 0.814230 0.406762
0.973185 0.815073 0.406827
0.096336 0.931578 0.396522
0.121451 0.932387 0.396567
0.264532 0.936848 0.400267
0.408520 0.941357 0.404017
0.553331 0.945910 0.407812
0.698891 0.950505 0.411649
0.842431 0.955055 0.415439
0.967560 0.959055 0.418676
0.989630 0.959898 0.418752
0.100676 0.966362 0.397528
0.126087 0.967138 0.397644
0.270589 0.971580 0.401442
0.415825 0.976045 0.405276
0.561729 0.980531 0.409143
0.708247 0.985036 0.413037
0.851724 0.989447 0.416845
0.972777 0.993168 0.419966
0.993751 0.993808 0.420007
0.006275 0.018172 0.469018
0.027099 0.017913 0.467637
0.148564 0.020793 0.469412
0.272959 0.023803 0.471335
0.400113 0.026939 0.473399
0.529863 0.030193 0.475599
0.662048 0.033561 0.477929
0.795675 0.037011 0.480356
0.825006 0.037288 0.479624
0.009721 0.053285 0.466104
0.031446 0.053142 0.464939
0.157622 0.056257 0.467045
0.286357 0.059491 0.469284
0.417493 0.062840 0.471650
0.550875 0.066298 0.474137
0.686355 0.069859 0.476740
0.821681 0.073454 0.479388
0.850184 0.073798 0.478795
0.024160 0.200862 0.474646
0.046668 0.200732 0.473673
0.176938 0.203970 0.476070
0.309423 0.207325 0.478587
0.443974 0.210792 0.481218
0.580451 0.214367 0.483957
0.718714 0.218043 0.486798
0.854511 0.221689 0.489610
0.882056 0.222047 0.489133
0.038688 0.347977 0.483702
0.061884 0.347919 0.482912
0.195689 0.351324 0.485576
0.331389 0.354844 0.488346
0.468849 0.358473 0.491218
0.607937 0.362206 0.494184
0.748527 0.366039 0.497240
0.883583 0.369754 0.500168
0.910080 0.370177 0.499793
0.053336 0.494952 0.493259
0.077132 0.495020 0.492640
0.213955 0.498631 0.495545
0.352380 0.502354 0.498544
0.492283 0.506182 0.501631
0.633545 0.510113 0.504800
0.775830 0.514132 0.508039
0.909220 0.517935 0.511042
0.934607 0.518467 0.510754
0.068132 0.642079 0.503296
0.092446 0.642320 0.502834
0.231815 0.646172 0.505955
0.372519 0.650131 0.509156
0.514448 0.654193 0.512432
0.657495 0.658351 0.515778
0.800589 0.662573 0.519158
0.931808 0.666489 0.522204
0.956051 0.667169 0.521985
0.083102 0.789625 0.513783
0.107859 0.790080 0.513462
0.249347 0.794200 0.516771
0.391934 0.798423 0.520146
0.535520 0.802743 0.523584
0.680016 0.807156 0.527079
0.823480 0.811600 0.530569
0.951790 0.815638 0.533617
0.974884 0.816493 0.533447
0.097796 0.932956 0.524210
0.122942 0.933770 0.524023
0.266179 0.938240 0.527496
0.410303 0.942758 0.531018
0.555235 0.947319 0.534585
0.700898 0.951920 0.538192
0.844434 0.956474 0.541748
0.969175 0.960465 0.544738
0.991129 0.961307 0.544573
0.102140 0.967720 0.524432
0.127576 0.968494 0.524315
0.272203 0.972938 0.527884
0.417549 0.977404 0.531487
0.563552 0.981890 0.535119
0.710157 0.986395 0.538778
0.853626 0.990804 0.542343
0.974241 0.994509 0.545206
0.995110 0.995143 0.544994
0.007681 0.019297 0.602877
0.028598 0.019051 0.601172
0.150564 0.021956 0.602643
0.275421 0.024991 0.604267
0.403001 0.028150 0.606037
0.533140 0.031426 0.607948
0.665679 0.034815 0.609993
0.799529 0.038281 0.612138
0.828779 0.038565 0.611120
0.011131 0.054428 0.598890
0.032938 0.054299 0.597422
0.159552 0.057437 0.599242
0.288689 0.060695 0.601201
0.420192 0.064065 0.603291
0.553908 0.067543 0.605506
0.689690 0.071124 0.607842
0.825117 0.074733 0.610221
0.853525 0.075084 0.609357
0.025571 0.201989 0.606425
0.048152 0.201875 0.605169
0.178802 0.205138 0.607298
0.311632 0.208518 0.609551
0.446498 0.212008 0.611921
0.583257 0.215604 0.614403
0.721773 0.219301 0.616991
0.857548 0.222959 0.619545
0.884988 0.223326 0.618812
0.040104 0.349111 0.614539
0.063363 0.349072 0.613482
0.197494 0.352503 0.615893
0.333488 0.356048 0.618413
0.471212 0.359700 0.621037
0.610537 0.363457 0.623759
0.751336 0.367311 0.626574
0.886249 0.371036 0.629252
0.912635 0.371470 0.628632
0.054759 0.496112 0.623209
0.078609 0.496200 0.622338
0.215708 0.499838 0.625002
0.354380 0.503587 0.627762
0.494503 0.507440 0.630612
0.635960 0.511393 0.633546
0.778348 0.515433 0.636550
0.911552 0.519246 0.639311
0.936823 0.519791 0.638785
0.069565 0.643283 0.632405
0.093924 0.643546 0.631702
0.233523 0.647425 0.634591
0.374432 0.651410 0.637561
0.516542 0.655496 0.640608
0.659747 0.659678 0.643725
0.802893 0.663920 0.646874
0.933848 0.667844 0.649681
0.957972 0.668537 0.649228
0.084545 0.790888 0.642087
0.109341 0.791366 0.641533
0.251019 0.795513 0.644615
0.393772 0.799762 0.647764
0.537505 0.804106 0.650976
0.682129 0.808542 0.654244
0.825608 0.813005 0.657505
0.953584 0.817049 0.660312
0.976561 0.817918 0.659907
0.099256 0.934335 0.651736
0.124432 0.935154 0.651318
0.267822 0.939634 0.654564
0.412080 0.944159 0.657859
0.557129 0.948727 0.661197
0.702894 0.953335 0.664574
0.846425 0.957892 0.667896
0.970771 0.961874 0.670637
0.992611 0.962715 0.670230
0.103603 0.969076 0.651175
0.129063 0.969848 0.650827
0.273814 0.974294 0.654165
0.419268 0.978761 0.657535
0.565367 0.983248 0.660933
0.712059 0.987753 0.664354
0.855520 0.992159 0.667676
0.975694 0.995847 0.670277
0.996460 0.996475 0.669808
0.009086 0.020424 0.736505
0.030094 0.020191 0.734481
0.152555 0.023122 0.735652
0.277869 0.026181 0.736981
0.405868 0.029362 0.738462
0.536390 0.032660 0.740088
0.669277 0.036069 0.741853
0.803338 0.039552 0.743718
0.832507 0.039842 0.742417
0.012540 0.055574 0.731460
0.034429 0.055457 0.729694
0.161475 0.058620 0.731234
0.291008 0.061900 0.732915
0.422873 0.065292 0.734732
0.556917 0.068791 0.736680
0.692994 0.072391 0.738751
0.828510 0.076012 0.740864
0.856824 0.076370 0.739734
0.026983 0.203120 0.738003
0.049634 0.203022 0.736467
0.180658 0.206311 0.738332
0.313829 0.209714 0.740323
0.449004 0.213227 0.742437
0.586041 0.216845 0.744665
0.724805 0.220562 0.747003
0.860545 0.224232 0.749301
0.887880 0.224608 0.748315
0.041520 0.350249 0.745186
0.064841 0.350228 0.743867
0.199291 0.353686 0.746027
0.335576 0.357255 0.748300
0.473560 0.360932 0.750680
0.613116 0.364710 0.753160
0.754121 0.368586 0.755735
0.888880 0.372321 0.758166
0.915153 0.372766 0.757302
0.056183 0.497277 0.752981
0.080085 0.497386 0.751860
0.217455 0.501051 0.754285
0.356370 0.504825 0.756808
0.496709 0.508702 0.759424
0.638357 0.512678 0.762125
0.780842 0.516738 0.764895
0.913852 0.520561 0.767415
0.939006 0.521118 0.766653
0.070997 0.644493 0.761345
0.095402 0.644778 0.760403
0.235227 0.648684 0.763061
0.376337 0.652695 0.765802
0.518623 0.656805 0.768620
0.661982 0.661010 0.771509
0.805177 0.665271 0.774429
0.935860 0.669204 0.776997
0.959865 0.669910 0.776310
0.085988 0.792158 0.770227
0.110822 0.792659 0.769442
0.252686 0.796832 0.772298
0.395603 0.801106 0.775221
0.539480 0.805474 0.778207
0.684228 0.809933 0.781250
0.827720 0.814414 0.784280
0.955356 0.818465 0.786846
0.978215 0.819347 0.786206
0.100715 0.935714 0.779102
0.125921 0.936539 0.778453
0.269460 0.941027 0.781473
0.413850 0.945560 0.784540
0.559013 0.950136 0.787650
0.704879 0.954751 0.790796
0.848403 0.959310 0.793882
0.972349 0.963282 0.796374
0.994075 0.964122 0.795722
0.105065 0.970431 0.777759
0.130549 0.971201 0.777177
0.275421 0.975648 0.780285
0.420982 0.980116 0.783422
0.567175 0.984603 0.786584
0.713953 0.989108 0.789765
0.857408 0.993511 0.792840
0.977136 0.997184 0.795177
0.997800 0.997806 0.794449
0.010191 0.021254 0.841909
0.031311 0.021055 0.841518
0.154280 0.024032 0.844258
0.280063 0.027134 0.847080
0.408494 0.030356 0.849977
0.539411 0.033692 0.852945
0.672657 0.037138 0.855978
0.806932 0.040652 0.859036
0.836033 0.040964 0.858847
0.013717 0.056490 0.842046
0.035703 0.056404 0.841659
0.163192 0.059608 0.844516
0.293132 0.062927 0.847440
0.425368 0.066356 0.850429
0.559750 0.069889 0.853476
0.696132 0.073522 0.856575
0.831737 0.077168 0.859642
0.859967 0.077545 0.859393
0.028218 0.204079 0.852927
0.050955 0.204013 0.852528
0.182361 0.207340 0.855468
0.315881 0.210781 0.858465
0.451372 0.214329 0.861515
0.588694 0.217980 0.864612
0.727713 0.221729 0.867752
0.863416 0.225420 0.870779
0.890655 0.225815 0.870456
0.042808 0.351264 0.863646
0.066202 0.351274 0.863232
0.200979 0.354769 0.866238
0.337559 0.358374 0.869291
0.475809 0.362084 0.872386
0.615602 0.365895 0.875518
0.756817 0.369800 0.878682
0.891418 0.373553 0.881630
0.917585 0.374015 0.881227
0.057517 0.498359 0.874214
0.081481 0.498498 0.873779
0.219126 0.502198 0.876835
0.358288 0.506006 0.879927
0.498847 0.509915 0.883050
0.640689 0.513922 0.886200
0.783273 0.518007 0.889360
0.916087 0.521846 0.892204
0.941128 0.522421 0.891716
0.072371 0.645651 0.884634
0.096828 0.645965 0.884174
0.236881 0.649905 0.887262
0.378194 0.653947 0.890375
0.520660 0.658087 0.893510
0.664176 0.662320 0.896662
0.807419 0.666604 0.899790
0.937827 0.670550 0.902506
0.961717 0.671272 0.901925
0.087397 0.793399 0.894905
0.112274 0.793928 0.894413
0.254324 0.798133 0.897514
0.397406 0.802436 0.900632
0.541427 0.806832 0.903762
0.686300 0.811316 0.906900
0.829807 0.815818 0.909977
0.957098 0.819878 0.912535
0.979842 0.820774 0.911853
0.102156 0.937076 0.904560
0.127395 0.937909 0.904033
0.271084 0.942409 0.907131
0.415605 0.946953 0.910232
0.560882 0.951538 0.913331
0.706848 0.956161 0.916426
0.850367 0.960725 0.919419
0.973908 0.964689 0.921769
0.995523 0.965528 0.920952
0.106519 0.971775 0.903437
0.132029 0.972546 0.902827
0.277020 0.976996 0.905869
0.422688 0.981466 0.908903
0.568976 0.985955 0.911925
0.715839 0.990461 0.914935
0.859289 0.994862 0.917806
0.978568 0.998518 0.919898
0.999134 0.999134 0.918913
0.010584 0.021375 0.880373
0.031805 0.021201 0.880799
0.155268 0.024214 0.884330
0.281506 0.027351 0.887904
0.410354 0.030606 0.891515
0.541653 0.033974 0.895159
0.675247 0.037450 0.898830
0.809718 0.040988 0.902485
0.838743 0.041316 0.902850
0.014153 0.056668 0.883097
0.036228 0.056606 0.883401
0.164147 0.059844 0.886921
0.294482 0.063194 0.890472
0.427078 0.066653 0.894051
0.561786 0.070215 0.897651
0.698462 0.073875 0.901269
0.834139 0.077541 0.904813
0.862279 0.077932 0.905003
0.028690 0.204279 0.896142
0.051504 0.204237 0.896312
0.183282 0.207598 0.899795
0.317141 0.211070 0.903299
0.452938 0.214649 0.906822
0.590535 0.218328 0.910357
0.729801 0.222103 0.913902
0.865450 0.225811 0.917293
0.892589 0.226221 0.917300
0.043314 0.351502 0.908626
0.066775 0.351537 0.908665
0.201869 0.355065 0.912100
0.338735 0.358701 0.915547
0.477243 0.362441 0.919004
0.617265 0.366279 0.922466
0.758682 0.370211 0.925929
0.893112 0.373978 0.929135
0.919170 0.374457 0.928962
0.058054 0.498649 0.920581
0.082076 0.498814 0.920491
0.219988 0.502547 0.923867
0.359389 0.506385 0.927248
0.500162 0.510323 0.930630
0.642191 0.514357 0.934009
0.784866 0.518466 0.937367
0.917474 0.522319 0.940374
0.942401 0.522909 0.940024
0.072938 0.646007 0.932032
0.097443 0.646347 0.931816
0.237718 0.650318 0.935124
0.379229 0.654389 0.938429
0.521868 0.658557 0.941728
0.665536 0.662817 0.945018
0.808822 0.667123 0.948255
0.938947 0.671081 0.951046
0.962721 0.671818 0.950521
0.087990 0.793831 0.943006
0.112907 0.794386 0.942665
0.255140 0.798621 0.945895
0.398383 0.802952 0.949117
0.542544 0.807374 0.952326
0.687540 0.811883 0.955520
0.831057 0.816405 0.958627
0.957997 0.820474 0.961183
0.980627 0.821384 0.960485
0.102777 0.937618 0.953067
0.128048 0.938460 0.952606
0.271883 0.942971 0.955751
0.416532 0.947526 0.958876
0.561922 0.952120 0.961979
0.707986 0.956752 0.965057
0.851500 0.961320 0.968013
0.974633 0.965276 0.970295
0.996137 0.966116 0.969403
0.107153 0.972298 0.952071
0.132687 0.973070 0.951454
0.277797 0.977523 0.954472
0.423569 0.981995 0.957464
0.569951 0.986486 0.960429
0.716901 0.990995 0.963364
0.860348 0.995394 0.966145
0.979177 0.999036 0.968122
0.999648 0.999648 0.967023
