library/cube/Ethereal_Love_002.cube
# CINEGRADE LAB — Premium Cinematic LUT
# Title: Ethereal Love
# Category: Dreamy Wedding
# Description: Soft, romantic, warm highlights with pastel tones for wedding photography
# Mood: Romantic, ethereal, tender
# Variant: 3
# Generated: 2026-05-21T16:12:18.893998
TITLE "Ethereal Love"
LUT_3D_SIZE 33
0.193668 0.185418 0.185418
0.211868 0.185443 0.185443
0.230460 0.185490 0.185490
0.249405 0.185558 0.185558
0.268672 0.185645 0.185644
0.288237 0.185749 0.185748
0.308077 0.185871 0.185869
0.328175 0.186009 0.186007
0.348515 0.186162 0.186160
0.369085 0.186331 0.186328
0.389871 0.186514 0.186510
0.410864 0.186711 0.186706
0.432054 0.186922 0.186916
0.453433 0.187146 0.187139
0.474993 0.187383 0.187376
0.496727 0.187633 0.187624
0.518629 0.187895 0.187885
0.540694 0.188169 0.188158
0.562917 0.188456 0.188443
0.585291 0.188754 0.188740
0.607814 0.189063 0.189048
0.630480 0.189384 0.189367
0.653287 0.189716 0.189698
0.676229 0.190059 0.190039
0.699306 0.190413 0.190391
0.722512 0.190778 0.190754
0.745845 0.191154 0.191128
0.769303 0.191540 0.191512
0.792836 0.191934 0.191904
0.816391 0.192335 0.192303
0.826334 0.192153 0.192119
0.825709 0.191520 0.191484
0.825094 0.190893 0.190854
0.193417 0.203808 0.185524
0.211643 0.203851 0.185567
0.230262 0.203917 0.185632
0.249233 0.204003 0.185718
0.268528 0.204108 0.185823
0.288120 0.204231 0.185945
0.307989 0.204372 0.186085
0.328116 0.204528 0.186240
0.348485 0.204700 0.186412
0.369084 0.204887 0.186598
0.389901 0.205089 0.186799
0.410924 0.205305 0.187014
0.432146 0.205534 0.187242
0.453556 0.205777 0.187484
0.475148 0.206033 0.187738
0.496915 0.206302 0.188005
0.518851 0.206583 0.188285
0.540950 0.206876 0.188576
0.563207 0.207181 0.188880
0.585616 0.207498 0.189195
0.608174 0.207826 0.189522
0.630876 0.208166 0.189860
0.653719 0.208517 0.190209
0.676699 0.208879 0.190569
0.699813 0.209252 0.190940
0.723057 0.209636 0.191322
0.746430 0.210031 0.191714
0.769927 0.210436 0.192117
0.793503 0.210849 0.192528
0.817065 0.211268 0.192944
0.827047 0.211105 0.192779
0.826458 0.210491 0.192162
0.825880 0.209883 0.191552
0.193308 0.222683 0.185747
0.211561 0.222745 0.185808
0.230206 0.222829 0.185892
0.249205 0.222933 0.185995
0.268528 0.223057 0.186118
0.288149 0.223199 0.186259
0.308046 0.223358 0.186417
0.328203 0.223533 0.186591
0.348602 0.223724 0.186781
0.369232 0.223929 0.186986
0.390079 0.224150 0.187205
0.411134 0.224384 0.187438
0.432387 0.224633 0.187685
0.453830 0.224894 0.187945
0.475456 0.225169 0.188218
0.497256 0.225456 0.188504
0.519226 0.225756 0.188802
0.541360 0.226068 0.189112
0.563651 0.226392 0.189434
0.586096 0.226728 0.189768
0.608691 0.227075 0.190113
0.631430 0.227434 0.190470
0.654310 0.227804 0.190838
0.677328 0.228185 0.191217
0.700480 0.228578 0.191606
0.723764 0.228980 0.192007
0.747176 0.229394 0.192418
0.770713 0.229818 0.192840
0.794338 0.230251 0.193270
0.817904 0.230687 0.193703
0.827938 0.230544 0.193557
0.827386 0.229949 0.192960
0.826844 0.229360 0.192367
0.193334 0.242000 0.186081
0.211614 0.242081 0.186160
0.230287 0.242183 0.186262
0.249314 0.242307 0.186384
0.268666 0.242449 0.186525
0.288316 0.242609 0.186685
0.308243 0.242787 0.186861
0.328430 0.242980 0.187053
0.348860 0.243190 0.187262
0.369521 0.243415 0.187485
0.390400 0.243654 0.187722
0.411487 0.243907 0.187974
0.432773 0.244174 0.188239
0.454249 0.244455 0.188518
0.475908 0.244748 0.188810
0.497743 0.245054 0.189114
0.519748 0.245373 0.189430
0.541917 0.245704 0.189759
0.564245 0.246047 0.190100
0.586727 0.246402 0.190453
0.609358 0.246768 0.190817
0.632135 0.247146 0.191192
0.655053 0.247535 0.191579
0.678110 0.247935 0.191976
0.701302 0.248346 0.192385
0.724625 0.248768 0.192804
0.748077 0.249201 0.193234
0.771656 0.249644 0.193674
0.795336 0.250097 0.194124
0.818903 0.250550 0.194575
0.828999 0.250427 0.194448
0.828466 0.249851 0.193869
0.827943 0.249280 0.193295
0.193490 0.261726 0.186521
0.211798 0.261825 0.186619
0.230499 0.261946 0.186739
0.249556 0.262088 0.186880
0.268937 0.262249 0.187040
0.288617 0.262428 0.187217
0.308575 0.262624 0.187412
0.328792 0.262837 0.187623
0.349254 0.263065 0.187849
0.369946 0.263308 0.188091
0.390858 0.263566 0.188347
0.411978 0.263838 0.188617
0.433298 0.264124 0.188901
0.454808 0.264424 0.189198
0.476502 0.264736 0.189508
0.498372 0.265061 0.189831
0.520413 0.265399 0.190167
0.542618 0.265749 0.190514
0.564982 0.266111 0.190874
0.587502 0.266484 0.191245
0.610171 0.266870 0.191628
0.632986 0.267267 0.192022
0.655944 0.267675 0.192427
0.679040 0.268094 0.192843
0.702272 0.268524 0.193271
0.725637 0.268965 0.193709
0.749130 0.269417 0.194158
0.772751 0.269880 0.194617
0.796493 0.270353 0.195087
0.820058 0.270823 0.195554
0.830171 0.270719 0.195446
0.829671 0.270161 0.194885
0.829181 0.269609 0.194329
0.193773 0.281832 0.187065
0.212110 0.281950 0.187181
0.230840 0.282090 0.187320
0.249926 0.282250 0.187479
0.269337 0.282430 0.187657
0.289048 0.282628 0.187853
0.309037 0.282842 0.188066
0.329286 0.283074 0.188295
0.349780 0.283321 0.188540
0.370505 0.283583 0.188800
0.391450 0.283860 0.189075
0.412604 0.284151 0.189364
0.433958 0.284455 0.189666
0.455503 0.284774 0.189982
0.477233 0.285105 0.190311
0.499139 0.285449 0.190652
0.521216 0.285805 0.191006
0.543458 0.286174 0.191372
0.565860 0.286555 0.191751
0.588418 0.286948 0.192141
0.611126 0.287353 0.192542
0.633981 0.287769 0.192955
0.656978 0.288196 0.193379
0.680115 0.288634 0.193815
0.703388 0.289084 0.194261
0.726794 0.289544 0.194718
0.750330 0.290015 0.195186
0.773994 0.290497 0.195664
0.797782 0.290989 0.196153
0.821367 0.291478 0.196638
0.831496 0.291391 0.196547
0.831028 0.290852 0.196005
0.830571 0.290319 0.195467
0.194179 0.302295 0.187709
0.212545 0.302431 0.187843
0.231305 0.302590 0.188000
0.250422 0.302769 0.188178
0.269864 0.302967 0.188374
0.289606 0.303184 0.188588
0.309627 0.303418 0.188820
0.329908 0.303668 0.189068
0.350435 0.303933 0.189331
0.371194 0.304214 0.189610
0.392173 0.304510 0.189903
0.413362 0.304820 0.190211
0.434751 0.305144 0.190532
0.456332 0.305481 0.190866
0.478097 0.305831 0.191214
0.500040 0.306194 0.191574
0.522154 0.306570 0.191946
0.544435 0.306957 0.192331
0.566875 0.307357 0.192728
0.589472 0.307769 0.193137
0.612220 0.308193 0.193557
0.635115 0.308628 0.193989
0.658153 0.309074 0.194432
0.681332 0.309532 0.194886
0.704647 0.310001 0.195351
0.728095 0.310480 0.195827
0.751674 0.310971 0.196314
0.775382 0.311472 0.196811
0.799214 0.311984 0.197319
0.822826 0.312491 0.197823
0.832969 0.312422 0.197750
0.832535 0.311902 0.197226
0.832110 0.311388 0.196707
0.194706 0.323094 0.188450
0.213102 0.323249 0.188603
0.231893 0.323427 0.188778
0.251040 0.323625 0.188974
0.270514 0.323842 0.189189
0.290288 0.324077 0.189422
0.310341 0.324330 0.189672
0.330656 0.324598 0.189938
0.351216 0.324883 0.190220
0.372010 0.325183 0.190517
0.393023 0.325498 0.190829
0.414247 0.325826 0.191155
0.435672 0.326169 0.191495
0.457290 0.326525 0.191848
0.479092 0.326894 0.192214
0.501073 0.327276 0.192593
0.523226 0.327671 0.192984
0.545545 0.328078 0.193388
0.568025 0.328497 0.193804
0.590661 0.328928 0.194231
0.613449 0.329371 0.194671
0.636386 0.329825 0.195121
0.659466 0.330291 0.195583
0.682686 0.330768 0.196056
0.706044 0.331256 0.196540
0.729536 0.331754 0.197035
0.753160 0.332264 0.197541
0.776912 0.332785 0.198057
0.800789 0.333316 0.198584
0.824433 0.333842 0.199106
0.834590 0.333791 0.199051
0.834188 0.333290 0.198545
0.833797 0.332794 0.198045
0.195350 0.344213 0.189286
0.213777 0.344387 0.189457
0.232599 0.344583 0.189651
0.251778 0.344800 0.189865
0.271284 0.345036 0.190099
0.291091 0.345290 0.190350
0.311178 0.345561 0.190619
0.331526 0.345849 0.190903
0.352121 0.346152 0.191204
0.372950 0.346471 0.191520
0.393999 0.346805 0.191850
0.415259 0.347152 0.192195
0.436721 0.347514 0.192553
0.458376 0.347889 0.192925
0.480216 0.348277 0.193310
0.502235 0.348679 0.193708
0.524427 0.349092 0.194118
0.546785 0.349518 0.194541
0.569306 0.349957 0.194975
0.591983 0.350407 0.195421
0.614813 0.350869 0.195880
0.637791 0.351342 0.196349
0.660914 0.351827 0.196830
0.684177 0.352323 0.197322
0.707579 0.352831 0.197825
0.731115 0.353349 0.198339
0.754784 0.353878 0.198864
0.778581 0.354418 0.199399
0.802506 0.354968 0.199945
0.826187 0.355513 0.200486
0.836355 0.355481 0.200448
0.835987 0.354998 0.199961
0.835629 0.354522 0.199480
0.196110 0.365636 0.190215
0.214568 0.365829 0.190405
0.233422 0.366044 0.190617
0.252634 0.366279 0.190850
0.272173 0.366534 0.191101
0.292013 0.366807 0.191371
0.312134 0.367097 0.191659
0.332518 0.367404 0.191962
0.353148 0.367726 0.192281
0.374012 0.368064 0.192616
0.395098 0.368417 0.192965
0.416395 0.368783 0.193328
0.437894 0.369164 0.193705
0.459587 0.369558 0.194096
0.481466 0.369965 0.194500
0.503525 0.370386 0.194916
0.525756 0.370819 0.195345
0.548155 0.371264 0.195787
0.570717 0.371721 0.196240
0.593435 0.372191 0.196705
0.616307 0.372672 0.197182
0.639328 0.373165 0.197671
0.662495 0.373669 0.198171
0.685803 0.374184 0.198682
0.709249 0.374711 0.199204
0.732831 0.375249 0.199737
0.756545 0.375797 0.200281
0.780389 0.376357 0.200835
0.804360 0.376926 0.201400
0.828085 0.377491 0.201960
0.838264 0.377476 0.201940
0.837929 0.377013 0.201471
0.837604 0.376555 0.201008
0.196984 0.387350 0.191235
0.215474 0.387562 0.191444
0.234361 0.387796 0.191674
0.253606 0.388050 0.191925
0.273178 0.388323 0.192196
0.293053 0.388615 0.192484
0.313209 0.388924 0.192790
0.333628 0.389250 0.193112
0.354294 0.389592 0.193450
0.375195 0.389948 0.193803
0.396318 0.390320 0.194171
0.417653 0.390706 0.194553
0.439190 0.391105 0.194949
0.460922 0.391519 0.195358
0.482841 0.391945 0.195781
0.504939 0.392385 0.196216
0.527212 0.392837 0.196664
0.549652 0.393301 0.197124
0.572255 0.393778 0.197597
0.595017 0.394267 0.198081
0.617932 0.394767 0.198577
0.640996 0.395279 0.199084
0.664207 0.395803 0.199603
0.687560 0.396338 0.200133
0.711052 0.396884 0.200674
0.734680 0.397441 0.201227
0.758441 0.398009 0.201789
0.782332 0.398587 0.202363
0.806352 0.399177 0.202947
0.830126 0.399761 0.203526
0.840315 0.399764 0.203524
0.840013 0.399319 0.203074
0.839721 0.398880 0.202629
0.197970 0.409344 0.192345
0.216493 0.409574 0.192572
0.235413 0.409827 0.192821
0.254692 0.410100 0.193091
0.274299 0.410392 0.193380
0.294208 0.410703 0.193687
0.314400 0.411031 0.194012
0.334855 0.411376 0.194352
0.355558 0.411736 0.194709
0.376496 0.412112 0.195081
0.397657 0.412503 0.195467
0.419031 0.412908 0.195868
0.440607 0.413326 0.196283
0.462379 0.413759 0.196711
0.484338 0.414205 0.197152
0.506478 0.414663 0.197607
0.528792 0.415134 0.198073
0.551274 0.415618 0.198552
0.573920 0.416114 0.199044
0.596725 0.416622 0.199547
0.619684 0.417142 0.200062
0.642793 0.417674 0.200588
0.666049 0.418216 0.201126
0.689448 0.418771 0.201675
0.712987 0.419336 0.202236
0.736662 0.419913 0.202807
0.760470 0.420500 0.203389
0.784410 0.421099 0.203982
0.808479 0.421708 0.204585
0.832309 0.422312 0.205184
0.842506 0.422332 0.205199
0.842238 0.421907 0.204767
0.841979 0.421487 0.204341
0.199066 0.431606 0.193543
0.217623 0.431855 0.193789
0.236577 0.432126 0.194057
0.255890 0.432419 0.194345
0.275532 0.432730 0.194653
0.295478 0.433060 0.194978
0.315706 0.433407 0.195322
0.336198 0.433770 0.195681
0.356939 0.434150 0.196056
0.377915 0.434545 0.196447
0.399115 0.434955 0.196852
0.420528 0.435379 0.197272
0.442144 0.435817 0.197705
0.463957 0.436268 0.198152
0.485957 0.436733 0.198613
0.508138 0.437211 0.199086
0.530495 0.437702 0.199571
0.553020 0.438205 0.200069
0.575710 0.438720 0.200580
0.598559 0.439247 0.201102
0.621563 0.439787 0.201636
0.644718 0.440338 0.202182
0.668020 0.440900 0.202739
0.691466 0.441474 0.203307
0.715051 0.442059 0.203886
0.738774 0.442655 0.204477
0.762632 0.443262 0.205078
0.786621 0.443880 0.205690
0.810740 0.444508 0.206313
0.834633 0.445132 0.206931
0.844837 0.445171 0.206963
0.844602 0.444764 0.206550
0.844377 0.444363 0.206143
0.200272 0.454127 0.194829
0.218862 0.454395 0.195093
0.237851 0.454686 0.195379
0.257200 0.454997 0.195686
0.276878 0.455327 0.196012
0.296860 0.455676 0.196357
0.317125 0.456042 0.196719
0.337655 0.456425 0.197097
0.358434 0.456823 0.197491
0.379450 0.457237 0.197900
0.400689 0.457666 0.198325
0.422142 0.458110 0.198763
0.443800 0.458567 0.199215
0.465653 0.459038 0.199681
0.487696 0.459522 0.200160
0.509920 0.460019 0.200652
0.532319 0.460529 0.201157
0.554889 0.461051 0.201674
0.577623 0.461586 0.202203
0.600517 0.462133 0.202745
0.623567 0.462691 0.203298
0.646769 0.463262 0.203862
0.670118 0.463844 0.204439
0.693611 0.464437 0.205026
0.717245 0.465042 0.205625
0.741017 0.465657 0.206234
0.764924 0.466284 0.206855
0.788964 0.466921 0.207486
0.813133 0.467570 0.208128
0.837096 0.468214 0.208766
0.847306 0.468270 0.208816
0.847104 0.467883 0.208422
0.846752 0.467502 0.208027
0.201585 0.476899 0.196200
0.220210 0.477186 0.196483
0.239235 0.477495 0.196788
0.258620 0.477826 0.197113
0.278334 0.478175 0.197458
0.298354 0.478543 0.197822
0.318657 0.478928 0.198202
0.339225 0.479330 0.198599
0.360044 0.479748 0.199012
0.381099 0.480181 0.199440
0.402379 0.480629 0.199883
0.423873 0.481092 0.200340
0.445572 0.481568 0.200812
0.467468 0.482058 0.201296
0.489553 0.482562 0.201795
0.511821 0.483078 0.202306
0.534265 0.483607 0.202829
0.556879 0.484149 0.203365
0.579659 0.484703 0.203914
0.602599 0.485270 0.204474
0.625696 0.485848 0.205046
0.648944 0.486438 0.205630
0.672341 0.487039 0.206225
0.695883 0.487652 0.206832
0.719567 0.488276 0.207450
0.743389 0.488911 0.208079
0.767346 0.489558 0.208719
0.791437 0.490215 0.209369
0.815658 0.490883 0.210031
0.839417 0.491552 0.210679
0.849290 0.491631 0.210734
0.848784 0.491267 0.210346
0.848288 0.490908 0.209963
0.203005 0.499914 0.197656
0.221666 0.500220 0.197958
0.240726 0.500548 0.198281
0.260148 0.500898 0.198626
0.279901 0.501266 0.198989
0.299958 0.501653 0.199371
0.320300 0.502057 0.199770
0.340908 0.502478 0.200186
0.361766 0.502915 0.200618
0.382862 0.503368 0.201065
0.404183 0.503835 0.201527
0.425719 0.504317 0.202003
0.447461 0.504813 0.202493
0.469400 0.505322 0.202997
0.491529 0.505845 0.203514
0.513841 0.506381 0.204044
0.536330 0.506930 0.204587
0.558990 0.507491 0.205142
0.581816 0.508065 0.205710
0.604803 0.508650 0.206289
0.627947 0.509248 0.206880
0.651244 0.509857 0.207483
0.674690 0.510478 0.208098
0.698281 0.511111 0.208724
0.722015 0.511755 0.209361
0.745826 0.512411 0.210007
0.769522 0.513084 0.210655
0.793336 0.513767 0.211314
0.817266 0.514460 0.211982
0.841031 0.515151 0.212648
0.850897 0.515248 0.212720
0.850424 0.514904 0.212351
0.849962 0.514565 0.211987
0.204531 0.523165 0.199196
0.223228 0.523490 0.199516
0.242325 0.523837 0.199859
0.261785 0.524205 0.200222
0.281575 0.524593 0.200604
0.301672 0.524999 0.201005
0.322053 0.525423 0.201423
0.342701 0.525863 0.201858
0.363600 0.526319 0.202308
0.384737 0.526791 0.202774
0.406101 0.527278 0.203255
0.427679 0.527779 0.203750
0.449465 0.528294 0.204259
0.471448 0.528823 0.204782
0.493621 0.529365 0.205318
0.515979 0.529920 0.205867
0.538513 0.530488 0.206429
0.561220 0.531069 0.207003
0.584093 0.531662 0.207590
0.607128 0.532268 0.208189
0.630321 0.532885 0.208799
0.653667 0.533514 0.209421
0.677003 0.534160 0.210050
0.700352 0.534821 0.210685
0.723829 0.535492 0.211331
0.747431 0.536174 0.211987
0.771154 0.536867 0.212654
0.794996 0.537569 0.213331
0.818954 0.538282 0.214018
0.842785 0.538995 0.214704
0.852641 0.539110 0.214793
0.852203 0.538785 0.214442
0.851775 0.538466 0.214097
0.206162 0.546645 0.200820
0.224896 0.546989 0.201158
0.244031 0.547355 0.201519
0.263528 0.547743 0.201901
0.283358 0.548150 0.202302
0.303494 0.548575 0.202722
0.323916 0.549018 0.203159
0.344604 0.549477 0.203612
0.365545 0.549953 0.204082
0.386725 0.550444 0.204567
0.408131 0.550950 0.205067
0.429753 0.551470 0.205581
0.451582 0.552005 0.206109
0.473610 0.552553 0.206651
0.495830 0.553115 0.207206
0.518233 0.553689 0.207774
0.540815 0.554277 0.208355
0.563569 0.554877 0.208948
0.586490 0.555490 0.209554
0.609333 0.556125 0.210164
0.632303 0.556773 0.210785
0.655411 0.557432 0.211417
0.678655 0.558101 0.212060
0.702031 0.558782 0.212714
0.725535 0.559473 0.213378
0.749164 0.560175 0.214053
0.772915 0.560887 0.214738
0.796786 0.561609 0.215433
0.820774 0.562342 0.216138
0.844676 0.563076 0.216845
0.854523 0.563209 0.216951
0.854119 0.562905 0.216619
0.853724 0.562606 0.216292
0.207896 0.570348 0.202525
0.226668 0.570711 0.202883
0.245841 0.571097 0.203262
0.265378 0.571504 0.203663
0.285247 0.571930 0.204083
0.305424 0.572374 0.204522
0.325886 0.572836 0.204977
0.346617 0.573315 0.205450
0.367600 0.573810 0.205938
0.388823 0.574320 0.206442
0.410273 0.574845 0.206961
0.431940 0.575385 0.207494
0.453814 0.575939 0.208041
0.475888 0.576507 0.208602
0.498153 0.577088 0.209176
0.520536 0.577687 0.209762
0.542927 0.578307 0.210354
0.565476 0.578940 0.210959
0.588179 0.579584 0.211576
0.611031 0.580240 0.212203
0.634026 0.580907 0.212843
0.657161 0.581585 0.213493
0.680432 0.582274 0.214154
0.703835 0.582975 0.214826
0.727368 0.583686 0.215509
0.751025 0.584407 0.216202
0.774806 0.585139 0.216906
0.798706 0.585881 0.217620
0.822724 0.586634 0.218343
0.846705 0.587390 0.219071
0.856540 0.587540 0.219193
0.856170 0.587256 0.218880
0.855809 0.586977 0.218572
0.209734 0.594269 0.204312
0.228544 0.594652 0.204689
0.247756 0.595057 0.205087
0.267333 0.595482 0.205507
0.287243 0.595928 0.205946
0.307460 0.596391 0.206403
0.327965 0.596873 0.206877
0.348738 0.597371 0.207369
0.369765 0.597885 0.207876
0.391031 0.598415 0.208399
0.412526 0.598959 0.208937
0.434238 0.599519 0.209489
0.456021 0.600103 0.210052
0.477922 0.600705 0.210625
0.500002 0.601320 0.211212
0.522253 0.601948 0.211811
0.544668 0.602588 0.212422
0.567243 0.603240 0.213045
0.589972 0.603904 0.213680
0.612850 0.604579 0.214326
0.635872 0.605266 0.214983
0.659035 0.605964 0.215652
0.682334 0.606673 0.216332
0.705765 0.607393 0.217022
0.729326 0.608124 0.217724
0.753014 0.608865 0.218435
0.776824 0.609617 0.219157
0.800755 0.610379 0.219890
0.824804 0.611151 0.220632
0.848870 0.611930 0.221381
0.858692 0.612098 0.221519
0.858355 0.611834 0.221225
0.858029 0.611575 0.220936
0.211674 0.618403 0.206180
0.230523 0.618805 0.206575
0.249775 0.619229 0.206993
0.269392 0.619674 0.207431
0.289344 0.620138 0.207889
0.309603 0.620621 0.208365
0.330151 0.621122 0.208859
0.350967 0.621640 0.209369
0.372034 0.622174 0.209895
0.393158 0.622740 0.210433
0.414498 0.623322 0.210984
0.436042 0.623917 0.211549
0.457781 0.624526 0.212128
0.479707 0.625148 0.212720
0.501811 0.625782 0.213325
0.524087 0.626430 0.213942
0.546529 0.627090 0.214572
0.569130 0.627761 0.215213
0.591886 0.628445 0.215866
0.614791 0.629140 0.216531
0.637841 0.629846 0.217207
0.661031 0.630564 0.217894
0.684359 0.631293 0.218592
0.707820 0.632033 0.219301
0.731411 0.632783 0.220021
0.755128 0.633544 0.220751
0.778970 0.634316 0.221492
0.802932 0.635098 0.222243
0.827013 0.635890 0.223004
0.851169 0.636691 0.223773
0.860977 0.636878 0.223929
0.860674 0.636633 0.223653
0.860381 0.636394 0.223383
0.213715 0.642745 0.208129
0.232604 0.643166 0.208543
0.251897 0.643609 0.208979
0.271556 0.644073 0.209436
0.291549 0.644557 0.209913
0.311790 0.645067 0.210407
0.332213 0.645607 0.210915
0.352892 0.646163 0.211440
0.373812 0.646734 0.211981
0.394960 0.647320 0.212536
0.416324 0.647921 0.213106
0.437892 0.648536 0.213689
0.459656 0.649164 0.214287
0.481607 0.649806 0.214897
0.503736 0.650460 0.215520
0.526039 0.651127 0.216156
0.548507 0.651807 0.216803
0.571135 0.652498 0.217463
0.593918 0.653201 0.218135
0.616852 0.653916 0.218818
0.639930 0.654643 0.219512
0.663150 0.655380 0.220218
0.686507 0.656129 0.220935
0.709999 0.656889 0.221662
0.733620 0.657659 0.222401
0.757369 0.658440 0.223149
0.781242 0.659232 0.223909
0.805237 0.660033 0.224678
0.829350 0.660846 0.225458
0.853581 0.661668 0.226248
0.863396 0.661874 0.226421
0.863126 0.661649 0.226164
0.862866 0.661431 0.225912
0.215858 0.667290 0.210157
0.234788 0.667730 0.210589
0.254017 0.668209 0.211043
0.273567 0.668714 0.211516
0.293440 0.669238 0.212008
0.313609 0.669780 0.212518
0.334055 0.670339 0.213045
0.354757 0.670915 0.213588
0.375701 0.671506 0.214147
0.396873 0.672111 0.214721
0.418262 0.672732 0.215309
0.439855 0.673366 0.215911
0.461644 0.674014 0.216526
0.483621 0.674675 0.217155
0.505777 0.675350 0.217796
0.528106 0.676036 0.218450
0.550602 0.676735 0.219116
0.573258 0.677447 0.219795
0.596070 0.678170 0.220485
0.619032 0.678904 0.221186
0.642140 0.679651 0.221899
0.665390 0.680408 0.222624
0.688778 0.681177 0.223359
0.712300 0.681956 0.224105
0.735953 0.682747 0.224862
0.759734 0.683548 0.225629
0.783640 0.684359 0.226407
0.807668 0.685181 0.227196
0.831815 0.686013 0.227994
0.856080 0.686856 0.228803
0.865945 0.687082 0.228995
0.865709 0.686878 0.228757
0.865483 0.686679 0.228524
0.217833 0.692084 0.212260
0.236658 0.692566 0.212709
0.255876 0.693070 0.213180
0.275448 0.693595 0.213671
0.295344 0.694138 0.214182
0.315536 0.694700 0.214710
0.336005 0.695278 0.215255
0.356732 0.695873 0.215817
0.377701 0.696484 0.216394
0.398898 0.697109 0.216986
0.420311 0.697749 0.217592
0.441930 0.698404 0.218212
0.463746 0.699071 0.218846
0.485749 0.699752 0.219493
0.507933 0.700446 0.220153
0.530290 0.701153 0.220825
0.552814 0.701872 0.221510
0.575499 0.702603 0.222207
0.598340 0.703346 0.222916
0.621332 0.704100 0.223636
0.644470 0.704866 0.224367
0.667751 0.705644 0.225110
0.691170 0.706432 0.225864
0.714724 0.707232 0.226629
0.738410 0.708042 0.227404
0.762224 0.708863 0.228190
0.786163 0.709695 0.228987
0.810225 0.710537 0.229794
0.834407 0.711389 0.230611
0.858707 0.712252 0.231439
0.868625 0.712499 0.231651
0.868422 0.712315 0.231431
0.868229 0.712136 0.231217
0.219751 0.717109 0.214441
0.238598 0.717610 0.214908
0.257839 0.718134 0.215397
0.277435 0.718678 0.215906
0.297354 0.719241 0.216435
0.317571 0.719822 0.216982
0.338064 0.720421 0.217545
0.358815 0.721035 0.218125
0.379809 0.721665 0.218720
0.401032 0.722311 0.219331
0.422471 0.722970 0.219955
0.444117 0.723644 0.220594
0.465960 0.724332 0.221246
0.487991 0.725032 0.221912
0.510203 0.725746 0.222590
0.532588 0.726472 0.223281
0.555141 0.727211 0.223984
0.577856 0.727962 0.224700
0.600727 0.728725 0.225427
0.623750 0.729500 0.226165
0.646919 0.730286 0.226916
0.670232 0.731083 0.227677
0.693683 0.731891 0.228450
0.717270 0.732711 0.229233
0.740989 0.733541 0.230027
0.764837 0.734383 0.230832
0.788811 0.735234 0.231647
0.812908 0.736097 0.232473
0.837125 0.736969 0.233309
0.861461 0.737852 0.234155
0.871435 0.738120 0.234387
0.871265 0.737956 0.234186
0.871104 0.737798 0.233990
0.221772 0.742333 0.216700
0.240643 0.742854 0.217186
0.259907 0.743397 0.217693
0.279526 0.743961 0.218221
0.299470 0.744543 0.218768
0.319711 0.745144 0.219333
0.340229 0.745762 0.219915
0.361006 0.746396 0.220513
0.382026 0.747046 0.221126
0.403276 0.747711 0.221755
0.424742 0.748391 0.222398
0.446416 0.749084 0.223055
0.468286 0.749792 0.223726
0.490346 0.750512 0.224410
0.512586 0.751246 0.225107
0.535001 0.751992 0.225816
0.557584 0.752751 0.226538
0.580330 0.753522 0.227272
0.603232 0.754305 0.228018
0.626286 0.755099 0.228775
0.649487 0.755905 0.229544
0.672832 0.756723 0.230324
0.696317 0.757551 0.231115
0.719938 0.758391 0.231917
0.743691 0.759241 0.232730
0.767573 0.760103 0.233554
0.791582 0.760975 0.234388
0.815715 0.761857 0.235232
0.839969 0.762750 0.236087
0.864342 0.763653 0.236952
0.874372 0.763943 0.237204
0.874235 0.763799 0.237021
0.874107 0.763660 0.236844
0.223896 0.767752 0.219039
0.242790 0.768293 0.219542
0.262078 0.768856 0.220068
0.281722 0.769439 0.220614
0.301691 0.770042 0.221179
0.321958 0.770662 0.221763
0.342502 0.771300 0.222363
0.363305 0.771954 0.222979
0.384352 0.772624 0.223612
0.405628 0.773308 0.224259
0.427123 0.774008 0.224920
0.448824 0.774721 0.225596
0.470724 0.775448 0.226285
0.492812 0.776189 0.226988
0.515083 0.776942 0.227703
0.537528 0.777709 0.228431
0.560142 0.778487 0.229171
0.582918 0.779278 0.229924
0.605852 0.780081 0.230688
