library/cube/Ethereal_Love_002.cube
# CINEGRADE LAB — Premium Cinematic LUT
# Title: Ethereal Love
# Category: Dreamy Wedding
# Description: Soft, romantic, warm highlights with pastel tones for wedding photography
# Mood: Romantic, ethereal, tender
# Variant: 3
# Generated: 2026-05-21T16:12:18.893998
TITLE "Ethereal Love"
LUT_3D_SIZE 5
0.193668 0.185418 0.185418
0.348515 0.186162 0.186160
0.518629 0.187895 0.187885
0.699306 0.190413 0.190391
0.825094 0.190893 0.190854
0.195350 0.344213 0.189286
0.352121 0.346152 0.191204
0.524427 0.349092 0.194118
0.707579 0.352831 0.197825
0.835629 0.354522 0.199480
0.204531 0.523165 0.199196
0.363600 0.526319 0.202308
0.538513 0.530488 0.206429
0.723829 0.535492 0.211331
0.851775 0.538466 0.214097
0.219751 0.717109 0.214441
0.379809 0.721665 0.218720
0.555141 0.727211 0.223984
0.740989 0.733541 0.230027
0.871104 0.737798 0.233990
0.229626 0.854904 0.225571
0.391417 0.860703 0.231027
0.568736 0.867504 0.237477
0.756849 0.875104 0.244719
0.889470 0.880641 0.249892
0.193591 0.185631 0.340528
0.348616 0.186495 0.341387
0.518933 0.188349 0.343232
0.699840 0.190989 0.345859
0.825851 0.191591 0.346441
0.195820 0.344827 0.344790
0.352806 0.346888 0.346829
0.525355 0.349951 0.349863
0.708782 0.353813 0.353693
0.837077 0.355627 0.355468
0.205538 0.524181 0.355096
0.364861 0.527459 0.358329
0.540061 0.531753 0.362573
0.724894 0.536906 0.367572
0.853035 0.540001 0.370456
0.220950 0.718595 0.370730
0.381164 0.723271 0.375127
0.556678 0.728937 0.380510
0.742733 0.735388 0.386672
0.873090 0.739767 0.390756
0.231372 0.856810 0.382259
0.393358 0.862731 0.387833
0.570901 0.869655 0.394404
0.759268 0.877378 0.401767
0.892146 0.883039 0.407062
0.193785 0.186100 0.509933
0.348992 0.187084 0.510911
0.519515 0.189058 0.512874
0.700656 0.191821 0.515622
0.826903 0.192544 0.516325
0.196559 0.345697 0.514590
0.353763 0.347880 0.516748
0.526561 0.351065 0.519904
0.710267 0.355052 0.523856
0.838814 0.356989 0.525753
0.206814 0.525453 0.525291
0.366394 0.528855 0.528645
0.541886 0.533273 0.533012
0.726242 0.538576 0.538108
0.854584 0.541791 0.541112
0.222418 0.720337 0.541316
0.382794 0.725132 0.545830
0.558492 0.730918 0.551330
0.744759 0.737491 0.557612
0.875361 0.741993 0.561817
0.233388 0.858973 0.553241
0.395573 0.865014 0.558935
0.573345 0.872061 0.565626
0.761970 0.879908 0.573111
0.895103 0.885693 0.578527
0.194179 0.186753 0.688944
0.349570 0.187857 0.690040
0.520305 0.189953 0.692124
0.701685 0.192838 0.694992
0.828176 0.193684 0.695816
0.197497 0.346752 0.693997
0.354924 0.349056 0.696275
0.527974 0.352365 0.699552
0.711963 0.356476 0.703626
0.840768 0.358536 0.705645
0.208288 0.526910 0.705092
0.368129 0.530435 0.708568
0.543275 0.535009 0.713038
0.727803 0.540431 0.718252
0.856351 0.543767 0.721375
0.224087 0.722264 0.721507
0.384627 0.727178 0.726139
0.560514 0.733084 0.731758
0.746997 0.739779 0.738160
0.877848 0.744405 0.742486
0.235602 0.861320 0.733830
0.397992 0.867483 0.739643
0.575996 0.874652 0.746455
0.764884 0.882624 0.754062
0.898271 0.888533 0.759599
0.193818 0.186637 0.814328
0.349399 0.187861 0.815542
0.520349 0.190078 0.817745
0.701972 0.193086 0.820734
0.828675 0.194053 0.821678
0.197680 0.347037 0.819775
0.355333 0.349463 0.822173
0.528640 0.352895 0.825572
0.712917 0.357131 0.829769
0.841986 0.359315 0.831909
0.209006 0.527598 0.831265
0.369113 0.531247 0.834863
0.543918 0.535977 0.839436
0.728623 0.541518 0.844768
0.857382 0.544975 0.848010
0.225001 0.723422 0.848071
0.385709 0.728455 0.852820
0.561790 0.734482 0.858558
0.748494 0.741299 0.865080
0.879596 0.746048 0.869527
0.237062 0.862898 0.860791
0.399659 0.869183 0.866724
0.577900 0.876475 0.873656
0.767057 0.884572 0.881385
0.900695 0.890605 0.887044
