library/cube/Ethereal_Love_002.cube
# CINEGRADE LAB — Premium Cinematic LUT
# Title: Ethereal Love
# Category: Dreamy Wedding
# Description: Soft, romantic, warm highlights with pastel tones for wedding photography
# Mood: Romantic, ethereal, tender
# Variant: 3
# Generated: 2026-05-21T16:12:18.893998
TITLE "Ethereal Love"
LUT_3D_SIZE 9
0.193668 0.185418 0.185418
0.268672 0.185645 0.185644
0.348515 0.186162 0.186160
0.432054 0.186922 0.186916
0.518629 0.187895 0.187885
0.607814 0.189063 0.189048
0.699306 0.190413 0.190391
0.792836 0.191934 0.191904
0.825094 0.190893 0.190854
0.193490 0.261726 0.186521
0.268937 0.262249 0.187040
0.349254 0.263065 0.187849
0.433298 0.264124 0.188901
0.520413 0.265399 0.190167
0.610171 0.266870 0.191628
0.702272 0.268524 0.193271
0.796493 0.270353 0.195087
0.829181 0.269609 0.194329
0.195350 0.344213 0.189286
0.271284 0.345036 0.190099
0.352121 0.346152 0.191204
0.436721 0.347514 0.192553
0.524427 0.349092 0.194118
0.614813 0.350869 0.195880
0.707579 0.352831 0.197825
0.802506 0.354968 0.199945
0.835629 0.354522 0.199480
0.199066 0.431606 0.193543
0.275532 0.432730 0.194653
0.356939 0.434150 0.196056
0.442144 0.435817 0.197705
0.530495 0.437702 0.199571
0.621563 0.439787 0.201636
0.715051 0.442059 0.203886
0.810740 0.444508 0.206313
0.844377 0.444363 0.206143
0.204531 0.523165 0.199196
0.281575 0.524593 0.200604
0.363600 0.526319 0.202308
0.449465 0.528294 0.204259
0.538513 0.530488 0.206429
0.630321 0.532885 0.208799
0.723829 0.535492 0.211331
0.818954 0.538282 0.214018
0.851775 0.538466 0.214097
0.211674 0.618403 0.206180
0.289344 0.620138 0.207889
0.372034 0.622174 0.209895
0.457781 0.624526 0.212128
0.546529 0.627090 0.214572
0.637841 0.629846 0.217207
0.731411 0.632783 0.220021
0.827013 0.635890 0.223004
0.860381 0.636394 0.223383
0.219751 0.717109 0.214441
0.297354 0.719241 0.216435
0.379809 0.721665 0.218720
0.465960 0.724332 0.221246
0.555141 0.727211 0.223984
0.646919 0.730286 0.226916
0.740989 0.733541 0.230027
0.837125 0.736969 0.233309
0.871104 0.737798 0.233990
0.228447 0.819166 0.223950
0.306446 0.821613 0.226238
0.389325 0.824354 0.228817
0.475931 0.827338 0.231639
0.565600 0.830537 0.234674
0.657899 0.833933 0.237904
0.752525 0.837512 0.241316
0.849253 0.841264 0.244899
0.883873 0.842420 0.245884
0.229626 0.854904 0.225571
0.308065 0.857656 0.228152
0.391417 0.860703 0.231027
0.478527 0.863995 0.234145
0.568736 0.867504 0.237477
0.661611 0.871211 0.241007
0.756849 0.875104 0.244719
0.854228 0.879171 0.248606
0.889470 0.880641 0.249892
0.193588 0.185485 0.260682
0.268635 0.185741 0.260938
0.348524 0.186289 0.261483
0.432111 0.187079 0.262269
0.518739 0.188082 0.263268
0.607979 0.189281 0.264461
0.699530 0.190662 0.265834
0.793123 0.192213 0.267378
0.825428 0.191202 0.266357
0.193548 0.261893 0.261884
0.269042 0.262446 0.262432
0.349409 0.263293 0.263272
0.433507 0.264382 0.264353
0.520679 0.265687 0.265649
0.610498 0.267189 0.267140
0.702664 0.268874 0.268814
0.796956 0.270734 0.270661
0.829683 0.270019 0.269932
0.195544 0.344481 0.264748
0.271529 0.345334 0.265590
0.352422 0.346481 0.266726
0.437080 0.347873 0.268105
0.524849 0.349482 0.269700
0.615301 0.351289 0.271492
0.708138 0.353282 0.273468
0.803138 0.355451 0.275619
0.836309 0.355035 0.275183
0.199395 0.431974 0.269104
0.275917 0.433129 0.270243
0.357383 0.434579 0.271677
0.442653 0.436277 0.273356
0.531071 0.438193 0.275253
0.622212 0.440309 0.277348
0.715776 0.442612 0.279629
0.811545 0.445094 0.282087
0.845239 0.444979 0.281947
0.204993 0.523633 0.274856
0.282099 0.525093 0.276294
0.364189 0.526850 0.278028
0.450122 0.528855 0.280010
0.539245 0.531081 0.282210
0.631130 0.533509 0.284611
0.724319 0.536160 0.287161
0.819489 0.538980 0.289877
0.852361 0.539194 0.289986
0.212269 0.618973 0.281938
0.290005 0.620739 0.283677
0.372522 0.622830 0.285708
0.458308 0.625211 0.287970
0.547096 0.627805 0.290443
0.638452 0.630592 0.293108
0.732070 0.633559 0.295952
0.827724 0.636696 0.298964
0.861151 0.637231 0.299373
0.220309 0.717813 0.290295
0.297949 0.719974 0.292319
0.380445 0.722428 0.294633
0.466639 0.725125 0.297189
0.555867 0.728034 0.299956
0.647695 0.731139 0.302917
0.741818 0.734425 0.306059
0.838011 0.737884 0.309371
0.872054 0.738743 0.310082
0.229143 0.819977 0.299904
0.307184 0.822454 0.302221
0.390108 0.825225 0.304830
0.476762 0.828239 0.307682
0.566483 0.831469 0.310747
0.658837 0.834895 0.314007
0.753522 0.838504 0.317448
0.850314 0.842288 0.321062
0.884998 0.843474 0.322078
0.230458 0.855818 0.301624
0.308944 0.858600 0.304235
0.392345 0.861677 0.307139
0.479510 0.865000 0.310287
0.569776 0.868540 0.313650
0.662712 0.872278 0.317210
0.758015 0.876201 0.320953
0.855463 0.880300 0.324870
0.890765 0.881800 0.326186
0.193591 0.185631 0.340528
0.268681 0.185917 0.340812
0.348616 0.186495 0.341387
0.432253 0.187315 0.342203
0.518933 0.188349 0.343232
0.608229 0.189578 0.344455
0.699840 0.190989 0.345859
0.793498 0.192571 0.347432
0.825851 0.191591 0.346441
0.193688 0.262139 0.341828
0.269230 0.262723 0.342406
0.349648 0.263599 0.343275
0.433800 0.264719 0.344387
0.521030 0.266055 0.345713
0.610910 0.267587 0.347234
0.703141 0.269303 0.348938
0.797502 0.271194 0.350815
0.830271 0.270509 0.350116
0.195820 0.344827 0.344790
0.271857 0.345711 0.345663
0.352806 0.346888 0.346829
0.437523 0.348311 0.348238
0.525355 0.349951 0.349863
0.615874 0.351789 0.351686
0.708782 0.353813 0.353693
0.803857 0.356013 0.355874
0.837077 0.355627 0.355468
0.199806 0.432421 0.349245
0.276384 0.433606 0.350415
0.357912 0.435088 0.351879
0.443246 0.436816 0.353589
0.531733 0.438763 0.355516
0.622946 0.440910 0.357642
0.716587 0.443245 0.359954
0.812436 0.445758 0.362443
0.846188 0.445674 0.362333
0.205538 0.524181 0.355096
0.282705 0.525671 0.356564
0.364861 0.527459 0.358329
0.450864 0.529496 0.360341
0.540061 0.531753 0.362573
0.631683 0.534225 0.364994
0.724894 0.536906 0.367572
0.820111 0.539756 0.370317
0.853035 0.540001 0.370456
0.212947 0.619621 0.362277
0.290750 0.621418 0.364047
0.373094 0.623565 0.366102
0.458918 0.625976 0.368394
0.547749 0.628599 0.370896
0.639150 0.631416 0.373590
0.732816 0.634413 0.376464
0.828521 0.637581 0.379506
0.862007 0.638146 0.379945
0.220950 0.718595 0.370730
0.298628 0.720787 0.372783
0.381164 0.723271 0.375127
0.467403 0.725997 0.377712
0.556678 0.728937 0.380510
0.648556 0.732071 0.383500
0.742733 0.735388 0.386672
0.838983 0.738877 0.390014
0.873090 0.739767 0.390756
0.229921 0.820867 0.380439
0.308004 0.823374 0.382786
0.390975 0.826175 0.385425
0.477678 0.829219 0.388306
0.567451 0.832479 0.391400
0.659862 0.835936 0.394690
0.754606 0.839576 0.398162
0.851461 0.843391 0.401807
0.886210 0.844608 0.402853
0.231372 0.856810 0.382259
0.309905 0.859623 0.384899
0.393358 0.862731 0.387833
0.480577 0.866084 0.391011
0.570901 0.869655 0.394404
0.663899 0.873423 0.397994
0.759268 0.877378 0.401767
0.856785 0.881508 0.405715
0.892146 0.883039 0.407062
0.193660 0.185839 0.423829
0.268794 0.186155 0.424143
0.348775 0.186763 0.424748
0.432462 0.187613 0.425594
0.519195 0.188677 0.426652
0.608548 0.189937 0.427905
0.700218 0.191379 0.429339
0.793943 0.192992 0.430943
0.826346 0.192041 0.429982
0.193894 0.262448 0.425228
0.269484 0.263061 0.425836
0.349953 0.263968 0.426735
0.434160 0.265118 0.427876
0.521448 0.266484 0.429232
0.611391 0.268047 0.430784
0.703688 0.269795 0.432518
0.798118 0.271716 0.434426
0.830929 0.271062 0.433757
0.196161 0.345236 0.428289
0.272252 0.346150 0.429191
0.353256 0.347358 0.430387
0.438034 0.348811 0.431827
0.525929 0.350482 0.433483
0.616516 0.352351 0.435336
0.709495 0.354406 0.437373
0.804646 0.356638 0.439586
0.837916 0.356282 0.439209
0.200282 0.432930 0.432843
0.276918 0.434146 0.434042
0.358506 0.435658 0.435537
0.443906 0.437417 0.437277
0.532462 0.439396 0.439235
0.623748 0.441574 0.441391
0.717466 0.443940 0.443734
0.813397 0.446485 0.446254
0.846805 0.446434 0.446160
0.206148 0.524791 0.438792
0.283377 0.526312 0.440291
0.365599 0.528131 0.442086
0.451673 0.530198 0.444129
0.540944 0.532487 0.446391
0.632284 0.535004 0.448831
0.725539 0.537715 0.451439
0.820802 0.540595 0.454214
0.853779 0.540870 0.454383
0.213691 0.620332 0.446072
0.291545 0.622162 0.447872
0.373733 0.624362 0.449952
0.459596 0.626803 0.452273
0.548469 0.629456 0.454805
0.639915 0.632303 0.457528
0.733630 0.635330 0.460432
0.829387 0.638528 0.463504
0.862934 0.639124 0.463973
0.221656 0.719440 0.454622
0.299373 0.721661 0.456704
0.381951 0.724175 0.459077
0.468233 0.726931 0.461692
0.557556 0.729901 0.464519
0.649485 0.733066 0.467539
0.743716 0.736413 0.470741
0.840025 0.739933 0.474113
0.874196 0.740854 0.474885
0.230765 0.821819 0.464430
0.308891 0.824356 0.466806
0.391908 0.827187 0.469475
0.478661 0.830262 0.472385
0.568487 0.833552 0.475510
0.660954 0.837039 0.478830
0.755759 0.840710 0.482332
0.852678 0.844556 0.486007
0.887490 0.845804 0.487083
0.232352 0.857865 0.466349
0.310933 0.860708 0.469019
0.394437 0.863846 0.471983
0.481711 0.867230 0.475190
0.572094 0.870831 0.478614
0.665154 0.874631 0.482234
0.760589 0.878617 0.486038
0.858177 0.882778 0.490016
0.893595 0.884340 0.491393
0.193785 0.186100 0.509933
0.268963 0.186446 0.510276
0.348992 0.187084 0.510911
0.432728 0.187964 0.511786
0.519515 0.189058 0.512874
0.608925 0.190348 0.514157
0.700656 0.191821 0.515622
0.794448 0.193465 0.517256
0.826903 0.192544 0.516325
0.194156 0.262809 0.511431
0.269794 0.263452 0.512068
0.350315 0.264389 0.512997
0.434578 0.265570 0.514168
0.521925 0.266966 0.515554
0.611930 0.268560 0.517136
0.704293 0.270338 0.518901
0.798793 0.272291 0.520840
0.831648 0.271666 0.520200
0.196559 0.345697 0.514590
0.272702 0.346641 0.515523
0.353763 0.347880 0.516748
0.438601 0.349364 0.518218
0.526561 0.351065 0.519904
0.617216 0.352966 0.521788
0.710267 0.355052 0.523856
0.805494 0.357315 0.526099
0.838814 0.356989 0.525753
0.200814 0.433492 0.519243
0.277507 0.434738 0.520472
0.359158 0.436281 0.521997
0.444623 0.438071 0.523768
0.533248 0.440080 0.525756
0.624608 0.442290 0.527943
0.718404 0.444688 0.530317
0.814417 0.447264 0.532868
0.847426 0.447247 0.532787
0.206814 0.525453 0.525291
0.284105 0.527005 0.526820
0.366394 0.528855 0.528645
0.452539 0.530954 0.530719
0.541886 0.533273 0.533012
0.632944 0.535835 0.535471
0.726242 0.538576 0.538108
0.821552 0.541486 0.540913
0.854584 0.541791 0.541112
0.214490 0.621095 0.532669
0.292204 0.622982 0.534495
0.374428 0.625211 0.536605
0.460332 0.627682 0.538955
0.549247 0.630365 0.541516
0.640740 0.633242 0.544269
0.734504 0.636299 0.547202
0.830313 0.639527 0.550304
0.863921 0.640154 0.550804
0.222418 0.720337 0.541316
0.300175 0.722588 0.543427
0.382794 0.725132 0.545830
0.469121 0.727918 0.548474
0.558492 0.730918 0.551330
0.650473 0.734113 0.554381
0.744759 0.737491 0.557612
0.841126 0.741041 0.561015
0.875361 0.741993 0.561817
0.231664 0.822823 0.551224
0.309835 0.825390 0.553629
0.392898 0.828251 0.556327
0.479701 0.831356 0.559268
0.569581 0.834677 0.562422
0.662105 0.838195 0.565773
0.756971 0.841897 0.569305
0.853954 0.845773 0.573010
0.888830 0.847053 0.574117
0.233388 0.858973 0.553241
0.312017 0.861846 0.555941
0.395573 0.865014 0.558935
0.482903 0.868429 0.562172
0.573345 0.872061 0.565626
0.666468 0.875891 0.569276
0.761970 0.879908 0.573111
0.859628 0.884101 0.577120
0.895103 0.885693 0.578527
0.193959 0.186406 0.598407
0.269182 0.186782 0.598780
0.349258 0.187450 0.599444
0.433046 0.188360 0.600350
0.519887 0.189485 0.601468
0.609354 0.190805 0.602781
0.701147 0.192308 0.604275
0.795007 0.193983 0.605940
0.827517 0.193093 0.605039
0.194467 0.263215 0.600004
0.270154 0.263889 0.600671
0.350728 0.264856 0.601630
0.435046 0.266067 0.602831
0.522453 0.267494 0.604247
0.612521 0.269119 0.605860
0.704951 0.270928 0.607655
0.799522 0.272911 0.609624
0.832420 0.272317 0.609013
0.197006 0.346204 0.603262
0.273202 0.347178 0.604224
0.354321 0.348447 0.605480
0.439220 0.349962 0.606980
0.527244 0.351694 0.608697
0.617968 0.353626 0.610611
0.711091 0.355743 0.612710
0.806395 0.358037 0.614984
0.839766 0.357742 0.614667
0.201395 0.434099 0.608013
0.278147 0.435376 0.609273
0.359859 0.436950 0.610828
0.445390 0.438771 0.612629
0.534086 0.440811 0.614648
0.625521 0.443052 0.616866
0.719395 0.445481 0.619271
0.815490 0.448089 0.621853
0.848100 0.448106 0.621786
0.207529 0.526161 0.614160
0.284883 0.527743 0.615719
0.367239 0.529624 0.617576
0.453456 0.531754 0.619680
0.542557 0.534121 0.621994
0.633657 0.536712 0.624482
0.726999 0.539483 0.627148
0.822356 0.542423 0.629983
0.855443 0.542759 0.630212
0.215338 0.621903 0.621637
0.292912 0.623847 0.623489
0.375175 0.626107 0.625628
0.461118 0.628607 0.628007
0.550077 0.631320 0.630598
0.641616 0.634227 0.633381
0.735430 0.637314 0.636343
0.831293 0.640573 0.639476
0.864962 0.641230 0.640006
0.223230 0.721280 0.630380
0.301026 0.723561 0.632521
0.383688 0.726134 0.634953
0.470060 0.728950 0.637627
0.559480 0.731981 0.640513
0.651512 0.735206 0.643593
0.745854 0.738614 0.646855
0.842281 0.742195 0.650287
0.876581 0.743178 0.651120
0.232613 0.823873 0.640388
0.310828 0.826470 0.642823
0.393938 0.829361 0.645551
0.480792 0.832497 0.648521
0.570726 0.835848 0.651706
0.663308 0.839397 0.655086
0.758235 0.843130 0.658649
0.855284 0.847037 0.662384
0.890223 0.848347 0.663521
0.234473 0.860126 0.642504
0.313151 0.863029 0.645234
0.396760 0.866228 0.648258
0.484145 0.869673 0.651525
0.574647 0.873336 0.655009
0.667833 0.877198 0.658690
0.763403 0.881245 0.662555
0.861132 0.885469 0.666595
0.896663 0.887093 0.668032
0.194179 0.186753 0.688944
0.269446 0.187159 0.689347
0.349570 0.187857 0.690040
0.433409 0.188798 0.690976
0.520305 0.189953 0.692124
0.609831 0.191304 0.693467
0.701685 0.192838 0.694992
0.795616 0.194543 0.696687
0.828176 0.193684 0.695816
0.194823 0.263662 0.690640
0.270560 0.264366 0.691336
0.351186 0.265364 0.692325
0.435561 0.266606 0.693557
0.523027 0.268063 0.695003
0.613159 0.269719 0.696646
0.705656 0.271558 0.698472
0.800299 0.273573 0.700471
0.833241 0.273008 0.699890
0.197497 0.346752 0.693997
0.273748 0.347756 0.694989
0.354924 0.349056 0.696275
0.439884 0.350602 0.697805
0.527974 0.352365 0.699552
0.618766 0.354327 0.701497
0.711963 0.356476 0.703626
0.807344 0.358801 0.705932
0.840768 0.358536 0.705645
0.202020 0.434747 0.698847
0.278831 0.436055 0.700136
0.360606 0.437659 0.701722
0.446204 0.439511 0.703553
0.534971 0.441583 0.705603
0.626480 0.443855 0.707852
0.720434 0.446316 0.710288
0.816199 0.448959 0.712886
0.848824 0.449007 0.712847
0.208288 0.526910 0.705092
0.285705 0.528523 0.706681
0.368129 0.530435 0.708568
0.454418 0.532596 0.710703
0.543275 0.535009 0.713038
0.634416 0.537631 0.715556
0.727803 0.540431 0.718252
0.823209 0.543401 0.721116
0.856351 0.543767 0.721375
0.216209 0.622757 0.712668
0.293667 0.624754 0.714546
0.375967 0.627043 0.716714
0.461951 0.629573 0.719122
0.550953 0.632316 0.721742
0.642539 0.635253 0.724555
0.736404 0.638370 0.727548
0.832321 0.641659 0.730710
0.866052 0.642347 0.731270
0.224087 0.722264 0.721507
0.301922 0.724575 0.723677
0.384627 0.727178 0.726139
0.471046 0.730024 0.728842
0.560514 0.733084 0.731758
0.652599 0.736341 0.734868
0.746997 0.739779 0.738160
0.843484 0.743391 0.741623
0.877848 0.744405 0.742486
0.233607 0.824964 0.731615
0.311866 0.827591 0.734079
0.395025 0.830513 0.736837
0.481929 0.833678 0.739837
0.571918 0.837060 0.743051
0.664558 0.840640 0.746462
0.759547 0.844403 0.750055
0.856662 0.848342 0.753821
0.891664 0.849683 0.754988
0.235602 0.861320 0.733830
0.314330 0.864254 0.736590
0.397992 0.867483 0.739643
0.485434 0.870959 0.742941
0.575996 0.874652 0.746455
0.669246 0.878545 0.750166
0.764884 0.882624 0.754062
0.862686 0.886879 0.758132
0.898271 0.888533 0.759599
0.194439 0.187138 0.781312
0.269752 0.187574 0.781744
0.349925 0.188302 0.782467
0.433816 0.189273 0.783432
0.520767 0.190458 0.784610
0.610351 0.191840 0.785984
0.702268 0.193404 0.787539
0.796271 0.195141 0.789265
0.828864 0.194311 0.788423
0.195220 0.264147 0.783106
0.271007 0.264882 0.783832
0.351687 0.265909 0.784851
0.436118 0.267182 0.786113
0.523645 0.268670 0.787589
0.613841 0.270356 0.789262
0.706406 0.272227 0.791119
0.801120 0.274273 0.793149
0.834108 0.273738 0.792597
0.198029 0.347337 0.786562
0.274334 0.348372 0.787584
0.355569 0.349702 0.788900
0.440591 0.351279 0.790460
0.528747 0.353073 0.792238
0.619609 0.355066 0.794213
0.712879 0.357246 0.796373
0.808338 0.359603 0.798710
0.841815 0.359368 0.798453
0.202687 0.435433 0.791510
0.279557 0.436771 0.792830
0.361395 0.438407 0.794446
0.447060 0.440290 0.796308
0.535898 0.442392 0.798388
0.627483 0.444696 0.800668
0.721516 0.447188 0.803135
0.816921 0.449867 0.805748
0.849594 0.449945 0.805739
0.209088 0.527697 0.797854
0.286569 0.529341 0.799474
0.369062 0.531283 0.801392
0.455408 0.533477 0.803557
0.544036 0.535936 0.805913
0.635220 0.538587 0.808460
0.728652 0.541417 0.811185
0.824107 0.544417 0.814079
0.857305 0.544814 0.814368
0.216969 0.623671 0.805526
0.294462 0.625698 0.807433
0.376801 0.628017 0.809630
0.462826 0.630577 0.812068
0.551873 0.633349 0.814718
0.643507 0.636316 0.817560
0.737422 0.639464 0.820582
0.833394 0.642783 0.823774
0.867187 0.643502 0.824365
0.224985 0.723286 0.814465
0.302861 0.725626 0.816664
0.385608 0.728259 0.819155
0.472074 0.731135 0.821888
0.561592 0.734226 0.824834
0.653730 0.737512 0.827974
0.748185 0.740982 0.831296
0.844732 0.744624 0.834789
0.879161 0.745669 0.835683
0.234642 0.826093 0.824672
0.312946 0.828750 0.827166
0.396153 0.831702 0.829953
0.483109 0.834898 0.832983
0.573153 0.838310 0.836228
0.665852 0.841920 0.839668
0.760904 0.845715 0.843292
0.858085 0.849684 0.847088
0.893149 0.851057 0.848286
0.236773 0.862552 0.826987
0.315551 0.865516 0.829776
0.399266 0.868776 0.832859
0.486765 0.872282 0.836187
0.577388 0.876006 0.839731
0.670703 0.879930 0.843473
0.766410 0.884040 0.847399
0.864284 0.888327 0.851500
0.899922 0.890012 0.852997
0.193818 0.186637 0.814328
0.269177 0.187103 0.814789
0.349399 0.187861 0.815542
0.433342 0.188863 0.816537
0.520349 0.190078 0.817745
0.609992 0.191490 0.819149
0.701972 0.193086 0.820734
0.796049 0.194854 0.822491
0.828675 0.194053 0.821678
0.194736 0.263747 0.816221
0.270573 0.264512 0.816977
0.351306 0.265570 0.818025
0.435795 0.266872 0.819317
0.523383 0.268391 0.820824
0.613643 0.270108 0.822527
0.706277 0.272010 0.824414
0.801064 0.274087 0.826475
0.834098 0.273582 0.825953
0.197680 0.347037 0.819775
0.274040 0.348103 0.820827
0.355333 0.349463 0.822173
0.440418 0.351070 0.823764
0.528640 0.352895 0.825572
0.619572 0.354920 0.827578
0.712917 0.357131 0.829769
0.808454 0.359519 0.832136
0.841986 0.359315 0.831909
0.202472 0.435234 0.824822
0.279401 0.436603 0.826172
0.361303 0.438269 0.827818
0.447036 0.440183 0.829711
0.535946 0.442316 0.831822
0.627607 0.444651 0.834133
0.721720 0.447175 0.836631
0.816765 0.449890 0.839259
0.849487 0.449998 0.839279
0.209006 0.527598 0.831265
0.286552 0.529273 0.832915
0.369113 0.531247 0.834863
0.455250 0.533488 0.837051
0.543918 0.535977 0.839436
0.635145 0.538658 0.842013
0.728623 0.541518 0.844768
0.824127 0.544548 0.847691
0.857382 0.544975 0.848010
0.216847 0.623701 0.839032
0.294377 0.625757 0.840968
0.376754 0.628105 0.843195
0.462822 0.630695 0.845662
0.551914 0.633498 0.848341
0.643596 0.636495 0.851214
0.737563 0.639673 0.854266
0.833589 0.643023 0.857488
0.867445 0.643772 0.858108
0.225001 0.723422 0.848071
0.302918 0.725792 0.850300
0.385709 0.728455 0.852820
0.472221 0.731361 0.855583
0.561790 0.734482 0.858558
0.653982 0.737799 0.861728
0.748494 0.741299 0.865080
0.845102 0.744972 0.868603
0.879596 0.746048 0.869527
0.234795 0.826336 0.858378
0.313144 0.829023 0.860901
0.396400 0.832005 0.863718
0.483409 0.835232 0.866778
0.573509 0.838675 0.870053
0.666267 0.842316 0.873523
0.761382 0.846141 0.877177
0.858631 0.850142 0.881004
0.893757 0.851545 0.882232
0.237062 0.862898 0.860791
0.315890 0.865892 0.863610
0.399659 0.869183 0.866724
0.487216 0.872720 0.870082
0.577900 0.876475 0.873656
0.671281 0.880430 0.877428
0.767057 0.884572 0.881385
0.865004 0.888890 0.885517
0.900695 0.890605 0.887044
