library/cube/Ex_Machina_003.cube
# CINEGRADE LAB — Premium Cinematic LUT
# Title: Ex Machina
# Category: A24 Inspired
# Description: Artistic, unconventional, mood-driven looks inspired by A24 films
# Mood: Arthouse, unconventional, evocative
# Variant: 4
# Generated: 2026-05-21T16:12:45.994344
TITLE "Ex Machina"
LUT_3D_SIZE 9
0.000000 0.000000 0.000000
0.045578 0.003863 0.003943
0.143261 0.012118 0.012352
0.245263 0.020705 0.021081
0.350098 0.029498 0.030000
0.457168 0.038448 0.039059
0.566133 0.047525 0.048228
0.676772 0.056712 0.057491
0.734829 0.061473 0.062250
0.016275 0.072907 0.017093
0.062493 0.076915 0.021053
0.161422 0.085334 0.029489
0.264656 0.094082 0.038242
0.370692 0.103033 0.047186
0.478926 0.112135 0.056267
0.589015 0.121360 0.065459
0.700736 0.130691 0.074742
0.759272 0.135570 0.079514
0.042670 0.189790 0.044341
0.089513 0.193984 0.048321
0.189624 0.202607 0.056784
0.294028 0.211554 0.065564
0.401205 0.220697 0.074533
0.510543 0.229985 0.083638
0.621699 0.239391 0.092852
0.734447 0.248896 0.102157
0.793454 0.253923 0.106942
0.070525 0.311559 0.072558
0.117947 0.315912 0.076555
0.219151 0.324709 0.085041
0.324636 0.333825 0.093843
0.432867 0.343131 0.102832
0.543227 0.352576 0.111957
0.655368 0.362133 0.121189
0.769065 0.371782 0.130510
0.828248 0.376931 0.135305
0.099485 0.436649 0.101394
0.147442 0.441132 0.105405
0.249655 0.450072 0.113909
0.356138 0.459325 0.122728
0.465342 0.468762 0.131733
0.576643 0.478333 0.140872
0.689692 0.488009 0.150118
0.804262 0.497772 0.159451
0.862543 0.503013 0.164251
0.129374 0.564301 0.130689
0.177823 0.568884 0.134708
0.280967 0.577934 0.143226
0.388370 0.587292 0.152058
0.498469 0.596829 0.161074
0.610637 0.606494 0.170223
0.724521 0.616258 0.179476
0.839033 0.626102 0.188816
0.896193 0.631406 0.193617
0.160072 0.694019 0.160344
0.208975 0.698671 0.164369
0.312976 0.707800 0.172895
0.421226 0.717231 0.181734
0.532149 0.726835 0.190756
0.645112 0.736562 0.199910
0.759763 0.746381 0.209167
0.872611 0.756275 0.218508
0.928787 0.761612 0.223307
0.191492 0.825427 0.190290
0.240813 0.830119 0.194316
0.345601 0.839294 0.202845
0.454628 0.848766 0.211687
0.566307 0.858406 0.220710
0.679999 0.868163 0.229863
0.795350 0.878006 0.239118
0.905047 0.887918 0.248456
0.959929 0.893258 0.253248
0.213823 0.916121 0.210779
0.263508 0.920794 0.214800
0.369001 0.929856 0.223327
0.478723 0.938866 0.232164
0.591075 0.947957 0.241182
0.705415 0.957072 0.250329
0.821387 0.966178 0.259576
0.927165 0.975249 0.268904
0.980499 0.979957 0.273684
0.001812 0.001883 0.065563
0.047458 0.005752 0.069547
0.145272 0.014015 0.077999
0.247403 0.022610 0.086769
0.352364 0.031411 0.095727
0.459556 0.040368 0.104824
0.568640 0.049453 0.114031
0.679393 0.058648 0.123330
0.737500 0.063414 0.128123
0.018133 0.074843 0.082794
0.064414 0.078854 0.086792
0.163464 0.087281 0.095266
0.266817 0.096036 0.104056
0.372971 0.104992 0.113035
0.481317 0.114101 0.122151
0.591516 0.123332 0.131376
0.703342 0.132669 0.140691
0.761925 0.137551 0.145493
0.044582 0.191792 0.110168
0.091483 0.195989 0.114183
0.191706 0.204617 0.122680
0.296220 0.213568 0.131492
0.403505 0.222715 0.140492
0.512948 0.232007 0.149628
0.624205 0.241417 0.158871
0.737050 0.250926 0.168203
0.796099 0.255955 0.173014
0.072488 0.313618 0.138498
0.119964 0.317973 0.142526
0.221271 0.326772 0.151041
0.326858 0.335890 0.159872
0.435188 0.345198 0.168888
0.545644 0.354646 0.178039
0.657878 0.364204 0.187296
0.771663 0.373855 0.196641
0.830816 0.379004 0.201457
0.101496 0.438756 0.167433
0.149502 0.443238 0.171470
0.251810 0.452178 0.180000
0.358387 0.461431 0.188843
0.467682 0.470869 0.197872
0.579071 0.480440 0.207033
0.692205 0.490116 0.216299
0.806857 0.499878 0.225651
0.865026 0.505117 0.230469
0.131428 0.566445 0.196813
0.179922 0.571025 0.200855
0.283153 0.580073 0.209394
0.390643 0.589430 0.218246
0.500826 0.598965 0.227281
0.613075 0.608628 0.236448
0.727037 0.618389 0.245718
0.841485 0.628231 0.255073
0.898562 0.633531 0.259889
0.162166 0.696188 0.226540
0.211111 0.700836 0.230583
0.315192 0.709961 0.239126
0.423521 0.719389 0.247981
0.534521 0.728989 0.257019
0.647559 0.738712 0.266186
0.762281 0.748527 0.275455
0.874950 0.758417 0.284808
0.931014 0.763748 0.289616
0.193622 0.827612 0.256543
0.242981 0.832297 0.260583
0.347844 0.841467 0.269126
0.456943 0.850934 0.277980
0.568692 0.860568 0.287014
0.682452 0.870319 0.296177
0.797868 0.880156 0.305440
0.907244 0.890062 0.314785
0.961983 0.895394 0.319582
0.215981 0.918302 0.277075
0.265701 0.922967 0.281107
0.371262 0.931925 0.289643
0.481050 0.940908 0.298488
0.593466 0.949970 0.307513
0.707868 0.959055 0.316665
0.823900 0.968127 0.325916
0.929211 0.977163 0.335248
0.982373 0.981841 0.340029
0.004241 0.004403 0.153273
0.049956 0.008279 0.157313
0.147902 0.016551 0.165820
0.250164 0.025156 0.174642
0.355253 0.033966 0.183652
0.462568 0.042932 0.192799
0.571771 0.052025 0.202054
0.682639 0.061228 0.211400
0.740798 0.066000 0.216238
0.020615 0.077419 0.170685
0.066961 0.081436 0.174733
0.166133 0.089870 0.183256
0.269607 0.098632 0.192094
0.375879 0.107596 0.201119
0.484340 0.116712 0.210280
0.594648 0.125950 0.219547
0.706580 0.135293 0.228904
0.765212 0.140180 0.233745
0.047126 0.194438 0.198223
0.094086 0.198638 0.202283
0.194422 0.207271 0.210824
0.299048 0.216228 0.219679
0.406441 0.225380 0.228720
0.515989 0.234678 0.237894
0.627348 0.244092 0.247175
0.740291 0.253605 0.256544
0.799384 0.258636 0.261388
0.075089 0.316324 0.226700
0.122619 0.320680 0.230767
0.224030 0.329483 0.239321
0.329720 0.338604 0.248189
0.438151 0.347915 0.257241
0.548703 0.357365 0.266426
0.661031 0.366926 0.275715
0.774907 0.376579 0.285090
0.834007 0.381728 0.289935
0.104150 0.441511 0.255764
0.152206 0.445993 0.259835
0.254609 0.454934 0.268398
0.361281 0.464188 0.277273
0.470668 0.473626 0.286331
0.582147 0.483198 0.295521
0.695368 0.492874 0.304814
0.810102 0.502637 0.314191
0.868127 0.507874 0.319033
0.134130 0.569238 0.285255
0.182671 0.573816 0.289325
0.285990 0.582863 0.297892
0.393567 0.592219 0.306770
0.503835 0.601753 0.315830
0.616166 0.611414 0.325020
0.730207 0.621174 0.334311
0.844552 0.631013 0.343686
0.901542 0.636310 0.348519
0.164913 0.699009 0.315074
0.213901 0.703653 0.319140
0.318063 0.712775 0.327706
0.426472 0.722199 0.336582
0.537550 0.731797 0.345638
0.650663 0.741515 0.354823
0.765457 0.751327 0.364108
0.877893 0.761213 0.373475
0.933839 0.766538 0.378296
0.196411 0.830450 0.345151
0.245809 0.835129 0.349209
0.350745 0.844294 0.357769
0.459919 0.853755 0.366638
0.571739 0.863385 0.375686
0.685567 0.873129 0.384861
0.801049 0.882961 0.394135
0.910032 0.892861 0.403489
0.964623 0.898186 0.408293
0.218800 0.921136 0.365739
0.268557 0.925794 0.369783
0.374186 0.934614 0.378331
0.484041 0.943567 0.387186
0.596522 0.952597 0.396219
0.710987 0.961647 0.405378
0.827078 0.970683 0.414635
0.931834 0.979681 0.423970
0.984817 0.984326 0.428753
0.006790 0.007045 0.245141
0.052575 0.010928 0.249238
0.150653 0.019210 0.257800
0.253044 0.027823 0.266677
0.358260 0.036642 0.275740
0.465699 0.045617 0.284938
0.575020 0.054719 0.294243
0.686002 0.063930 0.303636
0.744214 0.068708 0.308519
0.023220 0.080116 0.262737
0.069629 0.084139 0.266837
0.168923 0.092581 0.275411
0.272518 0.101351 0.284298
0.378907 0.110322 0.293370
0.487481 0.119445 0.302576
0.597899 0.128690 0.311888
0.709937 0.138040 0.321287
0.768617 0.142931 0.326167
0.049792 0.197205 0.290445
0.096812 0.201409 0.294550
0.197260 0.210048 0.303136
0.301996 0.219009 0.312034
0.409498 0.228167 0.321117
0.519151 0.237469 0.330332
0.630611 0.246888 0.339651
0.743651 0.256406 0.349055
0.802789 0.261440 0.353935
0.077814 0.319151 0.319072
0.125398 0.323508 0.323179
0.226913 0.332315 0.331772
0.332705 0.341439 0.340677
0.441235 0.350753 0.349765
0.551884 0.360206 0.358984
0.664305 0.369769 0.368306
0.778270 0.379425 0.377713
0.837309 0.384574 0.382586
0.106928 0.444387 0.348266
0.155034 0.448868 0.352372
0.257533 0.457811 0.360968
0.364299 0.467066 0.369876
0.473778 0.476505 0.378964
0.585345 0.486077 0.388183
0.698651 0.495754 0.397503
0.813468 0.505516 0.406906
0.871334 0.510753 0.411770
0.136958 0.572152 0.377869
0.185544 0.576728 0.381969
0.288951 0.585774 0.390564
0.396615 0.595128 0.399468
0.506967 0.604661 0.408553
0.619379 0.614321 0.417766
0.733499 0.624079 0.427079
0.847724 0.633917 0.436473
0.904623 0.639210 0.441324
0.167786 0.701951 0.407781
0.216816 0.706590 0.411871
0.321059 0.715709 0.420460
0.429547 0.725130 0.429356
0.540702 0.734724 0.438432
0.653890 0.744440 0.447634
0.768756 0.754248 0.456935
0.880938 0.764129 0.466316
0.936763 0.769450 0.471149
0.199325 0.833408 0.437933
0.248762 0.838081 0.442009
0.353773 0.847241 0.450586
0.463019 0.856697 0.459470
0.574909 0.866321 0.468531
0.688806 0.876060 0.477718
0.804353 0.885886 0.487002
0.912917 0.895780 0.496364
0.967354 0.901098 0.501175
0.221747 0.924090 0.458576
0.271539 0.928693 0.462632
0.377235 0.937409 0.471191
0.487157 0.946331 0.480056
0.599703 0.955328 0.489097
0.714230 0.964343 0.498262
0.830380 0.973341 0.507523
0.934547 0.982300 0.516861
0.987347 0.986911 0.521646
0.009421 0.009767 0.339730
0.055274 0.013657 0.343884
0.153483 0.021948 0.352503
0.256004 0.030571 0.361435
0.361346 0.039399 0.370551
0.468907 0.048383 0.379801
0.578347 0.057493 0.389155
0.689442 0.066713 0.398596
0.747706 0.071496 0.403525
0.025906 0.082894 0.357514
0.072380 0.086923 0.361665
0.171794 0.095372 0.370289
0.275508 0.104150 0.379226
0.382014 0.113129 0.388346
0.490701 0.122258 0.397597
0.601229 0.131511 0.406953
0.713372 0.140867 0.416394
0.772099 0.145763 0.421315
0.052541 0.200052 0.385391
0.099620 0.204260 0.389542
0.200179 0.212904 0.398173
0.305026 0.221871 0.407115
0.412635 0.231034 0.416239
0.522392 0.240341 0.425494
0.633952 0.249765 0.434851
0.747089 0.259287 0.444293
0.806272 0.264323 0.449206
0.080620 0.322057 0.414168
0.128259 0.326416 0.418316
0.229876 0.335226 0.426948
0.335770 0.344353 0.435891
0.444400 0.353670 0.445015
0.555145 0.363126 0.454268
0.667658 0.372692 0.463623
0.781712 0.382350 0.473060
0.840679 0.387500 0.477962
0.109788 0.447342 0.443494
0.157944 0.451823 0.447634
0.260538 0.460767 0.456264
0.367398 0.470023 0.465203
0.476968 0.479463 0.474322
0.588623 0.489036 0.483569
0.702015 0.498713 0.492916
0.816913 0.508475 0.502343
0.874606 0.513710 0.507231
0.139868 0.575145 0.473208
0.188501 0.579718 0.477337
0.291995 0.588764 0.485960
0.399744 0.598117 0.494890
0.510180 0.607648 0.503999
0.622674 0.617307 0.513235
0.736872 0.627063 0.522568
0.850961 0.636899 0.531982
0.907766 0.642189 0.536850
0.170742 0.704970 0.503213
0.219814 0.709605 0.507326
0.324137 0.718722 0.515936
0.432704 0.728140 0.524853
0.543936 0.737730 0.533947
0.657198 0.747442 0.543167
0.772135 0.757246 0.552483
0.884043 0.767124 0.561877
0.939743 0.772439 0.566722
0.202323 0.836444 0.533438
0.251798 0.841111 0.537531
0.356882 0.850265 0.546124
0.466201 0.859717 0.555023
0.578162 0.869335 0.564097
0.692126 0.879069 0.573295
0.807738 0.888889 0.582588
0.915856 0.898776 0.591957
0.970138 0.904088 0.596774
0.224776 0.927122 0.554133
0.274604 0.931584 0.558202
0.380368 0.940270 0.566771
0.490356 0.949160 0.575644
0.602966 0.958123 0.584692
0.717554 0.967101 0.593863
0.833488 0.976062 0.603127
0.937312 0.984980 0.612467
0.989924 0.989556 0.617252
0.012115 0.012550 0.436373
0.058037 0.016447 0.440585
0.156376 0.024748 0.449260
0.259025 0.033380 0.458247
0.364493 0.042218 0.467417
0.472175 0.051210 0.476718
0.581731 0.060329 0.486122
0.692940 0.069557 0.495611
0.751256 0.074346 0.500586
0.028655 0.085733 0.454344
0.075192 0.089767 0.458547
0.174727 0.098225 0.467222
0.278560 0.107010 0.476208
0.385181 0.115996 0.485375
0.493981 0.125133 0.494672
0.604617 0.134392 0.504072
0.716864 0.143755 0.513556
0.775640 0.148655 0.518516
0.055353 0.202960 0.482391
0.102490 0.207171 0.486588
0.203160 0.215821 0.495264
0.308117 0.224793 0.504249
0.415833 0.233961 0.513414
0.525693 0.243274 0.522709
0.637353 0.252702 0.532104
0.750586 0.262228 0.541582
0.809813 0.267267 0.546529
0.083491 0.325024 0.511318
0.131183 0.329384 0.515506
0.232903 0.338197 0.524177
0.338897 0.347328 0.533157
0.447625 0.356648 0.542317
0.558466 0.366106 0.551604
0.671071 0.375675 0.560991
0.785213 0.385335 0.570458
0.844097 0.390485 0.575388
0.112712 0.450356 0.540774
0.160918 0.454837 0.544949
0.263606 0.463782 0.553612
0.370558 0.473039 0.562582
0.480219 0.482480 0.571731
0.591962 0.492053 0.581005
0.705438 0.501731 0.590378
0.820384 0.511493 0.599831
0.877924 0.516727 0.604740
0.142841 0.578197 0.570599
0.191520 0.582768 0.574756
0.295101 0.591813 0.583406
0.402935 0.601164 0.592362
0.513455 0.610695 0.601494
0.626029 0.620351 0.610752
0.740304 0.630106 0.620106
0.854242 0.639940 0.629538
0.910950 0.645226 0.634423
0.173761 0.708048 0.600694
0.222875 0.712679 0.604830
0.327277 0.721792 0.613461
0.435924 0.731207 0.622398
0.547232 0.740795 0.631510
0.660567 0.750503 0.640745
0.775575 0.760303 0.650076
0.887188 0.770177 0.659482
0.942760 0.775487 0.664338
0.205384 0.839537 0.630989
0.254898 0.844198 0.635100
0.360055 0.853348 0.643708
0.469445 0.862794 0.652620
0.581476 0.872407 0.661706
0.695508 0.882135 0.670914
0.811184 0.891949 0.680216
0.918833 0.901831 0.689592
0.972954 0.907135 0.694414
0.227870 0.930099 0.651735
0.277733 0.934522 0.655815
0.383564 0.943177 0.664393
0.493617 0.952035 0.673275
0.606291 0.960962 0.682329
0.720940 0.969904 0.691504
0.836587 0.978825 0.700771
0.940110 0.987702 0.710111
0.992531 0.992242 0.714895
0.014861 0.015383 0.534678
0.060851 0.019288 0.538947
0.159319 0.027598 0.547679
0.262096 0.036239 0.556720
0.367688 0.045086 0.565943
0.475490 0.054087 0.575295
0.585164 0.063214 0.584749
0.696484 0.072450 0.594286
0.754852 0.077245 0.599305
0.031457 0.088621 0.552835
0.078057 0.092662 0.557090
0.177711 0.101126 0.565816
0.281662 0.109919 0.574850
0.388399 0.118913 0.584064
0.497310 0.128057 0.593407
0.608053 0.137323 0.602850
0.720404 0.146692 0.612375
0.779228 0.151597 0.617375
0.058217 0.205917 0.581051
0.105413 0.210132 0.585294
0.206192 0.218787 0.594014
0.311258 0.227765 0.603042
0.419080 0.236938 0.612248
0.529043 0.246255 0.621582
0.640802 0.255688 0.631015
0.754131 0.265218 0.640529
0.813401 0.270260 0.645509
0.086413 0.328039 0.610126
0.134159 0.332401 0.614354
0.235980 0.341217 0.623064
0.342075 0.350351 0.632081
0.450901 0.359674 0.641276
0.561836 0.369135 0.650596
0.674532 0.378706 0.660014
0.788762 0.388368 0.669511
0.847554 0.393519 0.674469
0.115688 0.453419 0.639711
0.163943 0.457899 0.643920
0.266725 0.466845 0.652615
0.373770 0.476103 0.661616
0.483520 0.485545 0.670794
0.595351 0.495119 0.680096
0.708910 0.504797 0.689494
0.823806 0.514559 0.698971
0.881275 0.519791 0.703902
0.145867 0.581296 0.669644
0.194591 0.585865 0.673830
0.298258 0.594909 0.682506
0.406178 0.604259 0.691487
0.516780 0.613788 0.700642
0.629433 0.623443 0.709921
0.743785 0.633196 0.719295
0.857557 0.643028 0.728745
0.914165 0.648311 0.733645
0.176832 0.711173 0.699828
0.225988 0.715800 0.703986
0.330470 0.724910 0.712638
0.439194 0.734322 0.721593
0.550578 0.743906 0.730722
0.663986 0.753611 0.739973
0.779064 0.763407 0.749317
0.890363 0.773276 0.758735
0.945804 0.778581 0.763600
0.208497 0.842677 0.730191
0.258050 0.847333 0.734318
0.363279 0.856477 0.742941
0.472740 0.865918 0.751866
0.584840 0.875525 0.760963
0.698939 0.885248 0.770180
0.814679 0.895056 0.779489
0.921835 0.904931 0.788871
0.975793 0.910228 0.793697
0.231015 0.933097 0.750984
0.280914 0.937495 0.755074
0.386811 0.946120 0.763662
0.496929 0.954944 0.772550
0.609666 0.963835 0.781609
0.724376 0.972739 0.790787
0.839713 0.981620 0.800056
0.942929 0.990454 0.809396
0.995156 0.994957 0.814178
0.017652 0.018259 0.634384
0.063710 0.022170 0.638710
0.162306 0.030490 0.647498
0.265210 0.039141 0.656594
0.370925 0.047996 0.665869
0.478847 0.057006 0.675272
0.588636 0.066142 0.684775
0.700068 0.075386 0.694359
0.758487 0.080187 0.699423
0.034303 0.091552 0.652727
0.080967 0.095598 0.657033
0.180739 0.104070 0.665809
0.284808 0.112871 0.674891
0.391658 0.121872 0.684152
0.500680 0.131023 0.693540
0.611530 0.140295 0.703026
0.723984 0.149671 0.712592
0.782855 0.154580 0.717631
0.061126 0.208915 0.681110
0.108379 0.213133 0.685398
0.209269 0.221794 0.694162
0.314442 0.230777 0.703232
0.422370 0.239955 0.712479
0.532435 0.249277 0.721852
0.644292 0.258715 0.731322
0.757716 0.268250 0.740870
0.817023 0.273293 0.745884
0.089380 0.331095 0.710332
0.137180 0.335459 0.714599
0.239101 0.344278 0.723347
0.345296 0.353415 0.732400
0.454218 0.362741 0.741629
0.565247 0.372204 0.750982
0.678034 0.381778 0.760431
0.792352 0.391442 0.769957
0.851039 0.396593 0.774942
0.118709 0.456522 0.740044
0.167013 0.461002 0.744285
0.269887 0.469949 0.753013
0.377024 0.479208 0.762044
0.486864 0.488651 0.771250
0.598781 0.498225 0.780579
0.712423 0.507903 0.790002
0.827257 0.517666 0.799500
0.884653 0.522896 0.804452
0.148937 0.584435 0.770083
0.197707 0.589002 0.774295
0.301459 0.598044 0.782997
0.409463 0.607394 0.792002
0.520147 0.616921 0.801180
0.632879 0.626575 0.810480
0.747308 0.636326 0.819872
0.860898 0.646155 0.829338
0.917402 0.651435 0.834253
0.179948 0.714338 0.800352
0.229146 0.718961 0.804531
0.333705 0.728067 0.813203
0.442507 0.737476 0.822176
0.553966 0.747056 0.831321
0.667447 0.756757 0.840586
0.782594 0.766550 0.849943
0.893560 0.776415 0.859372
0.948866 0.781714 0.864246
0.211655 0.845856 0.830781
0.261245 0.850505 0.834923
0.366546 0.859644 0.843559
0.476079 0.869080 0.852496
0.588247 0.878682 0.861603
0.702412 0.888399 0.870829
0.818215 0.898201 0.880144
0.924855 0.908070 0.889531
0.978646 0.913360 0.894359
0.234205 0.936124 0.851618
0.284138 0.940497 0.855717
0.390101 0.949089 0.864313
0.500285 0.957879 0.873207
0.613083 0.966734 0.882270
0.727853 0.975599 0.891450
0.842859 0.984439 0.900719
0.945762 0.993229 0.910058
0.997791 0.997695 0.914837
0.020023 0.020696 0.718797
0.066147 0.024614 0.723169
0.164868 0.032942 0.732003
0.267897 0.041602 0.741144
0.373733 0.050465 0.750462
0.481773 0.059483 0.759907
0.591675 0.068627 0.769450
0.703216 0.077878 0.779072
0.761684 0.082684 0.784173
0.036725 0.094042 0.737292
0.083449 0.098092 0.741639
0.183337 0.106572 0.750456
0.287521 0.115379 0.759578
0.394483 0.124387 0.768877
0.503613 0.133544 0.778301
0.614568 0.142823 0.787822
0.727123 0.152205 0.797422
0.786039 0.157117 0.802491
0.063604 0.211469 0.765811
0.110914 0.215691 0.770136
0.211910 0.224356 0.778936
0.317190 0.233344 0.788040
0.425220 0.242526 0.797320
0.535386 0.251853 0.806724
0.647339 0.261294 0.816223
0.760856 0.270833 0.825800
0.820142 0.275878 0.830840
0.091911 0.333704 0.795153
0.139763 0.338069 0.799451
0.241783 0.346891 0.808230
0.348075 0.356030 0.817312
0.457093 0.365358 0.826569
0.568214 0.374824 0.835948
0.681090 0.384399 0.845421
0.795492 0.394065 0.854970
0.854080 0.399217 0.859976
0.121290 0.459176 0.824966
0.169642 0.463655 0.829234
0.272607 0.472602 0.837987
0.379833 0.481862 0.847043
0.489761 0.491304 0.856271
0.601762 0.500879 0.865620
0.715486 0.510556 0.875063
0.830265 0.520319 0.884580
0.887586 0.525547 0.889547
0.151564 0.587123 0.855090
0.200377 0.591686 0.859324
0.304212 0.600728 0.868046
0.412299 0.610076 0.877070
0.523063 0.619601 0.886265
0.635873 0.629252 0.895580
0.750376 0.639001 0.904987
0.863796 0.648828 0.914466
0.920195 0.654104 0.919392
0.182616 0.717048 0.885427
0.231854 0.721667 0.889622
0.336490 0.730770 0.898309
0.445367 0.740175 0.907296
0.556900 0.749751 0.916453
0.670452 0.759448 0.925729
0.785668 0.769236 0.935094
0.896319 0.779097 0.944531
0.951488 0.784391 0.949410
0.214361 0.848579 0.915905
0.263988 0.853222 0.920058
0.369360 0.862356 0.928705
0.478961 0.871786 0.937650
0.591197 0.881382 0.946764
0.705426 0.891092 0.955995
0.821291 0.900888 0.965314
0.927441 0.910751 0.974703
0.981064 0.916033 0.979532
0.236940 0.938707 0.936775
0.286907 0.943056 0.940880
0.392934 0.951617 0.949480
0.503181 0.960373 0.958377
0.616041 0.969193 0.967442
0.730870 0.978020 0.976623
0.845582 0.986820 0.985890
0.948169 0.995569 0.995226
1.000000 1.000000 1.000000
