library/cube/Ex_Machina_003.cube
# CINEGRADE LAB — Premium Cinematic LUT
# Title: Ex Machina
# Category: A24 Inspired
# Description: Artistic, unconventional, mood-driven looks inspired by A24 films
# Mood: Arthouse, unconventional, evocative
# Variant: 4
# Generated: 2026-05-21T16:12:45.994344
TITLE "Ex Machina"
LUT_3D_SIZE 5
0.000000 0.000000 0.000000
0.143261 0.012118 0.012352
0.350098 0.029498 0.030000
0.566133 0.047525 0.048228
0.734829 0.061473 0.062250
0.042670 0.189790 0.044341
0.189624 0.202607 0.056784
0.401205 0.220697 0.074533
0.621699 0.239391 0.092852
0.793454 0.253923 0.106942
0.099485 0.436649 0.101394
0.249655 0.450072 0.113909
0.465342 0.468762 0.131733
0.689692 0.488009 0.150118
0.862543 0.503013 0.164251
0.160072 0.694019 0.160344
0.312976 0.707800 0.172895
0.532149 0.726835 0.190756
0.759763 0.746381 0.209167
0.928787 0.761612 0.223307
0.213823 0.916121 0.210779
0.369001 0.929856 0.223327
0.591075 0.947957 0.241182
0.821387 0.966178 0.259576
0.980499 0.979957 0.273684
0.004241 0.004403 0.153273
0.147902 0.016551 0.165820
0.355253 0.033966 0.183652
0.571771 0.052025 0.202054
0.740798 0.066000 0.216238
0.047126 0.194438 0.198223
0.194422 0.207271 0.210824
0.406441 0.225380 0.228720
0.627348 0.244092 0.247175
0.799384 0.258636 0.261388
0.104150 0.441511 0.255764
0.254609 0.454934 0.268398
0.470668 0.473626 0.286331
0.695368 0.492874 0.304814
0.868127 0.507874 0.319033
0.164913 0.699009 0.315074
0.318063 0.712775 0.327706
0.537550 0.731797 0.345638
0.765457 0.751327 0.364108
0.933839 0.766538 0.378296
0.218800 0.921136 0.365739
0.374186 0.934614 0.378331
0.596522 0.952597 0.396219
0.827078 0.970683 0.414635
0.984817 0.984326 0.428753
0.009421 0.009767 0.339730
0.153483 0.021948 0.352503
0.361346 0.039399 0.370551
0.578347 0.057493 0.389155
0.747706 0.071496 0.403525
0.052541 0.200052 0.385391
0.200179 0.212904 0.398173
0.412635 0.231034 0.416239
0.633952 0.249765 0.434851
0.806272 0.264323 0.449206
0.109788 0.447342 0.443494
0.260538 0.460767 0.456264
0.476968 0.479463 0.474322
0.702015 0.498713 0.492916
0.874606 0.513710 0.507231
0.170742 0.704970 0.503213
0.324137 0.718722 0.515936
0.543936 0.737730 0.533947
0.772135 0.757246 0.552483
0.939743 0.772439 0.566722
0.224776 0.927122 0.554133
0.380368 0.940270 0.566771
0.602966 0.958123 0.584692
0.833488 0.976062 0.603127
0.989924 0.989556 0.617252
0.014861 0.015383 0.534678
0.159319 0.027598 0.547679
0.367688 0.045086 0.565943
0.585164 0.063214 0.584749
0.754852 0.077245 0.599305
0.058217 0.205917 0.581051
0.206192 0.218787 0.594014
0.419080 0.236938 0.612248
0.640802 0.255688 0.631015
0.813401 0.270260 0.645509
0.115688 0.453419 0.639711
0.266725 0.466845 0.652615
0.483520 0.485545 0.670794
0.708910 0.504797 0.689494
0.881275 0.519791 0.703902
0.176832 0.711173 0.699828
0.330470 0.724910 0.712638
0.550578 0.743906 0.730722
0.779064 0.763407 0.749317
0.945804 0.778581 0.763600
0.231015 0.933097 0.750984
0.386811 0.946120 0.763662
0.609666 0.963835 0.781609
0.839713 0.981620 0.800056
0.995156 0.994957 0.814178
0.020023 0.020696 0.718797
0.164868 0.032942 0.732003
0.373733 0.050465 0.750462
0.591675 0.068627 0.769450
0.761684 0.082684 0.784173
0.063604 0.211469 0.765811
0.211910 0.224356 0.778936
0.425220 0.242526 0.797320
0.647339 0.261294 0.816223
0.820142 0.275878 0.830840
0.121290 0.459176 0.824966
0.272607 0.472602 0.837987
0.489761 0.491304 0.856271
0.715486 0.510556 0.875063
0.887586 0.525547 0.889547
0.182616 0.717048 0.885427
0.336490 0.730770 0.898309
0.556900 0.749751 0.916453
0.785668 0.769236 0.935094
0.951488 0.784391 0.949410
0.236940 0.938707 0.936775
0.392934 0.951617 0.949480
0.616041 0.969193 0.967442
0.845582 0.986820 0.985890
1.000000 1.000000 1.000000
