library/cube/Ex_Machina_003.cube
# CINEGRADE LAB — Premium Cinematic LUT
# Title: Ex Machina
# Category: A24 Inspired
# Description: Artistic, unconventional, mood-driven looks inspired by A24 films
# Mood: Arthouse, unconventional, evocative
# Variant: 4
# Generated: 2026-05-21T16:12:45.994344
TITLE "Ex Machina"
LUT_3D_SIZE 33
0.000000 0.000000 0.000000
0.000000 0.000000 0.000000
0.000640 0.000054 0.000055
0.022390 0.001899 0.001938
0.045578 0.003863 0.003943
0.069414 0.005881 0.005999
0.093698 0.007934 0.008092
0.118333 0.010015 0.010211
0.143261 0.012118 0.012352
0.168444 0.014241 0.014512
0.193851 0.016381 0.016688
0.219463 0.018536 0.018878
0.245263 0.020705 0.021081
0.271236 0.022887 0.023295
0.297373 0.025080 0.025521
0.323663 0.027284 0.027756
0.350098 0.029498 0.030000
0.376672 0.031722 0.032253
0.403379 0.033956 0.034514
0.430212 0.036197 0.036783
0.457168 0.038448 0.039059
0.484242 0.040706 0.041341
0.511429 0.042972 0.043631
0.538728 0.045245 0.045926
0.566133 0.047525 0.048228
0.593643 0.049812 0.050536
0.621255 0.052106 0.052849
0.648965 0.054406 0.055167
0.676772 0.056712 0.057491
0.704674 0.059025 0.059819
0.732667 0.061343 0.062153
0.734231 0.061449 0.062242
0.734829 0.061473 0.062250
0.000000 0.000000 0.000000
0.000001 0.000000 0.000000
0.000643 0.000055 0.000055
0.022464 0.001902 0.001939
0.045727 0.003870 0.003945
0.069639 0.005890 0.006003
0.094000 0.007946 0.008096
0.118711 0.010030 0.010216
0.143716 0.012137 0.012359
0.168975 0.014263 0.014519
0.194458 0.016406 0.016696
0.220146 0.018564 0.018887
0.246020 0.020736 0.021091
0.272068 0.022921 0.023307
0.298279 0.025117 0.025533
0.324642 0.027324 0.027769
0.351150 0.029542 0.030014
0.377796 0.031769 0.032268
0.404574 0.034005 0.034530
0.431479 0.036250 0.036800
0.458505 0.038503 0.039077
0.485649 0.040764 0.041360
0.512906 0.043033 0.043651
0.540273 0.045309 0.045947
0.567746 0.047592 0.048250
0.595323 0.049882 0.050558
0.623001 0.052178 0.052872
0.650778 0.054481 0.055191
0.678650 0.056790 0.057516
0.706616 0.059105 0.059845
0.734674 0.061426 0.062179
0.736229 0.061532 0.062269
0.736817 0.061556 0.062276
0.003973 0.017864 0.004196
0.003978 0.017872 0.004197
0.004627 0.017935 0.004253
0.026521 0.019793 0.006138
0.049862 0.021771 0.008145
0.073852 0.023802 0.010205
0.098291 0.025868 0.012300
0.123082 0.027963 0.014422
0.148165 0.030080 0.016566
0.173502 0.032216 0.018728
0.199064 0.034370 0.020907
0.224829 0.036538 0.023099
0.250780 0.038721 0.025305
0.276905 0.040915 0.027522
0.303191 0.043122 0.029750
0.329630 0.045339 0.031987
0.356214 0.047566 0.034234
0.382934 0.049803 0.036489
0.409786 0.052049 0.038753
0.436764 0.054304 0.041024
0.463862 0.056566 0.043302
0.491078 0.058837 0.045587
0.518406 0.061115 0.047879
0.545844 0.063401 0.050177
0.573387 0.065693 0.052481
0.601033 0.067992 0.054791
0.628780 0.070298 0.057106
0.656624 0.072610 0.059427
0.684564 0.074928 0.061752
0.712597 0.077253 0.064083
0.740720 0.079583 0.066418
0.742272 0.079694 0.066508
0.742852 0.079725 0.066516
0.010009 0.044921 0.010541
0.010020 0.044940 0.010543
0.010677 0.045014 0.010600
0.032646 0.046886 0.012487
0.056064 0.048878 0.014496
0.080133 0.050923 0.016557
0.104651 0.053003 0.018654
0.129520 0.055112 0.020778
0.154683 0.057243 0.022924
0.180098 0.059393 0.025088
0.205738 0.061560 0.027269
0.231581 0.063742 0.029463
0.257610 0.065937 0.031671
0.283811 0.068145 0.033889
0.310174 0.070365 0.036119
0.336689 0.072595 0.038358
0.363348 0.074836 0.040607
0.390143 0.077086 0.042864
0.417069 0.079344 0.045129
0.444120 0.081612 0.047402
0.471291 0.083887 0.049682
0.498579 0.086170 0.051969
0.525979 0.088461 0.054262
0.553487 0.090759 0.056562
0.581101 0.093064 0.058867
0.608817 0.095375 0.061178
0.636632 0.097693 0.063495
0.664545 0.100017 0.065817
0.692552 0.102347 0.068145
0.720652 0.104683 0.070477
0.748842 0.107025 0.072814
0.750390 0.107146 0.072904
0.750965 0.107185 0.072912
0.016275 0.072907 0.017093
0.016292 0.072938 0.017095
0.016957 0.073023 0.017153
0.038998 0.074909 0.019042
0.062493 0.076915 0.021053
0.086639 0.078973 0.023116
0.111235 0.081068 0.025215
0.136182 0.083190 0.027341
0.161422 0.085334 0.029489
0.186914 0.087498 0.031655
0.212631 0.089678 0.033837
0.238551 0.091874 0.036033
0.264656 0.094082 0.038242
0.290933 0.096304 0.040463
0.317371 0.098536 0.042694
0.343960 0.100780 0.044935
0.370692 0.103033 0.047186
0.397561 0.105295 0.049444
0.424560 0.107567 0.051711
0.451683 0.109847 0.053986
0.478926 0.112135 0.056267
0.506284 0.114431 0.058556
0.533754 0.116734 0.060851
0.561332 0.119044 0.063152
0.589015 0.121360 0.065459
0.616799 0.123684 0.067772
0.644683 0.126014 0.070090
0.672662 0.128350 0.072414
0.700736 0.130691 0.074742
0.728901 0.133039 0.077076
0.757156 0.135392 0.079414
0.758702 0.135522 0.079505
0.759272 0.135570 0.079514
0.022699 0.101503 0.023775
0.022722 0.101545 0.023779
0.023396 0.101641 0.023838
0.045509 0.103540 0.025729
0.069078 0.105559 0.027741
0.093300 0.107631 0.029806
0.117972 0.109739 0.031907
0.142995 0.111874 0.034035
0.168311 0.114032 0.036184
0.193879 0.116209 0.038352
0.219672 0.118402 0.040536
0.245666 0.120611 0.042734
0.271846 0.122832 0.044945
0.298197 0.125066 0.047167
0.324709 0.127312 0.049400
0.351371 0.129568 0.051643
0.378176 0.131833 0.053895
0.405117 0.134108 0.056155
0.432187 0.136392 0.058423
0.459381 0.138684 0.060699
0.486694 0.140985 0.062983
0.514122 0.143292 0.065273
0.541661 0.145607 0.067569
0.569307 0.147929 0.069872
0.597057 0.150258 0.072180
0.624909 0.152593 0.074494
0.652859 0.154934 0.076814
0.680904 0.157281 0.079139
0.709043 0.159635 0.081469
0.737272 0.161993 0.083804
0.765591 0.164358 0.086144
0.767134 0.164496 0.086235
0.767700 0.164553 0.086245
0.029251 0.130565 0.030556
0.029280 0.130618 0.030560
0.029962 0.130725 0.030620
0.052145 0.132637 0.032513
0.075788 0.134669 0.034527
0.100084 0.136754 0.036594
0.124830 0.138875 0.038696
0.149928 0.141023 0.040825
0.175319 0.143194 0.042977
0.200962 0.145383 0.045146
0.226828 0.147589 0.047332
0.252896 0.149810 0.049532
0.279149 0.152044 0.051744
0.305573 0.154291 0.053968
0.332157 0.156548 0.056203
0.358891 0.158817 0.058447
0.385767 0.161094 0.060700
0.412778 0.163382 0.062962
0.439918 0.165677 0.065232
0.467182 0.167981 0.067510
0.494564 0.170293 0.069795
0.522060 0.172612 0.072086
0.549667 0.174939 0.074384
0.577380 0.177272 0.076688
0.605197 0.179612 0.078998
0.633114 0.181959 0.081314
0.661129 0.184311 0.083635
0.689239 0.186669 0.085961
0.717441 0.189034 0.088292
0.745734 0.191403 0.090629
0.774116 0.193778 0.092970
0.775656 0.193925 0.093061
0.776217 0.193990 0.093071
0.035912 0.160012 0.037415
0.035947 0.160075 0.037420
0.036637 0.160192 0.037481
0.058888 0.162117 0.039375
0.082603 0.164162 0.041391
0.106972 0.166260 0.043460
0.131792 0.168393 0.045564
0.156964 0.170554 0.047695
0.182427 0.172737 0.049848
0.208143 0.174939 0.052019
0.234082 0.177157 0.054206
0.260222 0.179390 0.056407
0.286547 0.181636 0.058621
0.313042 0.183895 0.060847
0.339697 0.186164 0.063083
0.366501 0.188444 0.065329
0.393447 0.190734 0.067584
0.420528 0.193032 0.069847
0.447736 0.195340 0.072119
0.475068 0.197655 0.074398
0.502518 0.199978 0.076684
0.530081 0.202309 0.078977
0.557754 0.204646 0.081276
0.585533 0.206991 0.083582
0.613415 0.209341 0.085893
0.641396 0.211699 0.088210
0.669475 0.214062 0.090532
0.697648 0.216431 0.092860
0.725913 0.218805 0.095192
0.754268 0.221185 0.097530
0.782711 0.223571 0.099872
0.784250 0.223725 0.099964
0.784805 0.223798 0.099974
0.042670 0.189790 0.044341
0.042711 0.189863 0.044346
0.043408 0.189990 0.044408
0.065727 0.191927 0.046304
0.089513 0.193984 0.048321
0.113953 0.196094 0.050392
0.138845 0.198240 0.052497
0.164089 0.200412 0.054630
0.189624 0.202607 0.056784
0.215411 0.204821 0.058957
0.241421 0.207051 0.061146
0.267632 0.209296 0.063349
0.294028 0.211554 0.065564
0.320593 0.213824 0.067791
0.347317 0.216105 0.070029
0.374191 0.218396 0.072276
0.401205 0.220697 0.074533
0.428353 0.223006 0.076798
0.455629 0.225325 0.079071
0.483028 0.227651 0.081351
0.510543 0.229985 0.083638
0.538172 0.232326 0.085933
0.565910 0.234675 0.088233
0.593754 0.237029 0.090540
0.621699 0.239391 0.092852
0.649744 0.241758 0.095171
0.677886 0.244132 0.097494
0.706121 0.246511 0.099823
0.734447 0.248896 0.102157
0.762863 0.251286 0.104496
0.791366 0.253681 0.106839
0.792902 0.253843 0.106931
0.793454 0.253923 0.106942
0.049516 0.219860 0.051324
0.049563 0.219942 0.051330
0.050268 0.220079 0.051392
0.072653 0.222028 0.053290
0.096508 0.224097 0.055309
0.121019 0.226218 0.057381
0.145981 0.228376 0.059488
0.171295 0.230560 0.061622
0.196901 0.232766 0.063778
0.222758 0.234991 0.065952
0.248838 0.237233 0.068143
0.275119 0.239489 0.070347
0.301583 0.241758 0.072564
0.328217 0.244039 0.074792
0.355009 0.246331 0.077031
0.381950 0.248633 0.079280
0.409031 0.250944 0.081538
0.436246 0.253265 0.083804
0.463588 0.255594 0.086078
0.491052 0.257931 0.088360
0.518633 0.260275 0.090649
0.546326 0.262627 0.092944
0.574128 0.264985 0.095246
0.602034 0.267350 0.097554
0.630043 0.269721 0.099868
0.658149 0.272099 0.102187
0.686352 0.274482 0.104512
0.714648 0.276871 0.106842
0.743035 0.279265 0.109177
0.771511 0.281665 0.111517
0.800073 0.284069 0.113861
0.801606 0.284238 0.113954
0.802153 0.284326 0.113965
0.056444 0.250193 0.058357
0.056497 0.250284 0.058365
0.057210 0.250431 0.058428
0.079660 0.252390 0.060326
0.103582 0.254470 0.062347
0.128161 0.256603 0.064420
0.153193 0.258772 0.066529
0.178576 0.260967 0.068665
0.204251 0.263184 0.070822
0.230177 0.265420 0.072998
0.256325 0.267673 0.075189
0.282674 0.269939 0.077395
0.309206 0.272219 0.079614
0.335907 0.274511 0.081843
0.362766 0.276813 0.084084
0.389773 0.279126 0.086334
0.416921 0.281447 0.088593
0.444201 0.283778 0.090861
0.471607 0.286117 0.093136
0.499135 0.288464 0.095419
0.526780 0.290818 0.097709
0.554536 0.293180 0.100005
0.582400 0.295548 0.102308
0.610369 0.297922 0.104618
0.638438 0.300303 0.106933
0.666606 0.302690 0.109253
0.694869 0.305083 0.111579
0.723224 0.307481 0.113910
0.751670 0.309884 0.116246
0.780204 0.312293 0.118587
0.808824 0.314706 0.120932
0.810356 0.314882 0.121025
0.810898 0.314976 0.121036
0.063448 0.280765 0.065437
0.063507 0.280866 0.065445
0.064227 0.281020 0.065508
0.086741 0.282991 0.067409
0.110730 0.285082 0.069431
0.135377 0.287226 0.071505
0.160476 0.289405 0.073615
0.185926 0.291611 0.075752
0.211669 0.293838 0.077911
0.237662 0.296085 0.080088
0.263878 0.298348 0.082281
0.290293 0.300625 0.084488
0.316892 0.302914 0.086708
0.343659 0.305216 0.088939
0.370583 0.307529 0.091181
0.397655 0.309851 0.093432
0.424867 0.312183 0.095693
0.452211 0.314523 0.097961
0.479682 0.316872 0.100238
0.507272 0.319228 0.102522
0.534979 0.321592 0.104813
0.562797 0.323962 0.107111
0.590722 0.326340 0.109415
0.618752 0.328724 0.111725
0.646881 0.331114 0.114041
0.675109 0.333509 0.116363
0.703430 0.335911 0.118690
0.731844 0.338318 0.121022
0.760348 0.340730 0.123358
0.788939 0.343147 0.125700
0.817595 0.345569 0.128047
0.819096 0.345751 0.128140
0.819624 0.345851 0.128151
0.070525 0.311559 0.072558
0.070589 0.311667 0.072566
0.071317 0.311830 0.072630
0.093892 0.313811 0.074532
0.117947 0.315912 0.076555
0.142660 0.318066 0.078631
0.167825 0.320255 0.080743
0.193342 0.322471 0.082881
0.219151 0.324709 0.085041
0.245211 0.326966 0.087220
0.271492 0.329238 0.089414
0.297973 0.331525 0.091622
0.324636 0.333825 0.093843
0.351468 0.336136 0.096076
0.378457 0.338458 0.098318
0.405592 0.340790 0.100571
0.432867 0.343131 0.102832
0.460274 0.345480 0.105102
0.487807 0.347838 0.107380
0.515459 0.350203 0.109665
0.543227 0.352576 0.111957
0.571105 0.354956 0.114256
0.599091 0.357342 0.116561
0.627179 0.359734 0.118872
0.655368 0.362133 0.121189
0.683654 0.364537 0.123512
0.712033 0.366947 0.125840
0.740504 0.369362 0.128173
0.769065 0.371782 0.130510
0.797712 0.374207 0.132853
0.826242 0.376637 0.135200
0.827732 0.376825 0.135294
0.828248 0.376931 0.135305
0.077670 0.342556 0.079717
0.077740 0.342673 0.079726
0.078474 0.342844 0.079790
0.101111 0.344834 0.081693
0.125230 0.346945 0.083718
0.150007 0.349109 0.085795
0.175238 0.351308 0.087908
0.200820 0.353533 0.090047
0.226694 0.355781 0.092209
0.252818 0.358047 0.094388
0.279164 0.360329 0.096584
0.305709 0.362625 0.098793
0.332436 0.364934 0.101015
0.359331 0.367254 0.103249
0.386382 0.369585 0.105493
0.413581 0.371926 0.107747
0.440918 0.374275 0.110009
0.468386 0.376634 0.112280
0.495979 0.379000 0.114559
0.523692 0.381374 0.116845
0.551520 0.383755 0.119138
0.579458 0.386143 0.121438
0.607502 0.388538 0.123744
0.635649 0.390938 0.126056
0.663895 0.393345 0.128374
0.692238 0.395757 0.130697
0.720674 0.398175 0.133026
0.749201 0.400597 0.135360
0.777817 0.403025 0.137698
0.806519 0.405458 0.140042
0.834879 0.407896 0.142390
0.836355 0.408089 0.142483
0.836859 0.408200 0.142495
0.084880 0.373745 0.086911
0.084955 0.373869 0.086920
0.085697 0.374047 0.086985
0.108394 0.376047 0.088889
0.132575 0.378167 0.090915
0.157416 0.380340 0.092994
0.182710 0.382548 0.095108
0.208356 0.384783 0.097248
0.234294 0.387040 0.099411
0.260481 0.389315 0.101591
0.286890 0.391605 0.103788
0.313498 0.393910 0.105999
0.340288 0.396228 0.108222
0.367245 0.398557 0.110457
0.394358 0.400896 0.112702
0.421618 0.403245 0.114956
0.449015 0.405603 0.117220
0.476543 0.407970 0.119492
0.504196 0.410345 0.121771
0.531969 0.412727 0.124058
0.559855 0.415116 0.126353
0.587851 0.417511 0.128653
0.615953 0.419914 0.130960
0.644157 0.422322 0.133273
0.672460 0.424736 0.135592
0.700858 0.427156 0.137916
0.729350 0.429581 0.140246
0.757932 0.432011 0.142580
0.786602 0.434446 0.144919
0.815358 0.436886 0.147264
0.843497 0.439330 0.149612
0.844959 0.439529 0.149706
0.845450 0.439645 0.149717
0.092153 0.405113 0.094137
0.092233 0.405244 0.094147
0.092982 0.405429 0.094213
0.115737 0.407437 0.096118
0.139980 0.409567 0.098145
0.164883 0.411748 0.100224
0.190240 0.413965 0.102339
0.215948 0.416209 0.104481
0.241948 0.418474 0.106645
0.268198 0.420757 0.108827
0.294669 0.423056 0.111024
0.321339 0.425369 0.113236
0.348189 0.427695 0.115460
0.375207 0.430032 0.117696
0.402381 0.432379 0.119942
0.429700 0.434737 0.122197
0.457157 0.437103 0.124462
0.484745 0.439477 0.126735
0.512456 0.441859 0.129015
0.540286 0.444249 0.131303
0.568230 0.446645 0.133598
0.596283 0.449048 0.135900
0.624441 0.451458 0.138207
0.652701 0.453873 0.140521
0.681059 0.456294 0.142841
0.709513 0.458721 0.145165
0.738059 0.461153 0.147496
0.766694 0.463590 0.149831
0.795418 0.466032 0.152171
0.824051 0.468478 0.154516
0.852090 0.470929 0.156865
0.853537 0.471132 0.156959
0.854013 0.471253 0.156970
0.099485 0.436649 0.101394
0.099571 0.436786 0.101404
0.100326 0.436978 0.101470
0.123139 0.438995 0.103377
0.147442 0.441132 0.105405
0.172406 0.443322 0.107485
0.197824 0.445547 0.109601
0.223594 0.447799 0.111744
0.249655 0.450072 0.113909
0.275966 0.452363 0.116091
0.302498 0.454670 0.118290
0.329228 0.456991 0.120503
0.356138 0.459325 0.122728
0.383216 0.461669 0.124964
0.410449 0.464024 0.127211
0.437827 0.466389 0.129468
0.465342 0.468762 0.131733
0.492987 0.471144 0.134007
0.520756 0.473533 0.136288
0.548643 0.475930 0.138577
0.576643 0.478333 0.140872
0.604752 0.480743 0.143175
0.632965 0.483160 0.145483
0.661280 0.485582 0.147798
0.689692 0.488009 0.150118
0.718199 0.490443 0.152443
0.746798 0.492881 0.154774
0.775487 0.495324 0.157110
0.804262 0.497772 0.159451
0.832662 0.500225 0.161796
0.860652 0.502682 0.164146
0.862082 0.502889 0.164239
0.862543 0.503013 0.164251
0.106876 0.468344 0.108679
0.106967 0.468488 0.108690
0.107728 0.468685 0.108756
0.130597 0.470710 0.110663
0.154959 0.472855 0.112692
0.179983 0.475053 0.114774
0.205461 0.477286 0.116891
0.231291 0.479545 0.119035
0.257412 0.481826 0.121200
0.283783 0.484124 0.123384
0.310374 0.486439 0.125584
0.337163 0.488767 0.127797
0.364133 0.491108 0.130023
0.391268 0.493459 0.132260
0.418559 0.495821 0.134508
0.445995 0.498193 0.136765
0.473567 0.500573 0.139031
0.501269 0.502961 0.141306
0.529094 0.505357 0.143588
0.557036 0.507761 0.145877
0.585092 0.510171 0.148174
0.613255 0.512587 0.150477
0.641523 0.515009 0.152786
0.669891 0.517438 0.155101
0.698356 0.519871 0.157422
0.726916 0.522311 0.159748
0.755567 0.524755 0.162079
0.784307 0.527204 0.164415
0.813133 0.529658 0.166757
0.841242 0.532116 0.169102
0.869175 0.534578 0.171453
0.870588 0.534789 0.171546
0.871032 0.534917 0.171557
0.114322 0.500190 0.115991
0.114418 0.500339 0.116002
0.115185 0.500542 0.116069
0.138110 0.502574 0.117977
0.162530 0.504727 0.120007
0.187612 0.506932 0.122089
0.213149 0.509172 0.124207
0.239038 0.511438 0.126352
0.265218 0.513726 0.128518
0.291647 0.516031 0.130703
0.318296 0.518353 0.132903
0.345143 0.520688 0.135117
0.372170 0.523035 0.137344
0.399363 0.525393 0.139582
0.426711 0.527762 0.141831
0.454203 0.530140 0.144089
0.481831 0.532526 0.146355
0.509588 0.534921 0.148630
0.537468 0.537323 0.150913
0.565465 0.539732 0.153203
0.593574 0.542148 0.155500
0.621791 0.544570 0.157804
0.650112 0.546999 0.160114
0.678533 0.549433 0.162429
0.707050 0.551872 0.164750
0.735661 0.554317 0.167077
0.764363 0.556766 0.169409
0.793154 0.559221 0.171746
0.821935 0.561680 0.174087
0.849786 0.564143 0.176433
0.877653 0.566610 0.178784
0.879047 0.566825 0.178877
0.879475 0.566956 0.178888
0.121822 0.532178 0.123328
0.121922 0.532332 0.123339
0.122697 0.532541 0.123406
0.145675 0.534579 0.125315
0.170152 0.536739 0.127346
0.195292 0.538951 0.129429
0.220886 0.541197 0.131548
0.246833 0.543470 0.133693
0.273070 0.545764 0.135860
0.299556 0.548077 0.138046
0.326263 0.550404 0.140247
0.353166 0.552746 0.142462
0.380250 0.555099 0.144689
0.407499 0.557464 0.146928
0.434902 0.559838 0.149177
0.462449 0.562222 0.151436
0.490132 0.564614 0.153703
0.517944 0.567015 0.155979
0.545878 0.569422 0.158262
0.573928 0.571837 0.160553
0.602090 0.574259 0.162851
0.630359 0.576686 0.165155
0.658732 0.579120 0.167465
0.687204 0.581559 0.169781
0.715772 0.584003 0.172102
0.744434 0.586453 0.174429
0.773186 0.588907 0.176762
0.802025 0.591366 0.179099
0.830505 0.593830 0.181441
0.858286 0.596298 0.183787
0.886080 0.598770 0.186138
0.887454 0.598987 0.186231
0.887864 0.599121 0.186242
0.129374 0.564301 0.130689
0.129479 0.564460 0.130700
0.130259 0.564674 0.130767
0.153291 0.566718 0.132677
0.177823 0.568884 0.134708
0.203019 0.571102 0.136793
0.228670 0.573355 0.138912
0.254673 0.575634 0.141058
0.280967 0.577934 0.143226
0.307510 0.580253 0.145412
0.334272 0.582586 0.147614
0.361231 0.584933 0.149829
0.388370 0.587292 0.152058
0.415674 0.589662 0.154297
0.443131 0.592043 0.156547
0.470733 0.594432 0.158806
0.498469 0.596829 0.161074
0.526334 0.599235 0.163350
0.554320 0.601648 0.165634
0.582423 0.604068 0.167925
0.610637 0.606494 0.170223
0.638957 0.608927 0.172527
0.667381 0.611365 0.174838
0.695903 0.613809 0.177154
0.724521 0.616258 0.179476
0.753232 0.618712 0.181804
0.782033 0.621171 0.184136
0.810921 0.623634 0.186474
0.839033 0.626102 0.188816
0.866737 0.628574 0.191163
0.894449 0.631050 0.193514
0.895802 0.631270 0.193607
0.896193 0.631406 0.193617
0.136976 0.596553 0.138072
0.137086 0.596716 0.138083
0.137873 0.596934 0.138151
0.160956 0.598985 0.140061
0.185543 0.601156 0.142093
0.210794 0.603380 0.144178
0.236500 0.605638 0.146298
0.262559 0.607923 0.148445
0.288907 0.610229 0.150613
0.315505 0.612553 0.152800
0.342322 0.614892 0.155002
0.369336 0.617244 0.157219
0.396529 0.619608 0.159447
0.423886 0.621984 0.161687
0.451397 0.624369 0.163937
0.479052 0.626763 0.166197
0.506841 0.629165 0.168465
0.534757 0.631576 0.170742
0.562795 0.633993 0.173026
0.590949 0.636418 0.175318
0.619214 0.638848 0.177616
0.647584 0.641285 0.179921
0.676057 0.643728 0.182232
0.704629 0.646176 0.184549
0.733296 0.648629 0.186871
0.762055 0.651087 0.189199
0.790903 0.653550 0.191531
0.819839 0.656017 0.193869
0.847513 0.658489 0.196211
0.875133 0.660964 0.198558
0.902755 0.663444 0.200910
0.904085 0.663665 0.201002
0.904456 0.663804 0.201013
0.144628 0.628927 0.145476
0.144742 0.629094 0.145488
0.145535 0.629316 0.145555
0.168669 0.631372 0.147466
0.193309 0.633549 0.149499
0.218614 0.635778 0.151584
0.244374 0.638041 0.153705
0.270487 0.640331 0.155852
0.296890 0.642642 0.158021
0.323542 0.644971 0.160208
0.350412 0.647314 0.162411
0.377479 0.649672 0.164628
0.404725 0.652041 0.166857
0.432136 0.654420 0.169098
0.459699 0.656810 0.171348
0.487405 0.659209 0.173608
0.515245 0.661615 0.175877
0.543213 0.664030 0.178154
0.571301 0.666452 0.180439
0.599505 0.668880 0.182731
0.627819 0.671315 0.185029
0.656239 0.673756 0.187334
0.684761 0.676202 0.189645
0.713380 0.678654 0.191962
0.742095 0.681111 0.194285
0.770901 0.683572 0.196613
0.799796 0.686038 0.198946
0.828417 0.688509 0.201283
0.855940 0.690984 0.203626
0.883466 0.693462 0.205973
0.910990 0.695945 0.208324
0.912297 0.696168 0.208417
0.912647 0.696308 0.208427
0.152327 0.661417 0.152900
0.152446 0.661588 0.152912
0.153244 0.661813 0.152980
0.176428 0.663874 0.154891
0.201120 0.666056 0.156924
0.226478 0.668289 0.159010
0.252292 0.670558 0.161132
0.278457 0.672852 0.163279
0.304913 0.675167 0.165449
0.331618 0.677500 0.167636
0.358541 0.679849 0.169840
0.385660 0.682210 0.172057
0.412958 0.684583 0.174286
0.440420 0.686967 0.176527
0.468034 0.689361 0.178778
0.495791 0.691763 0.181039
0.523681 0.694174 0.183308
0.551699 0.696592 0.185585
0.579837 0.699018 0.187870
0.608090 0.701450 0.190162
0.636452 0.703888 0.192461
0.664920 0.706332 0.194766
0.693490 0.708782 0.197077
0.722156 0.711237 0.199394
0.750918 0.713697 0.201717
0.779770 0.716161 0.204045
0.808711 0.718630 0.206378
0.836882 0.721104 0.208716
0.864308 0.723581 0.211058
0.891732 0.726062 0.213405
0.919150 0.728548 0.215757
0.920432 0.728772 0.215849
0.920759 0.728912 0.215858
0.160072 0.694019 0.160344
0.160195 0.694192 0.160356
0.160999 0.694420 0.160423
0.184233 0.696485 0.162335
0.208975 0.698671 0.164369
0.234385 0.700909 0.166455
0.260251 0.703182 0.168577
0.286468 0.705480 0.170725
0.312976 0.707800 0.172895
0.339732 0.710137 0.175083
0.366707 0.712489 0.177287
0.393877 0.714854 0.179504
0.421226 0.717231 0.181734
0.448738 0.719618 0.183975
0.476402 0.722015 0.186226
0.504209 0.724421 0.188487
0.532149 0.726835 0.190756
0.560215 0.729257 0.193034
0.588401 0.731686 0.195319
0.616702 0.734121 0.197611
0.645112 0.736562 0.199910
0.673627 0.739009 0.202215
0.702243 0.741461 0.204527
0.730956 0.743919 0.206844
0.759763 0.746381 0.209167
0.788660 0.748848 0.211495
0.817646 0.751320 0.213828
0.845290 0.753796 0.216165
0.872611 0.756275 0.218508
0.899924 0.758759 0.220855
0.927227 0.761246 0.223206
0.928482 0.761471 0.223297
0.928787 0.761612 0.223307
0.167862 0.726725 0.167805
0.167990 0.726901 0.167817
0.168799 0.727131 0.167885
0.192081 0.729200 0.169797
0.216874 0.731390 0.171831
0.242334 0.733632 0.173918
0.268250 0.735908 0.176040
0.294519 0.738210 0.178188
0.321078 0.740533 0.180358
0.347884 0.742874 0.182547
0.374909 0.745229 0.184751
0.402130 0.747598 0.186968
0.429528 0.749978 0.189198
0.457090 0.752368 0.191440
0.484803 0.754769 0.193691
0.512658 0.757177 0.195952
0.540646 0.759594 0.198221
0.568760 0.762019 0.200499
0.596994 0.764450 0.202784
0.625341 0.766887 0.205077
0.653798 0.769331 0.207376
0.682359 0.771781 0.209681
0.711020 0.774235 0.211992
0.739778 0.776695 0.214310
0.768629 0.779160 0.216632
0.797571 0.781629 0.218960
0.826420 0.784102 0.221293
0.853635 0.786580 0.223631
0.880842 0.789061 0.225973
0.908037 0.791546 0.228320
0.935215 0.794035 0.230671
0.936443 0.794260 0.230762
0.936724 0.794401 0.230770
0.175697 0.759532 0.175284
0.175828 0.759710 0.175296
0.176643 0.759942 0.175363
0.199971 0.762014 0.177276
0.224813 0.764208 0.179310
0.250323 0.766453 0.181397
0.276290 0.768732 0.183519
0.302608 0.771037 0.185668
0.329216 0.773363 0.187839
0.356072 0.775707 0.190027
0.383147 0.778065 0.192231
0.410416 0.780436 0.194449
0.437863 0.782819 0.196679
0.465473 0.785212 0.198921
0.493234 0.787615 0.201172
0.521137 0.790026 0.203433
0.549172 0.792446 0.205703
0.577333 0.794872 0.207980
0.605613 0.797306 0.210266
