library/cube/Faded_Memories_000.cube
# CINEGRADE LAB — Premium Cinematic LUT
# Title: Faded Memories
# Category: Vintage Film Lab
# Description: Faded, grainy, color-shifted retro film lab aesthetic
# Mood: Retro, faded, nostalgic
# Variant: 1
# Generated: 2026-05-21T16:12:31.619999
TITLE "Faded Memories"
LUT_3D_SIZE 9
0.175608 0.159995 0.150009
0.251090 0.165564 0.155701
0.331590 0.171522 0.161787
0.415702 0.177766 0.168165
0.502656 0.184236 0.174776
0.591959 0.190896 0.181585
0.683271 0.197721 0.188566
0.776338 0.204691 0.195700
0.809547 0.207150 0.198344
0.193186 0.247811 0.169188
0.268423 0.253367 0.174907
0.348675 0.259314 0.181023
0.432544 0.265546 0.187430
0.519263 0.272006 0.194073
0.608343 0.278657 0.200914
0.699444 0.285473 0.207928
0.792314 0.292434 0.215096
0.825523 0.294890 0.217774
0.212132 0.341542 0.189767
0.287153 0.347089 0.195518
0.367189 0.353028 0.201666
0.450848 0.359252 0.208107
0.537366 0.365705 0.214784
0.626258 0.372350 0.221661
0.717183 0.379160 0.228712
0.809893 0.386118 0.235919
0.842650 0.388573 0.238633
0.232099 0.439575 0.211408
0.306933 0.445117 0.217193
0.386786 0.451051 0.223377
0.470269 0.457272 0.229855
0.556621 0.463723 0.236571
0.645359 0.470365 0.243488
0.736146 0.477175 0.250580
0.828733 0.484133 0.257829
0.860653 0.486591 0.260582
0.252905 0.541035 0.233929
0.327584 0.546576 0.239753
0.407286 0.552510 0.245977
0.490626 0.558732 0.252497
0.576848 0.565185 0.259255
0.665468 0.571831 0.266215
0.756153 0.578644 0.273352
0.848042 0.585607 0.280648
0.880336 0.588073 0.283444
0.274443 0.645368 0.257223
0.348999 0.650914 0.263089
0.428583 0.656853 0.269356
0.511814 0.663082 0.275921
0.597940 0.669541 0.282725
0.686480 0.676195 0.289734
0.777100 0.683018 0.296920
0.868628 0.689990 0.304266
0.901447 0.692469 0.307107
0.296647 0.752198 0.281215
0.371110 0.757753 0.287127
0.450609 0.763703 0.293442
0.533767 0.769943 0.300056
0.619833 0.776414 0.306911
0.708329 0.783082 0.313971
0.798921 0.789919 0.321211
0.890525 0.796907 0.328612
0.923756 0.799403 0.331502
0.319473 0.861250 0.305857
0.393876 0.866820 0.311819
0.473323 0.872786 0.318186
0.556442 0.879042 0.324853
0.642484 0.885532 0.331763
0.730972 0.892218 0.338879
0.821574 0.899075 0.346177
0.913514 0.906084 0.353636
0.947045 0.908603 0.356579
0.327305 0.900779 0.315457
0.401684 0.906374 0.321466
0.481118 0.912366 0.327881
0.564237 0.918649 0.334598
0.650295 0.925165 0.341559
0.738815 0.931879 0.348727
0.829459 0.938755 0.356078
0.921846 0.945789 0.363592
0.955551 0.948343 0.366582
0.177381 0.161886 0.220735
0.252837 0.167455 0.226430
0.333311 0.173414 0.232522
0.417396 0.179658 0.238905
0.504325 0.186128 0.245524
0.593604 0.192789 0.252342
0.684893 0.199614 0.259332
0.777939 0.206584 0.266478
0.811147 0.209045 0.269134
0.194963 0.249698 0.239931
0.270176 0.255255 0.245658
0.350406 0.261202 0.251783
0.434252 0.267435 0.258201
0.520949 0.273895 0.264855
0.610008 0.280547 0.271709
0.701090 0.287363 0.278737
0.793943 0.294326 0.285921
0.827152 0.296783 0.288615
0.213914 0.343426 0.260542
0.288915 0.348974 0.266305
0.368931 0.354913 0.272466
0.452571 0.361138 0.278922
0.539071 0.367593 0.285615
0.627946 0.374238 0.292509
0.718855 0.381050 0.299579
0.811552 0.388009 0.306805
0.844205 0.390465 0.309540
0.233888 0.441457 0.282228
0.308706 0.447000 0.288030
0.388542 0.452935 0.294232
0.472009 0.459158 0.300729
0.558347 0.465609 0.307465
0.647071 0.472254 0.314403
0.737846 0.479065 0.321518
0.830423 0.486024 0.328792
0.862307 0.488484 0.331570
0.254703 0.542916 0.304810
0.329369 0.548459 0.310655
0.409058 0.554395 0.316901
0.492386 0.560619 0.323444
0.578596 0.567073 0.330226
0.667207 0.573720 0.337213
0.757884 0.580536 0.344377
0.849723 0.587500 0.351701
0.882074 0.589969 0.354526
0.276253 0.647251 0.328179
0.350799 0.652799 0.334070
0.430372 0.658740 0.340364
0.513595 0.664970 0.346956
0.599714 0.671432 0.353789
0.688248 0.678088 0.360828
0.778863 0.684913 0.368045
0.870391 0.691888 0.375424
0.903256 0.694369 0.378299
0.298470 0.754084 0.352260
0.372927 0.759642 0.358202
0.452419 0.765594 0.364548
0.535572 0.771836 0.371193
0.621634 0.778310 0.378082
0.710127 0.784980 0.385176
0.800718 0.791819 0.392452
0.892353 0.798810 0.399890
0.925620 0.801309 0.402818
0.321313 0.863141 0.377006
0.395711 0.868714 0.383002
0.475155 0.874682 0.389404
0.558273 0.880941 0.396107
0.644315 0.887433 0.403054
0.732804 0.894122 0.410210
0.823409 0.900982 0.417547
0.915393 0.907994 0.425048
0.948947 0.910516 0.428033
0.329165 0.902678 0.386722
0.403543 0.908277 0.392769
0.482976 0.914271 0.399224
0.566097 0.920557 0.405981
0.652158 0.927076 0.412983
0.740683 0.933792 0.420194
0.831330 0.940671 0.427589
0.923755 0.947710 0.435149
0.957473 0.950267 0.438185
0.179289 0.163909 0.296277
0.254719 0.169479 0.301977
0.335166 0.175438 0.308074
0.419226 0.181682 0.314465
0.506129 0.188153 0.321093
0.595384 0.194814 0.327920
0.686650 0.201640 0.334922
0.779675 0.208610 0.342080
0.812882 0.211072 0.344751
0.196874 0.251717 0.315494
0.272064 0.257274 0.321230
0.352271 0.263222 0.327365
0.436095 0.269456 0.333795
0.522770 0.275917 0.340462
0.611809 0.282569 0.347331
0.702872 0.289386 0.354375
0.795707 0.296350 0.361576
0.828918 0.298808 0.364289
0.215830 0.345442 0.336141
0.290811 0.350991 0.341917
0.370808 0.356931 0.348093
0.454429 0.363157 0.354566
0.540911 0.369612 0.361276
0.629769 0.376259 0.368190
0.720663 0.383072 0.375280
0.813346 0.390031 0.382528
0.845895 0.392489 0.385286
0.235811 0.443471 0.357879
0.310612 0.449015 0.363699
0.390432 0.454952 0.369920
0.473884 0.461176 0.376438
0.560207 0.467629 0.383196
0.648919 0.474274 0.390158
0.739682 0.481087 0.397298
0.832249 0.488048 0.404598
0.864096 0.490509 0.407403
0.256635 0.544930 0.380527
0.331288 0.550474 0.386395
0.410964 0.556412 0.392665
0.494280 0.562637 0.399233
0.580479 0.569093 0.406042
0.669081 0.575742 0.413057
0.759750 0.582560 0.420251
0.851541 0.589526 0.427606
0.883948 0.591996 0.430462
0.278197 0.649266 0.403978
0.352732 0.654816 0.409896
0.432296 0.660759 0.416218
0.515511 0.666991 0.422841
0.601622 0.673455 0.429706
0.690150 0.680113 0.436777
0.780761 0.686940 0.444029
0.872290 0.693917 0.451443
0.905199 0.696401 0.454354
0.300428 0.756102 0.428157
0.374877 0.761662 0.434130
0.454363 0.767617 0.440509
0.537511 0.773861 0.447190
0.623569 0.780338 0.454114
0.712061 0.787010 0.461246
0.802652 0.793852 0.468560
0.894318 0.800845 0.476038
0.927618 0.803347 0.479007
0.323286 0.865164 0.453016
0.397681 0.870740 0.459048
0.477122 0.876711 0.465488
0.560238 0.882973 0.472230
0.646280 0.889468 0.479218
0.734771 0.896159 0.486415
0.825379 0.903022 0.493796
0.917407 0.910037 0.501341
0.950984 0.912562 0.504371
0.331159 0.904710 0.462858
0.405535 0.910311 0.468946
0.484969 0.916309 0.475442
0.568092 0.922597 0.482243
0.654156 0.929120 0.489290
0.742687 0.935835 0.496548
0.833339 0.942720 0.503991
0.925799 0.949763 0.511600
0.959528 0.952325 0.514685
0.181295 0.166029 0.375335
0.256699 0.171599 0.381041
0.337120 0.177558 0.387145
0.421154 0.183803 0.393545
0.508033 0.190274 0.400182
0.597264 0.196936 0.407020
0.688508 0.203762 0.414035
0.781511 0.210733 0.421207
0.814718 0.213195 0.423893
0.198883 0.253832 0.394576
0.274051 0.259390 0.400323
0.354234 0.265339 0.406470
0.438036 0.271573 0.412913
0.524691 0.278035 0.419594
0.613710 0.284688 0.426479
0.704753 0.291506 0.433540
0.797572 0.298470 0.440761
0.830783 0.300929 0.443493
0.217845 0.347554 0.415263
0.292806 0.353104 0.421055
0.372783 0.359045 0.427247
0.456386 0.365272 0.433737
0.542850 0.371728 0.440468
0.631691 0.378376 0.447401
0.722571 0.385190 0.454514
0.815240 0.392151 0.461786
0.847686 0.394610 0.464568
0.237832 0.445581 0.437057
0.312617 0.451127 0.442897
0.392421 0.457065 0.449139
0.475857 0.463290 0.455680
0.562167 0.469744 0.462463
0.650866 0.476392 0.469450
0.741618 0.483206 0.476617
0.834126 0.490168 0.483945
0.865987 0.492631 0.486779
0.258666 0.547040 0.459778
0.333305 0.552586 0.465670
0.412968 0.558525 0.471966
0.496272 0.564752 0.478562
0.582461 0.571210 0.485400
0.671054 0.577861 0.492445
0.761715 0.584680 0.499670
0.853461 0.591648 0.507058
0.885924 0.594121 0.509949
0.280238 0.651378 0.483317
0.354764 0.656930 0.489264
0.434318 0.662875 0.495618
0.517525 0.669109 0.502272
0.603629 0.675575 0.509170
0.692152 0.682235 0.516277
0.782760 0.689064 0.523565
0.874290 0.696043 0.531017
0.907244 0.698530 0.533967
0.302483 0.758217 0.507601
0.376926 0.763780 0.513608
0.456405 0.769736 0.520022
0.539549 0.775983 0.526739
0.625604 0.782462 0.533702
0.714094 0.789137 0.540874
0.804685 0.795981 0.548229
0.896383 0.802977 0.555750
0.929715 0.805482 0.558762
0.325357 0.867284 0.532580
0.399749 0.872863 0.538651
0.479187 0.878836 0.545131
0.562302 0.885101 0.551915
0.648344 0.891599 0.558946
0.736837 0.898293 0.566187
0.827447 0.905159 0.573614
0.919521 0.912176 0.581207
0.953118 0.914705 0.584285
0.333250 0.906839 0.542556
0.407627 0.912443 0.548688
0.487061 0.918443 0.555229
0.570186 0.924735 0.562076
0.656254 0.931261 0.569171
0.744790 0.937976 0.576478
0.835448 0.944866 0.583972
0.927941 0.951914 0.591633
0.961681 0.954479 0.594771
0.183379 0.168226 0.457196
0.258757 0.173796 0.462907
0.339153 0.179756 0.469020
0.423162 0.186000 0.475429
0.510015 0.192472 0.482077
0.599224 0.199134 0.488928
0.690445 0.205960 0.495957
0.783428 0.212932 0.503144
0.816634 0.215395 0.505846
0.200970 0.256025 0.476464
0.276116 0.261583 0.482222
0.356277 0.267532 0.488382
0.440057 0.273767 0.494839
0.526690 0.280230 0.501537
0.615689 0.286884 0.508439
0.706715 0.293702 0.515519
0.799516 0.300667 0.522759
0.832729 0.303127 0.525513
0.219937 0.349743 0.497196
0.294879 0.355294 0.503003
0.374837 0.361236 0.509214
0.458421 0.367464 0.515723
0.544868 0.373922 0.522474
0.633693 0.380570 0.529430
0.724558 0.387385 0.536566
0.817215 0.394347 0.543863
0.849561 0.396808 0.546672
0.239931 0.447769 0.519050
0.314700 0.453316 0.524911
0.394488 0.459255 0.531176
0.477910 0.465482 0.537741
0.564205 0.471937 0.544549
0.652892 0.478586 0.551564
0.743633 0.485401 0.558760
0.836034 0.492365 0.566118
0.867960 0.494830 0.568983
0.260774 0.549227 0.541849
0.335401 0.554775 0.547767
0.415051 0.560716 0.554090
0.498344 0.566945 0.560715
0.584523 0.573404 0.567584
0.673107 0.580057 0.574661
0.763761 0.586878 0.581920
0.855464 0.593848 0.589343
0.887981 0.596322 0.592269
0.282358 0.653567 0.565481
0.356874 0.659121 0.571460
0.436419 0.665068 0.577846
0.519618 0.671304 0.584534
0.605716 0.677772 0.591468
0.694234 0.684434 0.598611
0.784838 0.691266 0.605938
0.876373 0.698247 0.613430
0.909370 0.700735 0.616421
0.304617 0.760410 0.589876
0.379053 0.765974 0.595919
0.458527 0.771934 0.602371
0.541666 0.778183 0.609127
0.627718 0.784664 0.616130
0.716207 0.791341 0.623344
0.806798 0.798188 0.630743
0.898529 0.805186 0.638308
0.931893 0.807694 0.641366
0.327507 0.869482 0.614983
0.401895 0.875063 0.621095
0.481331 0.881039 0.627617
0.564445 0.887307 0.634445
0.650488 0.893807 0.641521
0.738984 0.900505 0.648809
0.829586 0.907373 0.656284
0.921714 0.914394 0.663928
0.955332 0.916925 0.667056
0.335420 0.909045 0.625100
0.409796 0.914652 0.631278
0.489232 0.920656 0.637866
0.572359 0.926950 0.644762
0.658432 0.933479 0.651907
0.746974 0.940195 0.659266
0.837639 0.947090 0.666813
0.930162 0.954143 0.674528
0.963912 0.956711 0.677722
0.185528 0.170487 0.541401
0.260881 0.176057 0.547120
0.341251 0.182017 0.553242
0.425235 0.188262 0.559661
0.512065 0.194734 0.566322
0.601250 0.201397 0.573186
0.692450 0.208224 0.580230
0.785412 0.215196 0.587434
0.818618 0.217659 0.590154
0.203123 0.258281 0.560701
0.278246 0.263841 0.566472
0.358385 0.269791 0.572646
0.442143 0.276026 0.579118
0.528756 0.282489 0.585833
0.617736 0.289144 0.592754
0.708743 0.295963 0.599854
0.801528 0.302929 0.607116
0.834742 0.305390 0.609893
0.222094 0.351997 0.581481
0.297017 0.357549 0.587306
0.376957 0.363492 0.593536
0.460523 0.369721 0.600066
0.546953 0.376179 0.606839
0.635762 0.382829 0.613819
0.726613 0.389645 0.620980
0.819257 0.396608 0.628304
0.851508 0.399070 0.631140
0.242096 0.450021 0.603401
0.316849 0.455570 0.609285
0.396622 0.461510 0.615574
0.480028 0.467738 0.622165
0.566311 0.474195 0.629000
0.654985 0.480845 0.636043
0.745716 0.487662 0.643269
0.838013 0.494627 0.650659
0.870005 0.497094 0.653557
0.262948 0.551480 0.626282
0.337562 0.557029 0.632227
0.417200 0.562972 0.638580
0.500482 0.569202 0.645236
0.586651 0.575663 0.652137
0.675227 0.582318 0.659247
0.765874 0.589140 0.666542
0.857538 0.596112 0.674002
0.890109 0.598588 0.676966
0.284544 0.655821 0.650014
0.359050 0.661377 0.656025
0.438587 0.667326 0.662445
0.521778 0.673564 0.669169
0.607869 0.680034 0.676141
0.696383 0.686698 0.683323
0.786984 0.693532 0.690690
0.878525 0.700515 0.698224
0.911564 0.703006 0.701257
0.306816 0.762667 0.674525
0.381246 0.768234 0.680606
0.460715 0.774196 0.687097
0.543849 0.780447 0.693894
0.629899 0.786931 0.700940
0.718387 0.793610 0.708197
0.808979 0.800460 0.715642
0.900744 0.807461 0.723254
0.934139 0.809971 0.726360
0.329723 0.871745 0.699765
0.404108 0.877328 0.705920
0.483542 0.883307 0.712487
0.566656 0.889577 0.719361
0.652700 0.896081 0.726484
0.741198 0.902781 0.733822
0.831794 0.909652 0.741347
0.923975 0.916676 0.749043
0.957612 0.919211 0.752224
0.337657 0.911317 0.710032
0.412033 0.916927 0.716256
0.491469 0.922933 0.722894
0.574600 0.929230 0.729841
0.660677 0.935757 0.737039
0.749225 0.942480 0.744451
0.839899 0.949380 0.752054
0.932449 0.956437 0.759827
0.966208 0.959008 0.763078
0.187734 0.172803 0.627631
0.263062 0.178374 0.633359
0.343407 0.184334 0.639491
0.427366 0.190580 0.645922
0.514172 0.197052 0.652596
0.603334 0.203715 0.659475
0.694512 0.210542 0.666535
0.787455 0.217515 0.673757
0.820660 0.219979 0.676497
0.205332 0.260594 0.646967
0.280433 0.266154 0.652751
0.360550 0.272104 0.658940
0.444287 0.278340 0.665430
0.530880 0.284804 0.672163
0.619841 0.291459 0.679103
0.710830 0.298280 0.686226
0.803599 0.305246 0.693511
0.836814 0.307708 0.696311
0.224309 0.354306 0.667799
0.299213 0.359859 0.673643
0.379134 0.365803 0.679893
0.462682 0.372033 0.686445
0.549095 0.378493 0.693242
0.637889 0.385144 0.700247
0.728726 0.391961 0.707435
0.821357 0.398925 0.714787
0.853518 0.401388 0.717652
0.244317 0.452329 0.689789
0.319055 0.457879 0.695697
0.398812 0.463820 0.702011
0.482205 0.470049 0.708629
0.568474 0.476508 0.715493
0.657137 0.483159 0.722567
0.747857 0.489978 0.729825
0.840057 0.496944 0.737248
0.872112 0.499413 0.740181
0.265179 0.553788 0.712757
0.339780 0.559339 0.718732
0.419407 0.565283 0.725115
0.502678 0.571515 0.731803
0.588838 0.577978 0.738738
0.677405 0.584634 0.745884
0.768046 0.591459 0.753216
0.859675 0.598432 0.760715
0.892298 0.600911 0.763718
0.286786 0.658131 0.736594
0.361283 0.663688 0.742640
0.440811 0.669640 0.749096
0.523995 0.675880 0.755857
0.610081 0.682352 0.762868
0.698590 0.689018 0.770090
0.789189 0.695854 0.777500
0.880739 0.702840 0.785078
0.913820 0.705333 0.788156
0.309072 0.764980 0.761227
0.383496 0.770550 0.767348
0.462960 0.776513 0.773880
0.546091 0.782767 0.780720
0.632139 0.789254 0.787810
0.720626 0.795936 0.795113
0.811219 0.802788 0.802605
0.903020 0.809791 0.810266
0.936444 0.812304 0.813422
0.331996 0.874063 0.786608
0.406378 0.879650 0.792807
0.485811 0.885632 0.799420
0.568924 0.891904 0.806342
0.654970 0.898411 0.813515
0.743471 0.905114 0.820903
0.834065 0.911988 0.828481
0.926295 0.919014 0.836231
0.959950 0.921552 0.839467
0.339950 0.913644 0.797028
0.414326 0.919257 0.803303
0.493765 0.925266 0.809993
0.576898 0.931567 0.816992
0.662980 0.938093 0.824244
0.751535 0.944821 0.831713
0.842219 0.951727 0.839373
0.934794 0.958788 0.847205
0.968561 0.961361 0.850516
0.189990 0.175169 0.715650
0.265293 0.180740 0.721387
0.345613 0.186700 0.727530
0.429547 0.192946 0.733974
0.516329 0.199419 0.740662
0.605469 0.206082 0.747558
0.696626 0.212910 0.754635
0.789549 0.219883 0.761876
0.822754 0.222349 0.764636
0.207591 0.262955 0.735024
0.282670 0.268516 0.740823
0.362766 0.274467 0.747029
0.446482 0.280704 0.753537
0.533055 0.287168 0.760290
0.621997 0.293824 0.767251
0.712969 0.300645 0.774396
0.805721 0.307612 0.781706
0.838777 0.310076 0.784532
0.226573 0.356665 0.755913
0.301458 0.362219 0.761777
0.381361 0.368164 0.768049
0.464892 0.374395 0.774624
0.551289 0.380855 0.781446
0.640068 0.387507 0.788477
0.730891 0.394325 0.795694
0.823510 0.401291 0.803075
0.855586 0.403756 0.805972
0.246589 0.454686 0.777977
0.321311 0.460237 0.783910
0.401054 0.466180 0.790252
0.484432 0.472410 0.796899
0.570688 0.478870 0.803793
0.659340 0.485523 0.810898
0.750050 0.492343 0.818189
0.842157 0.499311 0.825648
0.874276 0.501781 0.828617
0.267459 0.556145 0.801037
0.342049 0.561698 0.807043
0.421664 0.567643 0.813459
0.504924 0.573877 0.820180
0.591075 0.580342 0.827151
0.679635 0.587000 0.834334
0.770270 0.593826 0.841705
0.861867 0.600801 0.849243
0.894542 0.603282 0.852288
0.289078 0.660490 0.824984
0.363567 0.666049 0.831066
0.443087 0.672003 0.837559
0.526264 0.678245 0.844360
0.612344 0.684719 0.851411
0.700849 0.691388 0.858677
0.791446 0.698226 0.866130
0.883009 0.705214 0.873754
0.916129 0.707709 0.876878
0.311379 0.767343 0.849745
0.385797 0.772915 0.855907
0.465257 0.778881 0.862482
0.548384 0.785137 0.869366
0.634430 0.791626 0.876502
0.722917 0.798311 0.883853
0.813512 0.805165 0.891288
0.905349 0.812171 0.898416
0.938801 0.814687 0.901351
0.334320 0.876432 0.875271
0.408699 0.882021 0.881517
0.488131 0.888005 0.888178
0.571244 0.894281 0.894766
0.657291 0.900790 0.901414
0.745796 0.907496 0.908187
0.836389 0.914373 0.915054
0.928667 0.921403 0.921991
0.962339 0.923943 0.924806
0.342295 0.916021 0.885853
0.416671 0.921637 0.892080
0.496112 0.927649 0.898261
0.579249 0.933952 0.904655
0.665336 0.940480 0.911201
0.753898 0.947214 0.917858
0.844593 0.954124 0.924598
0.937190 0.961188 0.931397
0.970963 0.963763 0.934154
0.190689 0.176001 0.747747
0.265969 0.181572 0.753493
0.346266 0.187534 0.759644
0.430178 0.193780 0.766097
0.516938 0.200254 0.772795
0.606058 0.206918 0.779700
0.697195 0.213746 0.786789
0.790100 0.220720 0.794041
0.823307 0.223187 0.796813
0.208299 0.263784 0.767150
0.283358 0.269346 0.772959
0.363434 0.275298 0.779175
0.447131 0.281536 0.785694
0.533685 0.288001 0.792458
0.622610 0.294658 0.799432
0.713567 0.301480 0.806590
0.806305 0.308449 0.813913
0.839309 0.310914 0.816753
0.227291 0.357492 0.788074
0.302160 0.363047 0.793950
0.382046 0.368993 0.800235
0.465560 0.375226 0.806823
0.551943 0.381687 0.813658
0.640708 0.388341 0.820704
0.731519 0.395161 0.827935
0.824128 0.402127 0.835333
0.856203 0.404594 0.838245
0.247319 0.455513 0.810181
0.322027 0.461066 0.816128
0.401756 0.467010 0.822484
0.485122 0.473242 0.829146
0.571367 0.479704 0.836056
0.660009 0.486358 0.843178
0.750711 0.493180 0.850486
0.842792 0.500149 0.857962
0.874967 0.502622 0.860949
0.268203 0.556973 0.833290
0.342782 0.562528 0.839312
0.422387 0.568475 0.845744
0.505638 0.574711 0.852483
0.591781 0.581177 0.859472
0.680334 0.587838 0.866673
0.770964 0.594666 0.874063
0.862575 0.601643 0.881622
0.895296 0.604126 0.884686
0.289837 0.661320 0.857294
0.364318 0.666882 0.863393
0.443831 0.672838 0.869906
0.527002 0.679083 0.876726
0.613078 0.685559 0.883797
0.701580 0.692230 0.890902
0.792176 0.699070 0.897940
0.883777 0.706060 0.905072
0.916933 0.708558 0.907949
0.312155 0.768178 0.882118
0.386569 0.773752 0.888260
0.466024 0.779721 0.894501
0.549149 0.785980 0.900977
0.635194 0.792471 0.907626
0.723682 0.799159 0.914407
0.814279 0.806016 0.921291
0.906165 0.813025 0.928254
0.939643 0.815543 0.931025
0.335115 0.877273 0.906501
0.409493 0.882865 0.912281
0.488924 0.888852 0.918385
0.572038 0.895131 0.924708
0.658088 0.901643 0.931189
0.746597 0.908352 0.937789
0.837197 0.915232 0.944476
0.929518 0.922264 0.951227
0.963204 0.924808 0.953858
0.343112 0.916872 0.916117
0.417490 0.922491 0.921815
0.496933 0.928506 0.927823
0.580074 0.934810 0.934037
0.666167 0.941344 0.940395
0.754737 0.948081 0.946860
0.845444 0.954995 0.953400
0.938061 0.962062 0.959992
0.971839 0.964639 0.962546
