library/cube/Faded_Memories_000.cube
# CINEGRADE LAB — Premium Cinematic LUT
# Title: Faded Memories
# Category: Vintage Film Lab
# Description: Faded, grainy, color-shifted retro film lab aesthetic
# Mood: Retro, faded, nostalgic
# Variant: 1
# Generated: 2026-05-21T16:12:31.619999
TITLE "Faded Memories"
LUT_3D_SIZE 33
0.175608 0.159995 0.150009
0.193883 0.161341 0.151386
0.212587 0.162721 0.152796
0.231670 0.164129 0.154235
0.251090 0.165564 0.155701
0.270817 0.167022 0.157191
0.290823 0.168503 0.158703
0.311087 0.170003 0.160236
0.331590 0.171522 0.161787
0.352317 0.173059 0.163357
0.373252 0.174613 0.164944
0.394384 0.176182 0.166547
0.415702 0.177766 0.168165
0.437197 0.179364 0.169798
0.458859 0.180975 0.171444
0.480681 0.182599 0.173104
0.502656 0.184236 0.174776
0.524777 0.185884 0.176461
0.547038 0.187544 0.178158
0.569434 0.189215 0.179866
0.591959 0.190896 0.181585
0.614610 0.192588 0.183315
0.637381 0.194289 0.185055
0.660270 0.196000 0.186806
0.683271 0.197721 0.188566
0.706381 0.199450 0.190336
0.729598 0.201189 0.192115
0.752918 0.202935 0.193903
0.776338 0.204691 0.195700
0.799856 0.206454 0.197505
0.810082 0.207214 0.198311
0.809814 0.207182 0.198327
0.809547 0.207150 0.198344
0.179843 0.181250 0.154642
0.198101 0.182595 0.156020
0.216790 0.183974 0.157431
0.235856 0.185381 0.158872
0.255261 0.186815 0.160340
0.274971 0.188273 0.161832
0.294961 0.189752 0.163346
0.315209 0.191252 0.164880
0.335696 0.192770 0.166434
0.356406 0.194307 0.168005
0.377325 0.195859 0.169594
0.398442 0.197428 0.171198
0.419744 0.199011 0.172818
0.441223 0.200608 0.174453
0.462870 0.202219 0.176101
0.484676 0.203842 0.177763
0.506636 0.205478 0.179437
0.528742 0.207126 0.181124
0.550988 0.208785 0.182822
0.573369 0.210455 0.184532
0.595880 0.212136 0.186254
0.618517 0.213827 0.187985
0.641274 0.215528 0.189728
0.664148 0.217238 0.191480
0.687136 0.218958 0.193242
0.710233 0.220687 0.195014
0.733436 0.222424 0.196795
0.756743 0.224171 0.198585
0.780151 0.225925 0.200384
0.803656 0.227688 0.202192
0.813880 0.228448 0.203000
0.813618 0.228416 0.203018
0.813358 0.228384 0.203037
0.184192 0.203008 0.159390
0.202435 0.204353 0.160770
0.221108 0.205731 0.162184
0.240159 0.207137 0.163626
0.259548 0.208570 0.165096
0.279242 0.210027 0.166589
0.299217 0.211506 0.168105
0.319449 0.213005 0.169641
0.339920 0.214523 0.171196
0.360615 0.216058 0.172770
0.381518 0.217610 0.174360
0.402619 0.219178 0.175967
0.423907 0.220760 0.177588
0.445370 0.222357 0.179225
0.467002 0.223967 0.180875
0.488794 0.225590 0.182538
0.510739 0.227225 0.184215
0.532830 0.228872 0.185903
0.555062 0.230530 0.187604
0.577429 0.232200 0.189316
0.599926 0.233880 0.191039
0.622549 0.235570 0.192773
0.645292 0.237271 0.194517
0.668153 0.238980 0.196272
0.691128 0.240700 0.198036
0.714212 0.242428 0.199810
0.737403 0.244165 0.201593
0.760697 0.245911 0.203385
0.784092 0.247665 0.205187
0.807585 0.249427 0.206997
0.817808 0.250187 0.207807
0.817553 0.250154 0.207827
0.817299 0.250122 0.207847
0.188643 0.225211 0.164242
0.206872 0.226555 0.165624
0.225529 0.227932 0.167039
0.244565 0.229338 0.168484
0.263938 0.230770 0.169955
0.283618 0.232226 0.171450
0.303577 0.233704 0.172967
0.323794 0.235202 0.174505
0.344250 0.236719 0.176063
0.364929 0.238254 0.177638
0.385818 0.239805 0.179230
0.406904 0.241372 0.180839
0.428177 0.242954 0.182462
0.449626 0.244550 0.184101
0.471243 0.246159 0.185753
0.493020 0.247781 0.187418
0.514951 0.249416 0.189097
0.537028 0.251063 0.190787
0.559246 0.252721 0.192490
0.581600 0.254389 0.194204
0.604084 0.256069 0.195929
0.626693 0.257759 0.197665
0.649424 0.259459 0.199412
0.672272 0.261168 0.201168
0.695234 0.262887 0.202935
0.718306 0.264614 0.204711
0.741484 0.266351 0.206496
0.764767 0.268096 0.208290
0.788150 0.269850 0.210094
0.811632 0.271612 0.211906
0.821854 0.272371 0.212718
0.821604 0.272339 0.212740
0.821357 0.272306 0.212763
0.193186 0.247811 0.169188
0.211400 0.249154 0.170571
0.230043 0.250530 0.171988
0.249064 0.251936 0.173434
0.268423 0.253367 0.174907
0.288087 0.254823 0.176404
0.308031 0.256300 0.177924
0.328234 0.257798 0.179464
0.348675 0.259314 0.181023
0.369340 0.260848 0.182600
0.390214 0.262399 0.184194
0.411286 0.263965 0.185805
0.432544 0.265546 0.187430
0.453979 0.267141 0.189071
0.475582 0.268750 0.190725
0.497346 0.270372 0.192392
0.519263 0.272006 0.194073
0.541327 0.273652 0.195766
0.563532 0.275309 0.197470
0.585872 0.276978 0.199186
0.608343 0.278657 0.200914
0.630940 0.280346 0.202652
0.653658 0.282045 0.204400
0.676494 0.283754 0.206159
0.699444 0.285473 0.207928
0.722504 0.287200 0.209706
0.745671 0.288936 0.211494
0.768942 0.290681 0.213290
0.792314 0.292434 0.215096
0.815785 0.294196 0.216911
0.826006 0.294955 0.217725
0.825763 0.294922 0.217749
0.825523 0.294890 0.217774
0.197813 0.270772 0.174219
0.216012 0.272115 0.175604
0.234641 0.273490 0.177023
0.253648 0.274895 0.178471
0.272992 0.276326 0.179946
0.292642 0.277781 0.181445
0.312572 0.279257 0.182966
0.332760 0.280754 0.184508
0.353188 0.282270 0.186069
0.373838 0.283803 0.187648
0.394699 0.285354 0.189245
0.415757 0.286919 0.190857
0.437001 0.288500 0.192485
0.458422 0.290095 0.194127
0.480012 0.291703 0.195783
0.501763 0.293324 0.197453
0.523667 0.294958 0.199135
0.545717 0.296603 0.200830
0.567910 0.298260 0.202537
0.590237 0.299928 0.204256
0.612696 0.301607 0.205985
0.635281 0.303295 0.207725
0.657987 0.304994 0.209476
0.680811 0.306703 0.211237
0.703749 0.308421 0.213008
0.726798 0.310148 0.214789
0.749954 0.311883 0.216578
0.773215 0.313628 0.218378
0.796577 0.315381 0.220186
0.820037 0.317142 0.222002
0.830257 0.317901 0.222819
0.830021 0.317868 0.222845
0.829787 0.317836 0.222872
0.202516 0.294064 0.179329
0.220702 0.295406 0.180716
0.239317 0.296781 0.182137
0.258310 0.298185 0.183587
0.277640 0.299615 0.185064
0.297277 0.301069 0.186565
0.317193 0.302545 0.188088
0.337367 0.304042 0.189632
0.357781 0.305557 0.191195
0.378418 0.307090 0.192776
0.399265 0.308640 0.194375
0.420310 0.310205 0.195989
0.441541 0.311785 0.197619
0.462949 0.313379 0.199263
0.484526 0.314987 0.200922
0.506264 0.316608 0.202594
0.528155 0.318241 0.204278
0.550194 0.319886 0.205975
0.572374 0.321542 0.207684
0.594689 0.323210 0.209405
0.617136 0.324888 0.211137
0.639709 0.326577 0.212879
0.662404 0.328275 0.214632
0.685217 0.329983 0.216396
0.708145 0.331701 0.218169
0.731183 0.333427 0.219952
0.754329 0.335163 0.221744
0.777579 0.336907 0.223545
0.800931 0.338660 0.225356
0.824381 0.340421 0.227175
0.834601 0.341180 0.227994
0.834372 0.341147 0.228022
0.834145 0.341115 0.228051
0.207291 0.317661 0.184514
0.225464 0.319002 0.185903
0.244065 0.320377 0.187325
0.263045 0.321780 0.188777
0.282362 0.323210 0.190256
0.301985 0.324664 0.191759
0.321888 0.326139 0.193284
0.342049 0.327635 0.194830
0.362450 0.329150 0.196396
0.383074 0.330683 0.197979
0.403908 0.332232 0.199579
0.424939 0.333796 0.201196
0.446158 0.335376 0.202828
0.467554 0.336970 0.204474
0.489118 0.338577 0.206135
0.510844 0.340198 0.207809
0.532723 0.341830 0.209496
0.554750 0.343475 0.211195
0.576918 0.345131 0.212907
0.599223 0.346798 0.214629
0.621658 0.348476 0.216363
0.644220 0.350164 0.218108
0.666905 0.351863 0.219864
0.689707 0.353571 0.221629
0.712624 0.355288 0.223405
0.735652 0.357014 0.225190
0.758788 0.358750 0.226985
0.782029 0.360493 0.228789
0.805371 0.362246 0.230602
0.828813 0.364006 0.232424
0.838882 0.364765 0.233245
0.838663 0.364733 0.233275
0.838445 0.364701 0.233306
0.212132 0.341542 0.189767
0.230293 0.342883 0.191158
0.248882 0.344257 0.192583
0.267848 0.345660 0.194037
0.287153 0.347089 0.195518
0.306763 0.348543 0.197023
0.326653 0.350018 0.198550
0.346801 0.351513 0.200098
0.367189 0.353028 0.201666
0.387801 0.354560 0.203251
0.408622 0.356108 0.204854
0.429642 0.357673 0.206473
0.450848 0.359252 0.208107
0.472232 0.360846 0.209756
0.493785 0.362453 0.211419
0.515499 0.364073 0.213095
0.537366 0.365705 0.214784
0.559382 0.367349 0.216486
0.581539 0.369005 0.218199
0.603833 0.370672 0.219924
0.626258 0.372350 0.221661
0.648809 0.374038 0.223408
0.671483 0.375736 0.225166
0.694276 0.377443 0.226934
0.717183 0.379160 0.228712
0.740202 0.380887 0.230500
0.763328 0.382622 0.232297
0.786560 0.384366 0.234103
0.809893 0.386118 0.235919
0.833327 0.387878 0.237743
0.843059 0.388637 0.238567
0.842853 0.388605 0.238599
0.842650 0.388573 0.238633
0.217037 0.365689 0.195087
0.235185 0.367030 0.196480
0.253762 0.368403 0.197906
0.272716 0.369806 0.199363
0.292008 0.371235 0.200846
0.311606 0.372688 0.202353
0.331484 0.374162 0.203882
0.351620 0.375657 0.205433
0.371996 0.377171 0.207002
0.392595 0.378703 0.208590
0.413405 0.380251 0.210195
0.434413 0.381816 0.211816
0.455607 0.383395 0.213452
0.476980 0.384988 0.215103
0.498521 0.386595 0.216768
0.520224 0.388214 0.218447
0.542081 0.389847 0.220139
0.564086 0.391491 0.221843
0.586232 0.393146 0.223559
0.608516 0.394813 0.225286
0.630930 0.396490 0.227025
0.653472 0.398178 0.228775
0.676137 0.399876 0.230535
0.698920 0.401583 0.232306
0.721818 0.403300 0.234086
0.744827 0.405026 0.235876
0.767945 0.406762 0.237676
0.791168 0.408505 0.239485
0.814494 0.410257 0.241303
0.837778 0.412018 0.243130
0.847359 0.412777 0.243956
0.847168 0.412745 0.243991
0.846978 0.412713 0.244026
0.222002 0.390086 0.200468
0.240138 0.391426 0.201864
0.258703 0.392799 0.203292
0.277645 0.394202 0.204751
0.296925 0.395630 0.206236
0.316511 0.397083 0.207745
0.336377 0.398557 0.209277
0.356502 0.400052 0.210830
0.376866 0.401566 0.212401
0.397454 0.403097 0.213991
0.418252 0.404645 0.215598
0.439249 0.406209 0.217222
0.460432 0.407788 0.218861
0.481794 0.409381 0.220514
0.503325 0.410987 0.222182
0.525017 0.412607 0.223863
0.546863 0.414239 0.225557
0.568858 0.415883 0.227263
0.590995 0.417538 0.228981
0.613268 0.419205 0.230711
0.635673 0.420882 0.232453
0.658206 0.422570 0.234205
0.680861 0.424268 0.235968
0.703635 0.425975 0.237741
0.726525 0.427692 0.239524
0.749526 0.429418 0.241317
0.772636 0.431153 0.243119
0.795851 0.432897 0.244931
0.819169 0.434649 0.246751
0.842143 0.436409 0.248581
0.851779 0.437168 0.249409
0.851601 0.437136 0.249447
0.851424 0.437105 0.249484
0.227023 0.414719 0.205910
0.245148 0.416059 0.207307
0.263702 0.417431 0.208738
0.282633 0.418833 0.210199
0.301901 0.420262 0.211686
0.321476 0.421714 0.213198
0.341331 0.423188 0.214732
0.361444 0.424683 0.216286
0.381797 0.426196 0.217860
0.402374 0.427728 0.219453
0.423162 0.429275 0.221062
0.444147 0.430839 0.222688
0.465320 0.432418 0.224329
0.486671 0.434011 0.225985
0.508192 0.435617 0.227655
0.529874 0.437236 0.229338
0.551711 0.438868 0.231035
0.573696 0.440512 0.232744
0.595823 0.442168 0.234465
0.618088 0.443834 0.236197
0.640484 0.445511 0.237941
0.663007 0.447199 0.239696
0.685654 0.448897 0.241461
0.708420 0.450604 0.243237
0.731302 0.452321 0.245023
0.754295 0.454047 0.246818
0.777397 0.455782 0.248623
0.800605 0.457526 0.250438
0.823916 0.459278 0.252261
0.846624 0.461038 0.254093
0.856313 0.461798 0.254924
0.856148 0.461766 0.254964
0.855984 0.461735 0.255004
0.232099 0.439575 0.211408
0.250213 0.440915 0.212807
0.268756 0.442287 0.214241
0.287676 0.443689 0.215703
0.306933 0.445117 0.217193
0.326497 0.446569 0.218707
0.346341 0.448043 0.220243
0.366444 0.449538 0.221801
0.386786 0.451051 0.223377
0.407353 0.452582 0.224972
0.428130 0.454130 0.226584
0.449106 0.455694 0.228212
0.470269 0.457272 0.229855
0.491610 0.458865 0.231514
0.513121 0.460471 0.233186
0.534794 0.462091 0.234872
0.556621 0.463723 0.236571
0.578597 0.465366 0.238283
0.600715 0.467022 0.240006
0.622971 0.468688 0.241741
0.645359 0.470365 0.243488
0.667874 0.472053 0.245245
0.690513 0.473751 0.247013
0.713272 0.475458 0.248792
0.736146 0.477175 0.250580
0.759132 0.478901 0.252378
0.782227 0.480637 0.254186
0.805428 0.482380 0.256003
0.828733 0.484133 0.257829
0.851218 0.485894 0.259664
0.860957 0.486653 0.260498
0.860804 0.486622 0.260540
0.860653 0.486591 0.260582
0.237227 0.464644 0.216961
0.255330 0.465984 0.218363
0.273863 0.467356 0.219798
0.292772 0.468758 0.221263
0.312020 0.470186 0.222755
0.331573 0.471638 0.224272
0.351407 0.473112 0.225810
0.371499 0.474606 0.227370
0.391832 0.476119 0.228949
0.412388 0.477650 0.230546
0.433156 0.479198 0.232160
0.454122 0.480762 0.233791
0.475275 0.482340 0.235437
0.496607 0.483933 0.237098
0.518109 0.485539 0.238773
0.539773 0.487159 0.240462
0.561592 0.488791 0.242163
0.583559 0.490434 0.243877
0.605669 0.492090 0.245603
0.627917 0.493756 0.247341
0.650297 0.495434 0.249090
0.672805 0.497122 0.250850
0.695436 0.498819 0.252621
0.718187 0.500527 0.254402
0.741054 0.502244 0.256193
0.764034 0.503970 0.257994
0.787123 0.505706 0.259805
0.810318 0.507450 0.261625
0.833599 0.509202 0.263454
0.855919 0.510963 0.265292
0.865707 0.511723 0.266128
0.865566 0.511693 0.266172
0.865426 0.511662 0.266217
0.242405 0.489916 0.222566
0.260499 0.491255 0.223971
0.279021 0.492628 0.225409
0.297921 0.494029 0.226876
0.317158 0.495457 0.228371
0.336702 0.496909 0.229889
0.356526 0.498383 0.231431
0.376608 0.499878 0.232993
0.396931 0.501391 0.234574
0.417478 0.502922 0.236174
0.438237 0.504470 0.237791
0.459193 0.506033 0.239424
0.480338 0.507612 0.241072
0.501661 0.509205 0.242736
0.523155 0.510811 0.244414
0.544810 0.512431 0.246105
0.566621 0.514063 0.247809
0.588580 0.515707 0.249526
0.610683 0.517362 0.251254
0.632923 0.519029 0.252995
0.655295 0.520706 0.254747
0.677796 0.522394 0.256510
0.700421 0.524092 0.258283
0.723166 0.525800 0.260067
0.746026 0.527518 0.261861
0.769000 0.529244 0.263665
0.792083 0.530980 0.265478
0.815273 0.532724 0.267301
0.838311 0.534477 0.269133
0.860723 0.536238 0.270974
0.870558 0.536999 0.271812
0.870429 0.536969 0.271859
0.870301 0.536939 0.271907
0.247631 0.515382 0.228223
0.265716 0.516722 0.229630
0.284228 0.518094 0.231070
0.303119 0.519496 0.232540
0.322347 0.520924 0.234037
0.341881 0.522376 0.235558
0.361696 0.523850 0.237102
0.381769 0.525344 0.238667
0.402083 0.526857 0.240251
0.422622 0.528388 0.241853
0.443371 0.529936 0.243472
0.464319 0.531500 0.245108
0.485456 0.533079 0.246759
0.506771 0.534672 0.248426
0.528256 0.536278 0.250106
0.549903 0.537898 0.251800
0.571706 0.539530 0.253507
0.593659 0.541174 0.255226
0.615754 0.542830 0.256958
0.637987 0.544497 0.258701
0.660353 0.546175 0.260456
0.682847 0.547863 0.262221
0.705466 0.549561 0.263998
0.728205 0.551269 0.265784
0.751060 0.552987 0.267581
0.774028 0.554714 0.269388
0.797106 0.556450 0.271204
0.820290 0.558195 0.273030
0.843126 0.559948 0.274865
0.865627 0.561709 0.276709
0.875507 0.562470 0.277550
0.875389 0.562441 0.277599
0.875272 0.562412 0.277649
0.252905 0.541035 0.233929
0.270980 0.542374 0.235339
0.289484 0.543746 0.236781
0.308365 0.545148 0.238254
0.327584 0.546576 0.239753
0.347110 0.548028 0.241277
0.366916 0.549502 0.242823
0.386981 0.550997 0.244391
0.407286 0.552510 0.245977
0.427816 0.554041 0.247582
0.448557 0.555590 0.249204
0.469498 0.557153 0.250843
0.490626 0.558732 0.252497
0.511934 0.560325 0.254165
0.533411 0.561932 0.255848
0.555052 0.563552 0.257545
0.576848 0.565185 0.259255
0.598793 0.566829 0.260977
0.620882 0.568485 0.262711
0.643108 0.570153 0.264458
0.665468 0.571831 0.266215
0.687957 0.573519 0.267984
0.710570 0.575218 0.269763
0.733303 0.576926 0.271553
0.756153 0.578644 0.273352
0.779116 0.580372 0.275162
0.802189 0.582108 0.276981
0.825370 0.583853 0.278810
0.848042 0.585607 0.280648
0.870628 0.587369 0.282495
0.880550 0.588130 0.283339
0.880442 0.588102 0.283391
0.880336 0.588073 0.283444
0.258224 0.566865 0.239684
0.276291 0.568205 0.241095
0.294786 0.569577 0.242541
0.313659 0.570979 0.244016
0.332870 0.572408 0.245518
0.352387 0.573860 0.247044
0.372185 0.575334 0.248593
0.392241 0.576829 0.250163
0.412539 0.578343 0.251752
0.433061 0.579874 0.253360
0.453794 0.581422 0.254985
0.474727 0.582987 0.256626
0.495848 0.584566 0.258283
0.517149 0.586159 0.259954
0.538620 0.587766 0.261640
0.560253 0.589387 0.263339
0.582043 0.591019 0.265052
0.603982 0.592664 0.266777
0.626064 0.594321 0.268514
0.648285 0.595988 0.270263
0.670640 0.597667 0.272024
0.693123 0.599356 0.273795
0.715731 0.601055 0.275578
0.738459 0.602764 0.277370
0.761305 0.604482 0.279173
0.784263 0.606210 0.280986
0.807333 0.607947 0.282808
0.830509 0.609693 0.284640
0.853053 0.611447 0.286481
0.875720 0.613210 0.288331
0.885683 0.613972 0.289178
0.885585 0.613944 0.289232
0.885489 0.613916 0.289288
0.263587 0.592869 0.245485
0.281646 0.594208 0.246899
0.300134 0.595581 0.248347
0.318998 0.596983 0.249825
0.338201 0.598412 0.251329
0.357711 0.599864 0.252858
0.377501 0.601339 0.254410
0.397550 0.602834 0.255982
0.417840 0.604348 0.257574
0.438355 0.605880 0.259185
0.459081 0.607428 0.260812
0.480007 0.608993 0.262456
0.501121 0.610572 0.264116
0.522415 0.612166 0.265790
0.543879 0.613774 0.267479
0.565507 0.615395 0.269181
0.587291 0.617028 0.270897
0.609224 0.618673 0.272625
0.631301 0.620330 0.274365
0.653517 0.621998 0.276117
0.675866 0.623677 0.277881
0.698345 0.625367 0.279655
0.720948 0.627066 0.281440
0.743672 0.628776 0.283236
0.766514 0.630495 0.285042
0.789469 0.632223 0.286858
0.812535 0.633960 0.288683
0.835556 0.635707 0.290518
0.858157 0.637462 0.292362
0.880901 0.639225 0.294215
0.890902 0.639988 0.295065
0.890814 0.639960 0.295123
0.890728 0.639934 0.295180
0.268994 0.619038 0.251331
0.287045 0.620378 0.252748
0.305525 0.621751 0.254199
0.324383 0.623154 0.255679
0.343578 0.624582 0.257187
0.363080 0.626035 0.258718
0.382863 0.627510 0.260273
0.402905 0.629006 0.261848
0.423188 0.630520 0.263443
0.443696 0.632052 0.265056
0.464416 0.633601 0.266686
0.485335 0.635166 0.268333
0.506444 0.636746 0.269996
0.527731 0.638341 0.271673
0.549190 0.639949 0.273365
0.570812 0.641570 0.275070
0.592590 0.643203 0.276788
0.614518 0.644849 0.278519
0.636591 0.646507 0.280263
0.658802 0.648175 0.282018
0.681147 0.649855 0.283784
0.703621 0.651545 0.285562
0.726220 0.653245 0.287350
0.748941 0.654955 0.289149
0.771779 0.656675 0.290958
0.794731 0.658404 0.292777
0.817794 0.660142 0.294606
0.840674 0.661889 0.296444
0.863350 0.663645 0.298291
0.886166 0.665408 0.300147
0.896204 0.666172 0.301000
0.896126 0.666146 0.301060
0.896048 0.666120 0.301121
0.274443 0.645368 0.257223
0.292487 0.646708 0.258642
0.310960 0.648082 0.260095
0.329811 0.649485 0.261579
0.348999 0.650914 0.263089
0.368494 0.652367 0.264623
0.388270 0.653843 0.266181
0.408306 0.655339 0.267759
0.428583 0.656853 0.269356
0.449085 0.658386 0.270972
0.469798 0.659936 0.272606
0.490712 0.661501 0.274255
0.511814 0.663082 0.275921
0.533097 0.664677 0.277601
0.554550 0.666285 0.279296
0.576167 0.667907 0.281004
0.597940 0.669541 0.282725
0.619864 0.671188 0.284460
0.641932 0.672846 0.286206
0.664139 0.674515 0.287964
0.686480 0.676195 0.289734
0.708951 0.677886 0.291514
0.731547 0.679587 0.293306
0.754264 0.681297 0.295108
0.777100 0.683018 0.296920
0.800049 0.684748 0.298742
0.823110 0.686486 0.300574
0.845882 0.688234 0.302416
0.868628 0.689990 0.304266
0.891513 0.691755 0.306126
0.901586 0.692520 0.306982
0.901516 0.692494 0.307044
0.901447 0.692469 0.307107
0.279934 0.671854 0.263157
0.297971 0.673194 0.264580
0.316438 0.674568 0.266036
0.335282 0.675972 0.267522
0.354464 0.677401 0.269035
0.373953 0.678855 0.270572
0.393722 0.680331 0.272132
0.413752 0.681828 0.273713
0.434023 0.683343 0.275314
0.454519 0.684876 0.276933
0.475227 0.686426 0.278569
0.496135 0.687992 0.280222
0.517233 0.689574 0.281890
0.538510 0.691169 0.283574
0.559959 0.692778 0.285271
0.581571 0.694401 0.286983
0.603341 0.696036 0.288707
0.625260 0.697683 0.290444
0.647324 0.699341 0.292194
0.669528 0.701011 0.293955
0.691866 0.702692 0.295728
0.714334 0.704384 0.297512
0.736927 0.706086 0.299307
0.759642 0.707797 0.301112
0.782475 0.709518 0.302927
0.805423 0.711249 0.304753
0.828482 0.712988 0.306588
0.851175 0.714737 0.308433
0.873988 0.716494 0.310287
0.896938 0.718260 0.312150
0.907043 0.719025 0.313009
0.906981 0.719001 0.313074
0.906921 0.718977 0.313140
0.285465 0.698490 0.269135
0.303497 0.699831 0.270560
0.321957 0.701206 0.272019
0.340795 0.702610 0.273508
0.359971 0.704040 0.275024
0.379454 0.705494 0.276564
0.399218 0.706971 0.278127
0.419242 0.708468 0.279711
0.439508 0.709984 0.281314
0.459999 0.711518 0.282936
0.480702 0.713069 0.284576
0.501605 0.714635 0.286232
0.522698 0.716217 0.287903
0.543971 0.717813 0.289590
0.565416 0.719423 0.291290
0.587024 0.721046 0.293005
0.608790 0.722682 0.294733
0.630706 0.724330 0.296473
0.652767 0.725990 0.298226
0.674968 0.727660 0.299990
0.697303 0.729342 0.301766
0.719768 0.731034 0.303553
0.742359 0.732737 0.305351
0.765072 0.734449 0.307160
0.787904 0.736171 0.308979
0.810850 0.737903 0.310808
0.833814 0.739643 0.312646
0.856551 0.741393 0.314494
0.879426 0.743151 0.316352
0.902437 0.744917 0.318218
0.912573 0.745684 0.319080
0.912519 0.745661 0.319148
0.912466 0.745638 0.319217
0.291036 0.725273 0.275154
0.309062 0.726615 0.276582
0.327517 0.727990 0.278044
0.346349 0.729394 0.279536
0.365520 0.730825 0.281055
0.384998 0.732280 0.282598
0.404757 0.733758 0.284164
0.424776 0.735255 0.285751
0.445037 0.736772 0.287358
0.465523 0.738307 0.288983
0.486222 0.739858 0.290625
0.507121 0.741426 0.292284
0.528210 0.743008 0.293959
0.549479 0.744605 0.295648
0.570920 0.746216 0.297352
0.592525 0.747840 0.299070
0.614288 0.749476 0.300801
0.636201 0.751125 0.302544
0.658259 0.752786 0.304300
0.680458 0.754457 0.306068
0.702791 0.756140 0.307848
0.725254 0.757833 0.309638
0.747844 0.759537 0.311439
0.770556 0.761250 0.313251
0.793386 0.762973 0.315074
0.816332 0.764705 0.316906
0.839208 0.766447 0.318748
0.862005 0.768197 0.320599
0.884940 0.769956 0.322460
0.908007 0.771724 0.324330
0.918171 0.772492 0.325195
0.918125 0.772470 0.325267
0.918079 0.772448 0.325338
0.296647 0.752198 0.281215
0.314668 0.753540 0.282646
0.333117 0.754916 0.284111
0.351945 0.756322 0.285605
0.371110 0.757753 0.287127
0.390584 0.759209 0.288674
0.410338 0.760687 0.290243
0.430353 0.762186 0.291833
0.450609 0.763703 0.293442
0.471091 0.765239 0.295071
0.491786 0.766791 0.296716
0.512682 0.768359 0.298378
0.533767 0.769943 0.300056
0.555033 0.771541 0.301749
0.576471 0.773152 0.303456
0.598073 0.774777 0.305177
0.619833 0.776414 0.306911
0.641744 0.778064 0.308658
0.663801 0.779725 0.310418
0.685997 0.781398 0.312189
0.708329 0.783082 0.313971
0.730791 0.784776 0.315765
0.753379 0.786480 0.317570
0.776091 0.788195 0.319386
0.798921 0.789919 0.321211
0.821866 0.791652 0.323047
0.844681 0.793395 0.324893
0.867536 0.795147 0.326748
0.890525 0.796907 0.328612
0.913645 0.798676 0.330486
0.923836 0.799445 0.331354
0.923795 0.799424 0.331428
0.923756 0.799403 0.331502
0.302296 0.779262 0.287316
0.320313 0.780605 0.288750
0.338757 0.781982 0.290218
0.357580 0.783388 0.291716
0.376742 0.784820 0.293240
0.396211 0.786277 0.294790
0.415961 0.787756 0.296362
0.435972 0.789255 0.297955
0.456224 0.790773 0.299568
0.476703 0.792310 0.301200
0.497395 0.793863 0.302849
0.518287 0.795432 0.304514
0.539369 0.797017 0.306195
0.560633 0.798615 0.307891
0.582068 0.800228 0.309602
0.603668 0.801854 0.311326
0.625426 0.803492 0.313063
0.647336 0.805143 0.314814
0.669390 0.806805 0.316576
0.691586 0.808479 0.318351
0.713916 0.810164 0.320137
0.736378 0.811859 0.321935
0.758966 0.813565 0.323743
0.781677 0.815280 0.325562
0.804507 0.817005 0.327391
0.827453 0.818740 0.329230
0.850231 0.820484 0.331079
0.873138 0.822237 0.332938
0.896178 0.823998 0.334806
0.919347 0.825768 0.336683
0.929562 0.826538 0.337555
0.929528 0.826519 0.337632
0.929495 0.826500 0.337709
0.307984 0.806460 0.293457
0.325996 0.807805 0.294894
0.344437 0.809182 0.296365
0.363256 0.810589 0.297866
0.382413 0.812023 0.299394
0.401879 0.813480 0.300947
0.421625 0.814960 0.302522
0.441633 0.816460 0.304118
0.461882 0.817980 0.305735
0.482358 0.819517 0.307369
0.503047 0.821071 0.309021
0.523936 0.822641 0.310690
0.545016 0.824227 0.312374
0.566277 0.825827 0.314074
0.587711 0.827440 0.315788
0.609310 0.829067 0.317515
0.631066 0.830707 0.319256
0.652974 0.832358 0.321010
0.675028 0.834022 0.322776
0.697223 0.835697 0.324554
