library/cube/Faded_Memories_000.cube
# CINEGRADE LAB — Premium Cinematic LUT
# Title: Faded Memories
# Category: Vintage Film Lab
# Description: Faded, grainy, color-shifted retro film lab aesthetic
# Mood: Retro, faded, nostalgic
# Variant: 1
# Generated: 2026-05-21T16:12:31.619999
TITLE "Faded Memories"
LUT_3D_SIZE 5
0.175608 0.159995 0.150009
0.331590 0.171522 0.161787
0.502656 0.184236 0.174776
0.683271 0.197721 0.188566
0.809547 0.207150 0.198344
0.212132 0.341542 0.189767
0.367189 0.353028 0.201666
0.537366 0.365705 0.214784
0.717183 0.379160 0.228712
0.842650 0.388573 0.238633
0.252905 0.541035 0.233929
0.407286 0.552510 0.245977
0.576848 0.565185 0.259255
0.756153 0.578644 0.273352
0.880336 0.588073 0.283444
0.296647 0.752198 0.281215
0.450609 0.763703 0.293442
0.619833 0.776414 0.306911
0.798921 0.789919 0.321211
0.923756 0.799403 0.331502
0.327305 0.900779 0.315457
0.481118 0.912366 0.327881
0.650295 0.925165 0.341559
0.829459 0.938755 0.356078
0.955551 0.948343 0.366582
0.179289 0.163909 0.296277
0.335166 0.175438 0.308074
0.506129 0.188153 0.321093
0.686650 0.201640 0.334922
0.812882 0.211072 0.344751
0.215830 0.345442 0.336141
0.370808 0.356931 0.348093
0.540911 0.369612 0.361276
0.720663 0.383072 0.375280
0.845895 0.392489 0.385286
0.256635 0.544930 0.380527
0.410964 0.556412 0.392665
0.580479 0.569093 0.406042
0.759750 0.582560 0.420251
0.883948 0.591996 0.430462
0.300428 0.756102 0.428157
0.454363 0.767617 0.440509
0.623569 0.780338 0.454114
0.802652 0.793852 0.468560
0.927618 0.803347 0.479007
0.331159 0.904710 0.462858
0.484969 0.916309 0.475442
0.654156 0.929120 0.489290
0.833339 0.942720 0.503991
0.959528 0.952325 0.514685
0.183379 0.168226 0.457196
0.339153 0.179756 0.469020
0.510015 0.192472 0.482077
0.690445 0.205960 0.495957
0.816634 0.215395 0.505846
0.219937 0.349743 0.497196
0.374837 0.361236 0.509214
0.544868 0.373922 0.522474
0.724558 0.387385 0.536566
0.849561 0.396808 0.546672
0.260774 0.549227 0.541849
0.415051 0.560716 0.554090
0.584523 0.573404 0.567584
0.763761 0.586878 0.581920
0.887981 0.596322 0.592269
0.304617 0.760410 0.589876
0.458527 0.771934 0.602371
0.627718 0.784664 0.616130
0.806798 0.798188 0.630743
0.931893 0.807694 0.641366
0.335420 0.909045 0.625100
0.489232 0.920656 0.637866
0.658432 0.933479 0.651907
0.837639 0.947090 0.666813
0.963912 0.956711 0.677722
0.187734 0.172803 0.627631
0.343407 0.184334 0.639491
0.514172 0.197052 0.652596
0.694512 0.210542 0.666535
0.820660 0.219979 0.676497
0.224309 0.354306 0.667799
0.379134 0.365803 0.679893
0.549095 0.378493 0.693242
0.728726 0.391961 0.707435
0.853518 0.401388 0.717652
0.265179 0.553788 0.712757
0.419407 0.565283 0.725115
0.588838 0.577978 0.738738
0.768046 0.591459 0.753216
0.892298 0.600911 0.763718
0.309072 0.764980 0.761227
0.462960 0.776513 0.773880
0.632139 0.789254 0.787810
0.811219 0.802788 0.802605
0.936444 0.812304 0.813422
0.339950 0.913644 0.797028
0.493765 0.925266 0.809993
0.662980 0.938093 0.824244
0.842219 0.951727 0.839373
0.968561 0.961361 0.850516
0.190689 0.176001 0.747747
0.346266 0.187534 0.759644
0.516938 0.200254 0.772795
0.697195 0.213746 0.786789
0.823307 0.223187 0.796813
0.227291 0.357492 0.788074
0.382046 0.368993 0.800235
0.551943 0.381687 0.813658
0.731519 0.395161 0.827935
0.856203 0.404594 0.838245
0.268203 0.556973 0.833290
0.422387 0.568475 0.845744
0.591781 0.581177 0.859472
0.770964 0.594666 0.874063
0.895296 0.604126 0.884686
0.312155 0.768178 0.882118
0.466024 0.779721 0.894501
0.635194 0.792471 0.907626
0.814279 0.806016 0.921291
0.939643 0.815543 0.931025
0.343112 0.916872 0.916117
0.496933 0.928506 0.927823
0.666167 0.941344 0.940395
0.845444 0.954995 0.953400
0.971839 0.964639 0.962546
