library/cube/Film_Haven_001.cube
# CINEGRADE LAB — Premium Cinematic LUT
# Title: Film Haven
# Category: Analog Film
# Description: Film grain, muted colors, and vintage feel emulating classic film stocks
# Mood: Nostalgic, warm, organic
# Variant: 2
# Generated: 2026-05-21T16:12:14.398428
TITLE "Film Haven"
LUT_3D_SIZE 9
0.166843 0.151249 0.128663
0.250116 0.156289 0.133253
0.337600 0.161583 0.138076
0.427997 0.167053 0.143059
0.520644 0.172660 0.148166
0.615135 0.178378 0.153374
0.711193 0.184191 0.158669
0.808616 0.190087 0.164040
0.867661 0.193660 0.167295
0.184467 0.243263 0.144105
0.267740 0.248302 0.148695
0.355224 0.253596 0.153518
0.445621 0.259067 0.158501
0.538268 0.264673 0.163608
0.632759 0.270391 0.168816
0.728817 0.276205 0.174111
0.826240 0.282100 0.179482
0.885285 0.285673 0.182737
0.202983 0.339930 0.160328
0.286255 0.344969 0.164918
0.373739 0.350264 0.169741
0.464136 0.355734 0.174724
0.556783 0.361341 0.179831
0.651274 0.367059 0.185039
0.747332 0.372872 0.190335
0.844756 0.378768 0.195705
0.903800 0.382341 0.198960
0.222115 0.439816 0.177091
0.305387 0.444855 0.181681
0.392871 0.450149 0.186504
0.483268 0.455620 0.191487
0.575915 0.461226 0.196594
0.670406 0.466945 0.201803
0.766464 0.472758 0.207098
0.863888 0.478653 0.212468
0.922932 0.482227 0.215723
0.241723 0.542188 0.194272
0.324995 0.547227 0.198862
0.412479 0.552521 0.203684
0.502876 0.557992 0.208667
0.595523 0.563599 0.213774
0.690014 0.569317 0.218983
0.786072 0.575130 0.224278
0.883496 0.581026 0.229649
0.942540 0.584599 0.232903
0.261721 0.646597 0.211794
0.344993 0.651637 0.216384
0.432478 0.656931 0.221207
0.522875 0.662401 0.226190
0.615522 0.668008 0.231297
0.710013 0.673726 0.236506
0.806071 0.679539 0.241801
0.903494 0.685435 0.247171
0.962539 0.689008 0.250426
0.282051 0.752739 0.229607
0.365324 0.757778 0.234197
0.452808 0.763072 0.239020
0.543205 0.768543 0.244003
0.635852 0.774149 0.249110
0.730343 0.779867 0.254319
0.826401 0.785681 0.259614
0.923824 0.791576 0.264984
0.982869 0.795149 0.268239
0.302671 0.860389 0.247673
0.385943 0.865428 0.252264
0.473427 0.870722 0.257086
0.563824 0.876193 0.262069
0.656471 0.881799 0.267176
0.750962 0.887518 0.272385
0.847020 0.893331 0.277680
0.944443 0.899226 0.283050
1.000000 0.902800 0.286305
0.315167 0.925631 0.258622
0.398439 0.930670 0.263213
0.485923 0.935964 0.268035
0.576320 0.941435 0.273018
0.668967 0.947042 0.278125
0.763458 0.952760 0.283334
0.859516 0.958573 0.288629
0.956940 0.964469 0.293999
1.000000 0.968042 0.297254
0.168623 0.152961 0.198594
0.251895 0.158000 0.203184
0.339379 0.163294 0.208006
0.429776 0.168765 0.212989
0.522423 0.174372 0.218096
0.616914 0.180090 0.223305
0.712972 0.185903 0.228600
0.810395 0.191799 0.233971
0.869440 0.195372 0.237225
0.186247 0.244974 0.214036
0.269519 0.250013 0.218626
0.357003 0.255307 0.223448
0.447400 0.260778 0.228431
0.540047 0.266385 0.233538
0.634538 0.272103 0.238747
0.730596 0.277916 0.244042
0.828019 0.283812 0.249413
0.887064 0.287385 0.252667
0.204762 0.341641 0.230259
0.288034 0.346681 0.234849
0.375519 0.351975 0.239671
0.465915 0.357446 0.244654
0.558562 0.363052 0.249762
0.653053 0.368770 0.254970
0.749111 0.374584 0.260265
0.846535 0.380479 0.265636
0.905579 0.384052 0.268890
0.223894 0.441527 0.247022
0.307166 0.446566 0.251612
0.394650 0.451861 0.256435
0.485047 0.457331 0.261418
0.577694 0.462938 0.266525
0.672185 0.468656 0.271733
0.768243 0.474469 0.277029
0.865667 0.480365 0.282399
0.924711 0.483938 0.285654
0.243502 0.543899 0.264202
0.326774 0.548939 0.268793
0.414259 0.554233 0.273615
0.504655 0.559703 0.278598
0.597302 0.565310 0.283705
0.691793 0.571028 0.288914
0.787851 0.576841 0.294209
0.885275 0.582737 0.299579
0.944319 0.586310 0.302834
0.263501 0.648309 0.281725
0.346773 0.653348 0.286315
0.434257 0.658642 0.291138
0.524654 0.664113 0.296121
0.617301 0.669720 0.301228
0.711792 0.675438 0.306436
0.807850 0.681251 0.311731
0.905273 0.687147 0.317102
0.964318 0.690720 0.320357
0.283831 0.754450 0.299538
0.367103 0.759489 0.304128
0.454587 0.764783 0.308951
0.544984 0.770254 0.313934
0.637631 0.775861 0.319041
0.732122 0.781579 0.324249
0.828180 0.787392 0.329544
0.925603 0.793288 0.334915
0.984648 0.796861 0.338169
0.304450 0.862100 0.317604
0.387722 0.867139 0.322194
0.475206 0.872434 0.327017
0.565603 0.877904 0.332000
0.658250 0.883511 0.337107
0.752741 0.889229 0.342316
0.848799 0.895042 0.347611
0.946222 0.900938 0.352981
1.000000 0.904511 0.356236
0.316946 0.927342 0.328553
0.400218 0.932382 0.333143
0.487703 0.937676 0.337966
0.578099 0.943146 0.342949
0.670746 0.948753 0.348056
0.765237 0.954471 0.353265
0.861295 0.960284 0.358560
0.958719 0.966180 0.363930
1.000000 0.969753 0.367185
0.170492 0.154759 0.272062
0.253764 0.159798 0.276652
0.341248 0.165092 0.281475
0.431645 0.170563 0.286458
0.524292 0.176169 0.291565
0.618783 0.181888 0.296773
0.714841 0.187701 0.302069
0.812265 0.193597 0.307439
0.871309 0.197170 0.310694
0.188116 0.246772 0.287504
0.271388 0.251811 0.292094
0.358872 0.257105 0.296917
0.449269 0.262576 0.301900
0.541916 0.268183 0.307007
0.636407 0.273901 0.312215
0.732465 0.279714 0.317510
0.829889 0.285610 0.322881
0.888933 0.289183 0.326136
0.206631 0.343439 0.303727
0.289903 0.348479 0.308317
0.377388 0.353773 0.313140
0.467784 0.359243 0.318123
0.560432 0.364850 0.323230
0.654922 0.370568 0.328439
0.750980 0.376381 0.333734
0.848404 0.382277 0.339104
0.907448 0.385850 0.342359
0.225763 0.443325 0.320490
0.309035 0.448364 0.325080
0.396520 0.453659 0.329903
0.486916 0.459129 0.334886
0.579563 0.464736 0.339993
0.674054 0.470454 0.345202
0.770112 0.476267 0.350497
0.867536 0.482163 0.355867
0.926580 0.485736 0.359122
0.245371 0.545697 0.337671
0.328643 0.550737 0.342261
0.416128 0.556031 0.347083
0.506525 0.561501 0.352066
0.599172 0.567108 0.357173
0.693663 0.572826 0.362382
0.789720 0.578639 0.367677
0.887144 0.584535 0.373048
0.946188 0.588108 0.376302
0.265370 0.650107 0.355193
0.348642 0.655146 0.359783
0.436126 0.660440 0.364606
0.526523 0.665911 0.369589
0.619170 0.671517 0.374696
0.713661 0.677236 0.379905
0.809719 0.683049 0.385200
0.907142 0.688945 0.390570
0.966187 0.692518 0.393825
0.285700 0.756248 0.373006
0.368972 0.761287 0.377596
0.456456 0.766581 0.382419
0.546853 0.772052 0.387402
0.639500 0.777659 0.392509
0.733991 0.783377 0.397718
0.830049 0.789190 0.403013
0.927473 0.795086 0.408383
0.986517 0.798659 0.411638
0.306319 0.863898 0.391072
0.389591 0.868937 0.395663
0.477075 0.874232 0.400485
0.567472 0.879702 0.405468
0.660119 0.885309 0.410575
0.754610 0.891027 0.415784
0.850668 0.896840 0.421079
0.948092 0.902736 0.426449
1.000000 0.906309 0.429704
0.318815 0.929140 0.402021
0.402087 0.934180 0.406612
0.489572 0.939474 0.411434
0.579968 0.944944 0.416417
0.672616 0.950551 0.421524
0.767106 0.956269 0.426733
0.863164 0.962082 0.432028
0.960588 0.967978 0.437398
1.000000 0.971551 0.440653
0.172423 0.156617 0.347976
0.255695 0.161656 0.352566
0.343180 0.166950 0.357389
0.433576 0.172421 0.362372
0.526223 0.178027 0.367479
0.620714 0.183746 0.372687
0.716772 0.189559 0.377983
0.814196 0.195454 0.383353
0.873240 0.199027 0.386608
0.190047 0.248630 0.363418
0.273319 0.253669 0.368008
0.360804 0.258963 0.372831
0.451200 0.264434 0.377814
0.543847 0.270040 0.382921
0.638338 0.275759 0.388129
0.734396 0.281572 0.393424
0.831820 0.287467 0.398795
0.890864 0.291041 0.402050
0.208563 0.345297 0.379641
0.291835 0.350337 0.384231
0.379319 0.355631 0.389054
0.469716 0.361101 0.394037
0.562363 0.366708 0.399144
0.656854 0.372426 0.404353
0.752912 0.378239 0.409648
0.850335 0.384135 0.415018
0.909380 0.387708 0.418273
0.227695 0.445183 0.396404
0.310967 0.450222 0.400994
0.398451 0.455516 0.405817
0.488848 0.460987 0.410800
0.581495 0.466594 0.415907
0.675986 0.472312 0.421116
0.772044 0.478125 0.426411
0.869467 0.484021 0.431781
0.928512 0.487594 0.435036
0.247303 0.547555 0.413585
0.330575 0.552594 0.418175
0.418059 0.557889 0.422997
0.508456 0.563359 0.427980
0.601103 0.568966 0.433087
0.695594 0.574684 0.438296
0.791652 0.580497 0.443591
0.889075 0.586393 0.448962
0.948120 0.589966 0.452216
0.267301 0.651965 0.431107
0.350573 0.657004 0.435697
0.438058 0.662298 0.440520
0.528454 0.667769 0.445503
0.621101 0.673375 0.450610
0.715592 0.679094 0.455819
0.811650 0.684907 0.461114
0.909074 0.690802 0.466484
0.968118 0.694375 0.469739
0.287631 0.758106 0.448920
0.370903 0.763145 0.453510
0.458388 0.768439 0.458333
0.548784 0.773910 0.463316
0.641431 0.779516 0.468423
0.735922 0.785235 0.473632
0.831980 0.791048 0.478927
0.929404 0.796943 0.484297
0.988448 0.800517 0.487552
0.308250 0.865756 0.466986
0.391522 0.870795 0.471577
0.479007 0.876089 0.476399
0.569403 0.881560 0.481382
0.662051 0.887166 0.486489
0.756541 0.892885 0.491698
0.852599 0.898698 0.496993
0.950023 0.904594 0.502363
1.000000 0.908167 0.505618
0.320747 0.930998 0.477935
0.404019 0.936037 0.482526
0.491503 0.941332 0.487348
0.581900 0.946802 0.492331
0.674547 0.952409 0.497438
0.769038 0.958127 0.502647
0.865096 0.963940 0.507942
0.962519 0.969836 0.513312
1.000000 0.973409 0.516567
0.174403 0.158521 0.425780
0.257675 0.163560 0.430370
0.345159 0.168854 0.435192
0.435556 0.174325 0.440175
0.528203 0.179931 0.445283
0.622694 0.185650 0.450491
0.718752 0.191463 0.455786
0.816175 0.197358 0.461157
0.875220 0.200932 0.464411
0.192027 0.250534 0.441222
0.275299 0.255573 0.445812
0.362783 0.260867 0.450634
0.453180 0.266338 0.455617
0.545827 0.271944 0.460725
0.640318 0.277663 0.465933
0.736376 0.283476 0.471228
0.833799 0.289371 0.476599
0.892844 0.292945 0.479853
0.210542 0.347201 0.457445
0.293814 0.352241 0.462035
0.381299 0.357535 0.466858
0.471695 0.363005 0.471841
0.564342 0.368612 0.476948
0.658833 0.374330 0.482156
0.754891 0.380143 0.487451
0.852315 0.386039 0.492822
0.911359 0.389612 0.496077
0.229674 0.447087 0.474208
0.312946 0.452126 0.478798
0.400430 0.457420 0.483621
0.490827 0.462891 0.488604
0.583474 0.468498 0.493711
0.677965 0.474216 0.498920
0.774023 0.480029 0.504215
0.871447 0.485925 0.509585
0.930491 0.489498 0.512840
0.249282 0.549459 0.491388
0.332554 0.554498 0.495979
0.420039 0.559793 0.500801
0.510435 0.565263 0.505784
0.603082 0.570870 0.510891
0.697573 0.576588 0.516100
0.793631 0.582401 0.521395
0.891055 0.588297 0.526765
0.950099 0.591870 0.530020
0.269281 0.653869 0.508911
0.352553 0.658908 0.513501
0.440037 0.664202 0.518324
0.530434 0.669673 0.523307
0.623081 0.675279 0.528414
0.717572 0.680998 0.533622
0.813630 0.686811 0.538917
0.911053 0.692706 0.544288
0.970098 0.696280 0.547543
0.289611 0.760010 0.526724
0.372883 0.765049 0.531314
0.460367 0.770343 0.536137
0.550764 0.775814 0.541120
0.643411 0.781420 0.546227
0.737902 0.787139 0.551435
0.833960 0.792952 0.556730
0.931383 0.798847 0.562101
0.990428 0.802421 0.565356
0.310230 0.867660 0.544790
0.393502 0.872699 0.549380
0.480986 0.877993 0.554203
0.571383 0.883464 0.559186
0.664030 0.889071 0.564293
0.758521 0.894789 0.569502
0.854579 0.900602 0.574797
0.952002 0.906498 0.580167
1.000000 0.910071 0.583422
0.322726 0.932902 0.555739
0.405998 0.937941 0.560330
0.493483 0.943236 0.565152
0.583879 0.948706 0.570135
0.676526 0.954313 0.575242
0.771017 0.960031 0.580451
0.867075 0.965844 0.585746
0.964499 0.971740 0.591116
1.000000 0.975313 0.594371
0.176421 0.160463 0.505132
0.259694 0.165502 0.509722
0.347178 0.170796 0.514545
0.437575 0.176267 0.519528
0.530222 0.181873 0.524635
0.624713 0.187592 0.529843
0.720771 0.193405 0.535139
0.818194 0.199300 0.540509
0.877239 0.202873 0.543764
0.194045 0.252476 0.520574
0.277318 0.257515 0.525164
0.364802 0.262809 0.529987
0.455199 0.268280 0.534970
0.547846 0.273886 0.540077
0.642337 0.279605 0.545285
0.738395 0.285418 0.550581
0.835818 0.291313 0.555951
0.894863 0.294887 0.559206
0.212561 0.349143 0.536797
0.295833 0.354183 0.541387
0.383317 0.359477 0.546210
0.473714 0.364947 0.551193
0.566361 0.370554 0.556300
0.660852 0.376272 0.561509
0.756910 0.382085 0.566804
0.854334 0.387981 0.572174
0.913378 0.391554 0.575429
0.231693 0.449029 0.553560
0.314965 0.454068 0.558150
0.402449 0.459362 0.562973
0.492846 0.464833 0.567956
0.585493 0.470440 0.573063
0.679984 0.476158 0.578272
0.776042 0.481971 0.583567
0.873466 0.487867 0.588937
0.932510 0.491440 0.592192
0.251301 0.551401 0.570741
0.334573 0.556440 0.575331
0.422057 0.561735 0.580153
0.512454 0.567205 0.585136
0.605101 0.572812 0.590244
0.699592 0.578530 0.595452
0.795650 0.584343 0.600747
0.893074 0.590239 0.606118
0.952118 0.593812 0.609372
0.271299 0.655811 0.588263
0.354571 0.660850 0.592853
0.442056 0.666144 0.597676
0.532453 0.671615 0.602659
0.625100 0.677221 0.607766
0.719591 0.682940 0.612975
0.815649 0.688753 0.618270
0.913072 0.694648 0.623640
0.972117 0.698221 0.626895
0.291629 0.761952 0.606076
0.374902 0.766991 0.610666
0.462386 0.772285 0.615489
0.552783 0.777756 0.620472
0.645430 0.783362 0.625579
0.739921 0.789081 0.630788
0.835979 0.794894 0.636083
0.933402 0.800789 0.641453
0.992447 0.804363 0.644708
0.312249 0.869602 0.624142
0.395521 0.874641 0.628733
0.483005 0.879935 0.633555
0.573402 0.885406 0.638538
0.666049 0.891012 0.643645
0.760540 0.896731 0.648854
0.856598 0.902544 0.654149
0.954021 0.908440 0.659519
1.000000 0.912013 0.662774
0.324745 0.934844 0.635092
0.408017 0.939883 0.639682
0.495501 0.945178 0.644504
0.585898 0.950648 0.649487
0.678545 0.956255 0.654594
0.773036 0.961973 0.659803
0.869094 0.967786 0.665098
0.966518 0.973682 0.670468
1.000000 0.977255 0.673723
0.178474 0.162437 0.585800
0.261746 0.167476 0.590390
0.349230 0.172770 0.595213
0.439627 0.178241 0.600196
0.532274 0.183847 0.605303
0.626765 0.189566 0.610512
0.722823 0.195379 0.615807
0.820247 0.201274 0.621177
0.879291 0.204848 0.624432
0.196098 0.254450 0.601242
0.279370 0.259489 0.605832
0.366854 0.264783 0.610655
0.457251 0.270254 0.615638
0.549898 0.275860 0.620745
0.644389 0.281579 0.625954
0.740447 0.287392 0.631249
0.837871 0.293288 0.636619
0.896915 0.296861 0.639874
0.214613 0.351117 0.617465
0.297885 0.356157 0.622056
0.385370 0.361451 0.626878
0.475767 0.366921 0.631861
0.568414 0.372528 0.636968
0.662904 0.378246 0.642177
0.758962 0.384059 0.647472
0.856386 0.389955 0.652842
0.915430 0.393528 0.656097
0.233745 0.451003 0.634228
0.317017 0.456042 0.638819
0.404502 0.461337 0.643641
0.494898 0.466807 0.648624
0.587545 0.472414 0.653731
0.682036 0.478132 0.658940
0.778094 0.483945 0.664235
0.875518 0.489841 0.669605
0.934562 0.493414 0.672860
0.253353 0.553375 0.651409
0.336625 0.558414 0.655999
0.424110 0.563709 0.660822
0.514507 0.569179 0.665805
0.607154 0.574786 0.670912
0.701645 0.580504 0.676120
0.797702 0.586317 0.681415
0.895126 0.592213 0.686786
0.954171 0.595786 0.690041
0.273352 0.657785 0.668931
0.356624 0.662824 0.673522
0.444108 0.668118 0.678344
0.534505 0.673589 0.683327
0.627152 0.679195 0.688434
0.721643 0.684914 0.693643
0.817701 0.690727 0.698938
0.915124 0.696622 0.704308
0.974169 0.700196 0.707563
0.293682 0.763926 0.686744
0.376954 0.768965 0.691335
0.464438 0.774259 0.696157
0.554835 0.779730 0.701140
0.647482 0.785336 0.706247
0.741973 0.791055 0.711456
0.838031 0.796868 0.716751
0.935455 0.802764 0.722121
0.994499 0.806337 0.725376
0.314301 0.871576 0.704811
0.397573 0.876615 0.709401
0.485057 0.881909 0.714223
0.575454 0.887380 0.719206
0.668101 0.892987 0.724313
0.762592 0.898705 0.729522
0.858650 0.904518 0.734817
0.956074 0.910414 0.740187
1.000000 0.913987 0.743442
0.326797 0.936818 0.715760
0.410069 0.941857 0.720350
0.497554 0.947152 0.725172
0.587950 0.952622 0.730155
0.680598 0.958229 0.735263
0.775088 0.963947 0.740471
0.871146 0.969760 0.745766
0.968570 0.975656 0.751137
1.000000 0.979229 0.754391
0.180555 0.164439 0.667615
0.263827 0.169478 0.672206
0.351312 0.174773 0.677028
0.441709 0.180243 0.682011
0.534356 0.185850 0.687118
0.628847 0.191568 0.692327
0.724904 0.197381 0.697622
0.822328 0.203277 0.702992
0.881372 0.206850 0.706247
0.198179 0.256452 0.683057
0.281451 0.261491 0.687647
0.368936 0.266786 0.692470
0.459333 0.272256 0.697453
0.551980 0.277863 0.702560
0.646470 0.283581 0.707769
0.742528 0.289394 0.713064
0.839952 0.295290 0.718434
0.898996 0.298863 0.721689
0.216695 0.353120 0.699280
0.299967 0.358159 0.703871
0.387451 0.363453 0.708693
0.477848 0.368924 0.713676
0.570495 0.374530 0.718783
0.664986 0.380249 0.723992
0.761044 0.386062 0.729287
0.858468 0.391957 0.734657
0.917512 0.395530 0.737912
0.235827 0.453005 0.716044
0.319099 0.458045 0.720634
0.406583 0.463339 0.725456
0.496980 0.468809 0.730439
0.589627 0.474416 0.735546
0.684118 0.480134 0.740755
0.780176 0.485947 0.746050
0.877599 0.491843 0.751420
0.936644 0.495416 0.754675
0.255435 0.555377 0.733224
0.338707 0.560417 0.737814
0.426191 0.565711 0.742637
0.516588 0.571181 0.747620
0.609235 0.576788 0.752727
0.703726 0.582506 0.757936
0.799784 0.588319 0.763231
0.897208 0.594215 0.768601
0.956252 0.597788 0.771856
0.275433 0.659787 0.750746
0.358705 0.664826 0.755337
0.446190 0.670120 0.760159
0.536586 0.675591 0.765142
0.629234 0.681198 0.770249
0.723724 0.686916 0.775458
0.819782 0.692729 0.780753
0.917206 0.698625 0.786123
0.976250 0.702198 0.789378
0.295763 0.765928 0.768559
0.379035 0.770967 0.773150
0.466520 0.776262 0.777972
0.556916 0.781732 0.782955
0.649564 0.787339 0.788062
0.744054 0.793057 0.793271
0.840112 0.798870 0.798566
0.937536 0.804766 0.803936
0.996580 0.808339 0.807191
0.316382 0.873578 0.786626
0.399654 0.878617 0.791216
0.487139 0.883912 0.796038
0.577536 0.889382 0.801021
0.670183 0.894989 0.806128
0.764674 0.900707 0.811337
0.860731 0.906520 0.816632
0.958155 0.912416 0.822003
1.000000 0.915989 0.825257
0.328879 0.938820 0.797575
0.412151 0.943860 0.802165
0.499635 0.949154 0.806988
0.590032 0.954624 0.811971
0.682679 0.960231 0.817078
0.777170 0.965949 0.822286
0.873228 0.971762 0.827581
0.970651 0.977658 0.832952
1.000000 0.981231 0.836207
0.181817 0.165652 0.717200
0.265089 0.170692 0.721790
0.352573 0.175986 0.726613
0.442970 0.181456 0.731596
0.535617 0.187063 0.736703
0.630108 0.192781 0.741911
0.726166 0.198594 0.747207
0.823590 0.204490 0.752577
0.882634 0.208063 0.755832
0.199441 0.257665 0.732642
0.282713 0.262705 0.737232
0.370197 0.267999 0.742055
0.460594 0.273470 0.747038
0.553241 0.279076 0.752145
0.647732 0.284794 0.757353
0.743790 0.290607 0.762649
0.841214 0.296503 0.768019
0.900258 0.300076 0.771274
0.217956 0.354333 0.748865
0.301228 0.359372 0.753455
0.388713 0.364667 0.758278
0.479110 0.370137 0.763261
0.571757 0.375744 0.768368
0.666248 0.381462 0.773577
0.762305 0.387275 0.778872
0.859729 0.393171 0.784242
0.918773 0.396744 0.787497
0.237088 0.454219 0.765628
0.320360 0.459258 0.770219
0.407845 0.464552 0.775041
0.498241 0.470023 0.780024
0.590889 0.475629 0.785131
0.685379 0.481348 0.790340
0.781437 0.487161 0.795635
0.878861 0.493056 0.801005
0.937905 0.496630 0.804260
0.256696 0.556591 0.782809
0.339968 0.561630 0.787399
0.427453 0.566924 0.792221
0.517850 0.572395 0.797204
0.610497 0.578002 0.802312
0.704988 0.583720 0.807520
0.801046 0.589533 0.812815
0.898469 0.595429 0.818186
0.957514 0.599002 0.821440
0.276695 0.661000 0.800331
0.359967 0.666040 0.804921
0.447451 0.671334 0.809744
0.537848 0.676804 0.814727
0.630495 0.682411 0.819834
0.724986 0.688129 0.825043
0.821044 0.693942 0.830338
0.918468 0.699838 0.835708
0.977512 0.703411 0.838963
0.297025 0.767141 0.818144
0.380297 0.772181 0.822734
0.467781 0.777475 0.827557
0.558178 0.782946 0.832540
0.650825 0.788552 0.837647
0.745316 0.794270 0.842856
0.841374 0.800083 0.848151
0.938798 0.805979 0.853521
0.997842 0.809552 0.856776
0.317644 0.874792 0.836210
0.400916 0.879831 0.840801
0.488400 0.885125 0.845623
0.578797 0.890596 0.850606
0.671444 0.896202 0.855713
0.765935 0.901921 0.860922
0.861993 0.907734 0.866217
0.959417 0.913629 0.871587
1.000000 0.917202 0.874842
0.330140 0.940034 0.847160
0.413412 0.945073 0.851750
0.500897 0.950367 0.856572
0.591293 0.955838 0.861555
0.683941 0.961445 0.866662
0.778431 0.967163 0.871871
0.874489 0.972976 0.877166
0.971913 0.978872 0.882537
1.000000 0.982445 0.885791
