library/cube/Film_Haven_001.cube
# CINEGRADE LAB — Premium Cinematic LUT
# Title: Film Haven
# Category: Analog Film
# Description: Film grain, muted colors, and vintage feel emulating classic film stocks
# Mood: Nostalgic, warm, organic
# Variant: 2
# Generated: 2026-05-21T16:12:14.398428
TITLE "Film Haven"
LUT_3D_SIZE 33
0.166843 0.151249 0.128663
0.187142 0.152478 0.129782
0.207821 0.153729 0.130922
0.228825 0.155000 0.132080
0.250116 0.156289 0.133253
0.271660 0.157593 0.134441
0.293436 0.158910 0.135641
0.315421 0.160241 0.136853
0.337600 0.161583 0.138076
0.359958 0.162936 0.139308
0.382484 0.164299 0.140550
0.405167 0.165672 0.141800
0.427997 0.167053 0.143059
0.450966 0.168444 0.144325
0.474068 0.169842 0.145598
0.497296 0.171247 0.146879
0.520644 0.172660 0.148166
0.544106 0.174080 0.149459
0.567678 0.175507 0.150758
0.591356 0.176939 0.152064
0.615135 0.178378 0.153374
0.639011 0.179823 0.154691
0.662982 0.181274 0.156012
0.687043 0.182730 0.157338
0.711193 0.184191 0.158669
0.735427 0.185658 0.160005
0.759744 0.187130 0.161346
0.784141 0.188606 0.162691
0.808616 0.190087 0.164040
0.833167 0.191573 0.165393
0.857791 0.193063 0.166751
0.867661 0.193660 0.167295
0.867661 0.193660 0.167295
0.171140 0.173679 0.132427
0.191438 0.174907 0.133546
0.212117 0.176159 0.134686
0.233122 0.177430 0.135844
0.254412 0.178718 0.137017
0.275957 0.180022 0.138205
0.297732 0.181340 0.139405
0.319717 0.182670 0.140617
0.341896 0.184013 0.141840
0.364254 0.185366 0.143072
0.386780 0.186729 0.144314
0.409463 0.188102 0.145564
0.432293 0.189483 0.146823
0.455262 0.190873 0.148089
0.478364 0.192271 0.149362
0.501592 0.193677 0.150643
0.524940 0.195090 0.151930
0.548402 0.196510 0.153223
0.571974 0.197936 0.154523
0.595652 0.199369 0.155828
0.619431 0.200808 0.157139
0.643307 0.202253 0.158455
0.667278 0.203704 0.159776
0.691339 0.205160 0.161102
0.715489 0.206621 0.162434
0.739723 0.208088 0.163770
0.764040 0.209559 0.165110
0.788437 0.211036 0.166455
0.812912 0.212517 0.167804
0.837463 0.214003 0.169157
0.862087 0.215493 0.170515
0.871957 0.216090 0.171059
0.871957 0.216090 0.171059
0.175516 0.196528 0.136262
0.195815 0.197757 0.137381
0.216494 0.199008 0.138521
0.237498 0.200279 0.139678
0.258788 0.201568 0.140852
0.280333 0.202872 0.142040
0.302108 0.204189 0.143240
0.324094 0.205520 0.144452
0.346273 0.206862 0.145674
0.368631 0.208215 0.146907
0.391157 0.209578 0.148149
0.413839 0.210951 0.149399
0.436669 0.212332 0.150658
0.459639 0.213722 0.151924
0.482741 0.215121 0.153197
0.505969 0.216526 0.154478
0.529316 0.217939 0.155765
0.552779 0.219359 0.157058
0.576351 0.220785 0.158357
0.600028 0.222218 0.159662
0.623807 0.223657 0.160973
0.647684 0.225102 0.162289
0.671654 0.226553 0.163611
0.695716 0.228009 0.164937
0.719865 0.229470 0.166268
0.744100 0.230937 0.167604
0.768417 0.232409 0.168945
0.792814 0.233885 0.170290
0.817289 0.235366 0.171639
0.841839 0.236852 0.172992
0.866463 0.238342 0.174349
0.876333 0.238939 0.174893
0.876333 0.238939 0.174893
0.179962 0.219738 0.140157
0.200260 0.220966 0.141276
0.220939 0.222217 0.142416
0.241944 0.223489 0.143573
0.263234 0.224777 0.144747
0.284779 0.226081 0.145935
0.306554 0.227399 0.147135
0.328539 0.228729 0.148347
0.350718 0.230071 0.149570
0.373076 0.231424 0.150802
0.395602 0.232787 0.152044
0.418285 0.234160 0.153294
0.441115 0.235542 0.154553
0.464084 0.236932 0.155819
0.487186 0.238330 0.157092
0.510414 0.239735 0.158373
0.533762 0.241148 0.159660
0.557224 0.242568 0.160953
0.580796 0.243995 0.162252
0.604474 0.245428 0.163558
0.628253 0.246867 0.164868
0.652129 0.248311 0.166184
0.676100 0.249762 0.167506
0.700161 0.251218 0.168832
0.724311 0.252680 0.170163
0.748545 0.254146 0.171499
0.772862 0.255618 0.172840
0.797259 0.257094 0.174185
0.821734 0.258575 0.175534
0.846285 0.260061 0.176887
0.870909 0.261551 0.178244
0.880779 0.262149 0.178789
0.880779 0.262149 0.178789
0.184467 0.243263 0.144105
0.204766 0.244491 0.145224
0.225445 0.245742 0.146364
0.246449 0.247013 0.147522
0.267740 0.248302 0.148695
0.289284 0.249606 0.149883
0.311060 0.250923 0.151083
0.333045 0.252254 0.152295
0.355224 0.253596 0.153518
0.377582 0.254949 0.154750
0.400108 0.256312 0.155992
0.422790 0.257685 0.157242
0.445621 0.259067 0.158501
0.468590 0.260457 0.159767
0.491692 0.261855 0.161040
0.514920 0.263260 0.162321
0.538268 0.264673 0.163608
0.561730 0.266093 0.164901
0.585302 0.267520 0.166200
0.608980 0.268952 0.167506
0.632759 0.270391 0.168816
0.656635 0.271836 0.170133
0.680606 0.273287 0.171454
0.704667 0.274743 0.172780
0.728817 0.276205 0.174111
0.753051 0.277671 0.175447
0.777368 0.279143 0.176788
0.801765 0.280619 0.178133
0.826240 0.282100 0.179482
0.850791 0.283586 0.180835
0.875415 0.285076 0.182192
0.885285 0.285673 0.182737
0.885285 0.285673 0.182737
0.189027 0.267069 0.148100
0.209326 0.268297 0.149219
0.230005 0.269549 0.150359
0.251009 0.270820 0.151517
0.272299 0.272108 0.152690
0.293844 0.273412 0.153878
0.315619 0.274730 0.155078
0.337605 0.276060 0.156290
0.359784 0.277403 0.157513
0.382142 0.278756 0.158745
0.404668 0.280119 0.159987
0.427350 0.281491 0.161237
0.450181 0.282873 0.162496
0.473150 0.284263 0.163762
0.496252 0.285661 0.165036
0.519480 0.287067 0.166316
0.542828 0.288480 0.167603
0.566290 0.289900 0.168896
0.589862 0.291326 0.170196
0.613540 0.292759 0.171501
0.637318 0.294198 0.172812
0.661195 0.295643 0.174128
0.685166 0.297093 0.175449
0.709227 0.298550 0.176776
0.733376 0.300011 0.178107
0.757611 0.301478 0.179443
0.781928 0.302949 0.180783
0.806325 0.304426 0.182128
0.830800 0.305907 0.183477
0.855351 0.307392 0.184830
0.879975 0.308883 0.186188
0.889844 0.309480 0.186732
0.889844 0.309480 0.186732
0.193636 0.291130 0.152138
0.213935 0.292358 0.153257
0.234613 0.293610 0.154397
0.255618 0.294881 0.155555
0.276908 0.296169 0.156728
0.298453 0.297473 0.157916
0.320228 0.298791 0.159116
0.342213 0.300121 0.160328
0.364392 0.301463 0.161551
0.386751 0.302816 0.162783
0.409276 0.304180 0.164025
0.431959 0.305552 0.165275
0.454789 0.306934 0.166534
0.477759 0.308324 0.167800
0.500861 0.309722 0.169074
0.524088 0.311128 0.170354
0.547436 0.312541 0.171641
0.570899 0.313960 0.172934
0.594471 0.315387 0.174234
0.618148 0.316820 0.175539
0.641927 0.318259 0.176850
0.665804 0.319704 0.178166
0.689774 0.321154 0.179487
0.713836 0.322610 0.180814
0.737985 0.324072 0.182145
0.762220 0.325538 0.183481
0.786537 0.327010 0.184821
0.810934 0.328486 0.186166
0.835409 0.329968 0.187515
0.859959 0.331453 0.188868
0.884583 0.332943 0.190226
0.894453 0.333541 0.190770
0.894453 0.333541 0.190770
0.198289 0.315423 0.156215
0.218588 0.316651 0.157334
0.239267 0.317903 0.158474
0.260271 0.319174 0.159632
0.281561 0.320462 0.160805
0.303106 0.321766 0.161993
0.324881 0.323084 0.163193
0.346866 0.324414 0.164405
0.369045 0.325757 0.165628
0.391404 0.327110 0.166860
0.413929 0.328473 0.168102
0.436612 0.329845 0.169352
0.459442 0.331227 0.170611
0.482412 0.332617 0.171877
0.505514 0.334015 0.173150
0.528742 0.335421 0.174431
0.552089 0.336834 0.175718
0.575552 0.338254 0.177011
0.599124 0.339680 0.178311
0.622801 0.341113 0.179616
0.646580 0.342552 0.180927
0.670457 0.343997 0.182243
0.694427 0.345448 0.183564
0.718489 0.346904 0.184890
0.742638 0.348365 0.186222
0.766873 0.349832 0.187558
0.791190 0.351303 0.188898
0.815587 0.352780 0.190243
0.840062 0.354261 0.191592
0.864612 0.355747 0.192945
0.889236 0.357237 0.194303
0.899106 0.357834 0.194847
0.899106 0.357834 0.194847
0.202983 0.339930 0.160328
0.223282 0.341159 0.161447
0.243961 0.342410 0.162587
0.264965 0.343681 0.163745
0.286255 0.344969 0.164918
0.307800 0.346273 0.166106
0.329575 0.347591 0.167306
0.351561 0.348921 0.168518
0.373739 0.350264 0.169741
0.396098 0.351617 0.170973
0.418623 0.352980 0.172215
0.441306 0.354353 0.173465
0.464136 0.355734 0.174724
0.487106 0.357124 0.175990
0.510208 0.358522 0.177263
0.533436 0.359928 0.178544
0.556783 0.361341 0.179831
0.580246 0.362761 0.181124
0.603818 0.364187 0.182423
0.627495 0.365620 0.183729
0.651274 0.367059 0.185039
0.675151 0.368504 0.186356
0.699121 0.369955 0.187677
0.723183 0.371411 0.189003
0.747332 0.372872 0.190335
0.771567 0.374339 0.191670
0.795884 0.375810 0.193011
0.820281 0.377287 0.194356
0.844756 0.378768 0.195705
0.869306 0.380254 0.197058
0.893930 0.381744 0.198416
0.903800 0.382341 0.198960
0.903800 0.382341 0.198960
0.207715 0.364635 0.164474
0.228014 0.365864 0.165593
0.248693 0.367115 0.166733
0.269697 0.368386 0.167891
0.290987 0.369675 0.169064
0.312532 0.370979 0.170252
0.334307 0.372296 0.171452
0.356293 0.373627 0.172664
0.378471 0.374969 0.173887
0.400830 0.376322 0.175119
0.423355 0.377685 0.176361
0.446038 0.379058 0.177611
0.468868 0.380439 0.178870
0.491838 0.381829 0.180136
0.514940 0.383228 0.181409
0.538168 0.384633 0.182690
0.561515 0.386046 0.183977
0.584978 0.387466 0.185270
0.608550 0.388892 0.186570
0.632227 0.390325 0.187875
0.656006 0.391764 0.189186
0.679883 0.393209 0.190502
0.703853 0.394660 0.191823
0.727915 0.396116 0.193149
0.752064 0.397577 0.194481
0.776299 0.399044 0.195817
0.800616 0.400516 0.197157
0.825013 0.401992 0.198502
0.849488 0.403473 0.199851
0.874038 0.404959 0.201204
0.898662 0.406449 0.202562
0.908532 0.407046 0.203106
0.908532 0.407046 0.203106
0.212482 0.389526 0.168651
0.232781 0.390754 0.169770
0.253460 0.392005 0.170910
0.274464 0.393277 0.172068
0.295754 0.394565 0.173242
0.317299 0.395869 0.174429
0.339075 0.397186 0.175629
0.361060 0.398517 0.176841
0.383239 0.399859 0.178064
0.405597 0.401212 0.179296
0.428123 0.402575 0.180538
0.450805 0.403948 0.181789
0.473636 0.405330 0.183047
0.496605 0.406720 0.184313
0.519707 0.408118 0.185587
0.542935 0.409523 0.186867
0.566283 0.410936 0.188154
0.589745 0.412356 0.189447
0.613317 0.413783 0.190747
0.636995 0.415216 0.192052
0.660774 0.416655 0.193363
0.684650 0.418099 0.194679
0.708621 0.419550 0.196000
0.732682 0.421006 0.197327
0.756832 0.422468 0.198658
0.781066 0.423934 0.199994
0.805383 0.425406 0.201334
0.829780 0.426882 0.202679
0.854255 0.428363 0.204028
0.878806 0.429849 0.205382
0.903430 0.431339 0.206739
0.913300 0.431936 0.207283
0.913300 0.431936 0.207283
0.217283 0.414589 0.172858
0.237582 0.415817 0.173976
0.258261 0.417069 0.175116
0.279265 0.418340 0.176274
0.300555 0.419628 0.177448
0.322100 0.420932 0.178635
0.343875 0.422250 0.179836
0.365861 0.423580 0.181048
0.388039 0.424923 0.182270
0.410398 0.426276 0.183503
0.432924 0.427639 0.184744
0.455606 0.429012 0.185995
0.478436 0.430393 0.187253
0.501406 0.431783 0.188519
0.524508 0.433181 0.189793
0.547736 0.434587 0.191073
0.571083 0.436000 0.192360
0.594546 0.437420 0.193654
0.618118 0.438846 0.194953
0.641795 0.440279 0.196258
0.665574 0.441718 0.197569
0.689451 0.443163 0.198885
0.713421 0.444614 0.200207
0.737483 0.446070 0.201533
0.761632 0.447531 0.202864
0.785867 0.448998 0.204200
0.810184 0.450469 0.205540
0.834581 0.451946 0.206885
0.859056 0.453427 0.208234
0.883606 0.454913 0.209588
0.908230 0.456403 0.210945
0.918100 0.457000 0.211489
0.918100 0.457000 0.211489
0.222115 0.439816 0.177091
0.242414 0.441044 0.178210
0.263092 0.442296 0.179350
0.284097 0.443567 0.180508
0.305387 0.444855 0.181681
0.326932 0.446159 0.182869
0.348707 0.447477 0.184069
0.370692 0.448807 0.185281
0.392871 0.450149 0.186504
0.415230 0.451502 0.187736
0.437755 0.452865 0.188978
0.460438 0.454238 0.190228
0.483268 0.455620 0.191487
0.506238 0.457010 0.192753
0.529340 0.458408 0.194027
0.552567 0.459813 0.195307
0.575915 0.461226 0.196594
0.599377 0.462646 0.197887
0.622950 0.464073 0.199187
0.646627 0.465506 0.200492
0.670406 0.466945 0.201803
0.694283 0.468390 0.203119
0.718253 0.469840 0.204440
0.742315 0.471296 0.205767
0.766464 0.472758 0.207098
0.790699 0.474224 0.208434
0.815016 0.475696 0.209774
0.839413 0.477172 0.211119
0.863888 0.478653 0.212468
0.888438 0.480139 0.213821
0.913062 0.481629 0.215179
0.922932 0.482227 0.215723
0.922932 0.482227 0.215723
0.226976 0.465197 0.181351
0.247275 0.466425 0.182470
0.267954 0.467676 0.183609
0.288958 0.468947 0.184767
0.310248 0.470236 0.185941
0.331793 0.471540 0.187129
0.353568 0.472857 0.188329
0.375554 0.474188 0.189541
0.397733 0.475530 0.190763
0.420091 0.476883 0.191996
0.442617 0.478246 0.193238
0.465299 0.479619 0.194488
0.488129 0.481001 0.195746
0.511099 0.482391 0.197013
0.534201 0.483789 0.198286
0.557429 0.485194 0.199566
0.580777 0.486607 0.200853
0.604239 0.488027 0.202147
0.627811 0.489454 0.203446
0.651489 0.490886 0.204751
0.675267 0.492325 0.206062
0.699144 0.493770 0.207378
0.723114 0.495221 0.208700
0.747176 0.496677 0.210026
0.771325 0.498139 0.211357
0.795560 0.499605 0.212693
0.819877 0.501077 0.214034
0.844274 0.502553 0.215378
0.868749 0.504034 0.216728
0.893300 0.505520 0.218081
0.917924 0.507010 0.219438
0.927793 0.507607 0.219982
0.927793 0.507607 0.219982
0.231866 0.490723 0.185635
0.252165 0.491952 0.186754
0.272843 0.493203 0.187893
0.293848 0.494474 0.189051
0.315138 0.495763 0.190225
0.336683 0.497067 0.191413
0.358458 0.498384 0.192613
0.380443 0.499715 0.193825
0.402622 0.501057 0.195047
0.424980 0.502410 0.196280
0.447506 0.503773 0.197522
0.470189 0.505146 0.198772
0.493019 0.506528 0.200030
0.515989 0.507918 0.201297
0.539090 0.509316 0.202570
0.562318 0.510721 0.203850
0.585666 0.512134 0.205137
0.609128 0.513554 0.206431
0.632700 0.514981 0.207730
0.656378 0.516413 0.209035
0.680157 0.517852 0.210346
0.704033 0.519297 0.211662
0.728004 0.520748 0.212984
0.752065 0.522204 0.214310
0.776215 0.523665 0.215641
0.800449 0.525132 0.216977
0.824766 0.526604 0.218318
0.849163 0.528080 0.219662
0.873638 0.529561 0.221012
0.898189 0.531047 0.222365
0.922813 0.532537 0.223722
0.932683 0.533134 0.224266
0.932683 0.533134 0.224266
0.236782 0.516389 0.189942
0.257081 0.517618 0.191061
0.277759 0.518869 0.192201
0.298764 0.520140 0.193359
0.320054 0.521429 0.194532
0.341599 0.522733 0.195720
0.363374 0.524050 0.196920
0.385359 0.525381 0.198132
0.407538 0.526723 0.199355
0.429896 0.528076 0.200587
0.452422 0.529439 0.201829
0.475105 0.530812 0.203079
0.497935 0.532193 0.204338
0.520905 0.533583 0.205604
0.544006 0.534982 0.206877
0.567234 0.536387 0.208158
0.590582 0.537800 0.209445
0.614044 0.539220 0.210738
0.637616 0.540646 0.212038
0.661294 0.542079 0.213343
0.685073 0.543518 0.214654
0.708949 0.544963 0.215970
0.732920 0.546414 0.217291
0.756981 0.547870 0.218617
0.781131 0.549331 0.219949
0.805365 0.550798 0.221285
0.829682 0.552270 0.222625
0.854079 0.553746 0.223970
0.878554 0.555227 0.225319
0.903105 0.556713 0.226672
0.927729 0.558203 0.228030
0.937599 0.558800 0.228574
0.937599 0.558800 0.228574
0.241723 0.542188 0.194272
0.262022 0.543416 0.195391
0.282701 0.544668 0.196530
0.303705 0.545939 0.197688
0.324995 0.547227 0.198862
0.346540 0.548531 0.200050
0.368315 0.549849 0.201250
0.390301 0.551179 0.202462
0.412479 0.552521 0.203684
0.434838 0.553875 0.204917
0.457364 0.555238 0.206159
0.480046 0.556610 0.207409
0.502876 0.557992 0.208667
0.525846 0.559382 0.209934
0.548948 0.560780 0.211207
0.572176 0.562186 0.212487
0.595523 0.563599 0.213774
0.618986 0.565018 0.215068
0.642558 0.566445 0.216367
0.666235 0.567878 0.217672
0.690014 0.569317 0.218983
0.713891 0.570762 0.220299
0.737861 0.572212 0.221621
0.761923 0.573668 0.222947
0.786072 0.575130 0.224278
0.810307 0.576597 0.225614
0.834624 0.578068 0.226955
0.859021 0.579545 0.228299
0.883496 0.581026 0.229649
0.908046 0.582511 0.231002
0.932670 0.584002 0.232359
0.942540 0.584599 0.232903
0.942540 0.584599 0.232903
0.246689 0.568113 0.198622
0.266988 0.569341 0.199741
0.287666 0.570593 0.200881
0.308671 0.571864 0.202039
0.329961 0.573152 0.203213
0.351506 0.574456 0.204400
0.373281 0.575774 0.205601
0.395266 0.577104 0.206813
0.417445 0.578447 0.208035
0.439803 0.579800 0.209268
0.462329 0.581163 0.210509
0.485012 0.582536 0.211760
0.507842 0.583917 0.213018
0.530812 0.585307 0.214284
0.553914 0.586705 0.215558
0.577141 0.588111 0.216838
0.600489 0.589524 0.218125
0.623951 0.590944 0.219419
0.647523 0.592370 0.220718
0.671201 0.593803 0.222023
0.694980 0.595242 0.223334
0.718856 0.596687 0.224650
0.742827 0.598138 0.225972
0.766888 0.599594 0.227298
0.791038 0.601055 0.228629
0.815272 0.602522 0.229965
0.839589 0.603993 0.231305
0.863987 0.605470 0.232650
0.888461 0.606951 0.233999
0.913012 0.608437 0.235353
0.937636 0.609927 0.236710
0.947506 0.610524 0.237254
0.947506 0.610524 0.237254
0.251678 0.594160 0.202994
0.271976 0.595388 0.204113
0.292655 0.596639 0.205253
0.313660 0.597910 0.206410
0.334950 0.599199 0.207584
0.356495 0.600503 0.208772
0.378270 0.601820 0.209972
0.400255 0.603151 0.211184
0.422434 0.604493 0.212406
0.444792 0.605846 0.213639
0.467318 0.607209 0.214881
0.490001 0.608582 0.216131
0.512831 0.609964 0.217389
0.535800 0.611354 0.218656
0.558902 0.612752 0.219929
0.582130 0.614157 0.221210
0.605478 0.615570 0.222497
0.628940 0.616990 0.223790
0.652512 0.618417 0.225089
0.676190 0.619850 0.226394
0.699969 0.621289 0.227705
0.723845 0.622733 0.229021
0.747816 0.624184 0.230343
0.771877 0.625640 0.231669
0.796027 0.627102 0.233000
0.820261 0.628568 0.234336
0.844578 0.630040 0.235677
0.868975 0.631516 0.237022
0.893450 0.632997 0.238371
0.918001 0.634483 0.239724
0.942625 0.635973 0.241081
0.952495 0.636570 0.241625
0.952495 0.636570 0.241625
0.256689 0.620323 0.207384
0.276988 0.621551 0.208503
0.297666 0.622802 0.209643
0.318671 0.624073 0.210801
0.339961 0.625362 0.211975
0.361506 0.626666 0.213162
0.383281 0.627983 0.214363
0.405266 0.629314 0.215575
0.427445 0.630656 0.216797
0.449804 0.632009 0.218030
0.472329 0.633372 0.219271
0.495012 0.634745 0.220522
0.517842 0.636127 0.221780
0.540812 0.637517 0.223046
0.563914 0.638915 0.224320
0.587141 0.640320 0.225600
0.610489 0.641733 0.226887
0.633951 0.643153 0.228181
0.657524 0.644580 0.229480
0.681201 0.646012 0.230785
0.704980 0.647451 0.232096
0.728856 0.648896 0.233412
0.752827 0.650347 0.234733
0.776888 0.651803 0.236060
0.801038 0.653265 0.237391
0.825272 0.654731 0.238727
0.849589 0.656203 0.240067
0.873987 0.657679 0.241412
0.898462 0.659160 0.242761
0.923012 0.660646 0.244115
0.947636 0.662136 0.245472
0.957506 0.662733 0.246016
0.957506 0.662733 0.246016
0.261721 0.646597 0.211794
0.282020 0.647826 0.212913
0.302699 0.649077 0.214053
0.323703 0.650348 0.215211
0.344993 0.651637 0.216384
0.366538 0.652941 0.217572
0.388314 0.654258 0.218772
0.410299 0.655589 0.219984
0.432478 0.656931 0.221207
0.454836 0.658284 0.222439
0.477362 0.659647 0.223681
0.500044 0.661020 0.224931
0.522875 0.662401 0.226190
0.545844 0.663792 0.227456
0.568946 0.665190 0.228729
0.592174 0.666595 0.230010
0.615522 0.668008 0.231297
0.638984 0.669428 0.232590
0.662556 0.670855 0.233890
0.686234 0.672287 0.235195
0.710013 0.673726 0.236506
0.733889 0.675171 0.237822
0.757860 0.676622 0.239143
0.781921 0.678078 0.240469
0.806071 0.679539 0.241801
0.830305 0.681006 0.243137
0.854622 0.682478 0.244477
0.879019 0.683954 0.245822
0.903494 0.685435 0.247171
0.928045 0.686921 0.248524
0.952669 0.688411 0.249882
0.962539 0.689008 0.250426
0.962539 0.689008 0.250426
0.266775 0.672980 0.216222
0.287074 0.674209 0.217341
0.307752 0.675460 0.218481
0.328757 0.676731 0.219638
0.350047 0.678020 0.220812
0.371592 0.679323 0.222000
0.393367 0.680641 0.223200
0.415352 0.681972 0.224412
0.437531 0.683314 0.225634
0.459890 0.684667 0.226867
0.482415 0.686030 0.228109
0.505098 0.687403 0.229359
0.527928 0.688784 0.230617
0.550898 0.690174 0.231884
0.574000 0.691572 0.233157
0.597227 0.692978 0.234437
0.620575 0.694391 0.235724
0.644037 0.695811 0.237018
0.667609 0.697237 0.238317
0.691287 0.698670 0.239622
0.715066 0.700109 0.240933
0.738942 0.701554 0.242249
0.762913 0.703005 0.243571
0.786974 0.704461 0.244897
0.811124 0.705922 0.246228
0.835358 0.707389 0.247564
0.859675 0.708860 0.248905
0.884073 0.710337 0.250249
0.908547 0.711818 0.251599
0.933098 0.713304 0.252952
0.957722 0.714794 0.254309
0.967592 0.715391 0.254853
0.967592 0.715391 0.254853
0.271848 0.699467 0.220667
0.292147 0.700695 0.221786
0.312826 0.701947 0.222926
0.333830 0.703218 0.224083
0.355120 0.704506 0.225257
0.376665 0.705810 0.226445
0.398440 0.707128 0.227645
0.420425 0.708458 0.228857
0.442604 0.709801 0.230080
0.464963 0.711154 0.231312
0.487488 0.712517 0.232554
0.510171 0.713889 0.233804
0.533001 0.715271 0.235063
0.555971 0.716661 0.236329
0.579073 0.718059 0.237602
0.602301 0.719465 0.238883
0.625648 0.720878 0.240170
0.649111 0.722298 0.241463
0.672683 0.723724 0.242762
0.696360 0.725157 0.244068
0.720139 0.726596 0.245378
0.744016 0.728041 0.246694
0.767986 0.729491 0.248016
0.792048 0.730948 0.249342
0.816197 0.732409 0.250673
0.840432 0.733876 0.252009
0.864749 0.735347 0.253350
0.889146 0.736824 0.254695
0.913621 0.738305 0.256044
0.938171 0.739790 0.257397
0.962795 0.741281 0.258754
0.972665 0.741878 0.259298
0.972665 0.741878 0.259298
0.276940 0.726054 0.225129
0.297239 0.727283 0.226248
0.317918 0.728534 0.227388
0.338922 0.729805 0.228545
0.360212 0.731093 0.229719
0.381757 0.732397 0.230907
0.403533 0.733715 0.232107
0.425518 0.735046 0.233319
0.447697 0.736388 0.234541
0.470055 0.737741 0.235774
0.492581 0.739104 0.237016
0.515263 0.740477 0.238266
0.538094 0.741858 0.239524
0.561063 0.743248 0.240791
0.584165 0.744646 0.242064
0.607393 0.746052 0.243345
0.630741 0.747465 0.244632
0.654203 0.748885 0.245925
0.677775 0.750311 0.247224
0.701453 0.751744 0.248529
0.725232 0.753183 0.249840
0.749108 0.754628 0.251156
0.773079 0.756079 0.252478
0.797140 0.757535 0.253804
0.821290 0.758996 0.255135
0.845524 0.760463 0.256471
0.869841 0.761934 0.257812
0.894238 0.763411 0.259157
0.918713 0.764892 0.260506
0.943264 0.766378 0.261859
0.967888 0.767868 0.263216
0.977758 0.768465 0.263760
0.977758 0.768465 0.263760
0.282051 0.752739 0.229607
0.302350 0.753967 0.230726
0.323029 0.755218 0.231866
0.344033 0.756489 0.233024
0.365324 0.757778 0.234197
0.386868 0.759082 0.235385
0.408644 0.760399 0.236585
0.430629 0.761730 0.237797
0.452808 0.763072 0.239020
0.475166 0.764425 0.240252
0.497692 0.765788 0.241494
0.520374 0.767161 0.242744
0.543205 0.768543 0.244003
0.566174 0.769933 0.245269
0.589276 0.771331 0.246542
0.612504 0.772736 0.247823
0.635852 0.774149 0.249110
0.659314 0.775569 0.250403
0.682886 0.776996 0.251703
0.706564 0.778428 0.253008
0.730343 0.779867 0.254319
0.754219 0.781312 0.255635
0.778190 0.782763 0.256956
0.802251 0.784219 0.258282
0.826401 0.785681 0.259614
0.850635 0.787147 0.260950
0.874952 0.788619 0.262290
0.899349 0.790095 0.263635
0.923824 0.791576 0.264984
0.948375 0.793062 0.266337
0.972999 0.794552 0.267695
0.982869 0.795149 0.268239
0.982869 0.795149 0.268239
0.287181 0.779517 0.234101
0.307479 0.780745 0.235220
0.328158 0.781997 0.236360
0.349163 0.783268 0.237518
0.370453 0.784556 0.238691
0.391998 0.785860 0.239879
0.413773 0.787178 0.241079
0.435758 0.788508 0.242291
0.457937 0.789850 0.243514
0.480295 0.791204 0.244746
0.502821 0.792567 0.245988
0.525504 0.793939 0.247238
0.548334 0.795321 0.248497
0.571303 0.796711 0.249763
0.594405 0.798109 0.251036
0.617633 0.799515 0.252317
0.640981 0.800928 0.253604
0.664443 0.802347 0.254897
0.688015 0.803774 0.256197
0.711693 0.805207 0.257502
0.735472 0.806646 0.258813
0.759348 0.808091 0.260129
0.783319 0.809541 0.261450
0.807380 0.810998 0.262776
0.831530 0.812459 0.264108
0.855764 0.813926 0.265444
0.880081 0.815397 0.266784
0.904478 0.816874 0.268129
0.928953 0.818355 0.269478
0.953504 0.819840 0.270831
0.978128 0.821331 0.272189
0.987998 0.821928 0.272733
0.987998 0.821928 0.272733
0.292327 0.806387 0.238610
0.312626 0.807615 0.239729
0.333305 0.808866 0.240869
0.354309 0.810137 0.242027
0.375599 0.811426 0.243201
0.397144 0.812730 0.244388
0.418919 0.814047 0.245589
0.440905 0.815378 0.246801
0.463084 0.816720 0.248023
0.485442 0.818073 0.249256
0.507968 0.819436 0.250497
0.530650 0.820809 0.251748
0.553480 0.822191 0.253006
0.576450 0.823581 0.254272
0.599552 0.824979 0.255546
0.622780 0.826384 0.256826
0.646127 0.827797 0.258113
0.669590 0.829217 0.259407
0.693162 0.830644 0.260706
0.716839 0.832076 0.262011
