library/cube/Film_Ghost_004.cube
# CINEGRADE LAB — Premium Cinematic LUT
# Title: Film Ghost
# Category: Vintage Film Lab
# Description: Faded, grainy, color-shifted retro film lab aesthetic
# Mood: Retro, faded, nostalgic
# Variant: 5
# Generated: 2026-05-21T16:12:33.532700
TITLE "Film Ghost"
LUT_3D_SIZE 5
0.195355 0.180208 0.170921
0.338594 0.195101 0.186061
0.495705 0.211515 0.202751
0.661601 0.228917 0.220461
0.777558 0.241100 0.233008
0.243215 0.357205 0.221998
0.385601 0.372055 0.237268
0.541896 0.388431 0.254098
0.707060 0.405802 0.271963
0.822705 0.417970 0.284668
0.296360 0.551714 0.278654
0.438134 0.566553 0.294091
0.593872 0.582926 0.311102
0.758579 0.600301 0.329160
0.872746 0.612486 0.342060
0.353147 0.757616 0.339243
0.494556 0.772483 0.354887
0.650008 0.788892 0.372119
0.814539 0.806312 0.390413
0.929072 0.818554 0.403545
0.392935 0.902495 0.382979
0.534245 0.917444 0.398852
0.689693 0.933939 0.416327
0.854268 0.951425 0.434878
0.970188 0.963783 0.448260
0.200186 0.185266 0.302523
0.343328 0.200158 0.317682
0.500344 0.216573 0.334399
0.666154 0.233976 0.352148
0.782069 0.246162 0.364742
0.248051 0.362247 0.353701
0.390365 0.377100 0.369021
0.546592 0.393479 0.385913
0.711697 0.410854 0.403849
0.827323 0.423027 0.416633
0.301220 0.556751 0.410567
0.442947 0.571596 0.426088
0.598645 0.587975 0.443193
0.763322 0.605357 0.461355
0.877453 0.617549 0.474366
0.358054 0.762662 0.471478
0.499441 0.777538 0.487238
0.654880 0.793957 0.504597
0.819409 0.811386 0.523026
0.934073 0.823638 0.536303
0.397917 0.907568 0.515640
0.539229 0.922528 0.531661
0.694691 0.939021 0.549295
0.859303 0.956534 0.568015
0.975311 0.968910 0.581572
0.205542 0.190840 0.447306
0.348588 0.205733 0.462491
0.505511 0.222148 0.479245
0.671236 0.239552 0.497042
0.787112 0.251739 0.509693
0.253410 0.367806 0.498613
0.395653 0.382661 0.513995
0.551814 0.399044 0.530959
0.716864 0.416423 0.548977
0.832471 0.428600 0.561854
0.306603 0.562306 0.555729
0.448284 0.577156 0.571347
0.603944 0.593542 0.588559
0.768593 0.610930 0.606839
0.882698 0.623130 0.619978
0.363483 0.768226 0.617009
0.504850 0.783111 0.632901
0.660278 0.799539 0.650403
0.824810 0.816978 0.668987
0.939603 0.829240 0.682427
0.403422 0.913159 0.661655
0.544740 0.928131 0.677844
0.700217 0.944627 0.695657
0.864871 0.962165 0.714566
0.980954 0.974554 0.728321
0.211237 0.196749 0.600653
0.354189 0.211642 0.615871
0.511021 0.228058 0.632670
0.676664 0.245463 0.650523
0.792501 0.257652 0.663241
0.259108 0.373700 0.652117
0.401283 0.388559 0.667570
0.557380 0.404945 0.684616
0.722376 0.422327 0.702728
0.837763 0.434509 0.715709
0.312325 0.568197 0.709517
0.453963 0.583053 0.725243
0.609587 0.599445 0.742575
0.774212 0.616840 0.760986
0.888305 0.629047 0.774266
0.369254 0.774127 0.771208
0.510604 0.789021 0.787246
0.666023 0.805458 0.804905
0.830528 0.822907 0.823658
0.945485 0.835180 0.837276
0.409270 0.919088 0.816386
0.550595 0.934069 0.832757
0.706092 0.950575 0.850765
0.870792 0.968135 0.869880
0.986935 0.980535 0.883851
0.215129 0.200883 0.708726
0.357993 0.215778 0.723980
0.514741 0.232195 0.740822
0.680307 0.249601 0.758726
0.796112 0.261794 0.771503
0.263018 0.377823 0.760340
0.405129 0.392685 0.775856
0.561169 0.409076 0.792972
0.726116 0.426462 0.811162
0.841295 0.438650 0.824229
0.316271 0.572319 0.817982
0.457871 0.587182 0.833797
0.613464 0.603581 0.851227
0.778068 0.620983 0.869744
0.892214 0.633199 0.883137
0.373257 0.778262 0.880007
0.514594 0.793165 0.895694
0.670009 0.809612 0.912277
0.834488 0.827071 0.929534
0.949625 0.839355 0.941714
0.413357 0.923253 0.922762
0.554693 0.938235 0.937470
0.710212 0.954766 0.953268
0.874963 0.972343 0.969600
0.991151 0.984751 0.980949
