library/cube/Film_Haven_001.cube
# CINEGRADE LAB — Premium Cinematic LUT
# Title: Film Haven
# Category: Analog Film
# Description: Film grain, muted colors, and vintage feel emulating classic film stocks
# Mood: Nostalgic, warm, organic
# Variant: 2
# Generated: 2026-05-21T16:12:14.398428
TITLE "Film Haven"
LUT_3D_SIZE 5
0.166843 0.151249 0.128663
0.337600 0.161583 0.138076
0.520644 0.172660 0.148166
0.711193 0.184191 0.158669
0.867661 0.193660 0.167295
0.202983 0.339930 0.160328
0.373739 0.350264 0.169741
0.556783 0.361341 0.179831
0.747332 0.372872 0.190335
0.903800 0.382341 0.198960
0.241723 0.542188 0.194272
0.412479 0.552521 0.203684
0.595523 0.563599 0.213774
0.786072 0.575130 0.224278
0.942540 0.584599 0.232903
0.282051 0.752739 0.229607
0.452808 0.763072 0.239020
0.635852 0.774149 0.249110
0.826401 0.785681 0.259614
0.982869 0.795149 0.268239
0.315167 0.925631 0.258622
0.485923 0.935964 0.268035
0.668967 0.947042 0.278125
0.859516 0.958573 0.288629
1.000000 0.968042 0.297254
0.170492 0.154759 0.272062
0.341248 0.165092 0.281475
0.524292 0.176169 0.291565
0.714841 0.187701 0.302069
0.871309 0.197170 0.310694
0.206631 0.343439 0.303727
0.377388 0.353773 0.313140
0.560432 0.364850 0.323230
0.750980 0.376381 0.333734
0.907448 0.385850 0.342359
0.245371 0.545697 0.337671
0.416128 0.556031 0.347083
0.599172 0.567108 0.357173
0.789720 0.578639 0.367677
0.946188 0.588108 0.376302
0.285700 0.756248 0.373006
0.456456 0.766581 0.382419
0.639500 0.777659 0.392509
0.830049 0.789190 0.403013
0.986517 0.798659 0.411638
0.318815 0.929140 0.402021
0.489572 0.939474 0.411434
0.672616 0.950551 0.421524
0.863164 0.962082 0.432028
1.000000 0.971551 0.440653
0.174403 0.158521 0.425780
0.345159 0.168854 0.435192
0.528203 0.179931 0.445283
0.718752 0.191463 0.455786
0.875220 0.200932 0.464411
0.210542 0.347201 0.457445
0.381299 0.357535 0.466858
0.564342 0.368612 0.476948
0.754891 0.380143 0.487451
0.911359 0.389612 0.496077
0.249282 0.549459 0.491388
0.420039 0.559793 0.500801
0.603082 0.570870 0.510891
0.793631 0.582401 0.521395
0.950099 0.591870 0.530020
0.289611 0.760010 0.526724
0.460367 0.770343 0.536137
0.643411 0.781420 0.546227
0.833960 0.792952 0.556730
0.990428 0.802421 0.565356
0.322726 0.932902 0.555739
0.493483 0.943236 0.565152
0.676526 0.954313 0.575242
0.867075 0.965844 0.585746
1.000000 0.975313 0.594371
0.178474 0.162437 0.585800
0.349230 0.172770 0.595213
0.532274 0.183847 0.605303
0.722823 0.195379 0.615807
0.879291 0.204848 0.624432
0.214613 0.351117 0.617465
0.385370 0.361451 0.626878
0.568414 0.372528 0.636968
0.758962 0.384059 0.647472
0.915430 0.393528 0.656097
0.253353 0.553375 0.651409
0.424110 0.563709 0.660822
0.607154 0.574786 0.670912
0.797702 0.586317 0.681415
0.954171 0.595786 0.690041
0.293682 0.763926 0.686744
0.464438 0.774259 0.696157
0.647482 0.785336 0.706247
0.838031 0.796868 0.716751
0.994499 0.806337 0.725376
0.326797 0.936818 0.715760
0.497554 0.947152 0.725172
0.680598 0.958229 0.735263
0.871146 0.969760 0.745766
1.000000 0.979229 0.754391
0.181817 0.165652 0.717200
0.352573 0.175986 0.726613
0.535617 0.187063 0.736703
0.726166 0.198594 0.747207
0.882634 0.208063 0.755832
0.217956 0.354333 0.748865
0.388713 0.364667 0.758278
0.571757 0.375744 0.768368
0.762305 0.387275 0.778872
0.918773 0.396744 0.787497
0.256696 0.556591 0.782809
0.427453 0.566924 0.792221
0.610497 0.578002 0.802312
0.801046 0.589533 0.812815
0.957514 0.599002 0.821440
0.297025 0.767141 0.818144
0.467781 0.777475 0.827557
0.650825 0.788552 0.837647
0.841374 0.800083 0.848151
0.997842 0.809552 0.856776
0.330140 0.940034 0.847160
0.500897 0.950367 0.856572
0.683941 0.961445 0.866662
0.874489 0.972976 0.877166
1.000000 0.982445 0.885791
