library/cube/Film_Ghost_004.cube
# CINEGRADE LAB — Premium Cinematic LUT
# Title: Film Ghost
# Category: Vintage Film Lab
# Description: Faded, grainy, color-shifted retro film lab aesthetic
# Mood: Retro, faded, nostalgic
# Variant: 5
# Generated: 2026-05-21T16:12:33.532700
TITLE "Film Ghost"
LUT_3D_SIZE 33
0.195355 0.180208 0.170921
0.212135 0.181948 0.172691
0.229310 0.183731 0.174504
0.246833 0.185551 0.176354
0.264667 0.187404 0.178238
0.282783 0.189288 0.180153
0.301155 0.191200 0.182097
0.319765 0.193138 0.184067
0.338594 0.195101 0.186061
0.357629 0.197085 0.188079
0.376855 0.199091 0.190118
0.396263 0.201117 0.192177
0.415842 0.203162 0.194257
0.435584 0.205225 0.196354
0.455479 0.207306 0.198470
0.475522 0.209402 0.200602
0.495705 0.211515 0.202751
0.516022 0.213642 0.204915
0.536469 0.215785 0.207094
0.557039 0.217941 0.209288
0.577729 0.220111 0.211496
0.598534 0.222294 0.213718
0.619450 0.224489 0.215953
0.640474 0.226697 0.218201
0.661601 0.228917 0.220461
0.682830 0.231148 0.222734
0.704156 0.233391 0.225018
0.725576 0.235644 0.227314
0.747089 0.237908 0.229622
0.768692 0.240183 0.231940
0.778078 0.241168 0.232973
0.777817 0.241134 0.232990
0.777558 0.241100 0.233008
0.200922 0.200929 0.176877
0.217687 0.202668 0.178649
0.234848 0.204450 0.180463
0.252356 0.206269 0.182315
0.270175 0.208122 0.184201
0.288275 0.210005 0.186118
0.306632 0.211916 0.188063
0.325227 0.213853 0.190035
0.344041 0.215815 0.192031
0.363061 0.217799 0.194051
0.382273 0.219804 0.196092
0.401667 0.221829 0.198153
0.421231 0.223873 0.200234
0.440958 0.225936 0.202334
0.460839 0.228015 0.204451
0.480867 0.230111 0.206585
0.501036 0.232223 0.208736
0.521340 0.234350 0.210902
0.541773 0.236491 0.213084
0.562330 0.238647 0.215280
0.583006 0.240816 0.217490
0.603798 0.242998 0.219714
0.624701 0.245193 0.221951
0.645712 0.247400 0.224202
0.666827 0.249619 0.226464
0.688043 0.251850 0.228739
0.709356 0.254092 0.231026
0.730765 0.256345 0.233324
0.752267 0.258609 0.235634
0.773858 0.260883 0.237954
0.783242 0.261867 0.238989
0.782987 0.261833 0.239009
0.782733 0.261799 0.239028
0.206633 0.222142 0.182981
0.223384 0.223880 0.184754
0.240531 0.225661 0.186570
0.258024 0.227479 0.188424
0.275829 0.229331 0.190312
0.293914 0.231213 0.192230
0.312257 0.233124 0.194178
0.330837 0.235060 0.196151
0.349637 0.237021 0.198150
0.368643 0.239004 0.200171
0.387840 0.241008 0.202214
0.407220 0.243033 0.204277
0.426770 0.245076 0.206360
0.446483 0.247138 0.208462
0.466350 0.249217 0.210582
0.486365 0.251312 0.212718
0.506520 0.253423 0.214871
0.526811 0.255549 0.217039
0.547230 0.257690 0.219223
0.567774 0.259845 0.221421
0.588438 0.262014 0.223634
0.609217 0.264195 0.225860
0.630108 0.266389 0.228099
0.651106 0.268596 0.230352
0.672209 0.270815 0.232617
0.693413 0.273045 0.234894
0.714715 0.275286 0.237183
0.736112 0.277539 0.239483
0.757602 0.279802 0.241795
0.779182 0.282075 0.244118
0.788565 0.283059 0.245156
0.788316 0.283025 0.245177
0.788069 0.282992 0.245199
0.212473 0.243787 0.189216
0.229210 0.245525 0.190991
0.246342 0.247305 0.192809
0.263822 0.249122 0.194664
0.281612 0.250973 0.196554
0.299684 0.252855 0.198475
0.318013 0.254765 0.200424
0.336579 0.256701 0.202400
0.355365 0.258660 0.204400
0.374356 0.260643 0.206423
0.393540 0.262647 0.208468
0.412906 0.264670 0.210534
0.432443 0.266713 0.212619
0.452142 0.268774 0.214723
0.471996 0.270852 0.216844
0.491997 0.272947 0.218983
0.512140 0.275057 0.221138
0.532417 0.277183 0.223309
0.552824 0.279323 0.225495
0.573356 0.281477 0.227695
0.594007 0.283645 0.229910
0.614774 0.285826 0.232138
0.635653 0.288020 0.234380
0.656639 0.290226 0.236635
0.677730 0.292444 0.238902
0.698923 0.294674 0.241182
0.720214 0.296915 0.243473
0.741600 0.299167 0.245776
0.763080 0.301429 0.248091
0.784649 0.303702 0.250416
0.794031 0.304686 0.251456
0.793788 0.304652 0.251480
0.793547 0.304619 0.251504
0.218428 0.265821 0.195570
0.235152 0.267558 0.197347
0.252270 0.269337 0.199166
0.269736 0.271154 0.201024
0.287513 0.273004 0.202916
0.305571 0.274885 0.204839
0.323886 0.276794 0.206790
0.342439 0.278729 0.208768
0.361211 0.280688 0.210770
0.380189 0.282670 0.212795
0.399360 0.284673 0.214843
0.418712 0.286696 0.216910
0.438236 0.288739 0.218998
0.457922 0.290799 0.221103
0.477763 0.292876 0.223227
0.497752 0.294970 0.225368
0.517882 0.297080 0.227525
0.538147 0.299205 0.229698
0.558542 0.301345 0.231886
0.579061 0.303499 0.234089
0.599701 0.305666 0.236306
0.620456 0.307847 0.238537
0.641323 0.310040 0.240781
0.662299 0.312246 0.243039
0.683379 0.314463 0.245308
0.704560 0.316692 0.247590
0.725841 0.318933 0.249884
0.747217 0.321184 0.252190
0.768686 0.323446 0.254507
0.790246 0.325719 0.256835
0.799626 0.326703 0.257877
0.799389 0.326669 0.257903
0.799154 0.326635 0.257929
0.224487 0.288207 0.202032
0.241198 0.289943 0.203811
0.258303 0.291721 0.205633
0.275756 0.293538 0.207493
0.293520 0.295387 0.209387
0.311565 0.297268 0.211312
0.329867 0.299176 0.213265
0.348406 0.301110 0.215245
0.367166 0.303069 0.217249
0.386131 0.305050 0.219277
0.405288 0.307053 0.221326
0.424628 0.309075 0.223396
0.444139 0.311117 0.225486
0.463813 0.313176 0.227594
0.483642 0.315253 0.229720
0.503618 0.317347 0.231863
0.523736 0.319456 0.234022
0.543989 0.321581 0.236198
0.564372 0.323720 0.238388
0.584880 0.325873 0.240594
0.605508 0.328040 0.242813
0.626253 0.330220 0.245046
0.647109 0.332413 0.247293
0.668074 0.334618 0.249553
0.689143 0.336835 0.251825
0.710315 0.339064 0.254109
0.731585 0.341304 0.256406
0.752951 0.343555 0.258714
0.774411 0.345817 0.261034
0.795961 0.348090 0.263365
0.805341 0.349073 0.264409
0.805110 0.349039 0.264437
0.804882 0.349006 0.264466
0.230642 0.310915 0.208596
0.247341 0.312651 0.210377
0.264434 0.314429 0.212201
0.281874 0.316244 0.214062
0.299625 0.318093 0.215958
0.317657 0.319973 0.217885
0.335946 0.321881 0.219841
0.354473 0.323815 0.221823
0.373220 0.325773 0.223830
0.392172 0.327753 0.225859
0.411318 0.329755 0.227911
0.430645 0.331777 0.229983
0.450144 0.333818 0.232075
0.469806 0.335877 0.234186
0.489623 0.337954 0.236314
0.509588 0.340047 0.238459
0.529694 0.342156 0.240621
0.549936 0.344280 0.242799
0.570308 0.346419 0.244992
0.590805 0.348572 0.247200
0.611422 0.350738 0.249422
0.632156 0.352918 0.251658
0.653002 0.355110 0.253907
0.673957 0.357315 0.256169
0.695016 0.359532 0.258444
0.716178 0.361760 0.260731
0.737439 0.364000 0.263030
0.758796 0.366251 0.265341
0.780246 0.368512 0.267664
0.801788 0.370784 0.269997
0.811167 0.371768 0.271044
0.810943 0.371734 0.271075
0.810720 0.371701 0.271106
0.236887 0.333922 0.215253
0.253573 0.335657 0.217036
0.270654 0.337434 0.218862
0.288082 0.339249 0.220726
0.305821 0.341097 0.222624
0.323840 0.342977 0.224553
0.342118 0.344884 0.226511
0.360632 0.346817 0.228495
0.379367 0.348775 0.230504
0.398308 0.350755 0.232536
0.417441 0.352756 0.234590
0.436757 0.354778 0.236665
0.456244 0.356818 0.238759
0.475895 0.358877 0.240872
0.495700 0.360953 0.243003
0.515654 0.363046 0.245151
0.535749 0.365154 0.247315
0.555980 0.367278 0.249496
0.576342 0.369417 0.251691
0.596828 0.371569 0.253901
0.617435 0.373735 0.256126
0.638159 0.375915 0.258364
0.658995 0.378107 0.260616
0.679940 0.380311 0.262881
0.700990 0.382528 0.265159
0.722143 0.384756 0.267448
0.743395 0.386995 0.269750
0.764743 0.389246 0.272064
0.786185 0.391507 0.274389
0.807718 0.393779 0.276725
0.817098 0.394763 0.277775
0.816879 0.394729 0.277808
0.816663 0.394696 0.277842
0.243215 0.357205 0.221998
0.259890 0.358940 0.223783
0.276959 0.360717 0.225611
0.294375 0.362531 0.227478
0.312102 0.364379 0.229378
0.330110 0.366258 0.231310
0.348375 0.368165 0.233270
0.366878 0.370098 0.235256
0.385601 0.372055 0.237268
0.404530 0.374034 0.239302
0.423653 0.376035 0.241358
0.442957 0.378056 0.243435
0.462433 0.380097 0.245532
0.482073 0.382155 0.247648
0.501868 0.384231 0.249781
0.521811 0.386323 0.251931
0.541896 0.388431 0.254098
0.562116 0.390555 0.256281
0.582468 0.392693 0.258479
0.602944 0.394845 0.260692
0.623542 0.397011 0.262920
0.644256 0.399190 0.265161
0.665082 0.401382 0.267415
0.686018 0.403586 0.269683
0.707060 0.405802 0.271963
0.728204 0.408030 0.274256
0.749447 0.410270 0.276560
0.770787 0.412520 0.278877
0.792221 0.414781 0.281205
0.813747 0.417053 0.283544
0.823127 0.418037 0.284596
0.822914 0.418003 0.284632
0.822705 0.417970 0.284668
0.249621 0.380748 0.228826
0.266285 0.382482 0.230614
0.283342 0.384259 0.232444
0.300747 0.386073 0.234313
0.318463 0.387920 0.236216
0.336460 0.389799 0.238149
0.354714 0.391705 0.240112
0.373205 0.393638 0.242101
0.391918 0.395594 0.244115
0.410836 0.397574 0.246152
0.429947 0.399574 0.248210
0.449241 0.401595 0.250290
0.468706 0.403635 0.252389
0.488335 0.405693 0.254507
0.508120 0.407769 0.256643
0.528053 0.409861 0.258796
0.548128 0.411968 0.260966
0.568339 0.414092 0.263151
0.588681 0.416229 0.265352
0.609148 0.418381 0.267568
0.629736 0.420547 0.269798
0.650441 0.422726 0.272042
0.671259 0.424918 0.274299
0.692187 0.427122 0.276569
0.713220 0.429338 0.278852
0.734356 0.431566 0.281148
0.755591 0.433805 0.283456
0.776923 0.436056 0.285775
0.798350 0.438317 0.288106
0.819868 0.440588 0.290448
0.829249 0.441572 0.291503
0.829043 0.441539 0.291541
0.828840 0.441506 0.291580
0.256102 0.404535 0.235733
0.272754 0.406269 0.237523
0.289801 0.408045 0.239356
0.307195 0.409858 0.241227
0.324900 0.411706 0.243132
0.342886 0.413584 0.245068
0.361129 0.415490 0.247033
0.379610 0.417422 0.249025
0.398312 0.419378 0.251041
0.417220 0.421357 0.253081
0.436321 0.423358 0.255142
0.455604 0.425378 0.257224
0.475059 0.427418 0.259326
0.494679 0.429476 0.261447
0.514453 0.431551 0.263585
0.534377 0.433643 0.265741
0.554442 0.435751 0.267913
0.574644 0.437874 0.270102
0.594977 0.440011 0.272305
0.615435 0.442163 0.274524
0.636015 0.444329 0.276756
0.656711 0.446507 0.279003
0.677521 0.448699 0.281263
0.698441 0.450903 0.283536
0.719466 0.453119 0.285822
0.740594 0.455347 0.288121
0.761822 0.457586 0.290431
0.783148 0.459837 0.292754
0.804567 0.462098 0.295088
0.826079 0.464369 0.297433
0.835422 0.465353 0.298491
0.835223 0.465320 0.298531
0.835028 0.465288 0.298573
0.262652 0.428552 0.242715
0.279295 0.430285 0.244508
0.296331 0.432061 0.246343
0.313715 0.433875 0.248217
0.331409 0.435722 0.250124
0.349385 0.437599 0.252063
0.367618 0.439505 0.254031
0.386089 0.441437 0.256025
0.404780 0.443393 0.258043
0.423678 0.445372 0.260086
0.442769 0.447372 0.262150
0.462043 0.449393 0.264234
0.481489 0.451432 0.266339
0.501098 0.453490 0.268462
0.520864 0.455565 0.270603
0.540778 0.457656 0.272762
0.560835 0.459764 0.274937
0.581028 0.461887 0.277128
0.601352 0.464025 0.279335
0.621802 0.466176 0.281556
0.642374 0.468342 0.283792
0.663062 0.470521 0.286041
0.683865 0.472712 0.288304
0.704777 0.474916 0.290581
0.725795 0.477132 0.292870
0.746916 0.479360 0.295171
0.768137 0.481599 0.297485
0.789456 0.483850 0.299810
0.810870 0.486111 0.302147
0.832375 0.488383 0.304495
0.841355 0.489367 0.305556
0.841172 0.489334 0.305599
0.840991 0.489302 0.305643
0.269270 0.452788 0.249770
0.285903 0.454521 0.251564
0.302929 0.456296 0.253402
0.320303 0.458109 0.255278
0.337987 0.459956 0.257189
0.355953 0.461834 0.259130
0.374176 0.463739 0.261100
0.392638 0.465671 0.263097
0.411319 0.467627 0.265118
0.430208 0.469606 0.267163
0.449289 0.471606 0.269230
0.468554 0.473626 0.271317
0.487991 0.475665 0.273425
0.507592 0.477723 0.275551
0.527349 0.479798 0.277695
0.547254 0.481889 0.279856
0.567303 0.483997 0.282034
0.587487 0.486120 0.284228
0.607804 0.488257 0.286438
0.628246 0.490409 0.288662
0.648810 0.492575 0.290900
0.669491 0.494754 0.293153
0.690286 0.496945 0.295419
0.711191 0.499149 0.297698
0.732203 0.501365 0.299991
0.753318 0.503593 0.302295
0.774533 0.505833 0.304612
0.795846 0.508083 0.306940
0.817254 0.510344 0.309281
0.838501 0.512616 0.311632
0.847425 0.513601 0.312696
0.847257 0.513569 0.312742
0.847091 0.513537 0.312788
0.275952 0.477230 0.256893
0.292575 0.478963 0.258690
0.309592 0.480739 0.260531
0.326957 0.482552 0.262409
0.344631 0.484398 0.264322
0.362588 0.486276 0.266266
0.380802 0.488181 0.268239
0.399254 0.490113 0.270239
0.417927 0.492069 0.272263
0.436806 0.494047 0.274310
0.455879 0.496047 0.276380
0.475135 0.498068 0.278470
0.494563 0.500107 0.280580
0.514156 0.502165 0.282709
0.533904 0.504240 0.284856
0.553802 0.506331 0.287021
0.573843 0.508439 0.289202
0.594020 0.510562 0.291399
0.614328 0.512699 0.293611
0.634763 0.514851 0.295838
0.655320 0.517017 0.298080
0.675995 0.519196 0.300336
0.696784 0.521387 0.302605
0.717682 0.523591 0.304887
0.738688 0.525808 0.307183
0.759797 0.528036 0.309490
0.781006 0.530275 0.311810
0.802314 0.532526 0.314142
0.823716 0.534788 0.316485
0.844655 0.537060 0.318840
0.853628 0.538045 0.319907
0.853474 0.538013 0.319955
0.853322 0.537982 0.320005
0.282696 0.501871 0.264083
0.299310 0.503604 0.265883
0.316318 0.505379 0.267726
0.333673 0.507192 0.269607
0.351339 0.509039 0.271523
0.369287 0.510916 0.273470
0.387492 0.512822 0.275445
0.405935 0.514754 0.277448
0.424600 0.516709 0.279475
0.443470 0.518688 0.281525
0.462535 0.520688 0.283597
0.481783 0.522708 0.285691
0.501203 0.524748 0.287804
0.520788 0.526805 0.289936
0.540529 0.528880 0.292086
0.560419 0.530972 0.294253
0.580452 0.533080 0.296437
0.600622 0.535203 0.298637
0.620924 0.537340 0.300852
0.641353 0.539492 0.303083
0.661903 0.541658 0.305328
0.682572 0.543837 0.307586
0.703354 0.546029 0.309859
0.724247 0.548234 0.312144
0.745247 0.550450 0.314443
0.766350 0.552678 0.316754
0.787555 0.554918 0.319077
0.808857 0.557169 0.321412
0.830255 0.559431 0.323759
0.850938 0.561703 0.326117
0.859957 0.562689 0.327187
0.859816 0.562658 0.327238
0.859678 0.562627 0.327290
0.289499 0.526702 0.271337
0.306105 0.528435 0.273140
0.323105 0.530210 0.274986
0.340451 0.532023 0.276870
0.358109 0.533869 0.278788
0.376048 0.535747 0.280738
0.394245 0.537652 0.282716
0.412680 0.539584 0.284721
0.431336 0.541540 0.286751
0.450199 0.543519 0.288805
0.469256 0.545519 0.290880
0.488496 0.547539 0.292976
0.507908 0.549578 0.295092
0.527486 0.551636 0.297227
0.547220 0.553711 0.299380
0.567103 0.555803 0.301551
0.587129 0.557911 0.303738
0.607293 0.560034 0.305941
0.627588 0.562172 0.308159
0.648011 0.564325 0.310393
0.668555 0.566491 0.312641
0.689218 0.568670 0.314903
0.709995 0.570862 0.317179
0.730883 0.573067 0.319468
0.751878 0.575284 0.321770
0.772977 0.577512 0.324084
0.794177 0.579752 0.326410
0.815475 0.582004 0.328749
0.836680 0.584266 0.331099
0.857344 0.586539 0.333461
0.866407 0.587525 0.334534
0.866280 0.587494 0.334588
0.866155 0.587465 0.334643
0.296360 0.551714 0.278654
0.312958 0.553447 0.280459
0.329950 0.555222 0.282308
0.347288 0.557035 0.284195
0.364938 0.558882 0.286116
0.382869 0.560759 0.288069
0.401058 0.562665 0.290050
0.419485 0.564597 0.292058
0.438134 0.566553 0.294091
0.456989 0.568532 0.296147
0.476039 0.570532 0.298226
0.495271 0.572552 0.300325
0.514677 0.574592 0.302444
0.534248 0.576650 0.304582
0.553975 0.578725 0.306738
0.573852 0.580817 0.308912
0.593872 0.582926 0.311102
0.614030 0.585049 0.313308
0.634320 0.587187 0.315530
0.654736 0.589340 0.317767
0.675276 0.591506 0.320018
0.695933 0.593686 0.322284
0.716705 0.595878 0.324563
0.737588 0.598083 0.326855
0.758579 0.600301 0.329160
0.779673 0.602530 0.331478
0.800869 0.604770 0.333808
0.822164 0.607022 0.336150
0.843124 0.609285 0.338504
0.863869 0.611558 0.340869
0.872974 0.612545 0.341945
0.872859 0.612515 0.342002
0.872746 0.612486 0.342060
0.303277 0.576901 0.286031
0.319867 0.578633 0.287839
0.336851 0.580409 0.289691
0.354182 0.582222 0.291581
0.371824 0.584069 0.293505
0.389748 0.585947 0.295460
0.407930 0.587852 0.297445
0.426350 0.589784 0.299456
0.444991 0.591741 0.301492
0.463840 0.593720 0.303551
0.482883 0.595720 0.305632
0.502109 0.597741 0.307735
0.521508 0.599781 0.309857
0.541072 0.601839 0.311998
0.560794 0.603915 0.314158
0.580665 0.606007 0.316335
0.600679 0.608116 0.318528
0.620831 0.610240 0.320738
0.641116 0.612378 0.322963
0.661527 0.614531 0.325203
0.682062 0.616698 0.327458
0.702715 0.618878 0.329727
0.723483 0.621071 0.332009
0.744362 0.623276 0.334305
0.765348 0.625494 0.336614
0.786439 0.627724 0.338935
0.807632 0.629965 0.341268
0.828923 0.632217 0.343614
0.849686 0.634480 0.345971
0.870508 0.636754 0.348340
0.879653 0.637741 0.349419
0.879550 0.637713 0.349479
0.879449 0.637684 0.349540
0.310248 0.602255 0.293467
0.326831 0.603988 0.295278
0.343808 0.605764 0.297133
0.361132 0.607578 0.299025
0.378767 0.609425 0.300953
0.396684 0.611303 0.302911
0.414859 0.613209 0.304899
0.433272 0.615141 0.306913
0.451907 0.617098 0.308952
0.470749 0.619077 0.311014
0.489786 0.621078 0.313099
0.509006 0.623099 0.315205
0.528399 0.625139 0.317330
0.547958 0.627198 0.319475
0.567673 0.629274 0.321637
0.587539 0.631367 0.323818
0.607549 0.633475 0.326014
0.627696 0.635600 0.328227
0.647975 0.637739 0.330456
0.668383 0.639892 0.332700
0.688913 0.642059 0.334958
0.709562 0.644240 0.337230
0.730326 0.646433 0.339516
0.751201 0.648640 0.341815
0.772184 0.650858 0.344128
0.793272 0.653088 0.346452
0.814462 0.655329 0.348790
0.835598 0.657582 0.351139
0.856361 0.659846 0.353500
0.877256 0.662120 0.355872
0.886438 0.663109 0.356955
0.886347 0.663081 0.357018
0.886257 0.663053 0.357082
0.317272 0.627772 0.300960
0.333849 0.629506 0.302774
0.350819 0.631282 0.304632
0.368136 0.633095 0.306528
0.385765 0.634943 0.308458
0.403675 0.636821 0.310420
0.421844 0.638728 0.312410
0.440251 0.640660 0.314428
0.458880 0.642617 0.316470
0.477716 0.644597 0.318536
0.496747 0.646598 0.320624
0.515961 0.648620 0.322733
0.535349 0.650660 0.324861
0.554903 0.652719 0.327009
0.574613 0.654796 0.329175
0.594474 0.656889 0.331359
0.614479 0.658999 0.333559
0.634622 0.661123 0.335776
0.654897 0.663263 0.338008
0.675300 0.665417 0.340255
0.695827 0.667585 0.342516
0.716473 0.669766 0.344792
0.737233 0.671960 0.347082
0.758106 0.674167 0.349385
0.779086 0.676386 0.351701
0.800172 0.678616 0.354029
0.821359 0.680859 0.356370
0.842310 0.683112 0.358723
0.863144 0.685377 0.361088
0.884108 0.687652 0.363464
0.893326 0.688641 0.364550
0.893245 0.688614 0.364616
0.893166 0.688587 0.364683
0.324348 0.653446 0.308509
0.340918 0.655180 0.310327
0.357882 0.656956 0.312187
0.375193 0.658770 0.314086
0.392816 0.660618 0.316020
0.410720 0.662497 0.317985
0.428883 0.664404 0.319978
0.447285 0.666337 0.321999
0.465908 0.668294 0.324045
0.484739 0.670275 0.326114
0.503764 0.672276 0.328205
0.522973 0.674298 0.330317
0.542357 0.676340 0.332450
0.561905 0.678399 0.334601
0.581612 0.680476 0.336770
0.601468 0.682570 0.338957
0.621469 0.684680 0.341161
0.641608 0.686805 0.343381
0.661880 0.688946 0.345617
0.682280 0.691100 0.347868
0.702803 0.693269 0.350133
0.723446 0.695450 0.352412
0.744204 0.697645 0.354706
0.765074 0.699852 0.357012
0.786052 0.702072 0.359332
0.807136 0.704304 0.361664
0.828322 0.706547 0.364009
0.849130 0.708801 0.366366
0.870031 0.711066 0.368734
0.891060 0.713342 0.371114
0.900312 0.714332 0.372204
0.900241 0.714306 0.372273
0.900172 0.714281 0.372343
0.331474 0.679272 0.316113
0.348039 0.681006 0.317934
0.364997 0.682783 0.319798
0.382303 0.684598 0.321700
0.399919 0.686446 0.323637
0.417819 0.688325 0.325605
0.435976 0.690232 0.327602
0.454372 0.692166 0.329626
0.472991 0.694124 0.331675
0.491816 0.696105 0.333747
0.510837 0.698107 0.335842
0.530042 0.700130 0.337958
0.549421 0.702171 0.340093
0.568966 0.704232 0.342248
0.588668 0.706309 0.344421
0.608521 0.708404 0.346612
0.628518 0.710514 0.348819
0.648654 0.712641 0.351043
0.668922 0.714781 0.353282
0.689320 0.716937 0.355537
0.709840 0.719106 0.357806
0.730481 0.721288 0.360089
0.751237 0.723484 0.362386
0.772105 0.725692 0.364696
0.793081 0.727912 0.367020
0.814163 0.730145 0.369356
0.835218 0.732389 0.371704
0.856053 0.734644 0.374065
0.877017 0.736910 0.376438
0.898108 0.739187 0.378822
0.907392 0.740178 0.379915
0.907330 0.740153 0.379987
0.907270 0.740128 0.380060
0.338650 0.705245 0.323771
0.355209 0.706980 0.325594
0.372162 0.708757 0.327462
0.389463 0.710572 0.329367
0.407075 0.712421 0.331307
0.424969 0.714301 0.333279
0.443121 0.716209 0.335279
0.461513 0.718143 0.337307
0.480127 0.720101 0.339359
0.498948 0.722083 0.341435
0.517965 0.724086 0.343533
0.537166 0.726109 0.345653
0.556541 0.728152 0.347792
0.576082 0.730212 0.349950
0.595781 0.732291 0.352127
0.615630 0.734386 0.354321
0.635625 0.736497 0.356532
0.655758 0.738624 0.358760
0.676024 0.740766 0.361003
0.696419 0.742922 0.363261
0.716937 0.745092 0.365534
0.737576 0.747275 0.367821
0.758330 0.749472 0.370122
0.779197 0.751681 0.372436
0.800173 0.753902 0.374763
0.821254 0.756135 0.377103
0.842179 0.758380 0.379456
0.863075 0.760636 0.381820
0.884098 0.762903 0.384197
0.905246 0.765181 0.386585
0.914560 0.766173 0.387682
0.914507 0.766149 0.387757
0.914456 0.766126 0.387834
0.345875 0.731361 0.331481
0.362429 0.733096 0.333308
0.379377 0.734874 0.335179
0.396673 0.736690 0.337087
0.414280 0.738539 0.339031
0.432170 0.740420 0.341006
0.450318 0.742328 0.343010
0.468706 0.744263 0.345041
0.487315 0.746223 0.347097
0.506133 0.748205 0.349176
0.525146 0.750208 0.351278
0.544343 0.752232 0.353401
0.563715 0.754276 0.355544
0.583253 0.756337 0.357706
0.602949 0.758417 0.359886
0.622796 0.760513 0.362084
0.642788 0.762625 0.364299
0.662919 0.764752 0.366530
0.683183 0.766895 0.368777
0.703576 0.769052 0.371039
0.724093 0.771223 0.373316
0.744731 0.773407 0.375607
0.765484 0.775604 0.377912
0.786350 0.777814 0.380230
0.807325 0.780037 0.382561
0.828407 0.782271 0.384905
0.849237 0.784516 0.387262
0.870191 0.786773 0.389631
0.891270 0.789042 0.392011
0.912472 0.791320 0.394403
0.921813 0.792314 0.395504
0.921768 0.792291 0.395583
0.921725 0.792269 0.395662
0.353147 0.757616 0.339243
0.369697 0.759352 0.341073
0.386641 0.761130 0.342947
0.403933 0.762947 0.344860
0.421536 0.764797 0.346807
0.439421 0.766678 0.348785
0.457566 0.768588 0.350793
0.475950 0.770523 0.352827
0.494556 0.772483 0.354887
0.513370 0.774466 0.356970
0.532380 0.776471 0.359075
0.551574 0.778496 0.361202
0.570944 0.780540 0.363349
0.590479 0.782602 0.365515
0.610173 0.784682 0.367699
0.630018 0.786779 0.369900
0.650008 0.788892 0.372119
0.670137 0.791021 0.374354
0.690400 0.793164 0.376605
0.710792 0.795322 0.378871
0.731308 0.797494 0.381151
0.751944 0.799679 0.383446
0.772697 0.801878 0.385755
0.793563 0.804089 0.388077
0.814539 0.806312 0.390413
0.835510 0.808547 0.392761
0.856390 0.810794 0.395122
0.877397 0.813052 0.397495
0.898528 0.815322 0.399879
0.919779 0.817602 0.402276
0.929146 0.818596 0.403380
0.929109 0.818575 0.403462
0.929072 0.818554 0.403545
0.360466 0.784006 0.347055
0.377013 0.785743 0.348889
0.393953 0.787522 0.350767
0.411241 0.789339 0.352683
0.428840 0.791191 0.354633
0.446723 0.793072 0.356616
0.464864 0.794983 0.358627
0.483244 0.796919 0.360665
0.501848 0.798880 0.362728
0.520659 0.800864 0.364815
0.539666 0.802869 0.366924
0.558858 0.804895 0.369055
0.578225 0.806940 0.371205
0.597759 0.809004 0.373375
0.617450 0.811085 0.375563
0.637294 0.813183 0.377769
0.657283 0.815297 0.379991
0.677411 0.817426 0.382230
0.697673 0.819571 0.384485
0.718064 0.821730 0.386755
0.738580 0.823903 0.389039
0.759216 0.826089 0.391338
0.779970 0.828288 0.393651
0.800836 0.830501 0.395978
0.821812 0.832725 0.398317
0.842701 0.834961 0.400670
0.863632 0.837209 0.403035
0.884689 0.839469 0.405412
0.905867 0.841739 0.407801
0.927165 0.844020 0.410202
0.936555 0.845016 0.411309
0.936524 0.844996 0.411395
0.936495 0.844977 0.411482
0.367833 0.810528 0.354918
0.384375 0.812266 0.356756
0.401312 0.814046 0.358637
0.418597 0.815864 0.360556
0.436193 0.817716 0.362511
0.454073 0.819599 0.364496
0.472211 0.821510 0.366511
0.490589 0.823448 0.368553
0.509190 0.825409 0.370620
0.527999 0.827394 0.372711
0.547004 0.829401 0.374824
0.566194 0.831427 0.376958
0.585559 0.833473 0.379113
0.605091 0.835538 0.381286
0.624782 0.837620 0.383478
0.644624 0.839719 0.385688
0.664612 0.841834 0.387915
0.684740 0.843965 0.390158
0.705002 0.846111 0.392416
0.725393 0.848271 0.394690
