library/cube/Film_Ghost_004.cube
# CINEGRADE LAB — Premium Cinematic LUT
# Title: Film Ghost
# Category: Vintage Film Lab
# Description: Faded, grainy, color-shifted retro film lab aesthetic
# Mood: Retro, faded, nostalgic
# Variant: 5
# Generated: 2026-05-21T16:12:33.532700
TITLE "Film Ghost"
LUT_3D_SIZE 9
0.195355 0.180208 0.170921
0.264667 0.187404 0.178238
0.338594 0.195101 0.186061
0.415842 0.203162 0.194257
0.495705 0.211515 0.202751
0.577729 0.220111 0.211496
0.661601 0.228917 0.220461
0.747089 0.237908 0.229622
0.777558 0.241100 0.233008
0.218428 0.265821 0.195570
0.287513 0.273004 0.202916
0.361211 0.280688 0.210770
0.438236 0.288739 0.218998
0.517882 0.297080 0.227525
0.599701 0.305666 0.236306
0.683379 0.314463 0.245308
0.768686 0.323446 0.254507
0.799154 0.326635 0.257929
0.243215 0.357205 0.221998
0.312102 0.364379 0.229378
0.385601 0.372055 0.237268
0.462433 0.380097 0.245532
0.541896 0.388431 0.254098
0.623542 0.397011 0.262920
0.707060 0.405802 0.271963
0.792221 0.414781 0.281205
0.822705 0.417970 0.284668
0.269270 0.452788 0.249770
0.337987 0.459956 0.257189
0.411319 0.467627 0.265118
0.487991 0.475665 0.273425
0.567303 0.483997 0.282034
0.648810 0.492575 0.290900
0.732203 0.501365 0.299991
0.817254 0.510344 0.309281
0.847091 0.513537 0.312788
0.296360 0.551714 0.278654
0.364938 0.558882 0.286116
0.438134 0.566553 0.294091
0.514677 0.574592 0.302444
0.593872 0.582926 0.311102
0.675276 0.591506 0.320018
0.758579 0.600301 0.329160
0.843124 0.609285 0.338504
0.872746 0.612486 0.342060
0.324348 0.653446 0.308509
0.392816 0.660618 0.316020
0.465908 0.668294 0.324045
0.542357 0.676340 0.332450
0.621469 0.684680 0.341161
0.702803 0.693269 0.350133
0.786052 0.702072 0.359332
0.870031 0.711066 0.368734
0.900172 0.714281 0.372343
0.353147 0.757616 0.339243
0.421536 0.764797 0.346807
0.494556 0.772483 0.354887
0.570944 0.780540 0.363349
0.650008 0.788892 0.372119
0.731308 0.797494 0.381151
0.814539 0.806312 0.390413
0.898528 0.815322 0.399879
0.929072 0.818554 0.403545
0.382702 0.863955 0.370791
0.451043 0.871151 0.378413
0.524024 0.878853 0.386554
0.600384 0.886926 0.395078
0.679434 0.895297 0.403913
0.760736 0.903917 0.413011
0.843852 0.912755 0.422340
0.928334 0.921785 0.431876
0.959166 0.925041 0.435604
0.392935 0.902495 0.382979
0.461265 0.909716 0.390655
0.534245 0.917444 0.398852
0.610617 0.925543 0.407433
0.689693 0.933939 0.416327
0.771036 0.942567 0.425487
0.854268 0.951425 0.434878
0.939199 0.960486 0.444478
0.970188 0.963783 0.448260
0.197684 0.182652 0.234555
0.266972 0.189848 0.241876
0.340875 0.197545 0.249704
0.418099 0.205606 0.257905
0.497938 0.213959 0.266406
0.579940 0.222555 0.275160
0.663791 0.231361 0.284135
0.749259 0.240353 0.293306
0.779727 0.243546 0.296704
0.220757 0.268260 0.259220
0.289821 0.275444 0.266574
0.363498 0.283129 0.274437
0.440502 0.291179 0.282675
0.520128 0.299521 0.291213
0.601928 0.308108 0.300007
0.685588 0.316905 0.309022
0.770880 0.325889 0.318235
0.801349 0.329079 0.321674
0.245547 0.359641 0.285679
0.314415 0.366816 0.293071
0.387897 0.374492 0.300973
0.464711 0.382535 0.309251
0.544157 0.390870 0.317832
0.625788 0.399451 0.326670
0.709292 0.408244 0.335731
0.794441 0.417223 0.344991
0.824927 0.420414 0.348474
0.271607 0.455222 0.313494
0.340309 0.462391 0.320928
0.413626 0.470063 0.328875
0.490283 0.478103 0.337199
0.569582 0.486436 0.345828
0.651078 0.495015 0.354714
0.734460 0.503807 0.363826
0.819502 0.512787 0.373138
0.849256 0.515982 0.376669
0.298704 0.554148 0.342435
0.367270 0.561317 0.349917
0.440454 0.568989 0.357912
0.516987 0.577030 0.366287
0.596172 0.585365 0.374968
0.677567 0.593948 0.383909
0.760864 0.602744 0.393076
0.845335 0.611729 0.402446
0.875013 0.614933 0.406029
0.326702 0.655881 0.372361
0.395161 0.663055 0.379895
0.468245 0.670733 0.387944
0.544686 0.678780 0.396375
0.623793 0.687123 0.405113
0.705122 0.695713 0.414113
0.788368 0.704519 0.423341
0.872337 0.713515 0.432774
0.902522 0.716732 0.436414
0.355515 0.760054 0.403178
0.423897 0.767237 0.410769
0.496912 0.774926 0.418877
0.573296 0.782985 0.427369
0.652357 0.791340 0.436171
0.733656 0.799944 0.445235
0.816888 0.808764 0.454530
0.900908 0.817776 0.464031
0.931486 0.821011 0.467731
0.385086 0.866398 0.434823
0.453424 0.873597 0.442477
0.526402 0.881301 0.450649
0.602762 0.889377 0.459207
0.681813 0.897750 0.468077
0.763117 0.906373 0.477211
0.846230 0.915214 0.486578
0.930770 0.924247 0.496153
0.961624 0.927506 0.499918
0.395340 0.904947 0.447118
0.463670 0.912171 0.454830
0.536651 0.919901 0.463062
0.613025 0.928003 0.471682
0.692106 0.936395 0.480615
0.773455 0.945030 0.489814
0.856698 0.953894 0.499246
0.941664 0.962961 0.508889
0.972664 0.966261 0.512713
0.200186 0.185266 0.302523
0.269450 0.192462 0.309848
0.343328 0.200158 0.317682
0.420528 0.208220 0.325890
0.500344 0.216573 0.334399
0.582324 0.225169 0.343163
0.666154 0.233976 0.352148
0.751603 0.242968 0.361331
0.782069 0.246162 0.364742
0.223259 0.270870 0.327208
0.292302 0.278054 0.334571
0.365958 0.285739 0.342443
0.442941 0.293790 0.350692
0.522547 0.302132 0.359243
0.604328 0.310719 0.368050
0.687972 0.319517 0.377081
0.773247 0.328502 0.386310
0.803717 0.331693 0.389765
0.248051 0.362247 0.353701
0.316901 0.369423 0.361105
0.390365 0.377100 0.369021
0.467162 0.385143 0.377315
0.546592 0.393479 0.385913
0.628207 0.402061 0.394768
0.711697 0.410854 0.403849
0.796834 0.419835 0.413129
0.827323 0.423027 0.416633
0.274115 0.457826 0.381564
0.342802 0.464996 0.389015
0.416105 0.472670 0.396980
0.492748 0.480710 0.405324
0.572034 0.489044 0.413973
0.653518 0.497625 0.422882
0.736890 0.506418 0.432017
0.821923 0.515399 0.441354
0.851594 0.518596 0.444910
0.301220 0.556751 0.410567
0.369774 0.563922 0.418070
0.442947 0.571596 0.426088
0.519469 0.579638 0.434487
0.598645 0.587975 0.443193
0.680032 0.596559 0.452160
0.763322 0.605357 0.461355
0.847720 0.614344 0.470754
0.877453 0.617549 0.474366
0.329228 0.658486 0.440570
0.397678 0.665662 0.448129
0.470754 0.673342 0.456205
0.547188 0.681391 0.464664
0.626288 0.689735 0.473431
0.707613 0.698328 0.482462
0.790856 0.707135 0.491722
0.874816 0.716133 0.501188
0.905045 0.719353 0.504861
0.358054 0.762662 0.471478
0.426431 0.769848 0.479098
0.499441 0.777538 0.487238
0.575821 0.785599 0.495762
0.654880 0.793957 0.504597
0.736178 0.802563 0.513696
0.819409 0.811386 0.523026
0.903463 0.820400 0.532565
0.934073 0.823638 0.536303
0.387641 0.869011 0.503228
0.455976 0.876212 0.510915
0.528953 0.883919 0.519123
0.605312 0.891998 0.527718
0.684365 0.900374 0.536625
0.765672 0.909000 0.545798
0.848783 0.917843 0.555205
0.933378 0.926879 0.564821
0.964253 0.930141 0.568629
0.397917 0.907568 0.515640
0.466247 0.914795 0.523389
0.539229 0.922528 0.531661
0.615606 0.930633 0.540321
0.694691 0.939021 0.549295
0.776046 0.947664 0.558537
0.859303 0.956534 0.568015
0.944301 0.965606 0.577703
0.975311 0.968910 0.581572
0.202814 0.188003 0.373654
0.272054 0.195200 0.380984
0.345908 0.202896 0.388825
0.423084 0.210958 0.397041
0.502877 0.219311 0.405560
0.584835 0.227908 0.414334
0.668644 0.236714 0.423331
0.754073 0.245707 0.432527
0.784540 0.248901 0.435953
0.225887 0.273603 0.398362
0.294908 0.280787 0.405735
0.368543 0.288473 0.413618
0.445506 0.296524 0.421879
0.525093 0.304867 0.430444
0.606856 0.313455 0.439266
0.690482 0.322253 0.448313
0.775741 0.331239 0.457560
0.806212 0.334431 0.461034
0.250680 0.364977 0.424893
0.319513 0.372153 0.432312
0.392959 0.379831 0.440243
0.469739 0.387875 0.448554
0.549152 0.396213 0.457170
0.630753 0.404795 0.466044
0.714230 0.413589 0.475145
0.799354 0.422571 0.484448
0.829846 0.425764 0.487974
0.276749 0.460554 0.452809
0.345421 0.467726 0.460279
0.418710 0.475400 0.468263
0.495339 0.483442 0.476628
0.574613 0.491777 0.485300
0.656085 0.500358 0.494232
0.739448 0.509153 0.503392
0.824472 0.518136 0.512756
0.854061 0.521334 0.516338
0.303862 0.559479 0.481880
0.372403 0.566651 0.489405
0.445565 0.574327 0.497447
0.522077 0.582371 0.505871
0.601244 0.590709 0.514604
0.682623 0.599294 0.523599
0.765906 0.608094 0.532823
0.850235 0.617083 0.542253
0.880023 0.620290 0.545897
0.331880 0.661216 0.511964
0.400321 0.668393 0.519551
0.473389 0.676075 0.527655
0.549816 0.684125 0.536144
0.628911 0.692472 0.544943
0.710231 0.701066 0.554005
0.793471 0.709876 0.563299
0.877425 0.718876 0.572801
0.907698 0.722098 0.576509
0.360718 0.765394 0.542969
0.429090 0.772582 0.550622
0.502095 0.780275 0.558794
0.578472 0.788338 0.567352
0.657528 0.796698 0.576222
0.738826 0.805307 0.585358
0.822059 0.814132 0.594727
0.906145 0.823149 0.604305
0.936787 0.826390 0.608083
0.390322 0.871749 0.574832
0.458655 0.878952 0.582555
0.531630 0.886662 0.590800
0.607989 0.894743 0.599433
0.687043 0.903122 0.608380
0.768353 0.911750 0.617595
0.851465 0.920597 0.627044
0.936113 0.929636 0.636705
0.967008 0.932901 0.640556
0.400619 0.910314 0.587367
0.468950 0.917544 0.595157
0.541934 0.925280 0.603470
0.618314 0.933388 0.612173
0.697403 0.941774 0.621191
0.778765 0.950423 0.630479
0.862035 0.959300 0.640003
0.947063 0.968376 0.649740
0.978083 0.971682 0.653658
0.205542 0.190840 0.447306
0.274758 0.198036 0.454643
0.348588 0.205733 0.462491
0.425741 0.213795 0.470716
0.505511 0.222148 0.479245
0.587447 0.230745 0.488031
0.671236 0.239552 0.497042
0.756646 0.248544 0.506252
0.787112 0.251739 0.509693
0.228614 0.276435 0.472041
0.297615 0.283620 0.479424
0.371229 0.291305 0.487320
0.448172 0.299357 0.495595
0.527740 0.307701 0.504174
0.609484 0.316289 0.513013
0.693093 0.325088 0.522077
0.778337 0.334074 0.531343
0.808810 0.337267 0.534836
0.253410 0.367806 0.498613
0.322224 0.374983 0.506047
0.395653 0.382661 0.513995
0.472416 0.390706 0.522324
0.551814 0.399044 0.530959
0.633400 0.407628 0.539855
0.716864 0.416423 0.548977
0.801976 0.425406 0.558304
0.832471 0.428600 0.561854
0.279483 0.463381 0.526586
0.348141 0.470554 0.534076
0.421415 0.478229 0.542081
0.498031 0.486272 0.550468
0.577292 0.494608 0.559164
0.658754 0.503191 0.568122
0.742106 0.511987 0.577308
0.827123 0.520971 0.586700
0.856635 0.524171 0.590312
0.306603 0.562306 0.555729
0.375133 0.569480 0.563279
0.448284 0.577156 0.571347
0.524786 0.585202 0.579798
0.603944 0.593542 0.588559
0.685316 0.602129 0.597584
0.768593 0.610930 0.606839
0.852856 0.619921 0.616301
0.882698 0.623130 0.619978
0.334631 0.664044 0.585901
0.403064 0.671223 0.593516
0.476124 0.678907 0.601651
0.552545 0.686959 0.610171
0.631634 0.695308 0.619003
0.712951 0.703904 0.628100
0.796189 0.712716 0.637430
0.880139 0.721718 0.646968
0.910454 0.724942 0.650714
0.363483 0.768226 0.617009
0.431849 0.775416 0.624694
0.504850 0.783111 0.632901
0.581224 0.791177 0.641496
0.660278 0.799539 0.650403
0.741576 0.808150 0.659578
0.824810 0.816978 0.668987
0.908931 0.825997 0.678607
0.939603 0.829240 0.682427
0.393103 0.874585 0.648990
0.461434 0.881792 0.656750
0.534408 0.889504 0.665035
0.610768 0.897588 0.673708
0.689823 0.905969 0.682698
0.771136 0.914600 0.691956
0.854252 0.923450 0.701450
0.938950 0.932492 0.711156
0.969863 0.935756 0.715054
0.403422 0.913159 0.661655
0.471754 0.920392 0.669487
0.544740 0.928131 0.677844
0.621123 0.936233 0.686592
0.700217 0.944627 0.695657
0.781586 0.953283 0.704992
0.864871 0.962165 0.714566
0.949926 0.971245 0.724353
0.980954 0.974554 0.728321
0.208354 0.193759 0.523069
0.277546 0.200955 0.530413
0.351352 0.208652 0.538269
0.428482 0.216714 0.546504
0.508229 0.225067 0.555045
0.590144 0.233664 0.563843
0.673913 0.242471 0.572868
0.759304 0.251464 0.582094
0.789769 0.254660 0.585551
0.231425 0.279349 0.547833
0.300406 0.286535 0.555228
0.373999 0.294221 0.563137
0.450922 0.302273 0.571426
0.530471 0.310617 0.580022
0.612198 0.319206 0.588878
0.695790 0.328006 0.597961
0.781019 0.336992 0.607247
0.811492 0.340186 0.610762
0.256223 0.370717 0.574451
0.325020 0.377895 0.581901
0.398432 0.385574 0.589867
0.475178 0.393620 0.598215
0.554561 0.401959 0.606871
0.636132 0.410543 0.615788
0.719583 0.419339 0.624934
0.804684 0.428323 0.634285
0.835137 0.431519 0.637862
0.282301 0.466290 0.602484
0.350944 0.473464 0.609995
0.424204 0.481141 0.618023
0.500807 0.489185 0.626434
0.580056 0.497523 0.635155
0.661507 0.506107 0.644139
0.744851 0.514904 0.653354
0.829859 0.523890 0.662775
0.859299 0.527091 0.666417
0.309428 0.565215 0.631704
0.377947 0.572391 0.639280
0.451087 0.580069 0.647374
0.527579 0.588116 0.655854
0.606729 0.596457 0.664645
0.688093 0.605046 0.673701
0.771365 0.613849 0.682989
0.855567 0.622841 0.692486
0.885462 0.626053 0.696197
0.337467 0.666955 0.661968
0.405892 0.674136 0.669614
0.478944 0.681821 0.677780
0.555359 0.689876 0.686333
0.634443 0.698226 0.695200
0.715756 0.706825 0.704333
0.798992 0.715639 0.713700
0.882942 0.724643 0.723277
0.913298 0.727870 0.727063
0.366332 0.771140 0.693184
0.434693 0.778333 0.700905
0.507690 0.786030 0.709148
0.584060 0.794098 0.717780
0.663114 0.802462 0.726727
0.744411 0.811076 0.735943
0.827647 0.819906 0.745394
0.911805 0.828928 0.755057
0.942506 0.832174 0.758921
0.395969 0.877505 0.725289
0.464297 0.884714 0.733089
0.537271 0.892429 0.741415
0.613631 0.900515 0.750131
0.692688 0.908899 0.759164
0.774005 0.917534 0.768467
0.857126 0.926386 0.778008
0.941873 0.935426 0.787763
0.972804 0.938694 0.791709
0.406309 0.916088 0.738091
0.474642 0.923323 0.745967
0.547630 0.931065 0.754369
0.624018 0.939163 0.763164
0.703117 0.947564 0.772278
0.784493 0.956226 0.781663
0.867794 0.965113 0.791288
0.952873 0.974198 0.801127
0.983909 0.977509 0.805149
0.211237 0.196749 0.600653
0.280406 0.203945 0.608005
0.354189 0.211642 0.615871
0.431296 0.219705 0.624118
0.511021 0.228058 0.632670
0.592915 0.236655 0.641483
0.676664 0.245463 0.650523
0.762036 0.254456 0.659766
0.792501 0.257652 0.663241
0.234308 0.282335 0.625451
0.303269 0.289521 0.632859
0.376842 0.297208 0.640782
0.453745 0.305260 0.649087
0.533275 0.313605 0.657700
0.614984 0.322194 0.666574
0.698561 0.330995 0.675677
0.783775 0.339982 0.684985
0.814250 0.343177 0.688522
0.259108 0.373700 0.652117
0.327888 0.380879 0.659585
0.401283 0.388559 0.667570
0.478013 0.396605 0.675939
0.557380 0.404945 0.684616
0.638938 0.413530 0.693557
0.722376 0.422327 0.702728
0.807466 0.431312 0.712106
0.837763 0.434509 0.715709
0.285191 0.469272 0.680216
0.353820 0.476447 0.687749
0.427067 0.484124 0.695801
0.503657 0.492170 0.704237
0.582894 0.500509 0.712985
0.664334 0.509094 0.721997
0.747669 0.517892 0.731241
0.832659 0.526879 0.740693
0.862044 0.530082 0.744367
0.312325 0.568197 0.709517
0.380834 0.575373 0.717120
0.453963 0.583053 0.725243
0.530446 0.591102 0.733752
0.609587 0.599445 0.742575
0.690945 0.608035 0.751664
0.774212 0.616840 0.760986
0.858358 0.625834 0.770518
0.888305 0.629047 0.774266
0.340375 0.669938 0.739878
0.408792 0.677121 0.747556
0.481837 0.684808 0.755755
0.558246 0.692865 0.764343
0.637325 0.701217 0.773246
0.718635 0.709817 0.782416
0.801869 0.718633 0.791823
0.885823 0.727640 0.801440
0.916219 0.730869 0.805267
0.369254 0.774127 0.771208
0.437610 0.781321 0.778965
0.510604 0.789021 0.787246
0.586971 0.797091 0.795917
0.666023 0.805458 0.804905
0.747321 0.814074 0.814163
0.830528 0.822907 0.823658
0.914755 0.831931 0.833367
0.945485 0.835180 0.837276
0.398907 0.880497 0.803441
0.467234 0.887708 0.811283
0.540208 0.895426 0.819651
0.616568 0.903515 0.828412
0.695628 0.911902 0.837490
0.776949 0.920539 0.846841
0.860078 0.929394 0.856430
0.944870 0.938432 0.866235
0.975818 0.941706 0.870232
0.409270 0.919088 0.816386
0.477604 0.926326 0.824307
0.550595 0.934069 0.832757
0.626986 0.942167 0.841601
0.706092 0.950575 0.850765
0.787474 0.959243 0.860202
0.870792 0.968135 0.869880
0.955893 0.977222 0.879774
0.986935 0.980535 0.883851
0.214184 0.199802 0.679846
0.283330 0.206999 0.687208
0.357089 0.214696 0.695084
0.434174 0.222758 0.703343
0.513877 0.231112 0.711909
0.595750 0.239709 0.720737
0.679479 0.248517 0.729793
0.764834 0.257510 0.739054
0.795298 0.260707 0.742547
0.237255 0.285384 0.704681
0.306196 0.292570 0.712102
0.379749 0.300257 0.720041
0.456633 0.308311 0.728363
0.536144 0.316656 0.736994
0.617836 0.325245 0.745888
0.701397 0.334046 0.755012
0.786596 0.343034 0.764343
0.817072 0.346230 0.767904
0.262057 0.376746 0.731400
0.330820 0.383925 0.738887
0.404198 0.391606 0.746892
0.480913 0.399654 0.755282
0.560265 0.407994 0.763983
0.641809 0.416580 0.772948
0.725234 0.425378 0.782145
0.810314 0.434364 0.791550
0.840462 0.437562 0.795182
0.288145 0.472316 0.759568
0.356760 0.479492 0.767124
0.429993 0.487171 0.775201
0.506571 0.495217 0.783664
0.585797 0.503558 0.792440
0.667227 0.512144 0.801481
0.750553 0.520944 0.810756
0.835412 0.529932 0.820241
0.864859 0.533137 0.823948
0.315287 0.571241 0.788954
0.383784 0.578419 0.796585
0.456904 0.586100 0.804738
0.533378 0.594150 0.813279
0.612511 0.602495 0.822134
0.693862 0.611087 0.831258
0.777124 0.619893 0.840616
0.861220 0.628890 0.850185
0.891218 0.632105 0.853971
0.343347 0.672984 0.819417
0.411757 0.680169 0.827128
0.484795 0.687858 0.835362
0.561198 0.695916 0.843986
0.640273 0.704271 0.852926
0.721580 0.712873 0.862136
0.804813 0.721691 0.871583
0.888773 0.730700 0.881243
0.919209 0.733931 0.885112
0.372240 0.777176 0.850864
0.440592 0.784373 0.858660
0.513582 0.792075 0.866980
0.589947 0.800148 0.875693
0.668999 0.808517 0.884724
0.750297 0.817135 0.893702
0.833478 0.825970 0.902541
0.917772 0.834998 0.911482
0.948530 0.838249 0.915023
0.401910 0.883552 0.883233
0.470236 0.890766 0.890981
0.543210 0.898486 0.898815
0.619571 0.906578 0.906932
0.698634 0.914968 0.915252
0.779959 0.923608 0.923725
0.863098 0.932466 0.932312
0.947934 0.941503 0.940982
0.978897 0.944782 0.944344
0.412295 0.922152 0.895855
0.480631 0.929393 0.903167
0.553625 0.937130 0.910877
0.630021 0.945235 0.918853
0.709132 0.953650 0.927016
0.790522 0.962324 0.935315
0.873857 0.971220 0.943713
0.958978 0.980310 0.952178
0.990025 0.983625 0.955440
0.215129 0.200883 0.708726
0.284254 0.208080 0.716095
0.357993 0.215778 0.723980
0.435057 0.223841 0.732246
0.514741 0.232195 0.740822
0.596595 0.240793 0.749659
0.680307 0.249601 0.758726
0.765645 0.258596 0.767998
0.796112 0.261794 0.771503
0.238207 0.286463 0.733588
0.307130 0.293650 0.741019
0.380666 0.301338 0.748967
0.457532 0.309392 0.757300
0.537028 0.317738 0.765942
0.618704 0.326328 0.774848
0.702251 0.335130 0.783984
0.787437 0.344119 0.793327
0.817917 0.347317 0.796901
0.263018 0.377823 0.760340
0.331766 0.385003 0.767839
0.405129 0.392685 0.775856
0.481830 0.400734 0.784258
0.561169 0.409076 0.792972
0.642701 0.417663 0.801951
0.726116 0.426462 0.811162
0.811186 0.435450 0.820582
0.841295 0.438650 0.824229
0.289116 0.473393 0.788549
0.357720 0.480570 0.796119
0.430941 0.488251 0.804209
0.507508 0.496299 0.812686
0.586724 0.504640 0.821477
0.668146 0.513229 0.830534
0.751465 0.522030 0.839826
0.836280 0.531020 0.849327
0.865782 0.534227 0.853051
0.316271 0.572319 0.817982
0.384760 0.579499 0.825628
0.457871 0.587182 0.833797
0.534337 0.595234 0.842354
0.613464 0.603581 0.851227
0.694810 0.612174 0.860367
0.778068 0.620983 0.869744
0.862172 0.629981 0.879332
0.892214 0.633199 0.883137
0.344347 0.674065 0.848499
0.412750 0.681252 0.856226
0.485784 0.688943 0.864478
0.562182 0.697004 0.873121
0.641254 0.705360 0.882080
0.722559 0.713965 0.891116
0.805792 0.722785 0.900025
0.889794 0.731797 0.909048
0.920263 0.735030 0.912595
0.373257 0.778262 0.880007
0.441606 0.785461 0.887806
0.514594 0.793165 0.895694
0.590958 0.801240 0.903877
0.670009 0.809612 0.912277
0.751310 0.818233 0.920843
0.834488 0.827071 0.929534
0.918845 0.836101 0.938322
0.949625 0.839355 0.941714
0.402948 0.884643 0.910926
0.471274 0.891860 0.918207
0.544248 0.899583 0.925900
0.620611 0.907678 0.933868
0.699677 0.916071 0.942034
0.781008 0.924714 0.950347
0.864166 0.933574 0.958766
0.949041 0.942615 0.967263
0.980017 0.945898 0.970457
0.413357 0.923253 0.922762
0.481695 0.930497 0.929920
0.554693 0.938235 0.937470
0.631094 0.946346 0.945278
0.710212 0.954766 0.953268
0.791611 0.963444 0.961388
0.874963 0.972343 0.969600
0.960101 0.981436 0.977873
0.991151 0.984751 0.980949
