library/cube/Fjord_Mist_002.cube
# CINEGRADE LAB — Premium Cinematic LUT
# Title: Fjord Mist
# Category: Minimal Scandinavian
# Description: Clean, bright, muted, airy aesthetic inspired by Scandinavian design
# Mood: Calm, airy, minimal
# Variant: 3
# Generated: 2026-05-21T16:12:26.336701
TITLE "Fjord Mist"
LUT_3D_SIZE 33
0.239317 0.240136 0.256625
0.251758 0.242330 0.258784
0.264465 0.244572 0.260990
0.277417 0.246856 0.263239
0.290598 0.249180 0.265528
0.303993 0.251541 0.267855
0.317589 0.253937 0.270217
0.331375 0.256367 0.272612
0.345342 0.258828 0.275039
0.359480 0.261320 0.277496
0.373783 0.263839 0.279981
0.388243 0.266387 0.282494
0.402853 0.268960 0.285034
0.417608 0.271559 0.287598
0.432502 0.274182 0.290187
0.447532 0.276828 0.292799
0.462691 0.279497 0.295434
0.477976 0.282188 0.298091
0.493383 0.284900 0.300769
0.508909 0.287632 0.303468
0.524549 0.290385 0.306186
0.540302 0.293157 0.308924
0.556163 0.295948 0.311681
0.572130 0.298757 0.314457
0.588200 0.301584 0.317250
0.604372 0.304429 0.320060
0.620641 0.307291 0.322888
0.637007 0.310169 0.325732
0.653467 0.313064 0.328593
0.666711 0.315393 0.330885
0.666757 0.315403 0.330846
0.666802 0.315413 0.330808
0.666847 0.315423 0.330769
0.246712 0.257798 0.263888
0.259157 0.259993 0.266047
0.271868 0.262235 0.268253
0.284824 0.264520 0.270502
0.298008 0.266844 0.272791
0.311407 0.269206 0.275118
0.325006 0.271604 0.277480
0.338796 0.274034 0.279875
0.352767 0.276496 0.282302
0.366909 0.278988 0.284759
0.381215 0.281509 0.287245
0.395679 0.284056 0.289758
0.410292 0.286631 0.292297
0.425051 0.289230 0.294862
0.439949 0.291854 0.297451
0.454982 0.294501 0.300063
0.470145 0.297170 0.302698
0.485434 0.299862 0.305355
0.500844 0.302574 0.308033
0.516373 0.305308 0.310732
0.532017 0.308061 0.313451
0.547773 0.310834 0.316189
0.563637 0.313625 0.318946
0.579608 0.316435 0.321721
0.595681 0.319263 0.324514
0.611856 0.322108 0.327325
0.628129 0.324970 0.330153
0.644498 0.327849 0.332997
0.660961 0.330745 0.335858
0.674207 0.333075 0.338151
0.674252 0.333085 0.338112
0.674296 0.333095 0.338074
0.674340 0.333106 0.338037
0.254266 0.275838 0.271309
0.266714 0.278034 0.273468
0.279428 0.280276 0.275674
0.292388 0.282562 0.277923
0.305576 0.284887 0.280212
0.318978 0.287250 0.282539
0.332582 0.289648 0.284901
0.346375 0.292079 0.287296
0.360349 0.294542 0.289723
0.374495 0.297035 0.292180
0.388805 0.299556 0.294666
0.403272 0.302104 0.297179
0.417889 0.304679 0.299718
0.432651 0.307279 0.302283
0.447553 0.309903 0.304872
0.462589 0.312551 0.307484
0.477755 0.315221 0.310120
0.493047 0.317914 0.312777
0.508461 0.320627 0.315455
0.523994 0.323361 0.318154
0.539641 0.326115 0.320872
0.555400 0.328888 0.323611
0.571267 0.331680 0.326368
0.587241 0.334491 0.329143
0.603318 0.337319 0.331937
0.619495 0.340165 0.334748
0.635771 0.343028 0.337576
0.652143 0.345907 0.340420
0.668609 0.348803 0.343281
0.681857 0.351134 0.345574
0.681902 0.351144 0.345537
0.681945 0.351155 0.345499
0.681989 0.351165 0.345463
0.261966 0.294227 0.278875
0.274417 0.296424 0.281034
0.287135 0.298667 0.283240
0.300098 0.300953 0.285489
0.313290 0.303280 0.287778
0.326695 0.305643 0.290105
0.340302 0.308042 0.292467
0.354099 0.310474 0.294862
0.368077 0.312937 0.297289
0.382226 0.315430 0.299747
0.396539 0.317952 0.302232
0.411010 0.320501 0.304745
0.425631 0.323077 0.307285
0.440396 0.325678 0.309850
0.455301 0.328302 0.312439
0.470341 0.330951 0.315051
0.485510 0.333622 0.317687
0.500806 0.336315 0.320344
0.516223 0.339029 0.323022
0.531758 0.341763 0.325721
0.547409 0.344517 0.328440
0.563171 0.347291 0.331179
0.579041 0.350084 0.333936
0.595018 0.352895 0.336712
0.611098 0.355724 0.339505
0.627278 0.358571 0.342316
0.643557 0.361434 0.345145
0.659932 0.364314 0.347989
0.676401 0.367211 0.350851
0.689651 0.369541 0.353144
0.689694 0.369552 0.353107
0.689737 0.369563 0.353071
0.689780 0.369574 0.353034
0.269802 0.312942 0.286576
0.282257 0.315139 0.288735
0.294978 0.317383 0.290941
0.307944 0.319670 0.293190
0.321139 0.321997 0.295479
0.334548 0.324361 0.297806
0.348159 0.326760 0.300168
0.361959 0.329193 0.302564
0.375940 0.331657 0.304991
0.390093 0.334151 0.307448
0.404409 0.336673 0.309934
0.418883 0.339223 0.312447
0.433507 0.341799 0.314987
0.448276 0.344401 0.317552
0.463184 0.347026 0.320141
0.478227 0.349675 0.322754
0.493399 0.352347 0.325389
0.508698 0.355040 0.328047
0.524118 0.357755 0.330725
0.539657 0.360490 0.333424
0.555310 0.363245 0.336144
0.571075 0.366019 0.338882
0.586949 0.368812 0.341640
0.602929 0.371624 0.344416
0.619011 0.374454 0.347209
0.635195 0.377301 0.350021
0.651476 0.380165 0.352849
0.667854 0.383045 0.355694
0.684325 0.385942 0.358556
0.697577 0.388273 0.360849
0.697620 0.388284 0.360813
0.697662 0.388295 0.360778
0.697704 0.388306 0.360742
0.277765 0.331961 0.294403
0.290223 0.334159 0.296562
0.302948 0.336404 0.298769
0.315917 0.338691 0.301018
0.329116 0.341019 0.303307
0.342528 0.343383 0.305634
0.356142 0.345783 0.307997
0.369945 0.348217 0.310392
0.383929 0.350681 0.312819
0.398085 0.353176 0.315277
0.412405 0.355699 0.317763
0.426882 0.358249 0.320276
0.441509 0.360826 0.322816
0.456281 0.363428 0.325381
0.471193 0.366054 0.327971
0.486239 0.368704 0.330583
0.501414 0.371376 0.333219
0.516716 0.374070 0.335877
0.532139 0.376785 0.338555
0.547681 0.379520 0.341255
0.563337 0.382276 0.343974
0.579105 0.385051 0.346713
0.594982 0.387845 0.349471
0.610964 0.390657 0.352247
0.627049 0.393487 0.355041
0.643235 0.396334 0.357852
0.659520 0.399199 0.360681
0.675900 0.402080 0.363527
0.692374 0.404977 0.366388
0.705628 0.407309 0.368682
0.705670 0.407320 0.368647
0.705711 0.407331 0.368612
0.705752 0.407342 0.368577
0.285848 0.351266 0.302349
0.298310 0.353465 0.304509
0.311037 0.355710 0.306715
0.324010 0.357998 0.308965
0.337212 0.360327 0.311254
0.350627 0.362692 0.313581
0.364244 0.365093 0.315944
0.378051 0.367526 0.318340
0.392038 0.369992 0.320767
0.406197 0.372487 0.323224
0.420520 0.375010 0.325711
0.435000 0.377561 0.328224
0.449630 0.380139 0.330764
0.464405 0.382741 0.333330
0.479320 0.385368 0.335919
0.494369 0.388018 0.338532
0.509547 0.390690 0.341168
0.524852 0.393385 0.343826
0.540278 0.396101 0.346505
0.555822 0.398837 0.349204
0.571482 0.401593 0.351924
0.587252 0.404368 0.354663
0.603131 0.407162 0.357421
0.619116 0.409975 0.360197
0.635205 0.412806 0.362992
0.651393 0.415653 0.365804
0.667680 0.418518 0.368633
0.684063 0.421400 0.371478
0.700539 0.424298 0.374341
0.713795 0.426630 0.376635
0.713836 0.426641 0.376600
0.713876 0.426653 0.376566
0.713916 0.426664 0.376532
0.294044 0.370842 0.310408
0.306509 0.373042 0.312568
0.319240 0.375288 0.314774
0.332216 0.377576 0.317024
0.345420 0.379905 0.319314
0.358839 0.382271 0.321641
0.372459 0.384672 0.324004
0.386269 0.387106 0.326400
0.400259 0.389572 0.328827
0.414421 0.392068 0.331285
0.428747 0.394592 0.333771
0.443230 0.397144 0.336285
0.457863 0.399722 0.338825
0.472641 0.402324 0.341391
0.487559 0.404952 0.343981
0.502610 0.407602 0.346594
0.517792 0.410275 0.349230
0.533099 0.412970 0.351888
0.548528 0.415686 0.354567
0.564075 0.418423 0.357267
0.579737 0.421180 0.359987
0.595510 0.423955 0.362726
0.611392 0.426750 0.365485
0.627380 0.429563 0.368261
0.643470 0.432394 0.371056
0.659661 0.435243 0.373868
0.675951 0.438108 0.376698
0.692336 0.440990 0.379544
0.708814 0.443888 0.382406
0.722072 0.446220 0.384701
0.722112 0.446232 0.384667
0.722151 0.446243 0.384634
0.722190 0.446255 0.384601
0.302348 0.390675 0.318574
0.314816 0.392875 0.320733
0.327549 0.395121 0.322940
0.340529 0.397411 0.325190
0.353736 0.399740 0.327480
0.367158 0.402106 0.329807
0.380780 0.404508 0.332170
0.394593 0.406943 0.334566
0.408587 0.409409 0.336994
0.422752 0.411905 0.339452
0.437081 0.414430 0.341939
0.451566 0.416982 0.344453
0.466202 0.419561 0.346993
0.480983 0.422164 0.349559
0.495903 0.424792 0.352149
0.510958 0.427443 0.354763
0.526142 0.430116 0.357399
0.541452 0.432812 0.360057
0.556884 0.435528 0.362737
0.572433 0.438265 0.365437
0.588098 0.441022 0.368157
0.603873 0.443799 0.370897
0.619758 0.446594 0.373656
0.635748 0.449407 0.376433
0.651841 0.452239 0.379228
0.668034 0.455087 0.382040
0.684325 0.457953 0.384870
0.700713 0.460835 0.387716
0.717194 0.463734 0.390579
0.730453 0.466067 0.392874
0.730492 0.466078 0.392842
0.730530 0.466090 0.392809
0.730568 0.466101 0.392777
0.310754 0.410752 0.326841
0.323225 0.412952 0.329001
0.335961 0.415199 0.331208
0.348943 0.417489 0.333458
0.362154 0.419819 0.335748
0.375578 0.422186 0.338076
0.389204 0.424588 0.340439
0.403020 0.427024 0.342835
0.417016 0.429490 0.345263
0.431183 0.431987 0.347721
0.445515 0.434512 0.350208
0.460004 0.437065 0.352723
0.474642 0.439643 0.355263
0.489426 0.442247 0.357829
0.504349 0.444875 0.360420
0.519406 0.447527 0.363034
0.534593 0.450201 0.365670
0.549905 0.452897 0.368329
0.565339 0.455614 0.371009
0.580891 0.458351 0.373709
0.596558 0.461109 0.376430
0.612336 0.463885 0.379170
0.628223 0.466681 0.381929
0.644215 0.469495 0.384706
0.660310 0.472326 0.387502
0.676506 0.475175 0.390315
0.692799 0.478041 0.393145
0.709189 0.480924 0.395992
0.725672 0.483823 0.398855
0.738932 0.486156 0.401151
0.738970 0.486168 0.401119
0.739008 0.486179 0.401087
0.739045 0.486191 0.401056
0.319258 0.431062 0.335205
0.331731 0.433263 0.337365
0.344470 0.435510 0.339572
0.357455 0.437801 0.341822
0.370669 0.440131 0.344113
0.384096 0.442498 0.346441
0.397724 0.444901 0.348804
0.411542 0.447337 0.351201
0.425541 0.449804 0.353629
0.439712 0.452301 0.356088
0.454046 0.454827 0.358575
0.468537 0.457380 0.361090
0.483179 0.459959 0.363631
0.497965 0.462563 0.366197
0.512890 0.465192 0.368788
0.527949 0.467844 0.371402
0.543139 0.470518 0.374039
0.558454 0.473214 0.376698
0.573890 0.475932 0.379378
0.589445 0.478669 0.382079
0.605114 0.481427 0.384800
0.620894 0.484204 0.387540
0.636783 0.487000 0.390300
0.652777 0.489814 0.393078
0.668875 0.492646 0.395873
0.685072 0.495496 0.398687
0.701368 0.498362 0.401517
0.717759 0.501245 0.404365
0.734244 0.504144 0.407228
0.747506 0.506477 0.409525
0.747543 0.506489 0.409494
0.747579 0.506501 0.409463
0.747615 0.506512 0.409432
0.327855 0.451595 0.343661
0.340331 0.453796 0.345822
0.353073 0.456044 0.348030
0.366060 0.458335 0.350280
0.379276 0.460666 0.352571
0.392706 0.463034 0.354899
0.406337 0.465437 0.357263
0.420158 0.467873 0.359660
0.434159 0.470340 0.362089
0.448332 0.472838 0.364547
0.462669 0.475364 0.367035
0.477163 0.477917 0.369550
0.491807 0.480497 0.372091
0.506595 0.483102 0.374658
0.521523 0.485731 0.377249
0.536585 0.488383 0.379864
0.551776 0.491058 0.382501
0.567093 0.493754 0.385160
0.582532 0.496472 0.387841
0.598089 0.499210 0.390542
0.613760 0.501968 0.393264
0.629543 0.504745 0.396005
0.645434 0.507541 0.398764
0.661430 0.510356 0.401543
0.677529 0.513188 0.404339
0.693729 0.516038 0.407153
0.710026 0.518904 0.409984
0.726420 0.521788 0.412832
0.742906 0.524687 0.415696
0.756169 0.527020 0.417993
0.756205 0.527032 0.417962
0.756241 0.527044 0.417932
0.756276 0.527055 0.417903
0.336541 0.472342 0.352207
0.349020 0.474543 0.354368
0.361764 0.476792 0.356576
0.374754 0.479083 0.358827
0.387973 0.481414 0.361118
0.401405 0.483782 0.363447
0.415038 0.486186 0.365811
0.428862 0.488622 0.368208
0.442866 0.491090 0.370637
0.457041 0.493588 0.373096
0.471380 0.496115 0.375584
0.485876 0.498668 0.378100
0.500523 0.501248 0.380642
0.515314 0.503853 0.383209
0.530243 0.506482 0.385800
0.545308 0.509135 0.388415
0.560501 0.511810 0.391053
0.575821 0.514507 0.393713
0.591262 0.517225 0.396394
0.606820 0.519963 0.399095
0.622494 0.522722 0.401817
0.638278 0.525499 0.404559
0.654171 0.528296 0.407319
0.670169 0.531110 0.410098
0.686271 0.533943 0.412894
0.702472 0.536793 0.415709
0.718771 0.539660 0.418540
0.735166 0.542543 0.421389
0.751655 0.545443 0.424253
0.764918 0.547776 0.426551
0.764953 0.547788 0.426521
0.764988 0.547800 0.426492
0.765022 0.547811 0.426464
0.345313 0.493294 0.360839
0.357794 0.495496 0.363001
0.370541 0.497745 0.365209
0.383534 0.500036 0.367460
0.396754 0.502367 0.369751
0.410189 0.504736 0.372080
0.423825 0.507140 0.374445
0.437651 0.509577 0.376843
0.451657 0.512045 0.379272
0.465835 0.514544 0.381732
0.480176 0.517070 0.384220
0.494675 0.519624 0.386736
0.509323 0.522204 0.389278
0.524116 0.524810 0.391845
0.539048 0.527439 0.394437
0.554115 0.530092 0.397053
0.569311 0.532767 0.399691
0.584632 0.535465 0.402351
0.600075 0.538183 0.405033
0.615636 0.540921 0.407735
0.631311 0.543680 0.410457
0.647097 0.546458 0.413199
0.662992 0.549255 0.415960
0.678992 0.552069 0.418739
0.695095 0.554902 0.421536
0.711298 0.557752 0.424351
0.727599 0.560619 0.427183
0.743995 0.563503 0.430032
0.760485 0.566403 0.432898
0.773750 0.568736 0.435196
0.773784 0.568748 0.435167
0.773817 0.568759 0.435139
0.773850 0.568771 0.435111
0.354168 0.514444 0.369554
0.366651 0.516646 0.371716
0.379401 0.518895 0.373924
0.392395 0.521187 0.376176
0.405618 0.523519 0.378468
0.419055 0.525888 0.380797
0.432694 0.528292 0.383162
0.446522 0.530729 0.385560
0.460530 0.533198 0.387990
0.474710 0.535696 0.390450
0.489054 0.538223 0.392939
0.503554 0.540777 0.395455
0.518205 0.543358 0.397997
0.533000 0.545963 0.400565
0.547934 0.548593 0.403158
0.563002 0.551246 0.405774
0.578200 0.553922 0.408412
0.593524 0.556619 0.411073
0.608968 0.559338 0.413755
0.624531 0.562076 0.416458
0.640208 0.564835 0.419181
0.655996 0.567613 0.421923
0.671892 0.570410 0.424684
0.687894 0.573225 0.427464
0.703999 0.576058 0.430262
0.720203 0.578908 0.433078
0.736506 0.581775 0.435910
0.752903 0.584659 0.438760
0.769395 0.587559 0.441626
0.782660 0.589893 0.443924
0.782693 0.589904 0.443897
0.782725 0.589916 0.443870
0.782757 0.589927 0.443843
0.363102 0.535784 0.378348
0.375588 0.537987 0.380510
0.388339 0.540236 0.382719
0.401336 0.542528 0.384971
0.414562 0.544860 0.387264
0.428001 0.547229 0.389594
0.441641 0.549634 0.391959
0.455471 0.552071 0.394357
0.469482 0.554540 0.396788
0.483664 0.557039 0.399248
0.498010 0.559566 0.401737
0.512512 0.562121 0.404254
0.527165 0.564701 0.406797
0.541962 0.567307 0.409366
0.556898 0.569937 0.411959
0.571968 0.572590 0.414575
0.587168 0.575266 0.417214
0.602493 0.577964 0.419876
0.617939 0.580682 0.422558
0.633504 0.583421 0.425261
0.649182 0.586180 0.427985
0.664972 0.588958 0.430728
0.680870 0.591755 0.433490
0.696873 0.594571 0.436270
0.712979 0.597404 0.439069
0.729185 0.600254 0.441885
0.745489 0.603121 0.444718
0.761888 0.606005 0.447568
0.778381 0.608905 0.450435
0.791647 0.611239 0.452734
0.791678 0.611250 0.452707
0.791710 0.611261 0.452681
0.791740 0.611272 0.452656
0.372114 0.557308 0.387220
0.384601 0.559511 0.389383
0.397355 0.561761 0.391592
0.410354 0.564053 0.393844
0.423581 0.566385 0.396137
0.437022 0.568755 0.398468
0.450665 0.571159 0.400833
0.464497 0.573597 0.403232
0.478509 0.576066 0.405663
0.492694 0.578565 0.408124
0.507041 0.581093 0.410614
0.521546 0.583647 0.413131
0.536200 0.586228 0.415675
0.550999 0.588834 0.418244
0.565937 0.591464 0.420837
0.581009 0.594118 0.423454
0.596210 0.596794 0.426094
0.611537 0.599491 0.428756
0.626985 0.602210 0.431439
0.642551 0.604949 0.434143
0.658231 0.607708 0.436867
0.674022 0.610487 0.439610
0.689921 0.613284 0.442373
0.705926 0.616099 0.445154
0.722033 0.618932 0.447953
0.738240 0.621782 0.450770
0.754545 0.624650 0.453604
0.770946 0.627534 0.456455
0.787439 0.630434 0.459322
0.800706 0.632767 0.461622
0.800737 0.632779 0.461596
0.800767 0.632790 0.461571
0.800796 0.632801 0.461547
0.381199 0.579010 0.396167
0.393688 0.581214 0.398330
0.406444 0.583463 0.400539
0.419445 0.585756 0.402793
0.432674 0.588088 0.405086
0.446117 0.590458 0.407417
0.459762 0.592863 0.409783
0.473596 0.595301 0.412183
0.487610 0.597770 0.414614
0.501796 0.600269 0.417075
0.516146 0.602797 0.419566
0.530652 0.605352 0.422083
0.545308 0.607933 0.424628
0.560109 0.610539 0.427197
0.575048 0.613169 0.429791
0.590122 0.615823 0.432409
0.605325 0.618499 0.435049
0.620653 0.621196 0.437712
0.636102 0.623915 0.440395
0.651670 0.626654 0.443100
0.667351 0.629413 0.445825
0.683144 0.632192 0.448569
0.699044 0.634989 0.451332
0.715050 0.637804 0.454114
0.731159 0.640637 0.456913
0.747367 0.643488 0.459731
0.763673 0.646355 0.462565
0.780074 0.649239 0.465417
0.796569 0.652139 0.468285
0.809836 0.654473 0.470586
0.809866 0.654484 0.470561
0.809894 0.654495 0.470537
0.809923 0.654505 0.470514
0.390356 0.600885 0.405186
0.402847 0.603088 0.407349
0.415604 0.605338 0.409560
0.428607 0.607631 0.411813
0.441839 0.609963 0.414107
0.455284 0.612333 0.416439
0.468930 0.614738 0.418805
0.482766 0.617176 0.421206
0.496782 0.619646 0.423638
0.510969 0.622145 0.426100
0.525321 0.624673 0.428590
0.539828 0.627228 0.431109
0.554486 0.629809 0.433654
0.569288 0.632415 0.436224
0.584229 0.635045 0.438819
0.599304 0.637699 0.441437
0.614509 0.640375 0.444078
0.629838 0.643073 0.446741
0.645289 0.645792 0.449425
0.660858 0.648531 0.452130
0.676541 0.651290 0.454856
0.692334 0.654068 0.457601
0.708236 0.656865 0.460364
0.724243 0.659681 0.463147
0.740353 0.662514 0.465947
0.756562 0.665364 0.468766
0.772869 0.668232 0.471601
0.789271 0.671115 0.474453
0.805767 0.674015 0.477322
0.819035 0.676349 0.479624
0.819063 0.676360 0.479600
0.819090 0.676370 0.479577
0.819117 0.676381 0.479554
0.399582 0.622926 0.414276
0.412075 0.625130 0.416440
0.424834 0.627380 0.418651
0.437839 0.629673 0.420905
0.451072 0.632005 0.423199
0.464519 0.634375 0.425531
0.478166 0.636780 0.427899
0.492004 0.639218 0.430300
0.506022 0.641688 0.432732
0.520211 0.644187 0.435195
0.534564 0.646715 0.437686
0.549073 0.649270 0.440205
0.563732 0.651851 0.442751
0.578536 0.654457 0.445322
0.593478 0.657088 0.447917
0.608555 0.659741 0.450536
0.623761 0.662418 0.453178
0.639091 0.665115 0.455841
0.654544 0.667834 0.458526
0.670113 0.670574 0.461232
0.685797 0.673333 0.463958
0.701592 0.676111 0.466704
0.717495 0.678908 0.469468
0.733503 0.681723 0.472252
0.749613 0.684556 0.475053
0.765823 0.687407 0.477872
0.782131 0.690274 0.480708
0.798534 0.693158 0.483561
0.815030 0.696057 0.486430
0.828298 0.698391 0.488733
0.828325 0.698401 0.488711
0.828351 0.698412 0.488689
0.828377 0.698422 0.488667
0.408876 0.645129 0.423434
0.421370 0.647333 0.425599
0.434131 0.649583 0.427811
0.447137 0.651876 0.430066
0.460372 0.654209 0.432361
0.473820 0.656579 0.434693
0.487470 0.658984 0.437061
0.501309 0.661422 0.439463
0.515328 0.663892 0.441896
0.529519 0.666391 0.444359
0.543873 0.668919 0.446851
0.558384 0.671474 0.449371
0.573044 0.674055 0.451917
0.587849 0.676661 0.454489
0.602793 0.679292 0.457085
0.617871 0.681945 0.459704
0.633078 0.684621 0.462347
0.648410 0.687319 0.465011
0.663863 0.690038 0.467697
0.679434 0.692777 0.470404
0.695119 0.695536 0.473130
0.710914 0.698314 0.475877
0.726818 0.701111 0.478642
0.742827 0.703927 0.481426
0.758938 0.706760 0.484228
0.775149 0.709610 0.487048
0.791457 0.712477 0.489885
0.807861 0.715360 0.492739
0.824358 0.718260 0.495609
0.837626 0.720593 0.497912
0.837651 0.720604 0.497891
0.837676 0.720614 0.497870
0.837701 0.720624 0.497850
0.418234 0.667490 0.432660
0.430731 0.669693 0.434826
0.443493 0.671944 0.437038
0.456501 0.674237 0.439293
0.469737 0.676569 0.441589
0.483187 0.678940 0.443922
0.496838 0.681345 0.446291
0.510678 0.683783 0.448693
0.524699 0.686252 0.451127
0.538891 0.688752 0.453591
0.553246 0.691280 0.456084
0.567758 0.693835 0.458604
0.582420 0.696416 0.461151
0.597226 0.699022 0.463723
0.612171 0.701652 0.466320
0.627250 0.704306 0.468940
0.642458 0.706982 0.471583
0.657791 0.709679 0.474248
0.673245 0.712398 0.476935
0.688817 0.715137 0.479642
0.704503 0.717896 0.482370
0.720299 0.720674 0.485117
0.736204 0.723471 0.487883
0.752213 0.726286 0.490668
0.768325 0.729119 0.493471
0.784537 0.731969 0.496292
0.800846 0.734836 0.499129
0.817250 0.737719 0.501984
0.833747 0.740619 0.504855
0.847015 0.742952 0.507160
0.847039 0.742962 0.507140
0.847063 0.742972 0.507120
0.847086 0.742981 0.507101
0.427657 0.690003 0.441951
0.440154 0.692207 0.444117
0.452918 0.694457 0.446330
0.465927 0.696750 0.448586
0.479165 0.699083 0.450882
0.492616 0.701453 0.453216
0.506268 0.703858 0.455586
0.520110 0.706296 0.457989
0.534132 0.708766 0.460423
0.548325 0.711265 0.462888
0.562682 0.713793 0.465381
0.577195 0.716348 0.467903
0.591858 0.718929 0.470450
0.606665 0.721535 0.473023
0.621611 0.724165 0.475621
0.636691 0.726818 0.478242
0.651900 0.729494 0.480886
0.667234 0.732192 0.483552
0.682689 0.734910 0.486239
0.698261 0.737649 0.488947
0.713948 0.740408 0.491676
0.729745 0.743186 0.494424
0.745650 0.745983 0.497191
0.761660 0.748798 0.499976
0.777772 0.751630 0.502780
0.793984 0.754480 0.505602
0.810294 0.757347 0.508440
0.826698 0.760230 0.511296
0.843196 0.763129 0.514168
0.856464 0.765462 0.516474
0.856486 0.765471 0.516455
0.856509 0.765481 0.516436
0.856530 0.765490 0.516418
0.437140 0.712665 0.451306
0.449639 0.714869 0.453473
0.462404 0.717119 0.455686
0.475415 0.719412 0.457943
0.488654 0.721745 0.460240
0.502106 0.724115 0.462575
0.515759 0.726520 0.464945
0.529602 0.728958 0.467348
0.543626 0.731427 0.469784
0.557820 0.733926 0.472249
0.572178 0.736454 0.474744
0.586692 0.739009 0.477266
0.601356 0.741590 0.479814
0.616164 0.744196 0.482388
0.631111 0.746826 0.484986
0.646191 0.749479 0.487608
0.661401 0.752155 0.490253
0.676736 0.754852 0.492920
0.692191 0.757570 0.495608
0.707765 0.760309 0.498317
0.723452 0.763068 0.501046
0.739249 0.765846 0.503795
0.755155 0.768642 0.506563
0.771165 0.771457 0.509350
0.787278 0.774289 0.512154
0.803490 0.777139 0.514977
0.819800 0.780005 0.517816
0.836205 0.782888 0.520673
0.852702 0.785787 0.523546
0.865970 0.788119 0.525852
0.865991 0.788128 0.525835
0.866012 0.788137 0.525817
0.866033 0.788146 0.525800
0.446684 0.735472 0.460723
0.459184 0.737675 0.462890
0.471950 0.739925 0.465105
0.484962 0.742218 0.467362
0.498202 0.744551 0.469660
0.511655 0.746921 0.471996
0.525310 0.749326 0.474366
0.539154 0.751764 0.476771
0.553178 0.754233 0.479207
0.567373 0.756732 0.481673
0.581732 0.759259 0.484168
0.596247 0.761814 0.486691
0.610912 0.764395 0.489240
0.625721 0.767001 0.491815
0.640668 0.769630 0.494414
0.655750 0.772284 0.497037
0.670960 0.774959 0.499683
0.686295 0.777656 0.502350
0.701752 0.780374 0.505040
0.717325 0.783113 0.507749
0.733013 0.785871 0.510480
0.748811 0.788649 0.513229
0.764717 0.791445 0.515998
0.780728 0.794259 0.518786
0.796841 0.797091 0.521591
0.813053 0.799941 0.524415
0.829363 0.802807 0.527255
0.845768 0.805689 0.530113
0.862265 0.808588 0.532987
0.875533 0.810920 0.535295
0.875553 0.810929 0.535278
0.875572 0.810937 0.535262
0.875591 0.810945 0.535246
0.456285 0.758419 0.470201
0.468787 0.760623 0.472369
0.481554 0.762873 0.474584
0.494567 0.765166 0.476843
0.507808 0.767498 0.479141
0.521262 0.769868 0.481478
0.534918 0.772272 0.483849
0.548763 0.774710 0.486254
0.562788 0.777179 0.488691
0.576984 0.779678 0.491159
0.591344 0.782206 0.493655
0.605859 0.784760 0.496178
0.620525 0.787341 0.498728
0.635334 0.789946 0.501304
0.650283 0.792576 0.503904
0.665364 0.795229 0.506528
0.680575 0.797904 0.509174
0.695911 0.800601 0.511843
0.711368 0.803319 0.514533
0.726942 0.806057 0.517244
0.742630 0.808815 0.519975
0.758428 0.811592 0.522726
0.774334 0.814388 0.525495
0.790345 0.817202 0.528284
0.806458 0.820034 0.531091
0.822671 0.822883 0.533915
0.838981 0.825748 0.536757
0.855385 0.828631 0.539615
0.871883 0.831529 0.542490
0.885150 0.833861 0.544799
0.885168 0.833869 0.544784
0.885186 0.833877 0.544769
0.885204 0.833884 0.544754
0.465944 0.781505 0.479739
0.478446 0.783708 0.481908
0.491214 0.785958 0.484124
0.504228 0.788250 0.486383
0.517470 0.790582 0.488682
0.530925 0.792952 0.491019
0.544581 0.795357 0.493392
0.558427 0.797794 0.495798
0.572453 0.800263 0.498236
0.586650 0.802762 0.500704
0.601010 0.805289 0.503201
0.615527 0.807843 0.505725
0.630193 0.810423 0.508276
0.645003 0.813028 0.510853
0.659952 0.815658 0.513454
0.675034 0.818310 0.516078
0.690245 0.820985 0.518726
0.705581 0.823682 0.521395
0.721038 0.826399 0.524087
0.736613 0.829137 0.526798
