library/cube/Fjord_Mist_002.cube
# CINEGRADE LAB — Premium Cinematic LUT
# Title: Fjord Mist
# Category: Minimal Scandinavian
# Description: Clean, bright, muted, airy aesthetic inspired by Scandinavian design
# Mood: Calm, airy, minimal
# Variant: 3
# Generated: 2026-05-21T16:12:26.336701
TITLE "Fjord Mist"
LUT_3D_SIZE 5
0.239317 0.240136 0.256625
0.345342 0.258828 0.275039
0.462691 0.279497 0.295434
0.588200 0.301584 0.317250
0.666847 0.315423 0.330769
0.302348 0.390675 0.318574
0.408587 0.409409 0.336994
0.526142 0.430116 0.357399
0.651841 0.452239 0.379228
0.730568 0.466101 0.392777
0.372114 0.557308 0.387220
0.478509 0.576066 0.405663
0.596210 0.596794 0.426094
0.722033 0.618932 0.447953
0.800796 0.632801 0.461547
0.446684 0.735472 0.460723
0.553178 0.754233 0.479207
0.670960 0.774959 0.499683
0.796841 0.797091 0.521591
0.875591 0.810945 0.535246
0.493420 0.846963 0.506544
0.599947 0.865698 0.525093
0.717740 0.886394 0.545637
0.843605 0.908493 0.567619
0.922291 0.922307 0.581355
0.245673 0.246483 0.351110
0.351722 0.265178 0.369479
0.469095 0.285849 0.389833
0.594626 0.307938 0.411609
0.673283 0.321778 0.425094
0.308719 0.397037 0.412920
0.414976 0.415772 0.431306
0.532548 0.436480 0.451679
0.658262 0.458602 0.473479
0.736995 0.472465 0.487003
0.378492 0.563679 0.481462
0.484900 0.582436 0.499881
0.602612 0.603162 0.520290
0.728443 0.625299 0.542130
0.807207 0.639166 0.555709
0.453062 0.741844 0.554894
0.559563 0.760602 0.573364
0.677349 0.781326 0.593828
0.803231 0.803455 0.615729
0.881978 0.817305 0.629379
0.499788 0.853327 0.600680
0.606315 0.872057 0.619225
0.724107 0.892750 0.639768
0.849967 0.914844 0.661752
0.928644 0.928653 0.675493
0.252697 0.253500 0.455564
0.358770 0.272197 0.473886
0.476166 0.292870 0.494194
0.601719 0.314962 0.515929
0.680387 0.328803 0.529376
0.315758 0.404068 0.517227
0.422033 0.422804 0.535576
0.539622 0.443513 0.555916
0.665351 0.465636 0.577685
0.744090 0.479497 0.591183
0.385540 0.570719 0.585657
0.491960 0.589475 0.604050
0.609681 0.610201 0.624437
0.735521 0.632336 0.646259
0.814285 0.646201 0.659822
0.460110 0.748885 0.659016
0.566616 0.767641 0.677471
0.684406 0.788362 0.697925
0.810290 0.810488 0.719817
0.889031 0.824334 0.733463
0.506825 0.860359 0.704768
0.613352 0.879086 0.723309
0.731141 0.899774 0.743852
0.856996 0.921863 0.765839
0.935664 0.935668 0.779586
0.260200 0.260996 0.567153
0.366297 0.279697 0.585425
0.483717 0.300372 0.605688
0.609291 0.322466 0.627379
0.687969 0.336308 0.640789
0.323277 0.411580 0.628664
0.429570 0.430316 0.646976
0.547176 0.451026 0.667281
0.672919 0.473149 0.689019
0.751663 0.487010 0.702491
0.393067 0.578238 0.696981
0.499498 0.596994 0.715349
0.617230 0.617718 0.735714
0.743077 0.639853 0.757516
0.821842 0.653715 0.771065
0.467637 0.756406 0.770267
0.574149 0.775159 0.788709
0.691942 0.795877 0.809152
0.817826 0.818000 0.831038
0.896562 0.831842 0.844680
0.514342 0.867871 0.815987
0.620868 0.886594 0.834526
0.738653 0.907277 0.855071
0.864502 0.929362 0.877063
0.943160 0.943161 0.890819
0.264913 0.265693 0.636817
0.371031 0.284394 0.655062
0.488471 0.305071 0.675299
0.614065 0.327167 0.696968
0.692751 0.341009 0.710358
0.327999 0.416287 0.698246
0.434307 0.435024 0.716538
0.551928 0.455734 0.736827
0.677684 0.477857 0.758550
0.756431 0.491717 0.772010
0.397792 0.582952 0.766507
0.504233 0.601706 0.784864
0.621973 0.622429 0.805219
0.747826 0.644561 0.827014
0.826589 0.658421 0.840559
0.472358 0.761118 0.839763
0.578873 0.779869 0.858201
0.696668 0.800583 0.878643
0.822551 0.822702 0.900530
0.901282 0.836541 0.914176
0.519048 0.872573 0.885482
0.625573 0.891291 0.904025
0.743355 0.911970 0.924576
0.869197 0.934050 0.946573
0.947844 0.947844 0.960344
