library/cube/Fjord_Mist_002.cube
# CINEGRADE LAB — Premium Cinematic LUT
# Title: Fjord Mist
# Category: Minimal Scandinavian
# Description: Clean, bright, muted, airy aesthetic inspired by Scandinavian design
# Mood: Calm, airy, minimal
# Variant: 3
# Generated: 2026-05-21T16:12:26.336701
TITLE "Fjord Mist"
LUT_3D_SIZE 9
0.239317 0.240136 0.256625
0.290598 0.249180 0.265528
0.345342 0.258828 0.275039
0.402853 0.268960 0.285034
0.462691 0.279497 0.295434
0.524549 0.290385 0.306186
0.588200 0.301584 0.317250
0.653467 0.313064 0.328593
0.666847 0.315423 0.330769
0.269802 0.312942 0.286576
0.321139 0.321997 0.295479
0.375940 0.331657 0.304991
0.433507 0.341799 0.314987
0.493399 0.352347 0.325389
0.555310 0.363245 0.336144
0.619011 0.374454 0.347209
0.684325 0.385942 0.358556
0.697704 0.388306 0.360742
0.302348 0.390675 0.318574
0.353736 0.399740 0.327480
0.408587 0.409409 0.336994
0.466202 0.419561 0.346993
0.526142 0.430116 0.357399
0.588098 0.441022 0.368157
0.651841 0.452239 0.379228
0.717194 0.463734 0.390579
0.730568 0.466101 0.392777
0.336541 0.472342 0.352207
0.387973 0.481414 0.361118
0.442866 0.491090 0.370637
0.500523 0.501248 0.380642
0.560501 0.511810 0.391053
0.622494 0.522722 0.401817
0.686271 0.533943 0.412894
0.751655 0.545443 0.424253
0.765022 0.547811 0.426464
0.372114 0.557308 0.387220
0.423581 0.566385 0.396137
0.478509 0.576066 0.405663
0.536200 0.586228 0.415675
0.596210 0.596794 0.426094
0.658231 0.607708 0.436867
0.722033 0.618932 0.447953
0.787439 0.630434 0.459322
0.800796 0.632801 0.461547
0.408876 0.645129 0.423434
0.460372 0.654209 0.432361
0.515328 0.663892 0.441896
0.573044 0.674055 0.451917
0.633078 0.684621 0.462347
0.695119 0.695536 0.473130
0.758938 0.706760 0.484228
0.824358 0.718260 0.495609
0.837701 0.720624 0.497850
0.446684 0.735472 0.460723
0.498202 0.744551 0.469660
0.553178 0.754233 0.479207
0.610912 0.764395 0.489240
0.670960 0.774959 0.499683
0.733013 0.785871 0.510480
0.796841 0.797091 0.521591
0.862265 0.808588 0.532987
0.875591 0.810945 0.535246
0.485424 0.828074 0.498988
0.536956 0.837150 0.507939
0.591945 0.846828 0.517500
0.649688 0.856986 0.527548
0.709743 0.867545 0.538006
0.771799 0.878452 0.548819
0.835626 0.889665 0.559947
0.901047 0.901155 0.571360
0.914352 0.903504 0.573639
0.493420 0.846963 0.506544
0.544956 0.856029 0.515513
0.599947 0.865698 0.525093
0.657689 0.875845 0.535160
0.717740 0.886394 0.545637
0.779789 0.897290 0.556470
0.843605 0.908493 0.567619
0.909011 0.919971 0.579053
0.922291 0.922307 0.581355
0.242392 0.243207 0.302338
0.293680 0.252251 0.311230
0.348429 0.261901 0.320730
0.405946 0.272033 0.330715
0.465790 0.282570 0.341105
0.527655 0.293459 0.351848
0.591311 0.304659 0.362902
0.656583 0.316139 0.374236
0.669963 0.318498 0.376404
0.272881 0.316017 0.332253
0.324224 0.325072 0.341147
0.379030 0.334733 0.350649
0.436602 0.344876 0.360636
0.496500 0.355423 0.371030
0.558416 0.366322 0.381775
0.622121 0.377531 0.392833
0.687440 0.389020 0.404172
0.700818 0.391384 0.406351
0.305431 0.393753 0.364219
0.356824 0.402818 0.373117
0.411679 0.412488 0.382623
0.469299 0.422640 0.392614
0.529243 0.433195 0.403012
0.591202 0.444102 0.413763
0.654949 0.455318 0.424827
0.720306 0.466813 0.436172
0.733679 0.469180 0.438364
0.339627 0.475423 0.397826
0.391062 0.484495 0.406729
0.445959 0.494171 0.416241
0.503619 0.504329 0.426238
0.563601 0.514891 0.436644
0.625597 0.525802 0.447402
0.689377 0.537024 0.458473
0.754763 0.548523 0.469827
0.768129 0.550891 0.472033
0.375200 0.560391 0.432814
0.426671 0.569468 0.441726
0.481602 0.579149 0.451246
0.539296 0.589310 0.461252
0.599308 0.599875 0.471666
0.661331 0.610790 0.482434
0.725136 0.622013 0.493516
0.790544 0.633514 0.504881
0.803899 0.635881 0.507102
0.411963 0.648213 0.469009
0.463462 0.657292 0.477931
0.518420 0.666974 0.487461
0.576138 0.677137 0.497478
0.636173 0.687703 0.507904
0.698216 0.698617 0.518684
0.762036 0.709840 0.529779
0.827457 0.721340 0.541157
0.840798 0.723703 0.543396
0.449770 0.738555 0.506283
0.501290 0.747634 0.515216
0.556268 0.757315 0.524760
0.614003 0.767476 0.534790
0.674052 0.778040 0.545230
0.736106 0.788951 0.556025
0.799934 0.800171 0.567135
0.865358 0.811667 0.578529
0.878682 0.814023 0.580787
0.488509 0.831157 0.544537
0.540043 0.840232 0.553485
0.595032 0.849909 0.563044
0.652776 0.860066 0.573091
0.712830 0.870624 0.583547
0.774886 0.881529 0.594359
0.838713 0.892742 0.605487
0.904132 0.904231 0.616900
0.917435 0.906578 0.619179
0.496502 0.850042 0.552087
0.548038 0.859108 0.561055
0.603028 0.868775 0.570633
0.660771 0.878922 0.580700
0.720821 0.889469 0.591177
0.782869 0.900364 0.602010
0.846684 0.911566 0.613160
0.912088 0.923043 0.624595
0.925365 0.925378 0.626898
0.245673 0.246483 0.351110
0.296966 0.255528 0.359991
0.351722 0.265178 0.369479
0.409245 0.275311 0.379453
0.469095 0.285849 0.389833
0.530964 0.296738 0.400565
0.594626 0.307938 0.411609
0.659903 0.319419 0.422934
0.673283 0.321778 0.425094
0.276165 0.319297 0.380987
0.327514 0.328353 0.389871
0.382325 0.338014 0.399363
0.439903 0.348157 0.409340
0.499805 0.358705 0.419725
0.561726 0.369604 0.430461
0.625436 0.380813 0.441511
0.690758 0.392302 0.452841
0.704136 0.394666 0.455013
0.308719 0.397037 0.412920
0.360116 0.406102 0.421809
0.414976 0.415772 0.431306
0.472600 0.425924 0.441289
0.532548 0.436480 0.451679
0.594512 0.447386 0.462423
0.658262 0.458602 0.473479
0.723622 0.470098 0.484817
0.736995 0.472465 0.487003
0.342917 0.478709 0.446497
0.394356 0.487781 0.455393
0.449256 0.497457 0.464898
0.506921 0.507615 0.474888
0.566906 0.518177 0.485287
0.628905 0.529088 0.496039
0.692687 0.540309 0.507104
0.758076 0.551809 0.518453
0.771442 0.554176 0.520654
0.378492 0.563679 0.481462
0.429966 0.572756 0.490366
0.484900 0.582436 0.499881
0.542596 0.592598 0.509881
0.602612 0.603162 0.520290
0.664637 0.614076 0.531053
0.728443 0.625299 0.542130
0.793853 0.636800 0.553491
0.807207 0.639166 0.555709
0.415255 0.651502 0.517636
0.466756 0.660580 0.526553
0.521717 0.670262 0.536079
0.579437 0.680425 0.546091
0.639474 0.690990 0.556513
0.701518 0.701904 0.567290
0.765339 0.713126 0.578381
0.830761 0.724626 0.589756
0.844101 0.726987 0.591993
0.453062 0.741844 0.554894
0.504584 0.750922 0.563824
0.559563 0.760602 0.573364
0.617299 0.770763 0.583391
0.677349 0.781326 0.593828
0.739403 0.792237 0.604621
0.803231 0.803455 0.615729
0.868656 0.814950 0.627122
0.881978 0.817305 0.629379
0.491800 0.834444 0.593137
0.543334 0.843518 0.602083
0.598324 0.853195 0.611639
0.656068 0.863351 0.621684
0.716123 0.873908 0.632139
0.778178 0.884812 0.642950
0.842004 0.896024 0.654078
0.907423 0.907512 0.665490
0.920723 0.909858 0.667770
0.499788 0.853327 0.600680
0.551325 0.862391 0.609647
0.606315 0.872057 0.619225
0.664057 0.882203 0.629291
0.724107 0.892750 0.639768
0.786153 0.903643 0.650602
0.849967 0.914844 0.661752
0.915370 0.926320 0.673188
0.928644 0.928653 0.675493
0.249116 0.249923 0.402317
0.300415 0.258968 0.411185
0.355177 0.268619 0.420662
0.412706 0.278752 0.430625
0.472562 0.289291 0.440994
0.534437 0.300181 0.451715
0.598104 0.311382 0.462749
0.663387 0.322862 0.474064
0.676767 0.325222 0.476216
0.279613 0.322741 0.432155
0.330967 0.331797 0.441028
0.385783 0.341458 0.450510
0.443366 0.351602 0.460478
0.503274 0.362150 0.470852
0.565199 0.373050 0.481580
0.628913 0.384259 0.492620
0.694240 0.395749 0.503943
0.707618 0.398112 0.506107
0.312170 0.400484 0.464054
0.363572 0.409550 0.472933
0.418436 0.419220 0.482422
0.476065 0.429371 0.492396
0.536017 0.439928 0.502778
0.597984 0.450834 0.513514
0.661738 0.462051 0.524563
0.727102 0.473546 0.535894
0.740474 0.475912 0.538074
0.346370 0.482158 0.497601
0.397813 0.491231 0.506489
0.452718 0.500907 0.515986
0.510385 0.511065 0.525970
0.570374 0.521627 0.536361
0.632376 0.532538 0.547107
0.696161 0.543759 0.558167
0.761553 0.555258 0.569509
0.774917 0.557625 0.571706
0.381947 0.567130 0.532540
0.433424 0.576207 0.541438
0.488361 0.585887 0.550946
0.546060 0.596048 0.560941
0.606078 0.606613 0.571345
0.668106 0.617527 0.582103
0.731914 0.628749 0.593175
0.797325 0.640250 0.604532
0.810678 0.642615 0.606746
0.418711 0.654954 0.568694
0.470215 0.664032 0.577605
0.525177 0.673714 0.587127
0.582900 0.683876 0.597135
0.642938 0.694440 0.607553
0.704983 0.705354 0.618326
0.768806 0.716575 0.629414
0.834228 0.728074 0.640786
0.847566 0.730435 0.643021
0.456518 0.745296 0.605936
0.508041 0.754373 0.614862
0.563021 0.764053 0.624398
0.620759 0.774213 0.634423
0.680809 0.784775 0.644857
0.742864 0.795685 0.655648
0.806692 0.806903 0.666754
0.872116 0.818397 0.678145
0.885436 0.820751 0.680401
0.495253 0.837895 0.644167
0.546788 0.846968 0.653111
0.601779 0.856644 0.662666
0.659523 0.866799 0.672709
0.719578 0.877355 0.683162
0.781633 0.888259 0.693973
0.845458 0.899470 0.705099
0.910876 0.910956 0.716512
0.924174 0.913301 0.718792
0.503238 0.856774 0.651705
0.554775 0.865838 0.660670
0.609765 0.875503 0.670248
0.667507 0.885648 0.680313
0.727555 0.896193 0.690790
0.789601 0.907086 0.701624
0.853413 0.918285 0.712776
0.918814 0.929760 0.724213
0.932086 0.932092 0.726520
0.252697 0.253500 0.455564
0.304002 0.262546 0.464420
0.358770 0.272197 0.473886
0.416305 0.282331 0.483836
0.476166 0.292870 0.494194
0.538047 0.303761 0.504905
0.601719 0.314962 0.515929
0.667007 0.326443 0.527234
0.680387 0.328803 0.529376
0.283198 0.326322 0.485363
0.334557 0.335378 0.494225
0.389379 0.345040 0.503697
0.446966 0.355184 0.513654
0.506879 0.365733 0.524019
0.568809 0.376632 0.534737
0.632528 0.387842 0.545769
0.697859 0.399332 0.557083
0.711236 0.401696 0.559240
0.315758 0.404068 0.517227
0.367164 0.413134 0.526097
0.422033 0.422804 0.535576
0.479666 0.432956 0.545542
0.539622 0.443513 0.555916
0.601594 0.454419 0.566643
0.665351 0.465636 0.577685
0.730718 0.477131 0.589009
0.744090 0.479497 0.591183
0.349961 0.485745 0.550744
0.401408 0.494818 0.559623
0.456316 0.504494 0.569113
0.513987 0.514652 0.579089
0.573979 0.525213 0.589474
0.635984 0.536125 0.600213
0.699772 0.547345 0.611267
0.765166 0.558845 0.622604
0.778529 0.561211 0.624796
0.385540 0.570719 0.585657
0.437019 0.579795 0.594549
0.491960 0.589475 0.604050
0.549661 0.599636 0.614039
0.609681 0.610201 0.624437
0.671711 0.621114 0.635191
0.735521 0.632336 0.646259
0.800934 0.643836 0.657611
0.814285 0.646201 0.659822
0.422304 0.658543 0.621790
0.473810 0.667621 0.630696
0.528775 0.677302 0.640213
0.586499 0.687464 0.650216
0.646539 0.698028 0.660630
0.708585 0.708941 0.671400
0.772409 0.720162 0.682485
0.837831 0.731660 0.693854
0.851168 0.734020 0.696087
0.460110 0.748885 0.659016
0.511635 0.757962 0.667938
0.566616 0.767641 0.677471
0.624355 0.777800 0.687493
0.684406 0.788362 0.697925
0.746461 0.799271 0.708713
0.810290 0.810488 0.719817
0.875713 0.821981 0.731207
0.889031 0.824334 0.733463
0.498844 0.841483 0.697236
0.550380 0.850556 0.706177
0.605371 0.860230 0.715730
0.663115 0.870384 0.725771
0.723170 0.880940 0.736224
0.785225 0.891842 0.747034
0.849049 0.903052 0.758160
0.914465 0.914537 0.769573
0.927761 0.916881 0.771854
0.506825 0.860359 0.704768
0.558362 0.869422 0.713732
0.613352 0.879086 0.723309
0.671093 0.889229 0.733375
0.731141 0.899774 0.743852
0.793185 0.910665 0.754687
0.856996 0.921863 0.765839
0.922395 0.933337 0.777278
0.935664 0.935668 0.779586
0.256396 0.257195 0.510578
0.307707 0.266242 0.519421
0.362481 0.275894 0.528874
0.420022 0.286029 0.538813
0.479889 0.296569 0.549160
0.541775 0.307459 0.559860
0.605453 0.318661 0.570873
0.670745 0.330143 0.582168
0.684125 0.332503 0.584302
0.286901 0.330021 0.540336
0.338266 0.339079 0.549187
0.393092 0.348741 0.558648
0.450685 0.358885 0.568595
0.510603 0.369434 0.578950
0.572537 0.380334 0.589659
0.636261 0.391545 0.600682
0.701596 0.403034 0.611987
0.714973 0.405398 0.614137
0.319465 0.407771 0.572164
0.370876 0.416837 0.581025
0.425749 0.426508 0.590495
0.483386 0.436660 0.600452
0.543347 0.447217 0.610818
0.605322 0.458123 0.621537
0.669083 0.469340 0.632571
0.734453 0.480836 0.643888
0.747824 0.483201 0.646056
0.353671 0.489451 0.605651
0.405121 0.498523 0.614522
0.460033 0.508200 0.624004
0.517707 0.518357 0.633973
0.577703 0.528919 0.644351
0.639710 0.539830 0.655084
0.703501 0.551051 0.666132
0.768897 0.562550 0.677463
0.782260 0.564916 0.679650
0.389251 0.574426 0.640538
0.440733 0.583502 0.649423
0.495677 0.593182 0.658919
0.553381 0.603343 0.668902
0.613403 0.613907 0.679295
0.675435 0.624820 0.690043
0.739247 0.636042 0.701106
0.804661 0.647541 0.712454
0.818011 0.649905 0.714662
0.426015 0.662251 0.676651
0.477523 0.671329 0.685551
0.532490 0.681009 0.695063
0.590216 0.691170 0.705063
0.650258 0.701734 0.715473
0.712305 0.712646 0.726238
0.776130 0.723867 0.737320
0.841553 0.735364 0.748688
0.854888 0.737724 0.750918
0.463821 0.752593 0.713860
0.515347 0.761669 0.722779
0.570330 0.771348 0.732309
0.628070 0.781506 0.742327
0.688122 0.792067 0.752757
0.750177 0.802975 0.763543
0.814005 0.814191 0.774646
0.879429 0.825684 0.786035
0.892744 0.828036 0.788290
0.502553 0.845190 0.752069
0.554090 0.854261 0.761008
0.609081 0.863935 0.770560
0.666826 0.874088 0.780600
0.726881 0.884642 0.791051
0.788935 0.895544 0.801860
0.852758 0.906753 0.812987
0.918173 0.918237 0.824400
0.931466 0.920580 0.826682
0.510531 0.864063 0.759596
0.562068 0.873124 0.768560
0.617058 0.882787 0.778136
0.674798 0.892930 0.788202
0.734845 0.903473 0.798679
0.796888 0.914363 0.809515
0.860697 0.925560 0.820669
0.926093 0.937032 0.832110
0.939360 0.939362 0.834420
0.260200 0.260996 0.567153
0.311517 0.270044 0.575984
0.366297 0.279697 0.585425
0.423844 0.289832 0.595352
0.483717 0.300372 0.605688
0.545608 0.311263 0.616377
0.609291 0.322466 0.627379
0.674589 0.333948 0.638665
0.687969 0.336308 0.640789
0.290710 0.333826 0.596871
0.342080 0.342884 0.605711
0.396912 0.352547 0.615161
0.454509 0.362692 0.625098
0.514432 0.373241 0.635443
0.576371 0.384141 0.646143
0.640099 0.395352 0.657157
0.705438 0.406842 0.668453
0.718814 0.409205 0.670596
0.323277 0.411580 0.628664
0.374692 0.420646 0.637515
0.429570 0.430316 0.646976
0.487211 0.440469 0.656924
0.547176 0.451026 0.667281
0.609155 0.461932 0.677993
0.672919 0.473149 0.689019
0.738292 0.484645 0.700329
0.751663 0.487010 0.702491
0.357485 0.493262 0.662119
0.408939 0.502334 0.670983
0.463855 0.512010 0.680457
0.521533 0.522168 0.690419
0.581531 0.532730 0.700790
0.643542 0.543641 0.711516
0.707335 0.554861 0.722558
0.772733 0.566360 0.733884
0.786095 0.568725 0.736066
0.393067 0.578238 0.696981
0.444553 0.587314 0.705860
0.499498 0.596994 0.715349
0.557205 0.607155 0.725326
0.617230 0.617718 0.735714
0.679264 0.628631 0.746457
0.743077 0.639853 0.757516
0.808493 0.651352 0.768860
0.821842 0.653715 0.771065
0.429832 0.666064 0.733073
0.481342 0.675141 0.741969
0.536311 0.684822 0.751476
0.594039 0.694982 0.761471
0.654082 0.705545 0.771877
0.716131 0.716457 0.782639
0.779956 0.727677 0.793718
0.845379 0.739174 0.805083
0.858712 0.741532 0.807312
0.467637 0.756406 0.770267
0.519164 0.765481 0.779182
0.574149 0.775159 0.788709
0.631889 0.785317 0.798724
0.691942 0.795877 0.809152
0.753997 0.806784 0.819936
0.817826 0.818000 0.831038
0.883249 0.829491 0.842425
0.896562 0.831842 0.844680
0.506367 0.849001 0.808466
0.557905 0.858072 0.817402
0.612896 0.867745 0.826952
0.670641 0.877897 0.836991
0.730696 0.888450 0.847442
0.792749 0.899351 0.858250
0.856572 0.910558 0.869377
0.921985 0.922042 0.880791
0.935276 0.924383 0.883074
0.514342 0.867871 0.815987
0.565879 0.876931 0.824950
0.620868 0.886594 0.834526
0.678608 0.896735 0.844592
0.738653 0.907277 0.855071
0.800695 0.918166 0.865908
0.864502 0.929362 0.877063
0.929896 0.940833 0.888506
0.943160 0.943161 0.890819
0.264100 0.264892 0.625133
0.315423 0.273940 0.633951
0.370208 0.283594 0.643380
0.427761 0.293729 0.653296
0.487639 0.304270 0.663620
0.549536 0.315162 0.674298
0.613224 0.326365 0.685290
0.678526 0.337848 0.696565
0.691906 0.340208 0.698681
0.294614 0.337726 0.654811
0.345988 0.346784 0.663640
0.400825 0.356447 0.673079
0.458428 0.366593 0.683005
0.518355 0.377142 0.693341
0.580299 0.388043 0.704031
0.644031 0.399254 0.715036
0.709374 0.410744 0.726324
0.722750 0.413108 0.728459
0.327184 0.415483 0.686567
0.378604 0.424549 0.695409
0.433485 0.434220 0.704861
0.491131 0.444373 0.714800
0.551099 0.454929 0.725149
0.613082 0.465836 0.735853
0.676850 0.477053 0.746872
0.742226 0.488549 0.758175
0.755596 0.490914 0.760331
0.361395 0.497167 0.719992
0.412852 0.506239 0.728848
0.467771 0.515916 0.738314
0.525453 0.526074 0.748269
0.585454 0.536635 0.758633
0.647468 0.547546 0.769353
0.711263 0.558766 0.780389
0.776664 0.570265 0.791709
0.790024 0.572630 0.793887
0.396978 0.582145 0.754829
0.448466 0.591221 0.763701
0.503415 0.600901 0.773184
0.561124 0.611061 0.783156
0.621151 0.621624 0.793538
0.683187 0.632537 0.804276
0.747002 0.643758 0.815331
0.812419 0.655257 0.826671
0.825766 0.657619 0.828873
0.433743 0.669972 0.790900
0.485256 0.679049 0.799791
0.540227 0.688729 0.809293
0.597956 0.698889 0.819284
0.658000 0.709451 0.829687
0.720050 0.720362 0.840446
0.783876 0.731581 0.851522
0.849300 0.743078 0.862884
0.862631 0.745435 0.865112
0.471548 0.760313 0.828078
0.523076 0.769388 0.836990
0.578062 0.779065 0.846514
0.635803 0.789222 0.856527
0.695856 0.799781 0.866952
0.757912 0.810688 0.877735
0.821740 0.821902 0.888835
0.887163 0.833393 0.900222
0.900474 0.835743 0.902477
0.510276 0.852908 0.866267
0.561814 0.861977 0.875202
0.616806 0.871649 0.884750
0.674551 0.881800 0.894788
0.734605 0.892353 0.905238
0.796658 0.903252 0.916047
0.860479 0.914458 0.927174
0.925891 0.925941 0.938580
0.939179 0.928281 0.940865
0.518246 0.871774 0.873785
0.569783 0.880833 0.882748
0.624772 0.890494 0.892324
0.682511 0.900634 0.902390
0.742556 0.911175 0.912869
0.804596 0.922063 0.923707
0.868402 0.933258 0.934864
0.933793 0.944727 0.946308
0.947054 0.947054 0.948625
0.264913 0.265693 0.636817
0.316241 0.274741 0.645634
0.371031 0.284394 0.655062
0.428588 0.294530 0.664976
0.488471 0.305071 0.675299
0.550373 0.315964 0.685977
0.614065 0.327167 0.696968
0.679371 0.338650 0.708243
0.692751 0.341009 0.710358
0.295428 0.338529 0.666491
0.346807 0.347587 0.675319
0.401648 0.357250 0.684758
0.459255 0.367395 0.694684
0.519186 0.377945 0.705019
0.581133 0.388846 0.715709
0.644869 0.400057 0.726713
0.710215 0.411547 0.738001
0.723590 0.413910 0.740137
0.327999 0.416287 0.698246
0.379422 0.425354 0.707087
0.434307 0.435024 0.716538
0.491956 0.445177 0.726478
0.551928 0.455734 0.736827
0.613913 0.466640 0.747531
0.677684 0.477857 0.758550
0.743062 0.489352 0.769853
0.756431 0.491717 0.772010
0.362210 0.497973 0.731670
0.413670 0.507045 0.740526
0.468592 0.516721 0.749992
0.526276 0.526879 0.759947
0.586280 0.537440 0.770312
0.648295 0.548350 0.781033
0.712093 0.559570 0.792069
0.777495 0.571068 0.803390
0.790853 0.573433 0.805569
0.397792 0.582952 0.766507
0.449282 0.592027 0.775380
0.504233 0.601706 0.784864
0.561944 0.611866 0.794836
0.621973 0.622429 0.805219
0.684010 0.633341 0.815958
0.747826 0.644561 0.827014
0.813244 0.656059 0.838356
0.826589 0.658421 0.840559
0.434556 0.670778 0.802581
0.486069 0.679854 0.811472
0.541042 0.689533 0.820976
0.598772 0.699693 0.830968
0.658817 0.710255 0.841372
0.720868 0.721165 0.852133
0.784694 0.732383 0.863210
0.850118 0.743879 0.874575
0.863447 0.746235 0.876804
0.472358 0.761118 0.839763
0.523887 0.770192 0.848676
0.578873 0.779869 0.858201
0.636615 0.790025 0.868216
0.696668 0.800583 0.878643
0.758724 0.811489 0.889428
0.822551 0.822702 0.900530
0.887973 0.834192 0.911919
0.901282 0.836541 0.914176
0.511083 0.853711 0.877957
0.562621 0.862779 0.886894
0.617613 0.872450 0.896443
0.675358 0.882600 0.906484
0.735411 0.893151 0.916936
0.797463 0.904050 0.927747
0.861283 0.915255 0.938865
0.926693 0.926736 0.950270
0.939979 0.929075 0.952565
0.519048 0.872573 0.885482
0.570585 0.881631 0.894447
0.625573 0.891291 0.904025
0.683311 0.901430 0.914094
0.743355 0.911970 0.924576
0.805393 0.922857 0.935415
0.869197 0.934050 0.946573
0.934586 0.945518 0.958023
0.947844 0.947844 0.960344
