library/cube/Fresh_Content_002.cube
# CINEGRADE LAB — Premium Cinematic LUT
# Title: Fresh Content
# Category: Clean Creator Economy
# Description: Bright, clean, approachable, modern aesthetic for content creators
# Mood: Fresh, bright, friendly
# Variant: 3
# Generated: 2026-05-21T16:12:38.216856
TITLE "Fresh Content"
LUT_3D_SIZE 9
0.120326 0.122708 0.150806
0.211373 0.125877 0.153974
0.308914 0.129271 0.157369
0.410436 0.132804 0.160902
0.514883 0.136439 0.164537
0.621663 0.140155 0.168252
0.730388 0.143939 0.172036
0.840789 0.147781 0.175878
0.900152 0.149846 0.177944
0.131246 0.223659 0.161726
0.222293 0.226828 0.164894
0.319834 0.230222 0.168289
0.421356 0.233755 0.171822
0.525803 0.237390 0.175457
0.632583 0.241106 0.179172
0.741308 0.244890 0.182956
0.851709 0.248732 0.186798
0.911072 0.250798 0.188864
0.142785 0.330336 0.173265
0.233833 0.333504 0.176434
0.331374 0.336899 0.179828
0.432895 0.340432 0.183361
0.537343 0.344067 0.186996
0.644122 0.347783 0.190712
0.752848 0.351566 0.194495
0.863249 0.355408 0.198337
0.922611 0.357474 0.200403
0.154700 0.440482 0.185180
0.245747 0.443650 0.188348
0.343288 0.447045 0.191743
0.444810 0.450578 0.195276
0.549257 0.454212 0.198910
0.656036 0.457928 0.202626
0.764762 0.461712 0.206410
0.875163 0.465554 0.210252
0.934525 0.467620 0.212318
0.166888 0.553161 0.197368
0.257936 0.556329 0.200537
0.355477 0.559723 0.203931
0.456998 0.563256 0.207464
0.561446 0.566891 0.211099
0.668225 0.570607 0.214815
0.776951 0.574391 0.218599
0.887352 0.578233 0.222441
0.946714 0.580299 0.224506
0.179294 0.667847 0.209774
0.270342 0.671016 0.212943
0.367883 0.674410 0.216337
0.469404 0.677943 0.219870
0.573852 0.681578 0.223505
0.680631 0.685294 0.227221
0.789357 0.689078 0.231004
0.899758 0.692920 0.234846
0.959120 0.694986 0.236912
0.191880 0.784204 0.222360
0.282928 0.787372 0.225529
0.380469 0.790767 0.228923
0.481990 0.794300 0.232456
0.586438 0.797935 0.236091
0.693217 0.801651 0.239807
0.801943 0.805434 0.243591
0.912344 0.809276 0.247433
0.971706 0.811342 0.249499
0.204622 0.901992 0.235102
0.295669 0.905161 0.238270
0.393210 0.908555 0.241665
0.494732 0.912088 0.245198
0.599179 0.915723 0.248832
0.705959 0.919439 0.252548
0.814684 0.923223 0.256332
0.925085 0.927065 0.260174
0.984448 0.929131 0.262240
0.211331 0.964019 0.241811
0.302379 0.967187 0.244980
0.399920 0.970582 0.248374
0.501441 0.974115 0.251907
0.605889 0.977750 0.255542
0.712668 0.981465 0.259258
0.821394 0.985249 0.263042
0.931795 0.989091 0.266884
0.991157 0.991157 0.268949
0.121394 0.123776 0.239070
0.212441 0.126944 0.242239
0.309982 0.130339 0.245633
0.411503 0.133872 0.249166
0.515951 0.137507 0.252801
0.622730 0.141223 0.256517
0.731456 0.145006 0.260300
0.841857 0.148848 0.264142
0.901219 0.150914 0.266208
0.132313 0.224727 0.249990
0.223361 0.227896 0.253159
0.320902 0.231290 0.256553
0.422423 0.234823 0.260086
0.526871 0.238458 0.263721
0.633650 0.242174 0.267437
0.742376 0.245957 0.271220
0.852777 0.249799 0.275062
0.912139 0.251865 0.277128
0.143853 0.331404 0.261529
0.234900 0.334572 0.264698
0.332441 0.337967 0.268092
0.433963 0.341499 0.271625
0.538410 0.345134 0.275260
0.645190 0.348850 0.278976
0.753915 0.352634 0.282760
0.864316 0.356476 0.286602
0.923679 0.358542 0.288667
0.155767 0.441549 0.273444
0.246815 0.444718 0.276612
0.344356 0.448112 0.280007
0.445877 0.451645 0.283540
0.550325 0.455280 0.287175
0.657104 0.458996 0.290891
0.765830 0.462780 0.294674
0.876231 0.466622 0.298516
0.935593 0.468688 0.300582
0.167956 0.554228 0.285633
0.259003 0.557397 0.288801
0.356545 0.560791 0.292195
0.458066 0.564324 0.295728
0.562513 0.567959 0.299363
0.669293 0.571675 0.303079
0.778018 0.575459 0.306863
0.888419 0.579301 0.310705
0.947782 0.581366 0.312771
0.180362 0.668915 0.298038
0.271409 0.672084 0.301207
0.368950 0.675478 0.304601
0.470472 0.679011 0.308134
0.574919 0.682646 0.311769
0.681699 0.686362 0.315485
0.790424 0.690145 0.319269
0.900825 0.693987 0.323111
0.960187 0.696053 0.325176
0.192948 0.785272 0.310625
0.283996 0.788440 0.313793
0.381537 0.791835 0.317188
0.483058 0.795367 0.320721
0.587506 0.799002 0.324355
0.694285 0.802718 0.328071
0.803011 0.806502 0.331855
0.913412 0.810344 0.335697
0.972774 0.812410 0.337763
0.205689 0.903060 0.323366
0.296737 0.906229 0.326535
0.394278 0.909623 0.329929
0.495799 0.913156 0.333462
0.600247 0.916791 0.337097
0.707026 0.920507 0.340813
0.815752 0.924290 0.344596
0.926153 0.928132 0.348438
0.985515 0.930198 0.350504
0.212399 0.965087 0.330075
0.303446 0.968255 0.333244
0.400988 0.971649 0.336638
0.502509 0.975182 0.340171
0.606956 0.978817 0.343806
0.713736 0.982533 0.347522
0.822461 0.986317 0.351306
0.932862 0.990159 0.355148
0.992225 0.992225 0.357214
0.122528 0.124911 0.332881
0.213576 0.128079 0.336049
0.311117 0.131474 0.339444
0.412638 0.135007 0.342977
0.517086 0.138641 0.346611
0.623865 0.142357 0.350327
0.732591 0.146141 0.354111
0.842992 0.149983 0.357953
0.902354 0.152049 0.360019
0.133448 0.225862 0.343801
0.224496 0.229030 0.346969
0.322037 0.232425 0.350364
0.423558 0.235958 0.353897
0.528006 0.239593 0.357531
0.634785 0.243309 0.361247
0.743511 0.247092 0.365031
0.853912 0.250934 0.368873
0.913274 0.253000 0.370939
0.144988 0.332538 0.355340
0.236035 0.335707 0.358508
0.333576 0.339101 0.361903
0.435097 0.342634 0.365436
0.539545 0.346269 0.369071
0.646324 0.349985 0.372787
0.755050 0.353769 0.376570
0.865451 0.357611 0.380412
0.924813 0.359676 0.382478
0.156902 0.442684 0.367255
0.247950 0.445853 0.370423
0.345491 0.449247 0.373817
0.447012 0.452780 0.377350
0.551460 0.456415 0.380985
0.658239 0.460131 0.384701
0.766965 0.463915 0.388485
0.877366 0.467756 0.392327
0.936728 0.469822 0.394393
0.169091 0.555363 0.379443
0.260138 0.558531 0.382612
0.357679 0.561926 0.386006
0.459201 0.565459 0.389539
0.563648 0.569094 0.393174
0.670427 0.572810 0.396890
0.779153 0.576593 0.400673
0.889554 0.580435 0.404515
0.948916 0.582501 0.406581
0.181497 0.670050 0.391849
0.272544 0.673218 0.395017
0.370085 0.676613 0.398412
0.471606 0.680146 0.401945
0.576054 0.683781 0.405580
0.682833 0.687497 0.409296
0.791559 0.691280 0.413079
0.901960 0.695122 0.416921
0.961322 0.697188 0.418987
0.194083 0.786406 0.404435
0.285130 0.789575 0.407604
0.382672 0.792969 0.410998
0.484193 0.796502 0.414531
0.588640 0.800137 0.418166
0.695420 0.803853 0.421882
0.804145 0.807637 0.425666
0.914546 0.811479 0.429508
0.973909 0.813544 0.431573
0.206824 0.904195 0.417177
0.297872 0.907363 0.420345
0.395413 0.910758 0.423740
0.496934 0.914291 0.427273
0.601382 0.917926 0.430907
0.708161 0.921642 0.434623
0.816887 0.925425 0.438407
0.927288 0.929267 0.442249
0.986650 0.931333 0.444315
0.213534 0.966221 0.423886
0.304581 0.969390 0.427055
0.402122 0.972784 0.430449
0.503644 0.976317 0.433982
0.608091 0.979952 0.437617
0.714870 0.983668 0.441333
0.823596 0.987452 0.445116
0.933997 0.991294 0.448958
0.993359 0.993359 0.451024
0.123706 0.126089 0.430257
0.214754 0.129257 0.433426
0.312295 0.132652 0.436820
0.413816 0.136185 0.440353
0.518264 0.139819 0.443988
0.625043 0.143535 0.447704
0.733769 0.147319 0.451488
0.844170 0.151161 0.455330
0.903532 0.153227 0.457396
0.134626 0.227040 0.441177
0.225674 0.230208 0.444346
0.323215 0.233603 0.447740
0.424736 0.237136 0.451273
0.529184 0.240771 0.454908
0.635963 0.244486 0.458624
0.744689 0.248270 0.462408
0.855090 0.252112 0.466250
0.914452 0.254178 0.468316
0.146165 0.333716 0.452717
0.237213 0.336885 0.455885
0.334754 0.340279 0.459280
0.436275 0.343812 0.462813
0.540723 0.347447 0.466447
0.647502 0.351163 0.470163
0.756228 0.354947 0.473947
0.866629 0.358789 0.477789
0.925991 0.360854 0.479855
0.158080 0.443862 0.464631
0.249128 0.447031 0.467800
0.346669 0.450425 0.471194
0.448190 0.453958 0.474727
0.552638 0.457593 0.478362
0.659417 0.461309 0.482078
0.768143 0.465092 0.485862
0.878544 0.468934 0.489704
0.937906 0.471000 0.491769
0.170269 0.556541 0.476820
0.261316 0.559709 0.479988
0.358857 0.563104 0.483383
0.460379 0.566637 0.486916
0.564826 0.570272 0.490551
0.671605 0.573988 0.494267
0.780331 0.577771 0.498050
0.890732 0.581613 0.501892
0.950094 0.583679 0.503958
0.182674 0.671228 0.489226
0.273722 0.674396 0.492394
0.371263 0.677791 0.495789
0.472784 0.681324 0.499322
0.577232 0.684958 0.502956
0.684011 0.688674 0.506672
0.792737 0.692458 0.510456
0.903138 0.696300 0.514298
0.962500 0.698366 0.516364
0.195261 0.787584 0.501812
0.286308 0.790753 0.504981
0.383849 0.794147 0.508375
0.485371 0.797680 0.511908
0.589818 0.801315 0.515543
0.696598 0.805031 0.519259
0.805323 0.808815 0.523042
0.915724 0.812657 0.526884
0.975087 0.814722 0.528950
0.208002 0.905373 0.514553
0.299050 0.908541 0.517722
0.396591 0.911936 0.521116
0.498112 0.915469 0.524649
0.602560 0.919104 0.528284
0.709339 0.922819 0.532000
0.818065 0.926603 0.535784
0.928466 0.930445 0.539626
0.987828 0.932511 0.541692
0.214712 0.967399 0.521263
0.305759 0.970568 0.524431
0.403300 0.973962 0.527826
0.504822 0.977495 0.531359
0.609269 0.981130 0.534994
0.716048 0.984846 0.538710
0.824774 0.988630 0.542493
0.935175 0.992471 0.546335
0.994537 0.994537 0.548401
0.124916 0.127299 0.530304
0.215964 0.130467 0.533473
0.313505 0.133862 0.536867
0.415026 0.137395 0.540400
0.519474 0.141030 0.544035
0.626253 0.144745 0.547751
0.734979 0.148529 0.551535
0.845380 0.152371 0.555377
0.904742 0.154437 0.557442
0.135836 0.228250 0.541224
0.226884 0.231419 0.544393
0.324425 0.234813 0.547787
0.425946 0.238346 0.551320
0.530394 0.241981 0.554955
0.637173 0.245697 0.558671
0.745899 0.249480 0.562455
0.856300 0.253322 0.566297
0.915662 0.255388 0.568362
0.147376 0.334926 0.552764
0.238423 0.338095 0.555932
0.335964 0.341489 0.559326
0.437486 0.345022 0.562859
0.541933 0.348657 0.566494
0.648712 0.352373 0.570210
0.757438 0.356157 0.573994
0.867839 0.359999 0.577836
0.927201 0.362065 0.579902
0.159290 0.445072 0.564678
0.250338 0.448241 0.567847
0.347879 0.451635 0.571241
0.449400 0.455168 0.574774
0.553848 0.458803 0.578409
0.660627 0.462519 0.582125
0.769353 0.466303 0.585908
0.879754 0.470145 0.589750
0.939116 0.472210 0.591816
0.171479 0.557751 0.576867
0.262526 0.560920 0.580035
0.360067 0.564314 0.583430
0.461589 0.567847 0.586963
0.566036 0.571482 0.590597
0.672816 0.575198 0.594313
0.781541 0.578981 0.598097
0.891942 0.582823 0.601939
0.951305 0.584889 0.604005
0.183885 0.672438 0.589273
0.274932 0.675606 0.592441
0.372473 0.679001 0.595835
0.473995 0.682534 0.599368
0.578442 0.686169 0.603003
0.685221 0.689885 0.606719
0.793947 0.693668 0.610503
0.904348 0.697510 0.614345
0.963710 0.699576 0.616411
0.196471 0.788794 0.601859
0.287519 0.791963 0.605027
0.385060 0.795357 0.608422
0.486581 0.798890 0.611955
0.591029 0.802525 0.615590
0.697808 0.806241 0.619306
0.806534 0.810025 0.623089
0.916935 0.813867 0.626931
0.976297 0.815933 0.628997
0.209212 0.906583 0.614600
0.300260 0.909751 0.617769
0.397801 0.913146 0.621163
0.499322 0.916679 0.624696
0.603770 0.920314 0.628331
0.710549 0.924030 0.632047
0.819275 0.927813 0.635831
0.929676 0.931655 0.639673
0.989038 0.933721 0.641738
0.215922 0.968609 0.621310
0.306969 0.971778 0.624478
0.404510 0.975172 0.627873
0.506032 0.978705 0.631406
0.610479 0.982340 0.635040
0.717259 0.986056 0.638756
0.825984 0.989840 0.642540
0.936385 0.993682 0.646382
0.995748 0.995748 0.648448
0.126153 0.128535 0.632500
0.217200 0.131704 0.635668
0.314741 0.135098 0.639063
0.416262 0.138631 0.642596
0.520710 0.142266 0.646230
0.627489 0.145982 0.649946
0.736215 0.149765 0.653730
0.846616 0.153607 0.657572
0.905978 0.155673 0.659638
0.137073 0.229486 0.643420
0.228120 0.232655 0.646588
0.325661 0.236049 0.649983
0.427182 0.239582 0.653516
0.531630 0.243217 0.657150
0.638409 0.246933 0.660866
0.747135 0.250717 0.664650
0.857536 0.254559 0.668492
0.916898 0.256624 0.670558
0.148612 0.336163 0.654959
0.239659 0.339331 0.658127
0.337200 0.342726 0.661522
0.438722 0.346259 0.665055
0.543169 0.349893 0.668690
0.649949 0.353609 0.672406
0.758674 0.357393 0.676189
0.869075 0.361235 0.680031
0.928438 0.363301 0.682097
0.160526 0.446308 0.666874
0.251574 0.449477 0.670042
0.349115 0.452871 0.673436
0.450636 0.456404 0.676969
0.555084 0.460039 0.680604
0.661863 0.463755 0.684320
0.770589 0.467539 0.688104
0.880990 0.471381 0.691946
0.940352 0.473447 0.694012
0.172715 0.558987 0.679062
0.263763 0.562156 0.682231
0.361304 0.565550 0.685625
0.462825 0.569083 0.689158
0.567272 0.572718 0.692793
0.674052 0.576434 0.696509
0.782778 0.580218 0.700292
0.893178 0.584060 0.704134
0.952541 0.586125 0.706200
0.185121 0.673674 0.691468
0.276168 0.676843 0.694636
0.373709 0.680237 0.698031
0.475231 0.683770 0.701564
0.579678 0.687405 0.705199
0.686458 0.691121 0.708915
0.795183 0.694905 0.712698
0.905584 0.698746 0.716540
0.964947 0.700812 0.718606
0.197707 0.790031 0.704054
0.288755 0.793199 0.707223
0.386296 0.796594 0.710617
0.487817 0.800127 0.714150
0.592265 0.803761 0.717785
0.699044 0.807477 0.721501
0.807770 0.811261 0.725285
0.918171 0.815103 0.729127
0.977533 0.817169 0.731192
0.210449 0.907819 0.716796
0.301496 0.910988 0.719964
0.399037 0.914382 0.723359
0.500558 0.917915 0.726892
0.605006 0.921550 0.730526
0.711785 0.925266 0.734242
0.820511 0.929050 0.738026
0.930912 0.932892 0.741868
0.990274 0.934957 0.743934
0.217158 0.969846 0.723505
0.308205 0.973014 0.726674
0.405747 0.976408 0.730068
0.507268 0.979941 0.733601
0.611715 0.983576 0.737236
0.718495 0.987292 0.740952
0.827220 0.991076 0.744735
0.937621 0.994918 0.748577
0.996984 0.996984 0.750643
0.127411 0.129793 0.736500
0.218458 0.132962 0.739668
0.315999 0.136356 0.743063
0.417520 0.139889 0.746596
0.521968 0.143524 0.750231
0.628747 0.147240 0.753947
0.737473 0.151023 0.757730
0.847874 0.154865 0.761572
0.907236 0.156931 0.763638
0.138331 0.230744 0.747420
0.229378 0.233913 0.750588
0.326919 0.237307 0.753983
0.428440 0.240840 0.757516
0.532888 0.244475 0.761151
0.639667 0.248191 0.764867
0.748393 0.251975 0.768650
0.858794 0.255817 0.772492
0.918156 0.257882 0.774558
0.149870 0.337421 0.758959
0.240917 0.340589 0.762128
0.338458 0.343984 0.765522
0.439980 0.347517 0.769055
0.544427 0.351151 0.772690
0.651207 0.354867 0.776406
0.759932 0.358651 0.780190
0.870333 0.362493 0.784032
0.929696 0.364559 0.786097
0.161784 0.447566 0.770874
0.252832 0.450735 0.774042
0.350373 0.454129 0.777437
0.451894 0.457662 0.780970
0.556342 0.461297 0.784605
0.663121 0.465013 0.788320
0.771847 0.468797 0.792104
0.882248 0.472639 0.795946
0.941610 0.474705 0.798012
0.173973 0.560245 0.783062
0.265021 0.563414 0.786231
0.362562 0.566808 0.789625
0.464083 0.570341 0.793158
0.568531 0.573976 0.796793
0.675310 0.577692 0.800509
0.784036 0.581476 0.804293
0.894437 0.585318 0.808135
0.953799 0.587383 0.810201
0.186379 0.674932 0.795468
0.277426 0.678101 0.798637
0.374967 0.681495 0.802031
0.476489 0.685028 0.805564
0.580936 0.688663 0.809199
0.687716 0.692379 0.812915
0.796441 0.696163 0.816699
0.906842 0.700005 0.820541
0.966205 0.702070 0.822606
0.198965 0.791289 0.808055
0.290013 0.794457 0.811223
0.387554 0.797852 0.814618
0.489075 0.801385 0.818151
0.593523 0.805019 0.821785
0.700302 0.808735 0.825501
0.809028 0.812519 0.829285
0.919429 0.816361 0.833127
0.978791 0.818427 0.835193
0.211707 0.909077 0.820796
0.302754 0.912246 0.823964
0.400295 0.915640 0.827359
0.501816 0.919173 0.830892
0.606264 0.922808 0.834527
0.713043 0.926524 0.838243
0.821769 0.930308 0.842026
0.932170 0.934150 0.845868
0.991532 0.936215 0.847934
0.218416 0.971104 0.827505
0.309464 0.974272 0.830674
0.407005 0.977667 0.834068
0.508526 0.981199 0.837601
0.612973 0.984834 0.841236
0.719753 0.988550 0.844952
0.828479 0.992334 0.848736
0.938879 0.996176 0.852578
0.998242 0.998242 0.854643
0.128687 0.131070 0.842060
0.219735 0.134238 0.845229
0.317276 0.137633 0.848623
0.418797 0.141166 0.852156
0.523245 0.144801 0.855791
0.630024 0.148517 0.859507
0.738750 0.152300 0.863291
0.849151 0.156142 0.867133
0.908513 0.158208 0.869198
0.139607 0.232021 0.852980
0.230655 0.235190 0.856149
0.328196 0.238584 0.859543
0.429717 0.242117 0.863076
0.534165 0.245752 0.866711
0.640944 0.249468 0.870427
0.749670 0.253251 0.874211
0.860071 0.257093 0.878053
0.919433 0.259159 0.880118
0.151147 0.338698 0.864520
0.242194 0.341866 0.867688
0.339735 0.345260 0.871082
0.441257 0.348793 0.874615
0.545704 0.352428 0.878250
0.652484 0.356144 0.881966
0.761209 0.359928 0.885750
0.871610 0.363770 0.889592
0.930972 0.365836 0.891658
0.163061 0.448843 0.876434
0.254109 0.452012 0.879603
0.351650 0.455406 0.882997
0.453171 0.458939 0.886530
0.557619 0.462574 0.890165
0.664398 0.466290 0.893881
0.773124 0.470074 0.897664
0.883525 0.473916 0.901506
0.942887 0.475982 0.903572
0.175250 0.561522 0.888623
0.266297 0.564691 0.891791
0.363839 0.568085 0.895186
0.465360 0.571618 0.898719
0.569807 0.575253 0.902353
0.676587 0.578969 0.906069
0.785312 0.582753 0.909853
0.895713 0.586595 0.913695
0.955076 0.588660 0.915761
0.187656 0.676209 0.901029
0.278703 0.679378 0.904197
0.376244 0.682772 0.907591
0.477766 0.686305 0.911124
0.582213 0.689940 0.914759
0.688992 0.693656 0.918475
0.797718 0.697439 0.922259
0.908119 0.701281 0.926101
0.967481 0.703347 0.928167
0.200242 0.792566 0.913615
0.291290 0.795734 0.916783
0.388831 0.799128 0.920178
0.490352 0.802661 0.923711
0.594800 0.806296 0.927346
0.701579 0.810012 0.931062
0.810305 0.813796 0.934845
0.920706 0.817638 0.938687
0.980068 0.819704 0.940753
0.212983 0.910354 0.926356
0.304031 0.913523 0.929525
0.401572 0.916917 0.932919
0.503093 0.920450 0.936452
0.607541 0.924085 0.940087
0.714320 0.927801 0.943803
0.823046 0.931584 0.947587
0.933447 0.935426 0.951429
0.992809 0.937492 0.953494
0.219693 0.972380 0.933066
0.310740 0.975549 0.936234
0.408281 0.978943 0.939629
0.509803 0.982476 0.943162
0.614250 0.986111 0.946796
0.721030 0.989827 0.950512
0.829755 0.993611 0.954296
0.940156 0.997453 0.958138
0.999519 0.999519 0.960204
0.129169 0.131551 0.881856
0.220216 0.134720 0.885025
0.317757 0.138114 0.888419
0.419279 0.141647 0.891952
0.523726 0.145282 0.895587
0.630506 0.148998 0.899303
0.739231 0.152782 0.903087
0.849632 0.156624 0.906929
0.908995 0.158689 0.908995
0.140089 0.232503 0.892776
0.231136 0.235671 0.895945
0.328677 0.239065 0.899339
0.430199 0.242598 0.902872
0.534646 0.246233 0.906507
0.641426 0.249949 0.910223
0.750151 0.253733 0.914007
0.860552 0.257575 0.917849
0.919915 0.259641 0.919915
0.151628 0.339179 0.904316
0.242676 0.342347 0.907484
0.340217 0.345742 0.910879
0.441738 0.349275 0.914412
0.546186 0.352910 0.918046
0.652965 0.356626 0.921762
0.761691 0.360409 0.925546
0.872092 0.364251 0.929388
0.931454 0.366317 0.931454
0.163543 0.449325 0.916230
0.254590 0.452493 0.919399
0.352131 0.455888 0.922793
0.453653 0.459421 0.926326
0.558100 0.463055 0.929961
0.664879 0.466771 0.933677
0.773605 0.470555 0.937461
0.884006 0.474397 0.941303
0.943368 0.476463 0.943368
0.175731 0.562004 0.928419
0.266779 0.565172 0.931587
0.364320 0.568567 0.934982
0.465841 0.572099 0.938515
0.570289 0.575734 0.942150
0.677068 0.579450 0.945866
0.785794 0.583234 0.949649
0.896195 0.587076 0.953491
0.955557 0.589142 0.955557
0.188137 0.676690 0.940825
0.279185 0.679859 0.943993
0.376726 0.683253 0.947388
0.478247 0.686786 0.950921
0.582695 0.690421 0.954555
0.689474 0.694137 0.958271
0.798200 0.697921 0.962055
0.908601 0.701763 0.965897
0.967963 0.703829 0.967963
0.200724 0.793047 0.953411
0.291771 0.796215 0.956580
0.389312 0.799610 0.959974
0.490833 0.803143 0.963507
0.595281 0.806778 0.967142
0.702060 0.810494 0.970858
0.810786 0.814277 0.974641
0.921187 0.818119 0.978483
0.980549 0.820185 0.980549
0.213465 0.910836 0.966152
0.304512 0.914004 0.969321
0.402053 0.917398 0.972715
0.503575 0.920931 0.976248
0.608022 0.924566 0.979883
0.714802 0.928282 0.983599
0.823527 0.932066 0.987383
0.933928 0.935908 0.991225
0.993291 0.937974 0.993291
0.220174 0.972862 0.972862
0.311222 0.976030 0.976030
0.408763 0.979425 0.979425
0.510284 0.982958 0.982958
0.614732 0.986593 0.986593
0.721511 0.990309 0.990309
0.830237 0.994092 0.994092
0.940638 0.997934 0.997934
1.000000 1.000000 1.000000
