library/cube/Fresh_Content_002.cube
# CINEGRADE LAB — Premium Cinematic LUT
# Title: Fresh Content
# Category: Clean Creator Economy
# Description: Bright, clean, approachable, modern aesthetic for content creators
# Mood: Fresh, bright, friendly
# Variant: 3
# Generated: 2026-05-21T16:12:38.216856
TITLE "Fresh Content"
LUT_3D_SIZE 33
0.120326 0.122708 0.150806
0.142187 0.123469 0.151567
0.164740 0.124254 0.152351
0.187833 0.125058 0.153155
0.211373 0.125877 0.153974
0.235294 0.126709 0.154807
0.259548 0.127553 0.155651
0.284097 0.128408 0.156505
0.308914 0.129271 0.157369
0.333975 0.130143 0.158241
0.359259 0.131023 0.159121
0.384751 0.131910 0.160008
0.410436 0.132804 0.160902
0.436302 0.133704 0.161802
0.462338 0.134610 0.162708
0.488534 0.135522 0.163620
0.514883 0.136439 0.164537
0.541377 0.137361 0.165459
0.568009 0.138288 0.166385
0.594773 0.139219 0.167317
0.621663 0.140155 0.168252
0.648674 0.141095 0.169192
0.675801 0.142039 0.170136
0.703041 0.142987 0.171084
0.730388 0.143939 0.172036
0.757840 0.144894 0.172991
0.785393 0.145853 0.173950
0.813044 0.146815 0.174913
0.840789 0.147781 0.175878
0.868627 0.148749 0.176847
0.896553 0.149721 0.177819
0.900152 0.149846 0.177944
0.900152 0.149846 0.177944
0.122969 0.147145 0.153449
0.144830 0.147906 0.154210
0.167383 0.148691 0.154995
0.190477 0.149494 0.155798
0.214017 0.150313 0.156618
0.237937 0.151146 0.157450
0.262191 0.151990 0.158294
0.286741 0.152844 0.159148
0.311558 0.153708 0.160012
0.336618 0.154580 0.160884
0.361903 0.155460 0.161764
0.387394 0.156347 0.162651
0.413079 0.157241 0.163545
0.438945 0.158141 0.164445
0.464981 0.159047 0.165351
0.491178 0.159959 0.166263
0.517527 0.160876 0.167180
0.544020 0.161798 0.168102
0.570652 0.162724 0.169029
0.597416 0.163656 0.169960
0.624306 0.164592 0.170896
0.651317 0.165532 0.171836
0.678444 0.166476 0.172780
0.705684 0.167424 0.173728
0.733032 0.168375 0.174679
0.760484 0.169331 0.175635
0.788037 0.170289 0.176594
0.815687 0.171252 0.177556
0.843433 0.172217 0.178521
0.871270 0.173186 0.179490
0.899196 0.174158 0.180462
0.902795 0.174283 0.180587
0.902795 0.174283 0.180587
0.125679 0.172199 0.156159
0.147540 0.172960 0.156920
0.170093 0.173744 0.157705
0.193187 0.174548 0.158509
0.216727 0.175367 0.159328
0.240647 0.176200 0.160160
0.264901 0.177044 0.161004
0.289451 0.177898 0.161859
0.314268 0.178762 0.162722
0.339328 0.179634 0.163594
0.364613 0.180514 0.164474
0.390104 0.181401 0.165361
0.415789 0.182295 0.166255
0.441655 0.183195 0.167155
0.467691 0.184101 0.168061
0.493888 0.185013 0.168973
0.520237 0.185929 0.169890
0.546731 0.186851 0.170812
0.573362 0.187778 0.171739
0.600126 0.188710 0.172670
0.627016 0.189645 0.173606
0.654027 0.190585 0.174546
0.681155 0.191529 0.175490
0.708394 0.192477 0.176438
0.735742 0.193429 0.177390
0.763194 0.194384 0.178345
0.790747 0.195343 0.179304
0.818397 0.196306 0.180266
0.846143 0.197271 0.181232
0.873980 0.198240 0.182200
0.901906 0.199212 0.183172
0.905505 0.199337 0.183297
0.905505 0.199337 0.183297
0.128441 0.197732 0.158921
0.150302 0.198493 0.159682
0.172855 0.199278 0.160467
0.195949 0.200082 0.161271
0.219489 0.200901 0.162090
0.243409 0.201733 0.162922
0.267663 0.202577 0.163766
0.292213 0.203432 0.164621
0.317030 0.204295 0.165484
0.342090 0.205167 0.166356
0.367375 0.206047 0.167236
0.392866 0.206934 0.168123
0.418551 0.207828 0.169017
0.444417 0.208728 0.169917
0.470453 0.209634 0.170823
0.496650 0.210546 0.171735
0.522999 0.211463 0.172652
0.549493 0.212385 0.173574
0.576124 0.213312 0.174501
0.602888 0.214243 0.175432
0.629778 0.215179 0.176368
0.656789 0.216119 0.177308
0.683917 0.217063 0.178252
0.711156 0.218011 0.179200
0.738504 0.218963 0.180152
0.765956 0.219918 0.181107
0.793509 0.220877 0.182066
0.821159 0.221839 0.183028
0.848905 0.222805 0.183994
0.876742 0.223773 0.184962
0.904668 0.224745 0.185934
0.908267 0.224870 0.186059
0.908267 0.224870 0.186059
0.131246 0.223659 0.161726
0.153107 0.224420 0.162487
0.175660 0.225205 0.163271
0.198753 0.226009 0.164075
0.222293 0.226828 0.164894
0.246214 0.227660 0.165727
0.270468 0.228504 0.166571
0.295017 0.229359 0.167425
0.319834 0.230222 0.168289
0.344895 0.231095 0.169161
0.370179 0.231974 0.170041
0.395671 0.232862 0.170928
0.421356 0.233755 0.171822
0.447222 0.234656 0.172722
0.473258 0.235562 0.173628
0.499454 0.236473 0.174540
0.525803 0.237390 0.175457
0.552297 0.238312 0.176379
0.578929 0.239239 0.177305
0.605693 0.240170 0.178237
0.632583 0.241106 0.179172
0.659594 0.242046 0.180112
0.686721 0.242990 0.181056
0.713961 0.243938 0.182004
0.741308 0.244890 0.182956
0.768760 0.245845 0.183911
0.796313 0.246804 0.184870
0.823964 0.247766 0.185833
0.851709 0.248732 0.186798
0.879547 0.249701 0.187767
0.907473 0.250672 0.188739
0.911072 0.250798 0.188864
0.911072 0.250798 0.188864
0.134087 0.249922 0.164567
0.155947 0.250683 0.165327
0.178500 0.251467 0.166112
0.201594 0.252271 0.166916
0.225134 0.253090 0.167735
0.249055 0.253923 0.168568
0.273308 0.254767 0.169412
0.297858 0.255621 0.170266
0.322675 0.256485 0.171130
0.347736 0.257357 0.172002
0.373020 0.258237 0.172882
0.398512 0.259124 0.173769
0.424197 0.260018 0.174663
0.450062 0.260918 0.175563
0.476098 0.261824 0.176469
0.502295 0.262735 0.177380
0.528644 0.263652 0.178297
0.555138 0.264574 0.179219
0.581770 0.265501 0.180146
0.608533 0.266433 0.181077
0.635423 0.267368 0.182013
0.662434 0.268308 0.182953
0.689562 0.269252 0.183897
0.716801 0.270200 0.184845
0.744149 0.271152 0.185797
0.771601 0.272107 0.186752
0.799154 0.273066 0.187711
0.826805 0.274029 0.188673
0.854550 0.274994 0.189639
0.882387 0.275963 0.190608
0.910314 0.276935 0.191580
0.913912 0.277060 0.191705
0.913912 0.277060 0.191705
0.136959 0.276476 0.167439
0.158820 0.277237 0.168200
0.181373 0.278022 0.168985
0.204467 0.278825 0.169788
0.228007 0.279644 0.170608
0.251927 0.280477 0.171440
0.276181 0.281321 0.172284
0.300731 0.282175 0.173138
0.325548 0.283039 0.174002
0.350608 0.283911 0.174874
0.375892 0.284791 0.175754
0.401384 0.285678 0.176641
0.427069 0.286572 0.177535
0.452935 0.287472 0.178435
0.478971 0.288378 0.179341
0.505167 0.289290 0.180253
0.531517 0.290207 0.181170
0.558010 0.291129 0.182092
0.584642 0.292055 0.183019
0.611406 0.292987 0.183950
0.638296 0.293923 0.184886
0.665307 0.294863 0.185826
0.692434 0.295807 0.186770
0.719674 0.296755 0.187718
0.747022 0.297706 0.188669
0.774474 0.298662 0.189625
0.802027 0.299621 0.190584
0.829677 0.300583 0.191546
0.857423 0.301548 0.192511
0.885260 0.302517 0.193480
0.913186 0.303489 0.194452
0.916785 0.303614 0.194577
0.916785 0.303614 0.194577
0.139859 0.303289 0.170339
0.161720 0.304050 0.171100
0.184273 0.304835 0.171885
0.207367 0.305639 0.172689
0.230907 0.306458 0.173508
0.254828 0.307290 0.174340
0.279081 0.308134 0.175184
0.303631 0.308989 0.176039
0.328448 0.309852 0.176902
0.353509 0.310724 0.177774
0.378793 0.311604 0.178654
0.404285 0.312491 0.179542
0.429969 0.313385 0.180435
0.455835 0.314285 0.181335
0.481871 0.315191 0.182242
0.508068 0.316103 0.183153
0.534417 0.317020 0.184070
0.560911 0.317942 0.184992
0.587543 0.318869 0.185919
0.614306 0.319800 0.186850
0.641196 0.320736 0.187786
0.668207 0.321676 0.188726
0.695335 0.322620 0.189670
0.722574 0.323568 0.190618
0.749922 0.324520 0.191570
0.777374 0.325475 0.192525
0.804927 0.326434 0.193484
0.832578 0.327396 0.194446
0.860323 0.328362 0.195412
0.888160 0.329330 0.196381
0.916087 0.330302 0.197352
0.919685 0.330428 0.197478
0.919685 0.330428 0.197478
0.142785 0.330336 0.173265
0.164646 0.331097 0.174026
0.187199 0.331882 0.174811
0.210293 0.332685 0.175614
0.233833 0.333504 0.176434
0.257753 0.334337 0.177266
0.282007 0.335181 0.178110
0.306557 0.336035 0.178964
0.331374 0.336899 0.179828
0.356434 0.337771 0.180700
0.381718 0.338651 0.181580
0.407210 0.339538 0.182467
0.432895 0.340432 0.183361
0.458761 0.341332 0.184261
0.484797 0.342238 0.185167
0.510994 0.343150 0.186079
0.537343 0.344067 0.186996
0.563836 0.344989 0.187918
0.590468 0.345915 0.188845
0.617232 0.346847 0.189776
0.644122 0.347783 0.190712
0.671133 0.348723 0.191652
0.698260 0.349667 0.192596
0.725500 0.350615 0.193544
0.752848 0.351566 0.194495
0.780300 0.352522 0.195451
0.807853 0.353480 0.196410
0.835503 0.354443 0.197372
0.863249 0.355408 0.198337
0.891086 0.356377 0.199306
0.919012 0.357349 0.200278
0.922611 0.357474 0.200403
0.922611 0.357474 0.200403
0.145734 0.357595 0.176214
0.167594 0.358355 0.176974
0.190147 0.359140 0.177759
0.213241 0.359944 0.178563
0.236781 0.360763 0.179382
0.260702 0.361595 0.180215
0.284956 0.362440 0.181059
0.309505 0.363294 0.181913
0.334322 0.364157 0.182777
0.359383 0.365030 0.183649
0.384667 0.365909 0.184529
0.410159 0.366797 0.185416
0.435844 0.367690 0.186310
0.461709 0.368591 0.187210
0.487745 0.369497 0.188116
0.513942 0.370408 0.189027
0.540291 0.371325 0.189944
0.566785 0.372247 0.190866
0.593417 0.373174 0.191793
0.620181 0.374105 0.192725
0.647070 0.375041 0.193660
0.674082 0.375981 0.194600
0.701209 0.376925 0.195544
0.728449 0.377873 0.196492
0.755796 0.378825 0.197444
0.783248 0.379780 0.198399
0.810801 0.380739 0.199358
0.838452 0.381701 0.200320
0.866197 0.382667 0.201286
0.894034 0.383636 0.202255
0.921961 0.384607 0.203227
0.925559 0.384733 0.203352
0.925559 0.384733 0.203352
0.148703 0.385048 0.179183
0.170564 0.385809 0.179944
0.193117 0.386593 0.180729
0.216211 0.387397 0.181533
0.239751 0.388216 0.182352
0.263672 0.389049 0.183184
0.287925 0.389893 0.184028
0.312475 0.390747 0.184883
0.337292 0.391611 0.185746
0.362352 0.392483 0.186618
0.387637 0.393363 0.187498
0.413128 0.394250 0.188385
0.438813 0.395144 0.189279
0.464679 0.396044 0.190179
0.490715 0.396950 0.191085
0.516912 0.397862 0.191997
0.543261 0.398779 0.192914
0.569755 0.399701 0.193836
0.596387 0.400627 0.194763
0.623150 0.401559 0.195694
0.650040 0.402494 0.196630
0.677051 0.403434 0.197570
0.704179 0.404379 0.198514
0.731418 0.405326 0.199462
0.758766 0.406278 0.200414
0.786218 0.407234 0.201369
0.813771 0.408192 0.202328
0.841422 0.409155 0.203290
0.869167 0.410120 0.204256
0.897004 0.411089 0.205224
0.924930 0.412061 0.206196
0.928529 0.412186 0.206321
0.928529 0.412186 0.206321
0.151692 0.412681 0.182172
0.173553 0.413442 0.182933
0.196106 0.414227 0.183718
0.219200 0.415030 0.184522
0.242740 0.415850 0.185341
0.266661 0.416682 0.186173
0.290914 0.417526 0.187017
0.315464 0.418380 0.187872
0.340281 0.419244 0.188735
0.365342 0.420116 0.189608
0.390626 0.420996 0.190487
0.416118 0.421883 0.191375
0.441802 0.422777 0.192268
0.467668 0.423677 0.193169
0.493704 0.424583 0.194075
0.519901 0.425495 0.194986
0.546250 0.426412 0.195903
0.572744 0.427334 0.196825
0.599376 0.428261 0.197752
0.626139 0.429192 0.198683
0.653029 0.430128 0.199619
0.680040 0.431068 0.200559
0.707168 0.432012 0.201503
0.734407 0.432960 0.202451
0.761755 0.433911 0.203403
0.789207 0.434867 0.204358
0.816760 0.435826 0.205317
0.844411 0.436788 0.206279
0.872156 0.437753 0.207245
0.899993 0.438722 0.208214
0.927920 0.439694 0.209185
0.931518 0.439819 0.209311
0.931518 0.439819 0.209311
0.154700 0.440482 0.185180
0.176560 0.441243 0.185940
0.199113 0.442027 0.186725
0.222207 0.442831 0.187529
0.245747 0.443650 0.188348
0.269668 0.444483 0.189181
0.293922 0.445327 0.190025
0.318471 0.446181 0.190879
0.343288 0.447045 0.191743
0.368349 0.447917 0.192615
0.393633 0.448797 0.193495
0.419125 0.449684 0.194382
0.444810 0.450578 0.195276
0.470675 0.451478 0.196176
0.496711 0.452384 0.197082
0.522908 0.453295 0.197993
0.549257 0.454212 0.198910
0.575751 0.455134 0.199832
0.602383 0.456061 0.200759
0.629147 0.456993 0.201691
0.656036 0.457928 0.202626
0.683048 0.458868 0.203566
0.710175 0.459812 0.204510
0.737415 0.460760 0.205458
0.764762 0.461712 0.206410
0.792214 0.462667 0.207365
0.819767 0.463626 0.208324
0.847418 0.464589 0.209286
0.875163 0.465554 0.210252
0.903000 0.466523 0.211221
0.930927 0.467495 0.212193
0.934525 0.467620 0.212318
0.934525 0.467620 0.212318
0.157724 0.468439 0.188204
0.179585 0.469200 0.188965
0.202138 0.469985 0.189749
0.225231 0.470788 0.190553
0.248771 0.471607 0.191372
0.272692 0.472440 0.192205
0.296946 0.473284 0.193049
0.321496 0.474138 0.193903
0.346312 0.475002 0.194767
0.371373 0.475874 0.195639
0.396657 0.476754 0.196519
0.422149 0.477641 0.197406
0.447834 0.478535 0.198300
0.473700 0.479435 0.199200
0.499736 0.480341 0.200106
0.525932 0.481253 0.201018
0.552281 0.482170 0.201935
0.578775 0.483092 0.202857
0.605407 0.484018 0.203783
0.632171 0.484950 0.204715
0.659061 0.485886 0.205651
0.686072 0.486826 0.206590
0.713199 0.487770 0.207535
0.740439 0.488718 0.208482
0.767786 0.489669 0.209434
0.795238 0.490625 0.210390
0.822791 0.491583 0.211348
0.850442 0.492546 0.212311
0.878187 0.493511 0.213276
0.906025 0.494480 0.214245
0.933951 0.495452 0.215217
0.937550 0.495577 0.215342
0.937550 0.495577 0.215342
0.160764 0.496543 0.191244
0.182625 0.497304 0.192005
0.205178 0.498089 0.192790
0.228272 0.498893 0.193593
0.251811 0.499712 0.194412
0.275732 0.500544 0.195245
0.299986 0.501388 0.196089
0.324536 0.502243 0.196943
0.349353 0.503106 0.197807
0.374413 0.503978 0.198679
0.399697 0.504858 0.199559
0.425189 0.505745 0.200446
0.450874 0.506639 0.201340
0.476740 0.507539 0.202240
0.502776 0.508445 0.203146
0.528972 0.509357 0.204058
0.555321 0.510274 0.204975
0.581815 0.511196 0.205897
0.608447 0.512123 0.206823
0.635211 0.513054 0.207755
0.662101 0.513990 0.208691
0.689112 0.514930 0.209631
0.716239 0.515874 0.210575
0.743479 0.516822 0.211523
0.770826 0.517774 0.212474
0.798278 0.518729 0.213430
0.825831 0.519688 0.214388
0.853482 0.520650 0.215351
0.881227 0.521616 0.216316
0.909065 0.522584 0.217285
0.936991 0.523556 0.218257
0.940590 0.523681 0.218382
0.940590 0.523681 0.218382
0.163819 0.524786 0.194299
0.185680 0.525547 0.195060
0.208233 0.526332 0.195845
0.231327 0.527136 0.196648
0.254867 0.527955 0.197467
0.278787 0.528787 0.198300
0.303041 0.529631 0.199144
0.327591 0.530486 0.199998
0.352408 0.531349 0.200862
0.377468 0.532221 0.201734
0.402752 0.533101 0.202614
0.428244 0.533988 0.203501
0.453929 0.534882 0.204395
0.479795 0.535782 0.205295
0.505831 0.536688 0.206201
0.532027 0.537600 0.207113
0.558376 0.538517 0.208030
0.584870 0.539439 0.208952
0.611502 0.540366 0.209878
0.638266 0.541297 0.210810
0.665156 0.542233 0.211746
0.692167 0.543173 0.212686
0.719294 0.544117 0.213630
0.746534 0.545065 0.214578
0.773882 0.546017 0.215529
0.801334 0.546972 0.216485
0.828886 0.547931 0.217444
0.856537 0.548893 0.218406
0.884282 0.549859 0.219371
0.912120 0.550827 0.220340
0.940046 0.551799 0.221312
0.943645 0.551924 0.221437
0.943645 0.551924 0.221437
0.166888 0.553161 0.197368
0.188749 0.553921 0.198129
0.211302 0.554706 0.198914
0.234396 0.555510 0.199718
0.257936 0.556329 0.200537
0.281857 0.557161 0.201369
0.306110 0.558006 0.202213
0.330660 0.558860 0.203068
0.355477 0.559723 0.203931
0.380537 0.560596 0.204803
0.405822 0.561475 0.205683
0.431313 0.562363 0.206570
0.456998 0.563256 0.207464
0.482864 0.564157 0.208364
0.508900 0.565063 0.209270
0.535097 0.565974 0.210182
0.561446 0.566891 0.211099
0.587940 0.567813 0.212021
0.614571 0.568740 0.212948
0.641335 0.569671 0.213879
0.668225 0.570607 0.214815
0.695236 0.571547 0.215755
0.722364 0.572491 0.216699
0.749603 0.573439 0.217647
0.776951 0.574391 0.218599
0.804403 0.575346 0.219554
0.831956 0.576305 0.220513
0.859606 0.577267 0.221475
0.887352 0.578233 0.222441
0.915189 0.579202 0.223409
0.943115 0.580173 0.224381
0.946714 0.580299 0.224506
0.946714 0.580299 0.224506
0.169971 0.581660 0.200451
0.191832 0.582420 0.201212
0.214385 0.583205 0.201997
0.237479 0.584009 0.202800
0.261019 0.584828 0.203620
0.284939 0.585660 0.204452
0.309193 0.586504 0.205296
0.333743 0.587359 0.206150
0.358560 0.588222 0.207014
0.383620 0.589095 0.207886
0.408904 0.589974 0.208766
0.434396 0.590862 0.209653
0.460081 0.591755 0.210547
0.485947 0.592656 0.211447
0.511983 0.593562 0.212353
0.538179 0.594473 0.213265
0.564529 0.595390 0.214182
0.591022 0.596312 0.215104
0.617654 0.597239 0.216031
0.644418 0.598170 0.216962
0.671308 0.599106 0.217898
0.698319 0.600046 0.218838
0.725446 0.600990 0.219782
0.752686 0.601938 0.220730
0.780034 0.602890 0.221681
0.807486 0.603845 0.222637
0.835039 0.604804 0.223596
0.862689 0.605766 0.224558
0.890435 0.606732 0.225523
0.918272 0.607701 0.226492
0.946198 0.608672 0.227464
0.949797 0.608798 0.227589
0.949797 0.608798 0.227589
0.173067 0.610277 0.203547
0.194927 0.611038 0.204307
0.217480 0.611823 0.205092
0.240574 0.612626 0.205896
0.264114 0.613446 0.206715
0.288035 0.614278 0.207548
0.312288 0.615122 0.208392
0.336838 0.615976 0.209246
0.361655 0.616840 0.210110
0.386716 0.617712 0.210982
0.412000 0.618592 0.211862
0.437492 0.619479 0.212749
0.463177 0.620373 0.213643
0.489042 0.621273 0.214543
0.515078 0.622179 0.215449
0.541275 0.623091 0.216360
0.567624 0.624008 0.217277
0.594118 0.624930 0.218199
0.620750 0.625857 0.219126
0.647513 0.626788 0.220058
0.674403 0.627724 0.220993
0.701414 0.628664 0.221933
0.728542 0.629608 0.222877
0.755782 0.630556 0.223825
0.783129 0.631508 0.224777
0.810581 0.632463 0.225732
0.838134 0.633422 0.226691
0.865785 0.634384 0.227653
0.893530 0.635350 0.228619
0.921367 0.636318 0.229588
0.949294 0.637290 0.230560
0.952892 0.637415 0.230685
0.952892 0.637415 0.230685
0.176175 0.639008 0.206655
0.198035 0.639769 0.207415
0.220588 0.640554 0.208200
0.243682 0.641357 0.209004
0.267222 0.642177 0.209823
0.291143 0.643009 0.210655
0.315396 0.643853 0.211499
0.339946 0.644707 0.212354
0.364763 0.645571 0.213217
0.389824 0.646443 0.214090
0.415108 0.647323 0.214969
0.440600 0.648210 0.215857
0.466284 0.649104 0.216750
0.492150 0.650004 0.217651
0.518186 0.650910 0.218557
0.544383 0.651822 0.219468
0.570732 0.652739 0.220385
0.597226 0.653661 0.221307
0.623858 0.654588 0.222234
0.650621 0.655519 0.223165
0.677511 0.656455 0.224101
0.704522 0.657395 0.225041
0.731650 0.658339 0.225985
0.758889 0.659287 0.226933
0.786237 0.660238 0.227885
0.813689 0.661194 0.228840
0.841242 0.662153 0.229799
0.868893 0.663115 0.230761
0.896638 0.664080 0.231727
0.924475 0.665049 0.232696
0.952402 0.666021 0.233667
0.956000 0.666146 0.233793
0.956000 0.666146 0.233793
0.179294 0.667847 0.209774
0.201155 0.668608 0.210535
0.223708 0.669393 0.211320
0.246802 0.670197 0.212123
0.270342 0.671016 0.212943
0.294262 0.671848 0.213775
0.318516 0.672692 0.214619
0.343066 0.673547 0.215473
0.367883 0.674410 0.216337
0.392943 0.675283 0.217209
0.418227 0.676162 0.218089
0.443719 0.677050 0.218976
0.469404 0.677943 0.219870
0.495270 0.678843 0.220770
0.521306 0.679750 0.221676
0.547503 0.680661 0.222588
0.573852 0.681578 0.223505
0.600345 0.682500 0.224427
0.626977 0.683427 0.225354
0.653741 0.684358 0.226285
0.680631 0.685294 0.227221
0.707642 0.686234 0.228161
0.734769 0.687178 0.229105
0.762009 0.688126 0.230053
0.789357 0.689078 0.231004
0.816809 0.690033 0.231960
0.844362 0.690992 0.232919
0.872012 0.691954 0.233881
0.899758 0.692920 0.234846
0.927595 0.693889 0.235815
0.955521 0.694860 0.236787
0.959120 0.694986 0.236912
0.959120 0.694986 0.236912
0.182425 0.696791 0.212905
0.204286 0.697551 0.213666
0.226839 0.698336 0.214451
0.249932 0.699140 0.215254
0.273472 0.699959 0.216073
0.297393 0.700792 0.216906
0.321647 0.701636 0.217750
0.346197 0.702490 0.218604
0.371014 0.703354 0.219468
0.396074 0.704226 0.220340
0.421358 0.705106 0.221220
0.446850 0.705993 0.222107
0.472535 0.706887 0.223001
0.498401 0.707787 0.223901
0.524437 0.708693 0.224807
0.550633 0.709604 0.225719
0.576982 0.710521 0.226636
0.603476 0.711443 0.227558
0.630108 0.712370 0.228484
0.656872 0.713302 0.229416
0.683762 0.714237 0.230352
0.710773 0.715177 0.231292
0.737900 0.716121 0.232236
0.765140 0.717069 0.233184
0.792487 0.718021 0.234135
0.819939 0.718976 0.235091
0.847492 0.719935 0.236049
0.875143 0.720897 0.237012
0.902888 0.721863 0.237977
0.930726 0.722832 0.238946
0.958652 0.723804 0.239918
0.962251 0.723929 0.240043
0.962251 0.723929 0.240043
0.185567 0.725834 0.216047
0.207427 0.726594 0.216807
0.229980 0.727379 0.217592
0.253074 0.728183 0.218396
0.276614 0.729002 0.219215
0.300535 0.729835 0.220047
0.324788 0.730679 0.220891
0.349338 0.731533 0.221746
0.374155 0.732397 0.222609
0.399216 0.733269 0.223482
0.424500 0.734149 0.224361
0.449992 0.735036 0.225249
0.475676 0.735930 0.226142
0.501542 0.736830 0.227043
0.527578 0.737736 0.227949
0.553775 0.738647 0.228860
0.580124 0.739564 0.229777
0.606618 0.740486 0.230699
0.633250 0.741413 0.231626
0.660013 0.742344 0.232557
0.686903 0.743280 0.233493
0.713914 0.744220 0.234433
0.741042 0.745164 0.235377
0.768281 0.746112 0.236325
0.795629 0.747064 0.237277
0.823081 0.748019 0.238232
0.850634 0.748978 0.239191
0.878285 0.749940 0.240153
0.906030 0.750906 0.241119
0.933867 0.751875 0.242088
0.961794 0.752847 0.243059
0.965392 0.752972 0.243185
0.965392 0.752972 0.243185
0.188718 0.754973 0.219198
0.210579 0.755733 0.219959
0.233132 0.756518 0.220744
0.256226 0.757322 0.221548
0.279766 0.758141 0.222367
0.303687 0.758973 0.223199
0.327940 0.759817 0.224043
0.352490 0.760672 0.224898
0.377307 0.761535 0.225761
0.402368 0.762408 0.226634
0.427652 0.763287 0.227513
0.453144 0.764175 0.228401
0.478828 0.765068 0.229294
0.504694 0.765969 0.230195
0.530730 0.766875 0.231101
0.556927 0.767786 0.232012
0.583276 0.768703 0.232929
0.609770 0.769625 0.233851
0.636402 0.770552 0.234778
0.663165 0.771483 0.235709
0.690055 0.772419 0.236645
0.717066 0.773359 0.237585
0.744194 0.774303 0.238529
0.771433 0.775251 0.239477
0.798781 0.776203 0.240429
0.826233 0.777158 0.241384
0.853786 0.778117 0.242343
0.881437 0.779079 0.243305
0.909182 0.780045 0.244271
0.937019 0.781014 0.245240
0.964946 0.781985 0.246211
0.968544 0.782111 0.246337
0.968544 0.782111 0.246337
0.191880 0.784204 0.222360
0.213741 0.784965 0.223121
0.236294 0.785750 0.223906
0.259388 0.786553 0.224710
0.282928 0.787372 0.225529
0.306849 0.788205 0.226361
0.331102 0.789049 0.227205
0.355652 0.789903 0.228060
0.380469 0.790767 0.228923
0.405530 0.791639 0.229796
0.430814 0.792519 0.230675
0.456306 0.793406 0.231563
0.481990 0.794300 0.232456
0.507856 0.795200 0.233357
0.533892 0.796106 0.234263
0.560089 0.797018 0.235174
0.586438 0.797935 0.236091
0.612932 0.798857 0.237013
0.639564 0.799783 0.237940
0.666327 0.800715 0.238871
0.693217 0.801651 0.239807
0.720228 0.802591 0.240747
0.747356 0.803535 0.241691
0.774595 0.804483 0.242639
0.801943 0.805434 0.243591
0.829395 0.806390 0.244546
0.856948 0.807348 0.245505
0.884599 0.808311 0.246467
0.912344 0.809276 0.247433
0.940181 0.810245 0.248402
0.968108 0.811217 0.249373
0.971706 0.811342 0.249499
0.971706 0.811342 0.249499
0.195052 0.813525 0.225532
0.216913 0.814285 0.226293
0.239466 0.815070 0.227078
0.262560 0.815874 0.227881
0.286100 0.816693 0.228701
0.310020 0.817525 0.229533
0.334274 0.818369 0.230377
0.358824 0.819224 0.231231
0.383641 0.820087 0.232095
0.408701 0.820960 0.232967
0.433985 0.821839 0.233847
0.459477 0.822727 0.234734
0.485162 0.823620 0.235628
0.511028 0.824521 0.236528
0.537064 0.825427 0.237434
0.563261 0.826338 0.238346
0.589610 0.827255 0.239263
0.616103 0.828177 0.240185
0.642735 0.829104 0.241112
0.669499 0.830035 0.242043
0.696389 0.830971 0.242979
0.723400 0.831911 0.243919
0.750527 0.832855 0.244863
0.777767 0.833803 0.245811
0.805115 0.834755 0.246762
0.832567 0.835710 0.247718
0.860120 0.836669 0.248677
0.887770 0.837631 0.249639
0.915516 0.838597 0.250604
0.943353 0.839566 0.251573
0.971279 0.840537 0.252545
0.974878 0.840663 0.252670
0.974878 0.840663 0.252670
0.198233 0.842931 0.228713
0.220094 0.843692 0.229474
0.242647 0.844477 0.230259
0.265741 0.845281 0.231062
0.289281 0.846100 0.231882
0.313201 0.846932 0.232714
0.337455 0.847776 0.233558
0.362005 0.848631 0.234412
0.386822 0.849494 0.235276
0.411882 0.850366 0.236148
0.437166 0.851246 0.237028
0.462658 0.852133 0.237915
0.488343 0.853027 0.238809
0.514209 0.853927 0.239709
0.540245 0.854833 0.240615
0.566442 0.855745 0.241527
0.592791 0.856662 0.242444
0.619284 0.857584 0.243366
0.645916 0.858511 0.244293
