library/cube/Fresh_Content_002.cube
# CINEGRADE LAB — Premium Cinematic LUT
# Title: Fresh Content
# Category: Clean Creator Economy
# Description: Bright, clean, approachable, modern aesthetic for content creators
# Mood: Fresh, bright, friendly
# Variant: 3
# Generated: 2026-05-21T16:12:38.216856
TITLE "Fresh Content"
LUT_3D_SIZE 5
0.120326 0.122708 0.150806
0.308914 0.129271 0.157369
0.514883 0.136439 0.164537
0.730388 0.143939 0.172036
0.900152 0.149846 0.177944
0.142785 0.330336 0.173265
0.331374 0.336899 0.179828
0.537343 0.344067 0.186996
0.752848 0.351566 0.194495
0.922611 0.357474 0.200403
0.166888 0.553161 0.197368
0.355477 0.559723 0.203931
0.561446 0.566891 0.211099
0.776951 0.574391 0.218599
0.946714 0.580299 0.224506
0.191880 0.784204 0.222360
0.380469 0.790767 0.228923
0.586438 0.797935 0.236091
0.801943 0.805434 0.243591
0.971706 0.811342 0.249499
0.211331 0.964019 0.241811
0.399920 0.970582 0.248374
0.605889 0.977750 0.255542
0.821394 0.985249 0.263042
0.991157 0.991157 0.268949
0.122528 0.124911 0.332881
0.311117 0.131474 0.339444
0.517086 0.138641 0.346611
0.732591 0.146141 0.354111
0.902354 0.152049 0.360019
0.144988 0.332538 0.355340
0.333576 0.339101 0.361903
0.539545 0.346269 0.369071
0.755050 0.353769 0.376570
0.924813 0.359676 0.382478
0.169091 0.555363 0.379443
0.357679 0.561926 0.386006
0.563648 0.569094 0.393174
0.779153 0.576593 0.400673
0.948916 0.582501 0.406581
0.194083 0.786406 0.404435
0.382672 0.792969 0.410998
0.588640 0.800137 0.418166
0.804145 0.807637 0.425666
0.973909 0.813544 0.431573
0.213534 0.966221 0.423886
0.402122 0.972784 0.430449
0.608091 0.979952 0.437617
0.823596 0.987452 0.445116
0.993359 0.993359 0.451024
0.124916 0.127299 0.530304
0.313505 0.133862 0.536867
0.519474 0.141030 0.544035
0.734979 0.148529 0.551535
0.904742 0.154437 0.557442
0.147376 0.334926 0.552764
0.335964 0.341489 0.559326
0.541933 0.348657 0.566494
0.757438 0.356157 0.573994
0.927201 0.362065 0.579902
0.171479 0.557751 0.576867
0.360067 0.564314 0.583430
0.566036 0.571482 0.590597
0.781541 0.578981 0.598097
0.951305 0.584889 0.604005
0.196471 0.788794 0.601859
0.385060 0.795357 0.608422
0.591029 0.802525 0.615590
0.806534 0.810025 0.623089
0.976297 0.815933 0.628997
0.215922 0.968609 0.621310
0.404510 0.975172 0.627873
0.610479 0.982340 0.635040
0.825984 0.989840 0.642540
0.995748 0.995748 0.648448
0.127411 0.129793 0.736500
0.315999 0.136356 0.743063
0.521968 0.143524 0.750231
0.737473 0.151023 0.757730
0.907236 0.156931 0.763638
0.149870 0.337421 0.758959
0.338458 0.343984 0.765522
0.544427 0.351151 0.772690
0.759932 0.358651 0.780190
0.929696 0.364559 0.786097
0.173973 0.560245 0.783062
0.362562 0.566808 0.789625
0.568531 0.573976 0.796793
0.784036 0.581476 0.804293
0.953799 0.587383 0.810201
0.198965 0.791289 0.808055
0.387554 0.797852 0.814618
0.593523 0.805019 0.821785
0.809028 0.812519 0.829285
0.978791 0.818427 0.835193
0.218416 0.971104 0.827505
0.407005 0.977667 0.834068
0.612973 0.984834 0.841236
0.828479 0.992334 0.848736
0.998242 0.998242 0.854643
0.129169 0.131551 0.881856
0.317757 0.138114 0.888419
0.523726 0.145282 0.895587
0.739231 0.152782 0.903087
0.908995 0.158689 0.908995
0.151628 0.339179 0.904316
0.340217 0.345742 0.910879
0.546186 0.352910 0.918046
0.761691 0.360409 0.925546
0.931454 0.366317 0.931454
0.175731 0.562004 0.928419
0.364320 0.568567 0.934982
0.570289 0.575734 0.942150
0.785794 0.583234 0.949649
0.955557 0.589142 0.955557
0.200724 0.793047 0.953411
0.389312 0.799610 0.959974
0.595281 0.806778 0.967142
0.810786 0.814277 0.974641
0.980549 0.820185 0.980549
0.220174 0.972862 0.972862
0.408763 0.979425 0.979425
0.614732 0.986593 0.986593
0.830237 0.994092 0.994092
1.000000 1.000000 1.000000
