library/cube/Fuji_Pastel_000.cube
# CINEGRADE LAB — Premium Cinematic LUT
# Title: Fuji Pastel
# Category: Fuji 400H Emulation
# Description: Pastel tones, green shadows, airy feel emulating Fuji Pro 400H
# Mood: Soft, pastel, delicate
# Variant: 1
# Generated: 2026-05-21T16:12:49.070569
TITLE "Fuji Pastel"
LUT_3D_SIZE 5
0.145558 0.142680 0.160126
0.314909 0.151841 0.169764
0.499478 0.161896 0.180277
0.693351 0.172507 0.191333
0.845394 0.180764 0.200049
0.177855 0.334440 0.192626
0.347275 0.343593 0.202329
0.531938 0.353660 0.212909
0.725930 0.364305 0.224032
0.878103 0.372624 0.232811
0.213197 0.543263 0.228230
0.382726 0.552525 0.238000
0.567525 0.562722 0.248647
0.761680 0.573522 0.259839
0.914017 0.582023 0.268681
0.250481 0.762931 0.265828
0.420157 0.772433 0.275664
0.605133 0.782896 0.286379
0.799497 0.793986 0.297641
0.951702 0.802803 0.306547
0.279982 0.935138 0.295671
0.449842 0.944419 0.305567
0.635037 0.954471 0.316345
0.829650 0.964930 0.327670
0.979840 0.973101 0.336633
0.148812 0.145788 0.322175
0.318168 0.154959 0.331928
0.502745 0.165023 0.342556
0.696628 0.175644 0.353726
0.848682 0.183913 0.362556
0.181123 0.337543 0.355061
0.350553 0.346713 0.364877
0.535228 0.356797 0.375570
0.729234 0.367460 0.386806
0.881422 0.375798 0.395698
0.216483 0.546400 0.391046
0.386024 0.555686 0.400928
0.570839 0.565910 0.411687
0.765013 0.576736 0.422991
0.917369 0.585264 0.431945
0.253784 0.766147 0.429021
0.423477 0.775682 0.438968
0.608475 0.786179 0.449795
0.802861 0.797304 0.461167
0.954913 0.806157 0.470183
0.283306 0.938290 0.459236
0.453187 0.947567 0.469242
0.638407 0.957599 0.480130
0.833048 0.968024 0.491564
0.982919 0.976155 0.500636
0.152359 0.149194 0.498842
0.321721 0.158373 0.508720
0.506306 0.168447 0.519472
0.700199 0.179078 0.530766
0.852266 0.187359 0.539719
0.184686 0.340946 0.532145
0.354125 0.350132 0.542085
0.538812 0.360233 0.552901
0.732833 0.370914 0.564260
0.885036 0.379272 0.573273
0.220062 0.549839 0.568544
0.389617 0.559150 0.578547
0.574448 0.569399 0.589429
0.768642 0.580252 0.600854
0.921016 0.588807 0.609928
0.257383 0.769667 0.606928
0.427093 0.779235 0.616996
0.612111 0.789767 0.627943
0.806521 0.800928 0.639435
0.958389 0.809816 0.648569
0.286925 0.941716 0.637546
0.456827 0.950981 0.647672
0.642072 0.960987 0.658678
0.836741 0.971371 0.670230
0.986252 0.979456 0.679420
0.156086 0.152783 0.684466
0.325454 0.161971 0.694474
0.510047 0.172054 0.705356
0.703952 0.182696 0.716780
0.856030 0.190989 0.725862
0.188427 0.344533 0.718205
0.357877 0.353736 0.728274
0.542576 0.363855 0.739218
0.736613 0.374554 0.750706
0.888831 0.382932 0.759846
0.223821 0.553465 0.755037
0.393390 0.562801 0.765168
0.578238 0.573076 0.776176
0.772451 0.583955 0.787728
0.924845 0.592539 0.796928
0.261161 0.773377 0.793849
0.430889 0.782979 0.804043
0.615928 0.793545 0.815116
0.810363 0.804742 0.826733
0.962021 0.813667 0.835992
0.290724 0.945306 0.824889
0.460649 0.954554 0.835139
0.645919 0.964528 0.846270
0.840616 0.974865 0.857946
0.989730 0.982897 0.867259
0.158803 0.155354 0.819768
0.328178 0.164552 0.829872
0.512779 0.174646 0.840850
0.706695 0.185300 0.852369
0.858786 0.193605 0.861546
0.191159 0.347108 0.853829
0.360619 0.356329 0.863992
0.545331 0.366466 0.875031
0.739384 0.377185 0.886613
0.891618 0.385582 0.895797
0.226569 0.556083 0.890978
0.396152 0.565445 0.901068
0.581018 0.575746 0.911935
0.775252 0.586653 0.923247
0.927665 0.595265 0.932166
0.263929 0.776083 0.929209
0.433675 0.785720 0.939048
0.618736 0.796321 0.949630
0.813195 0.807553 0.960609
0.964680 0.816514 0.969191
0.293513 0.947947 0.958744
0.463459 0.957180 0.968255
0.648754 0.967125 0.978461
0.843481 0.977420 0.989018
0.992257 0.985405 0.997187
