library/cube/Fuji_Air_003.cube
# CINEGRADE LAB — Premium Cinematic LUT
# Title: Fuji Air
# Category: Fuji 400H Emulation
# Description: Pastel tones, green shadows, airy feel emulating Fuji Pro 400H
# Mood: Soft, pastel, delicate
# Variant: 4
# Generated: 2026-05-21T16:12:50.568421
TITLE "Fuji Air"
LUT_3D_SIZE 5
0.160367 0.158237 0.179014
0.320041 0.170019 0.191262
0.494065 0.182927 0.204623
0.676862 0.196532 0.218672
0.813947 0.206649 0.229266
0.201456 0.346429 0.220310
0.361200 0.358202 0.232636
0.535316 0.371123 0.246075
0.718229 0.384764 0.260204
0.855438 0.394949 0.270870
0.246388 0.551396 0.265537
0.406239 0.563279 0.277941
0.580489 0.576332 0.291460
0.763562 0.590131 0.305671
0.900929 0.600502 0.316410
0.293757 0.767035 0.313281
0.453753 0.779159 0.325763
0.628178 0.792480 0.339363
0.811455 0.806573 0.353656
0.948821 0.817265 0.364469
0.331188 0.936029 0.351135
0.491366 0.947749 0.363688
0.666005 0.960425 0.377362
0.849525 0.973594 0.391729
0.984375 0.983389 0.402609
0.164508 0.162236 0.329735
0.324188 0.174025 0.342092
0.498219 0.186941 0.355560
0.681026 0.200556 0.369717
0.818122 0.210685 0.380417
0.205612 0.350422 0.371393
0.365365 0.362211 0.383825
0.539493 0.375149 0.397371
0.722421 0.388807 0.411606
0.859644 0.399011 0.422377
0.250562 0.555424 0.416978
0.410426 0.567330 0.429487
0.584691 0.580409 0.443112
0.767783 0.594235 0.457428
0.905168 0.604633 0.468271
0.297951 0.771142 0.465076
0.457965 0.783299 0.477663
0.632410 0.796654 0.491367
0.815709 0.810783 0.505764
0.952884 0.821511 0.516680
0.335406 0.940013 0.503278
0.495604 0.951717 0.515935
0.670267 0.964360 0.529711
0.853814 0.977477 0.544181
0.988265 0.987215 0.555162
0.169023 0.166612 0.494052
0.328708 0.178409 0.506526
0.502747 0.191334 0.520110
0.685564 0.204958 0.534383
0.822671 0.215098 0.545199
0.210142 0.354794 0.536101
0.369904 0.366599 0.548649
0.544044 0.379554 0.562310
0.726987 0.393230 0.576660
0.864225 0.403453 0.587545
0.255110 0.559833 0.582074
0.414987 0.571764 0.594697
0.589269 0.584868 0.608436
0.772379 0.598720 0.622865
0.909782 0.609147 0.633821
0.302520 0.775632 0.630556
0.462551 0.787823 0.643255
0.637016 0.801213 0.657072
0.820339 0.815378 0.671582
0.957285 0.826143 0.682609
0.339997 0.944341 0.669135
0.500217 0.956023 0.681903
0.674904 0.968624 0.695791
0.858479 0.981681 0.710372
0.992477 0.991353 0.721463
0.173765 0.171219 0.666700
0.333457 0.183024 0.679295
0.507504 0.195957 0.693002
0.690332 0.209591 0.707396
0.827451 0.219743 0.718332
0.214900 0.359400 0.709158
0.374673 0.371221 0.721826
0.548825 0.384192 0.735607
0.731782 0.397887 0.750078
0.869035 0.408130 0.761082
0.259887 0.564477 0.755536
0.419778 0.576433 0.768278
0.594076 0.589564 0.782136
0.777206 0.603443 0.796685
0.914627 0.613898 0.807759
0.307319 0.780362 0.804419
0.467367 0.792586 0.817237
0.641853 0.806011 0.831172
0.825199 0.820212 0.845799
0.961883 0.831015 0.856942
0.344819 0.948875 0.843393
0.505060 0.960527 0.856278
0.679772 0.973079 0.870282
0.863375 0.986069 0.884980
0.996873 0.995668 0.896186
0.176767 0.174071 0.775982
0.336465 0.185886 0.788656
0.510521 0.198830 0.802441
0.693360 0.212475 0.816915
0.830491 0.222641 0.827928
0.217918 0.362258 0.818704
0.377700 0.374097 0.831450
0.551865 0.387087 0.845309
0.734838 0.400801 0.859858
0.872106 0.411064 0.870938
0.262922 0.567380 0.865343
0.422827 0.579362 0.878163
0.597142 0.592519 0.892098
0.780292 0.606426 0.906414
0.917731 0.616910 0.917214
0.310375 0.783354 0.913970
0.470441 0.795613 0.926411
0.644947 0.809073 0.939806
0.828317 0.823311 0.953715
0.964812 0.834150 0.964121
0.347898 0.951775 0.951319
0.508160 0.963402 0.963371
0.682897 0.975913 0.976315
0.866527 0.988844 0.989714
0.999640 0.998382 0.999632
