library/cube/Fuji_Pastel_000.cube
# CINEGRADE LAB — Premium Cinematic LUT
# Title: Fuji Pastel
# Category: Fuji 400H Emulation
# Description: Pastel tones, green shadows, airy feel emulating Fuji Pro 400H
# Mood: Soft, pastel, delicate
# Variant: 1
# Generated: 2026-05-21T16:12:49.070569
TITLE "Fuji Pastel"
LUT_3D_SIZE 33
0.145558 0.142680 0.160126
0.165424 0.143749 0.161257
0.185766 0.144846 0.162414
0.206515 0.145967 0.163595
0.227618 0.147108 0.164796
0.249037 0.148268 0.166015
0.270741 0.149444 0.167250
0.292705 0.150636 0.168500
0.314909 0.151841 0.169764
0.337334 0.153060 0.171041
0.359966 0.154291 0.172330
0.382793 0.155533 0.173630
0.405801 0.156786 0.174940
0.428983 0.158050 0.176260
0.452328 0.159323 0.177590
0.475829 0.160605 0.178929
0.499478 0.161896 0.180277
0.523270 0.163196 0.181633
0.547197 0.164504 0.182997
0.571256 0.165819 0.184369
0.595441 0.167143 0.185748
0.619746 0.168473 0.187134
0.644169 0.169811 0.188527
0.668705 0.171156 0.189926
0.693351 0.172507 0.191333
0.718102 0.173865 0.192745
0.742957 0.175229 0.194163
0.767912 0.176599 0.195588
0.792963 0.177975 0.197018
0.818110 0.179357 0.198454
0.843348 0.180744 0.199895
0.845382 0.180812 0.200029
0.845394 0.180764 0.200049
0.149339 0.165194 0.163930
0.169206 0.166262 0.165062
0.189549 0.167358 0.166221
0.210299 0.168478 0.167402
0.231403 0.169619 0.168604
0.252823 0.170778 0.169824
0.274528 0.171953 0.171060
0.296493 0.173144 0.172312
0.318697 0.174349 0.173577
0.341124 0.175567 0.174854
0.363757 0.176797 0.176144
0.386584 0.178039 0.177445
0.409594 0.179291 0.178756
0.432777 0.180554 0.180078
0.456123 0.181827 0.181409
0.479625 0.183109 0.182749
0.503276 0.184400 0.184098
0.527069 0.185699 0.185455
0.550998 0.187006 0.186820
0.575058 0.188322 0.188192
0.599244 0.189645 0.189572
0.623552 0.190976 0.190959
0.647976 0.192313 0.192353
0.672514 0.193658 0.193754
0.697161 0.195009 0.195161
0.721915 0.196367 0.196575
0.746771 0.197731 0.197994
0.771727 0.199101 0.199420
0.796781 0.200477 0.200851
0.821930 0.201859 0.202288
0.847170 0.203247 0.203730
0.849205 0.203315 0.203865
0.849218 0.203269 0.203886
0.153214 0.188241 0.167828
0.173082 0.189309 0.168961
0.193425 0.190404 0.170120
0.214175 0.191523 0.171303
0.235280 0.192663 0.172506
0.256701 0.193822 0.173727
0.278407 0.194997 0.174964
0.300373 0.196187 0.176216
0.322579 0.197391 0.177482
0.345006 0.198609 0.178761
0.367641 0.199839 0.180052
0.390469 0.201080 0.181354
0.413480 0.202332 0.182666
0.436664 0.203595 0.183989
0.460012 0.204867 0.185321
0.483515 0.206149 0.186662
0.507167 0.207439 0.188011
0.530962 0.208739 0.189370
0.554893 0.210046 0.190736
0.578954 0.211361 0.192109
0.603142 0.212685 0.193490
0.627451 0.214015 0.194879
0.651877 0.215353 0.196274
0.676417 0.216697 0.197675
0.701066 0.218049 0.199084
0.725821 0.219407 0.200498
0.750680 0.220771 0.201919
0.775638 0.222141 0.203345
0.800694 0.223518 0.204778
0.825844 0.224901 0.206216
0.851087 0.226289 0.207659
0.853123 0.226357 0.207794
0.853138 0.226312 0.207816
0.157168 0.211743 0.171806
0.177036 0.212810 0.172939
0.197381 0.213905 0.174100
0.218132 0.215023 0.175284
0.239238 0.216163 0.176487
0.260659 0.217320 0.177709
0.282366 0.218495 0.178948
0.304334 0.219685 0.180201
0.326540 0.220889 0.181468
0.348969 0.222106 0.182748
0.371605 0.223336 0.184040
0.394434 0.224577 0.185343
0.417447 0.225829 0.186656
0.440632 0.227091 0.187980
0.463981 0.228364 0.189313
0.487486 0.229645 0.190655
0.511140 0.230936 0.192006
0.534936 0.232235 0.193365
0.558868 0.233543 0.194732
0.582931 0.234858 0.196107
0.607121 0.236182 0.197489
0.631432 0.237512 0.198878
0.655860 0.238850 0.200274
0.680401 0.240195 0.201677
0.705052 0.241547 0.203086
0.729809 0.242905 0.204502
0.754670 0.244270 0.205923
0.779630 0.245641 0.207351
0.804688 0.247018 0.208784
0.829841 0.248401 0.210223
0.855086 0.249790 0.211668
0.857124 0.249860 0.211804
0.857139 0.249815 0.211826
0.161191 0.235640 0.175854
0.181061 0.236707 0.176989
0.201406 0.237802 0.178150
0.222158 0.238920 0.179335
0.243265 0.240059 0.180540
0.264688 0.241216 0.181763
0.286396 0.242391 0.183002
0.308364 0.243581 0.184256
0.330572 0.244785 0.185524
0.353002 0.246002 0.186805
0.375639 0.247231 0.188098
0.398470 0.248472 0.189402
0.421484 0.249725 0.190717
0.444671 0.250987 0.192041
0.468021 0.252259 0.193375
0.491528 0.253541 0.194718
0.515183 0.254832 0.196070
0.538981 0.256132 0.197430
0.562915 0.257440 0.198799
0.586980 0.258755 0.200174
0.611171 0.260079 0.201558
0.635484 0.261410 0.202948
0.659914 0.262749 0.204345
0.684457 0.264094 0.205749
0.709110 0.265446 0.207159
0.733869 0.266805 0.208576
0.758732 0.268171 0.209999
0.783694 0.269542 0.211427
0.808755 0.270920 0.212862
0.833909 0.272304 0.214302
0.859157 0.273694 0.215747
0.861196 0.273764 0.215884
0.861213 0.273721 0.215907
0.165277 0.259890 0.179966
0.185147 0.260957 0.181101
0.205494 0.262051 0.182264
0.226247 0.263169 0.183449
0.247355 0.264308 0.184655
0.268779 0.265466 0.185879
0.290488 0.266640 0.187120
0.312458 0.267830 0.188375
0.334667 0.269034 0.189644
0.357098 0.270251 0.190926
0.379736 0.271481 0.192220
0.402569 0.272722 0.193525
0.425584 0.273975 0.194840
0.448772 0.275237 0.196166
0.472125 0.276510 0.197501
0.495633 0.277792 0.198845
0.519290 0.279084 0.200198
0.543089 0.280384 0.201559
0.567025 0.281692 0.202929
0.591092 0.283009 0.204306
0.615285 0.284333 0.205690
0.639600 0.285665 0.207081
0.664031 0.287004 0.208479
0.688577 0.288350 0.209884
0.713232 0.289703 0.211296
0.737993 0.291063 0.212714
0.762858 0.292429 0.214137
0.787823 0.293802 0.215567
0.812885 0.295180 0.217003
0.838043 0.296565 0.218444
0.863292 0.297956 0.219890
0.865333 0.298028 0.220028
0.865352 0.297986 0.220051
0.169419 0.284458 0.184134
0.189291 0.285524 0.185271
0.209638 0.286619 0.186434
0.230392 0.287737 0.187621
0.251501 0.288876 0.188828
0.272927 0.290034 0.190053
0.294637 0.291209 0.191295
0.316608 0.292399 0.192551
0.338819 0.293603 0.193821
0.361251 0.294821 0.195104
0.383891 0.296051 0.196399
0.406725 0.297292 0.197705
0.429742 0.298545 0.199022
0.452932 0.299809 0.200348
0.476286 0.301082 0.201684
0.499795 0.302365 0.203030
0.523454 0.303657 0.204384
0.547255 0.304957 0.205746
0.571193 0.306266 0.207116
0.595262 0.307584 0.208494
0.619457 0.308909 0.209879
0.643774 0.310241 0.211272
0.668208 0.311581 0.212671
0.692755 0.312929 0.214077
0.717412 0.314283 0.215490
0.742176 0.315643 0.216908
0.767043 0.317011 0.218333
0.792010 0.318384 0.219764
0.817075 0.319764 0.221201
0.842235 0.321150 0.222643
0.867487 0.322542 0.224091
0.869529 0.322616 0.224229
0.869549 0.322576 0.224253
0.173613 0.309315 0.188356
0.193486 0.310382 0.189493
0.213835 0.311477 0.190658
0.234590 0.312596 0.191846
0.255700 0.313735 0.193054
0.277127 0.314893 0.194280
0.298839 0.316068 0.195522
0.320811 0.317259 0.196780
0.343023 0.318464 0.198051
0.365457 0.319682 0.199335
0.388098 0.320913 0.200631
0.410934 0.322155 0.201938
0.433952 0.323408 0.203255
0.457144 0.324673 0.204583
0.480499 0.325947 0.205920
0.504011 0.327230 0.207267
0.527672 0.328523 0.208622
0.551475 0.329825 0.209985
0.575414 0.331135 0.211356
0.599485 0.332453 0.212735
0.623682 0.333779 0.214122
0.648001 0.335113 0.215515
0.672437 0.336454 0.216916
0.696987 0.337802 0.218323
0.721646 0.339158 0.219736
0.746413 0.340520 0.221156
0.771282 0.341888 0.222582
0.796252 0.343263 0.224014
0.821319 0.344645 0.225452
0.846481 0.346032 0.226895
0.871736 0.347426 0.228344
0.873779 0.347501 0.228483
0.873801 0.347463 0.228507
0.177855 0.334440 0.192626
0.197729 0.335507 0.193765
0.218079 0.336603 0.194930
0.238835 0.337722 0.196119
0.259947 0.338862 0.197328
0.281375 0.340021 0.198555
0.303088 0.341196 0.199799
0.325062 0.342388 0.201057
0.347275 0.343593 0.202329
0.369711 0.344812 0.203614
0.392354 0.346044 0.204911
0.415191 0.347287 0.206219
0.438212 0.348542 0.207538
0.461405 0.349807 0.208867
0.484762 0.351082 0.210205
0.508276 0.352366 0.211553
0.531938 0.353660 0.212909
0.555743 0.354963 0.214273
0.579685 0.356274 0.215645
0.603758 0.357594 0.217026
0.627957 0.358921 0.218413
0.652278 0.360256 0.219808
0.676717 0.361599 0.221209
0.701268 0.362949 0.222617
0.725930 0.364305 0.224032
0.750699 0.365669 0.225453
0.775571 0.367039 0.226880
0.800543 0.368416 0.228313
0.825613 0.369799 0.229751
0.850777 0.371188 0.231196
0.876035 0.372583 0.232646
0.878080 0.372661 0.232785
0.878103 0.372624 0.232811
0.182141 0.359813 0.196942
0.202016 0.360881 0.198082
0.222368 0.361977 0.199248
0.243125 0.363097 0.200438
0.264238 0.364238 0.201648
0.285668 0.365398 0.202876
0.307383 0.366574 0.204121
0.329358 0.367766 0.205380
0.351573 0.368973 0.206653
0.374011 0.370193 0.207939
0.396655 0.371426 0.209237
0.419494 0.372670 0.210547
0.442516 0.373926 0.211866
0.465711 0.375192 0.213196
0.489071 0.376468 0.214536
0.512586 0.377754 0.215884
0.536251 0.379049 0.217241
0.560058 0.380354 0.218607
0.584002 0.381666 0.219980
0.608077 0.382987 0.221361
0.632278 0.384316 0.222750
0.656601 0.385653 0.224145
0.681042 0.386997 0.225548
0.705596 0.388348 0.226957
0.730261 0.389707 0.228373
0.755032 0.391072 0.229795
0.779906 0.392444 0.231223
0.804881 0.393823 0.232657
0.829953 0.395208 0.234097
0.855121 0.396599 0.235542
0.880381 0.397996 0.236993
0.882428 0.398076 0.237134
0.882452 0.398042 0.237160
0.186469 0.385418 0.201301
0.206346 0.386487 0.202441
0.226698 0.387584 0.203609
0.247458 0.388705 0.204799
0.268572 0.389847 0.206011
0.290003 0.391008 0.207240
0.311719 0.392185 0.208485
0.333696 0.393379 0.209746
0.355913 0.394587 0.211020
0.378352 0.395808 0.212307
0.400999 0.397042 0.213606
0.423840 0.398287 0.214916
0.446864 0.399544 0.216237
0.470061 0.400812 0.217568
0.493422 0.402090 0.218909
0.516939 0.403377 0.220258
0.540606 0.404674 0.221616
0.564415 0.405980 0.222983
0.588361 0.407294 0.224357
0.612439 0.408617 0.225740
0.636642 0.409948 0.227129
0.660968 0.411286 0.228526
0.685411 0.412632 0.229930
0.709968 0.413986 0.231340
0.734635 0.415346 0.232757
0.759408 0.416713 0.234180
0.784285 0.418087 0.235609
0.809263 0.419468 0.237044
0.834338 0.420855 0.238485
0.859508 0.422248 0.239931
0.884771 0.423648 0.241383
0.886819 0.423730 0.241524
0.886845 0.423699 0.241551
0.190837 0.411241 0.205699
0.210714 0.412311 0.206841
0.231069 0.413410 0.208009
0.251829 0.414532 0.209201
0.272945 0.415675 0.210413
0.294378 0.416837 0.211644
0.316096 0.418016 0.212890
0.338075 0.419211 0.214152
0.360293 0.420420 0.215427
0.382734 0.421643 0.216715
0.405382 0.422878 0.218015
0.428225 0.424126 0.219327
0.451251 0.425384 0.220649
0.474450 0.426654 0.221980
0.497813 0.427933 0.223322
0.521333 0.429223 0.224673
0.545002 0.430521 0.226032
0.568814 0.431829 0.227399
0.592762 0.433145 0.228775
0.616842 0.434470 0.230158
0.641048 0.435803 0.231549
0.665376 0.437143 0.232947
0.689821 0.438491 0.234351
0.714381 0.439847 0.235763
0.739050 0.441209 0.237181
0.763826 0.442579 0.238605
0.788706 0.443955 0.240035
0.813686 0.445338 0.241471
0.838764 0.446728 0.242913
0.863938 0.448123 0.244361
0.889203 0.449525 0.245814
0.891253 0.449610 0.245956
0.891280 0.449582 0.245983
0.195241 0.437271 0.210136
0.215120 0.438342 0.211279
0.235476 0.439442 0.212448
0.256238 0.440566 0.213641
0.277356 0.441710 0.214854
0.298790 0.442874 0.216086
0.320510 0.444055 0.217333
0.342491 0.445251 0.218596
0.364711 0.446462 0.219872
0.387154 0.447687 0.221161
0.409804 0.448924 0.222463
0.432649 0.450173 0.223775
0.455677 0.451434 0.225098
0.478878 0.452705 0.226431
0.502243 0.453986 0.227773
0.525765 0.455278 0.229125
0.549436 0.456579 0.230485
0.573250 0.457888 0.231854
0.597201 0.459207 0.233231
0.621283 0.460534 0.234615
0.645492 0.461869 0.236007
0.669822 0.463211 0.237406
0.694271 0.464562 0.238812
0.718833 0.465920 0.240224
0.743505 0.467285 0.241643
0.768284 0.468657 0.243068
0.793166 0.470036 0.244500
0.818149 0.471421 0.245937
0.843230 0.472813 0.247380
0.868406 0.474212 0.248829
0.893675 0.475617 0.250283
0.895727 0.475705 0.250425
0.895755 0.475679 0.250454
0.199681 0.463496 0.214609
0.219562 0.464569 0.215753
0.239919 0.465671 0.216924
0.260683 0.466796 0.218117
0.281802 0.467943 0.219332
0.303238 0.469108 0.220564
0.324960 0.470291 0.221813
0.346942 0.471489 0.223076
0.369165 0.472702 0.224354
0.391609 0.473929 0.225644
0.414262 0.475168 0.226946
0.437109 0.476419 0.228260
0.460139 0.477682 0.229584
0.483342 0.478955 0.230918
0.506710 0.480239 0.232261
0.530234 0.481533 0.233614
0.553907 0.482836 0.234975
0.577724 0.484148 0.236345
0.601677 0.485469 0.237723
0.625762 0.486798 0.239108
0.649973 0.488136 0.240501
0.674306 0.489481 0.241901
0.698757 0.490834 0.243308
0.723322 0.492195 0.244721
0.747997 0.493562 0.246141
0.772778 0.494937 0.247568
0.797664 0.496319 0.249000
0.822650 0.497707 0.250439
0.847734 0.499102 0.251883
0.872913 0.500504 0.253333
0.898185 0.501911 0.254788
0.900238 0.502002 0.254931
0.900268 0.501980 0.254960
0.204155 0.489908 0.219117
0.224037 0.490984 0.220262
0.244396 0.492087 0.221433
0.265162 0.493214 0.222628
0.286283 0.494363 0.223843
0.307721 0.495530 0.225077
0.329444 0.496715 0.226326
0.351428 0.497916 0.227591
0.373653 0.499131 0.228870
0.396100 0.500360 0.230161
0.418754 0.501601 0.231464
0.441603 0.502855 0.232779
0.464635 0.504120 0.234104
0.487841 0.505396 0.235439
0.511211 0.506682 0.236784
0.534738 0.507978 0.238137
0.558414 0.509284 0.239500
0.582232 0.510599 0.240871
0.606188 0.511922 0.242250
0.630275 0.513254 0.243636
0.654489 0.514595 0.245030
0.678825 0.515943 0.246431
0.703279 0.517299 0.247839
0.727846 0.518662 0.249253
0.752524 0.520033 0.250675
0.777309 0.521411 0.252102
0.802197 0.522796 0.253536
0.827186 0.524187 0.254975
0.852273 0.525585 0.256420
0.877456 0.526990 0.257871
0.902731 0.528401 0.259327
0.904785 0.528495 0.259471
0.904816 0.528476 0.259501
0.208661 0.516500 0.223658
0.228545 0.517577 0.224803
0.248905 0.518683 0.225976
0.269673 0.519812 0.227172
0.290796 0.520963 0.228388
0.312235 0.522133 0.229623
0.333961 0.523320 0.230874
0.355947 0.524523 0.232139
0.378174 0.525741 0.233419
0.400623 0.526972 0.234711
0.423279 0.528216 0.236015
0.446130 0.529472 0.237331
0.469165 0.530740 0.238657
0.492373 0.532019 0.239993
0.515746 0.533308 0.241339
0.539275 0.534607 0.242694
0.562953 0.535915 0.244058
0.586774 0.537233 0.245429
0.610733 0.538559 0.246809
0.634823 0.539894 0.248197
0.659039 0.541238 0.249592
0.683378 0.542589 0.250994
0.707834 0.543948 0.252403
0.732405 0.545315 0.253819
0.757086 0.546689 0.255241
0.781873 0.548070 0.256669
0.806765 0.549458 0.258104
0.831757 0.550853 0.259545
0.856847 0.552254 0.260991
0.882033 0.553662 0.262443
0.907312 0.555077 0.263900
0.909367 0.555175 0.264045
0.909400 0.555160 0.264075
0.213197 0.543263 0.228230
0.233083 0.544343 0.229377
0.253446 0.545451 0.230551
0.274215 0.546583 0.231748
0.295340 0.547736 0.232965
0.316781 0.548909 0.234200
0.338509 0.550099 0.235452
0.360497 0.551304 0.236719
0.382726 0.552525 0.238000
0.405177 0.553759 0.239293
0.427836 0.555006 0.240598
0.450690 0.556265 0.241915
0.473727 0.557535 0.243242
0.496937 0.558817 0.244580
0.520312 0.560109 0.245926
0.543844 0.561411 0.247282
0.567525 0.562722 0.248647
0.591349 0.564043 0.250020
0.615310 0.565373 0.251401
0.639402 0.566711 0.252790
0.663622 0.568058 0.254186
0.687963 0.569413 0.255589
0.712423 0.570775 0.256999
0.736996 0.572145 0.258416
0.761680 0.573522 0.259839
0.786471 0.574907 0.261269
0.811366 0.576299 0.262704
0.836361 0.577697 0.264146
0.861455 0.579103 0.265593
0.886644 0.580515 0.267046
0.911926 0.581933 0.268505
0.913983 0.582035 0.268650
0.914017 0.582023 0.268681
0.217764 0.570192 0.232834
0.237651 0.571274 0.233981
0.258016 0.572385 0.235156
0.278787 0.573520 0.236354
0.299914 0.574676 0.237572
0.321358 0.575851 0.238809
0.343087 0.577044 0.240062
0.365078 0.578253 0.241329
0.387309 0.579476 0.242611
0.409762 0.580713 0.243906
0.432423 0.581963 0.245212
0.455279 0.583225 0.246530
0.478319 0.584499 0.247858
0.501532 0.585784 0.249196
0.524909 0.587079 0.250544
0.548444 0.588385 0.251901
0.572127 0.589700 0.253267
0.595954 0.591024 0.254641
0.619918 0.592357 0.256023
0.644014 0.593699 0.257413
0.668236 0.595049 0.258810
0.692580 0.596407 0.260214
0.717043 0.597773 0.261625
0.741619 0.599147 0.263043
0.766306 0.600528 0.264468
0.791100 0.601917 0.265898
0.815998 0.603312 0.267335
0.840997 0.604715 0.268778
0.866094 0.606124 0.270226
0.891286 0.607540 0.271680
0.916572 0.608962 0.273140
0.918631 0.609068 0.273286
0.918666 0.609061 0.273318
0.222359 0.597281 0.237466
0.242248 0.598366 0.238615
0.262615 0.599480 0.239791
0.283388 0.600618 0.240990
0.304517 0.601777 0.242209
0.325963 0.602955 0.243447
0.347695 0.604151 0.244700
0.369688 0.605363 0.245969
0.391921 0.606590 0.247252
0.414376 0.607830 0.248547
0.437040 0.609084 0.249855
0.459899 0.610349 0.251174
0.482941 0.611626 0.252503
0.506156 0.612915 0.253843
0.529536 0.614213 0.255192
0.553073 0.615522 0.256550
0.576760 0.616841 0.257916
0.600589 0.618169 0.259291
0.624556 0.619506 0.260675
0.648655 0.620851 0.262065
0.672880 0.622205 0.263464
0.697228 0.623567 0.264869
0.721693 0.624938 0.266281
0.746273 0.626315 0.267700
0.770963 0.627701 0.269126
0.795761 0.629093 0.270557
0.820662 0.630493 0.271995
0.845664 0.631899 0.273439
0.870764 0.633313 0.274889
0.895960 0.634733 0.276344
0.921249 0.636160 0.277805
0.923310 0.636270 0.277951
0.923347 0.636267 0.277984
0.226982 0.624525 0.242127
0.246873 0.625614 0.243277
0.267241 0.626730 0.244454
0.288017 0.627872 0.245654
0.309148 0.629034 0.246874
0.330596 0.630216 0.248113
0.352330 0.631415 0.249368
0.374325 0.632630 0.250638
0.396561 0.633861 0.251921
0.419019 0.635105 0.253218
0.441685 0.636362 0.254526
0.464546 0.637631 0.255846
0.487591 0.638912 0.257177
0.510809 0.640204 0.258517
0.534192 0.641506 0.259867
0.557732 0.642819 0.261226
0.581421 0.644142 0.262594
0.605254 0.645474 0.263970
0.629224 0.646814 0.265355
0.653325 0.648164 0.266746
0.677554 0.649522 0.268146
0.701904 0.650888 0.269552
0.726373 0.652263 0.270965
0.750956 0.653645 0.272386
0.775650 0.655034 0.273812
0.800450 0.656431 0.275245
0.825355 0.657835 0.276684
0.850361 0.659246 0.278129
0.875465 0.660664 0.279579
0.900664 0.662089 0.281036
0.925957 0.663520 0.282498
0.928019 0.663636 0.282645
0.928057 0.663637 0.282678
0.231631 0.651920 0.246816
0.251524 0.653012 0.247966
0.271895 0.654132 0.249144
0.292672 0.655277 0.250345
0.313806 0.656443 0.251567
0.335256 0.657628 0.252806
0.356993 0.658831 0.254062
0.378990 0.660050 0.255333
0.401228 0.661284 0.256618
0.423689 0.662532 0.257916
0.446358 0.663793 0.259225
0.469222 0.665066 0.260546
0.492269 0.666351 0.261878
0.515490 0.667647 0.263219
0.538876 0.668954 0.264570
0.562419 0.670271 0.265931
0.586111 0.671597 0.267300
0.609946 0.672933 0.268677
0.633919 0.674279 0.270062
0.658024 0.675633 0.271455
0.682255 0.676995 0.272855
0.706609 0.678366 0.274263
0.731081 0.679744 0.275677
0.755668 0.681131 0.277098
0.780365 0.682525 0.278526
0.805169 0.683927 0.279960
0.830077 0.685335 0.281400
0.855086 0.686751 0.282846
0.880194 0.688174 0.284298
0.905397 0.689604 0.285755
0.930693 0.691040 0.287218
0.932757 0.691160 0.287366
0.932797 0.691167 0.287400
0.236306 0.679461 0.251531
0.256202 0.680557 0.252682
0.276575 0.681681 0.253861
0.297354 0.682829 0.255063
0.318490 0.683999 0.256286
0.339943 0.685189 0.257527
0.361682 0.686396 0.258784
0.383682 0.687619 0.260056
0.405922 0.688857 0.261341
0.428386 0.690109 0.262640
0.451057 0.691374 0.263951
0.473924 0.692651 0.265273
0.496974 0.693940 0.266605
0.520198 0.695241 0.267948
0.543587 0.696552 0.269300
0.567132 0.697873 0.270661
0.590828 0.699204 0.272031
0.614666 0.700545 0.273410
0.638642 0.701894 0.274796
0.662750 0.703253 0.276190
0.686985 0.704620 0.277592
0.711342 0.705995 0.279000
0.735818 0.707379 0.280416
0.760407 0.708770 0.281838
0.785108 0.710169 0.283267
0.809915 0.711576 0.284702
0.834827 0.712989 0.286143
0.859840 0.714410 0.287590
0.884951 0.715838 0.289043
0.910158 0.717273 0.290501
0.935459 0.718714 0.291965
0.937524 0.718839 0.292114
0.937566 0.718851 0.292149
0.241007 0.707145 0.256272
0.260905 0.708245 0.257424
0.281279 0.709373 0.258604
0.302062 0.710526 0.259807
0.323200 0.711700 0.261031
0.344655 0.712894 0.262273
0.366396 0.714105 0.263531
0.388399 0.715332 0.264804
0.410642 0.716574 0.266091
0.433108 0.717831 0.267390
0.455783 0.719100 0.268702
0.478652 0.720382 0.270025
0.501705 0.721676 0.271359
0.524932 0.722980 0.272703
0.548324 0.724296 0.274056
0.571872 0.725622 0.275418
0.595571 0.726958 0.276789
0.619412 0.728303 0.278169
0.643392 0.729658 0.279556
0.667503 0.731021 0.280951
0.691741 0.732393 0.282354
0.716102 0.733774 0.283763
0.740581 0.735162 0.285180
0.765174 0.736559 0.286603
0.789878 0.737963 0.288033
0.814689 0.739374 0.289469
0.839605 0.740793 0.290911
0.864621 0.742219 0.292360
0.889736 0.743653 0.293813
0.914947 0.745093 0.295273
0.940251 0.746539 0.296738
0.942319 0.746670 0.296888
0.942362 0.746687 0.296923
0.245732 0.734970 0.261038
0.265632 0.736074 0.262191
0.286009 0.737206 0.263372
0.306793 0.738363 0.264576
0.327934 0.739542 0.265801
0.349392 0.740740 0.267044
0.371136 0.741955 0.268303
0.393141 0.743187 0.269577
0.415387 0.744434 0.270865
0.437856 0.745695 0.272166
0.460533 0.746969 0.273479
0.483405 0.748256 0.274803
0.506461 0.749554 0.276137
0.529691 0.750864 0.277482
0.553086 0.752184 0.278837
0.576638 0.753515 0.280200
0.600339 0.754856 0.281572
0.624185 0.756207 0.282953
0.648167 0.757566 0.284341
0.672282 0.758935 0.285737
0.696523 0.760312 0.287141
0.720887 0.761698 0.288552
0.745370 0.763091 0.289969
0.769967 0.764493 0.291394
0.794674 0.765903 0.292825
0.819490 0.767320 0.294262
0.844409 0.768744 0.295705
0.869429 0.770176 0.297154
0.894548 0.771615 0.298609
0.919763 0.773060 0.300070
0.945054 0.774513 0.301536
0.947035 0.774649 0.301687
0.947078 0.774672 0.301723
0.250481 0.762931 0.265828
0.270383 0.764039 0.266983
0.290762 0.765176 0.268165
0.311549 0.766338 0.269370
0.332693 0.767521 0.270596
0.354153 0.768724 0.271839
0.375900 0.769944 0.273100
0.397908 0.771181 0.274375
0.420157 0.772433 0.275664
0.442628 0.773698 0.276966
0.465308 0.774978 0.278280
0.488183 0.776269 0.279605
0.511243 0.777573 0.280940
0.534475 0.778888 0.282286
0.557873 0.780213 0.283642
0.581428 0.781550 0.285006
0.605133 0.782896 0.286379
0.628982 0.784251 0.287761
0.652968 0.785616 0.289151
0.677086 0.786990 0.290548
0.701331 0.788373 0.291952
0.725699 0.789764 0.293364
0.750185 0.791164 0.294783
0.774785 0.792571 0.296209
0.799497 0.793986 0.297641
0.824316 0.795409 0.299079
0.849239 0.796839 0.300523
0.874263 0.798277 0.301974
0.899386 0.799722 0.303430
0.924605 0.801173 0.304891
0.949687 0.802632 0.306359
0.951661 0.802774 0.306510
0.951702 0.802803 0.306547
0.255253 0.791026 0.270642
0.275157 0.792139 0.271798
0.295539 0.793281 0.272981
0.316329 0.794448 0.274187
0.337475 0.795636 0.275414
0.358938 0.796844 0.276659
0.380687 0.798069 0.277920
0.402698 0.799311 0.279196
0.424950 0.800568 0.280486
0.447424 0.801839 0.281789
0.470107 0.803123 0.283104
0.492986 0.804420 0.284430
0.516048 0.805729 0.285767
0.539284 0.807049 0.287114
0.562685 0.808381 0.288471
0.586244 0.809722 0.289836
0.609952 0.811074 0.291210
0.633804 0.812435 0.292593
0.657793 0.813806 0.293984
0.681915 0.815186 0.295382
0.706163 0.816574 0.296788
0.730535 0.817971 0.298201
0.755025 0.819376 0.299621
0.779629 0.820790 0.301047
0.804344 0.822211 0.302480
0.829167 0.823640 0.303920
0.854094 0.825076 0.305365
0.879123 0.826520 0.306817
0.904250 0.827971 0.308274
0.929473 0.829429 0.309737
0.954320 0.830893 0.311205
0.956286 0.831042 0.311357
0.956323 0.831077 0.311394
0.260047 0.819253 0.275480
0.279954 0.820372 0.276636
0.300339 0.821519 0.277820
0.321131 0.822691 0.279028
0.342280 0.823884 0.280255
0.363745 0.825097 0.281501
0.385498 0.826328 0.282764
0.407512 0.827575 0.284041
0.429766 0.828837 0.285332
0.452244 0.830114 0.286636
0.474930 0.831404 0.287952
0.497811 0.832706 0.289279
0.520877 0.834021 0.290617
0.544116 0.835347 0.291965
0.567521 0.836684 0.293323
0.591082 0.838031 0.294689
0.614794 0.839389 0.296065
0.638650 0.840756 0.297448
0.662642 0.842133 0.298840
0.686768 0.843518 0.300240
