library/cube/Fuji_Pastel_000.cube
# CINEGRADE LAB — Premium Cinematic LUT
# Title: Fuji Pastel
# Category: Fuji 400H Emulation
# Description: Pastel tones, green shadows, airy feel emulating Fuji Pro 400H
# Mood: Soft, pastel, delicate
# Variant: 1
# Generated: 2026-05-21T16:12:49.070569
TITLE "Fuji Pastel"
LUT_3D_SIZE 9
0.145558 0.142680 0.160126
0.227618 0.147108 0.164796
0.314909 0.151841 0.169764
0.405801 0.156786 0.174940
0.499478 0.161896 0.180277
0.595441 0.167143 0.185748
0.693351 0.172507 0.191333
0.792963 0.177975 0.197018
0.845394 0.180764 0.200049
0.161191 0.235640 0.175854
0.243265 0.240059 0.180540
0.330572 0.244785 0.185524
0.421484 0.249725 0.190717
0.515183 0.254832 0.196070
0.611171 0.260079 0.201558
0.709110 0.265446 0.207159
0.808755 0.270920 0.212862
0.861213 0.273721 0.215907
0.177855 0.334440 0.192626
0.259947 0.338862 0.197328
0.347275 0.343593 0.202329
0.438212 0.348542 0.207538
0.531938 0.353660 0.212909
0.627957 0.358921 0.218413
0.725930 0.364305 0.224032
0.825613 0.369799 0.229751
0.878103 0.372624 0.232811
0.195241 0.437271 0.210136
0.277356 0.441710 0.214854
0.364711 0.446462 0.219872
0.455677 0.451434 0.225098
0.549436 0.456579 0.230485
0.645492 0.461869 0.236007
0.743505 0.467285 0.241643
0.843230 0.472813 0.247380
0.895755 0.475679 0.250454
0.213197 0.543263 0.228230
0.295340 0.547736 0.232965
0.382726 0.552525 0.238000
0.473727 0.557535 0.243242
0.567525 0.562722 0.248647
0.663622 0.568058 0.254186
0.761680 0.573522 0.259839
0.861455 0.579103 0.265593
0.914017 0.582023 0.268681
0.231631 0.651920 0.246816
0.313806 0.656443 0.251567
0.401228 0.661284 0.256618
0.492269 0.666351 0.261878
0.586111 0.671597 0.267300
0.682255 0.676995 0.272855
0.780365 0.682525 0.278526
0.880194 0.688174 0.284298
0.932797 0.691167 0.287400
0.250481 0.762931 0.265828
0.332693 0.767521 0.270596
0.420157 0.772433 0.275664
0.511243 0.777573 0.280940
0.605133 0.782896 0.286379
0.701331 0.788373 0.291952
0.799497 0.793986 0.297641
0.899386 0.799722 0.303430
0.951702 0.802803 0.306547
0.269702 0.876096 0.285222
0.351956 0.880771 0.290006
0.439467 0.885770 0.295091
0.530603 0.891002 0.300384
0.624549 0.896419 0.305840
0.720804 0.901995 0.311431
0.819033 0.907683 0.317136
0.918988 0.913503 0.322943
0.970159 0.916693 0.326074
0.279982 0.935138 0.295671
0.362281 0.939641 0.300469
0.449842 0.944419 0.305567
0.541033 0.949379 0.310875
0.635037 0.954471 0.316345
0.731356 0.959663 0.321950
0.829650 0.964930 0.327670
0.929676 0.970253 0.333491
0.979840 0.973101 0.336633
0.147134 0.144183 0.238641
0.229196 0.148614 0.243339
0.316488 0.153349 0.248335
0.407382 0.158296 0.253539
0.501061 0.163408 0.258904
0.597026 0.168657 0.264402
0.694939 0.174024 0.270015
0.794554 0.179495 0.275728
0.846987 0.182288 0.278787
0.162771 0.237140 0.254463
0.244847 0.241562 0.259176
0.332156 0.246290 0.264189
0.423070 0.251234 0.269409
0.516771 0.256345 0.274790
0.612762 0.261595 0.280305
0.710704 0.266966 0.285934
0.810353 0.272443 0.291664
0.862814 0.275248 0.294737
0.179439 0.335940 0.271328
0.261533 0.340366 0.276058
0.348864 0.345102 0.281087
0.439803 0.350054 0.286323
0.533532 0.355177 0.291721
0.629555 0.360443 0.297253
0.727532 0.365831 0.302899
0.827218 0.371330 0.308646
0.879711 0.374160 0.311733
0.196829 0.438777 0.288931
0.278946 0.443221 0.293677
0.366304 0.447978 0.298722
0.457273 0.452955 0.303975
0.551037 0.458105 0.309390
0.647096 0.463401 0.314939
0.745113 0.468823 0.320602
0.844843 0.474357 0.326366
0.897372 0.477228 0.329467
0.214790 0.544780 0.307118
0.296935 0.549260 0.311880
0.384325 0.554054 0.316942
0.475329 0.559071 0.322211
0.569131 0.564265 0.327643
0.665233 0.569606 0.333209
0.763296 0.575078 0.338890
0.863076 0.580665 0.344671
0.915642 0.583592 0.347786
0.233228 0.653453 0.325795
0.315406 0.657984 0.330573
0.402832 0.662832 0.335652
0.493877 0.667907 0.340938
0.587724 0.673160 0.346387
0.683874 0.678566 0.351970
0.781988 0.684103 0.357668
0.881823 0.689760 0.363466
0.934431 0.692760 0.366595
0.252082 0.764487 0.344899
0.334298 0.769085 0.349693
0.421766 0.774005 0.354788
0.512857 0.779154 0.360092
0.606753 0.784485 0.365558
0.702956 0.789972 0.371158
0.801128 0.795594 0.376873
0.901024 0.801338 0.382689
0.953261 0.804428 0.385832
0.271309 0.877680 0.364383
0.353567 0.882365 0.369194
0.441083 0.887374 0.374306
0.532225 0.892615 0.379626
0.626176 0.898042 0.385109
0.722438 0.903624 0.390726
0.820672 0.909318 0.396458
0.920635 0.915153 0.402292
0.971683 0.918355 0.405449
0.281593 0.936667 0.374922
0.363898 0.941170 0.379746
0.451464 0.945946 0.384872
0.542661 0.950903 0.390206
0.636671 0.955989 0.395703
0.732997 0.961174 0.401334
0.831298 0.966432 0.407080
0.931331 0.971745 0.412928
0.981335 0.974584 0.416097
0.148812 0.145788 0.322175
0.230874 0.150221 0.326903
0.318168 0.154959 0.331928
0.409064 0.159908 0.337162
0.502745 0.165023 0.342556
0.598712 0.170274 0.348084
0.696628 0.175644 0.353726
0.796246 0.181117 0.359469
0.848682 0.183913 0.362556
0.164452 0.238742 0.338096
0.246529 0.243166 0.342839
0.333840 0.247899 0.347881
0.424757 0.252845 0.353130
0.518461 0.257959 0.358541
0.614455 0.263213 0.364085
0.712400 0.268588 0.369744
0.812052 0.274069 0.375503
0.864517 0.276878 0.378604
0.181123 0.337543 0.355061
0.263220 0.341973 0.359819
0.350553 0.346713 0.364877
0.441495 0.351670 0.370143
0.535228 0.356797 0.375570
0.631254 0.362067 0.381131
0.729234 0.367460 0.386806
0.828925 0.372963 0.392583
0.881422 0.375798 0.395698
0.198518 0.440385 0.372762
0.280638 0.444835 0.377536
0.367999 0.449597 0.382611
0.458971 0.454579 0.387893
0.552738 0.459735 0.393337
0.648801 0.465036 0.398915
0.746823 0.470463 0.404607
0.846558 0.476003 0.410400
0.899090 0.478881 0.413529
0.216483 0.546400 0.391046
0.298631 0.550886 0.395837
0.386024 0.555686 0.400928
0.477032 0.560710 0.406227
0.570839 0.565910 0.411687
0.666945 0.571258 0.417282
0.765013 0.576736 0.422991
0.864798 0.582330 0.428801
0.917369 0.585264 0.431945
0.234925 0.655090 0.409821
0.317107 0.659628 0.414628
0.404538 0.664484 0.419735
0.495587 0.669565 0.425050
0.589438 0.674827 0.430528
0.685593 0.680239 0.436139
0.783713 0.685785 0.441866
0.883554 0.691449 0.447693
0.936166 0.694458 0.450850
0.253784 0.766147 0.429021
0.336005 0.770754 0.433845
0.423477 0.775682 0.438968
0.514573 0.780839 0.444300
0.608475 0.786179 0.449795
0.704683 0.791674 0.455423
0.802861 0.797304 0.461167
0.902763 0.803058 0.467011
0.954913 0.806157 0.470183
0.273016 0.879369 0.448602
0.355279 0.884063 0.453442
0.442800 0.889081 0.458582
0.533947 0.894332 0.463931
0.627904 0.899769 0.469442
0.724172 0.905350 0.475087
0.822414 0.911059 0.480848
0.922383 0.916908 0.486709
0.973299 0.920122 0.489895
0.283306 0.938290 0.459236
0.365616 0.942793 0.464089
0.453187 0.947567 0.469242
0.544390 0.952518 0.474605
0.638407 0.957599 0.480130
0.734739 0.962775 0.485789
0.833048 0.968024 0.491564
0.933088 0.973324 0.497439
0.982919 0.976155 0.500636
0.150559 0.147464 0.409170
0.232622 0.151899 0.413928
0.319918 0.156639 0.418984
0.410816 0.161591 0.424248
0.504499 0.166708 0.429673
0.600468 0.171962 0.435231
0.698387 0.177334 0.440904
0.798008 0.182810 0.446677
0.850447 0.185609 0.449795
0.166203 0.240414 0.425194
0.248281 0.244842 0.429967
0.335595 0.249577 0.435039
0.426513 0.254527 0.440319
0.520220 0.259645 0.445760
0.616217 0.264902 0.451335
0.714166 0.270280 0.457024
0.813821 0.275765 0.462814
0.866289 0.278578 0.465945
0.182878 0.339217 0.442261
0.264976 0.343651 0.447050
0.352312 0.348395 0.452138
0.443257 0.353356 0.457434
0.536993 0.358488 0.462892
0.633022 0.363762 0.468483
0.731007 0.369160 0.474188
0.830701 0.374667 0.479995
0.883202 0.377508 0.483140
0.200276 0.442065 0.460064
0.282399 0.446520 0.464869
0.369763 0.451288 0.469973
0.460738 0.456275 0.475286
0.554509 0.461436 0.480760
0.650576 0.466742 0.486368
0.748603 0.472175 0.492090
0.848342 0.477721 0.497913
0.900878 0.480604 0.501072
0.218245 0.548092 0.478450
0.300397 0.552583 0.483271
0.387793 0.557390 0.488392
0.478806 0.562420 0.493721
0.572616 0.567626 0.499211
0.668727 0.572981 0.504836
0.766800 0.578466 0.510575
0.866591 0.584066 0.516415
0.919165 0.587008 0.519588
0.236692 0.656799 0.497326
0.318878 0.661344 0.502163
0.406312 0.666207 0.507300
0.497366 0.671296 0.512645
0.591222 0.676565 0.518152
0.687382 0.681985 0.523794
0.785508 0.687539 0.529550
0.885355 0.693211 0.535407
0.937971 0.696227 0.538593
0.255557 0.767879 0.516627
0.337781 0.772494 0.521480
0.425258 0.777430 0.526633
0.516359 0.782596 0.531995
0.610266 0.787945 0.537519
0.706480 0.793448 0.543177
0.804664 0.799088 0.548950
0.904573 0.804850 0.554824
0.956627 0.807958 0.558025
0.274794 0.881130 0.536308
0.357061 0.885833 0.541177
0.444587 0.890861 0.546347
0.535740 0.896121 0.551725
0.629702 0.901568 0.557266
0.725977 0.907149 0.562941
0.824225 0.912874 0.568731
0.924201 0.918736 0.574621
0.974975 0.921963 0.577836
0.285088 0.939979 0.547040
0.367403 0.944480 0.551922
0.454980 0.949250 0.557105
0.546189 0.954196 0.562497
0.640212 0.959270 0.568052
0.736551 0.964437 0.573740
0.834867 0.969675 0.579544
0.934915 0.974963 0.585449
0.984563 0.977783 0.588674
0.152359 0.149194 0.498842
0.234424 0.153631 0.503632
0.321721 0.158373 0.508720
0.412621 0.163328 0.514015
0.506306 0.168447 0.519472
0.602278 0.173704 0.525062
0.700199 0.179078 0.530766
0.799824 0.184557 0.536571
0.852266 0.187359 0.539719
0.168007 0.242141 0.514973
0.250087 0.246572 0.519777
0.337403 0.251311 0.524881
0.428324 0.256264 0.530192
0.522033 0.261385 0.535665
0.618033 0.266646 0.541271
0.715985 0.272027 0.546991
0.815644 0.277516 0.552812
0.868115 0.280333 0.555974
0.184686 0.340946 0.532145
0.266786 0.345384 0.536965
0.354125 0.350132 0.542085
0.445072 0.355097 0.547412
0.538812 0.360233 0.552901
0.634845 0.365512 0.558523
0.732833 0.370914 0.564260
0.832532 0.376427 0.570097
0.885036 0.379272 0.573273
0.202088 0.443801 0.550053
0.284213 0.448261 0.554889
0.371580 0.453033 0.560025
0.462560 0.458026 0.565368
0.556334 0.463192 0.570873
0.652406 0.468504 0.576512
0.750436 0.473943 0.582265
0.850181 0.479494 0.588119
0.902720 0.482383 0.591309
0.220062 0.549839 0.568544
0.302216 0.554337 0.573396
0.389617 0.559150 0.578547
0.480633 0.564186 0.583907
0.574448 0.569399 0.589429
0.670563 0.574760 0.595084
0.768642 0.580252 0.600854
0.868437 0.585859 0.606725
0.921016 0.588807 0.609928
0.238514 0.658564 0.587524
0.320703 0.663116 0.592391
0.408141 0.667986 0.597559
0.499200 0.673083 0.602935
0.593060 0.678359 0.608473
0.689226 0.683787 0.614145
0.787357 0.689348 0.619931
0.887210 0.695029 0.625819
0.939831 0.698053 0.629036
0.257383 0.769667 0.606928
0.339611 0.774290 0.611812
0.427093 0.779235 0.616996
0.518199 0.784409 0.622388
0.612111 0.789767 0.627943
0.708331 0.795279 0.633631
0.806521 0.800928 0.639435
0.906437 0.806699 0.645339
0.958389 0.809816 0.648569
0.276625 0.882948 0.626712
0.358897 0.887661 0.631612
0.446428 0.892698 0.636812
0.537586 0.897968 0.642221
0.631555 0.903422 0.647792
0.727836 0.909008 0.653497
0.826090 0.914746 0.659317
0.926074 0.920623 0.665238
0.976698 0.923861 0.668482
0.286925 0.941716 0.637546
0.369245 0.946215 0.642458
0.456827 0.950981 0.647672
0.548042 0.955922 0.653094
0.642072 0.960987 0.658678
0.738418 0.966145 0.664397
0.836741 0.971371 0.670230
0.936797 0.976646 0.676165
0.986252 0.979456 0.679420
0.154204 0.150969 0.590716
0.236270 0.155409 0.595538
0.323569 0.160153 0.600658
0.414470 0.165109 0.605986
0.508158 0.170231 0.611474
0.604133 0.175491 0.617096
0.702057 0.180868 0.622833
0.801685 0.186350 0.628669
0.854129 0.189155 0.631850
0.169855 0.243914 0.606954
0.251937 0.248348 0.611791
0.339255 0.253090 0.616927
0.430178 0.258046 0.622270
0.523891 0.263170 0.627775
0.619893 0.268435 0.633413
0.717849 0.273820 0.639165
0.817512 0.279312 0.645018
0.869986 0.282133 0.648211
0.186538 0.342720 0.624235
0.268641 0.347162 0.629087
0.355982 0.351914 0.634238
0.446932 0.356884 0.639597
0.540675 0.362025 0.645118
0.636712 0.367308 0.650772
0.734704 0.372715 0.656541
0.834408 0.378232 0.662410
0.886915 0.381082 0.665617
0.203944 0.445581 0.642251
0.286072 0.450047 0.647118
0.373443 0.454825 0.652286
0.464425 0.459823 0.657661
0.558204 0.464994 0.663197
0.654279 0.470312 0.668868
0.752315 0.475756 0.674653
0.852064 0.481314 0.680538
0.904607 0.484209 0.683759
0.221922 0.551632 0.660848
0.304080 0.556136 0.665731
0.391484 0.560956 0.670915
0.482504 0.565998 0.676306
0.576324 0.571217 0.681859
0.672444 0.576586 0.687546
0.770527 0.582084 0.693347
0.870329 0.587698 0.699249
0.922911 0.590653 0.702483
0.240379 0.660375 0.679934
0.322572 0.664934 0.684833
0.410015 0.669812 0.690032
0.501077 0.674916 0.695440
0.594943 0.680200 0.701009
0.691114 0.685636 0.706712
0.789251 0.691205 0.712530
0.889110 0.696893 0.718449
0.941735 0.699926 0.721696
0.259253 0.771502 0.699445
0.341485 0.776134 0.704359
0.428972 0.781087 0.709575
0.520083 0.786270 0.714998
0.614001 0.791636 0.720584
0.710227 0.797157 0.726303
0.808423 0.802815 0.732138
0.908345 0.808595 0.738073
0.960189 0.811721 0.741334
0.278501 0.884813 0.719334
0.360778 0.889535 0.724264
0.448313 0.894582 0.729495
0.539477 0.899861 0.734935
0.633452 0.905314 0.740537
0.729739 0.910915 0.746273
0.828001 0.916668 0.752124
0.927991 0.922557 0.758076
0.978458 0.925807 0.761351
0.288806 0.943494 0.730271
0.371131 0.947990 0.735214
0.458719 0.952751 0.740458
0.549940 0.957685 0.745911
0.643976 0.962742 0.751526
0.740329 0.967890 0.757276
0.838660 0.973104 0.763140
0.938723 0.978364 0.769105
0.987976 0.981162 0.772391
0.156086 0.152783 0.684466
0.238154 0.157224 0.689321
0.325454 0.161971 0.694474
0.416358 0.166930 0.699834
0.510047 0.172054 0.705356
0.606025 0.177316 0.711011
0.703952 0.182696 0.716780
0.803583 0.188180 0.722649
0.856030 0.190989 0.725862
0.171741 0.245724 0.700815
0.253825 0.250162 0.705685
0.341145 0.254907 0.710853
0.432071 0.259867 0.716229
0.525786 0.264995 0.721766
0.621792 0.270262 0.727436
0.719751 0.275651 0.733221
0.819418 0.281147 0.739107
0.871895 0.283973 0.742332
0.188427 0.344533 0.718205
0.270533 0.348979 0.723090
0.357877 0.353736 0.728274
0.448830 0.358710 0.733665
0.542576 0.363855 0.739218
0.638616 0.369143 0.744905
0.736613 0.374554 0.750706
0.836321 0.380076 0.756607
0.888831 0.382932 0.759846
0.205838 0.447402 0.736330
0.287969 0.451872 0.741230
0.375342 0.456655 0.746430
0.466329 0.461659 0.751837
0.560111 0.466836 0.757406
0.656191 0.472159 0.763109
0.754231 0.477609 0.768926
0.853985 0.483172 0.774844
0.906532 0.486073 0.778096
0.223821 0.553465 0.755037
0.305982 0.557975 0.759952
0.393390 0.562801 0.765168
0.484414 0.567850 0.770591
0.578238 0.573076 0.776176
0.674363 0.578451 0.781895
0.772451 0.583955 0.787728
0.872258 0.589577 0.793662
0.924845 0.592539 0.796928
0.242282 0.662226 0.774231
0.324479 0.666793 0.779162
0.411926 0.671678 0.784393
0.502993 0.676789 0.789832
0.596864 0.682081 0.795434
0.693040 0.687525 0.801169
0.791183 0.693101 0.807018
0.891047 0.698798 0.812969
0.943677 0.701838 0.816248
0.261161 0.773377 0.793849
0.343398 0.778017 0.798796
0.430889 0.782979 0.804043
0.522005 0.788171 0.809498
0.615928 0.793545 0.815116
0.712160 0.799075 0.820867
0.810363 0.804742 0.826733
0.910292 0.810531 0.832700
0.962021 0.813667 0.835992
0.280414 0.886718 0.813846
0.362696 0.891450 0.818808
0.450237 0.896507 0.824071
0.541406 0.901796 0.829542
0.635387 0.907248 0.835175
0.731681 0.912864 0.840943
0.829949 0.918631 0.846825
0.929947 0.924534 0.852808
0.980248 0.927795 0.856114
0.290724 0.945306 0.824889
0.373055 0.949798 0.829863
0.460649 0.954554 0.835139
0.551876 0.959481 0.840623
0.645919 0.964528 0.846270
0.742278 0.969665 0.852050
0.840616 0.974865 0.857946
0.940688 0.980111 0.863942
0.989730 0.982897 0.867259
0.158001 0.154629 0.779857
0.240071 0.159073 0.784745
0.327373 0.163822 0.789932
0.418278 0.168783 0.795326
0.511970 0.173910 0.800881
0.607950 0.179175 0.806569
0.705880 0.184558 0.812371
0.805515 0.190045 0.818273
0.857965 0.192857 0.821519
0.173660 0.247569 0.796318
0.255746 0.252010 0.801221
0.343068 0.256758 0.806423
0.433996 0.261721 0.811832
0.527714 0.266852 0.817402
0.623723 0.272124 0.823106
0.721686 0.277517 0.828923
0.821357 0.283016 0.834842
0.873837 0.285846 0.838100
0.190350 0.346380 0.813820
0.272458 0.350830 0.818738
0.359804 0.355591 0.823955
0.450761 0.360570 0.829379
0.544510 0.365719 0.834965
0.640555 0.371011 0.840685
0.738555 0.376428 0.846519
0.838268 0.381955 0.852453
0.890782 0.384815 0.855724
0.207765 0.449256 0.832056
0.289899 0.453732 0.836989
0.377275 0.458520 0.842222
0.468265 0.463529 0.847662
0.562052 0.468712 0.853264
0.658136 0.474041 0.858999
0.756180 0.479496 0.864849
0.855940 0.485066 0.870799
0.908491 0.487973 0.874084
0.225752 0.555332 0.850873
0.307917 0.559849 0.855822
0.395328 0.564681 0.861070
0.486356 0.569736 0.866526
0.580185 0.574969 0.872143
0.676315 0.580350 0.877895
0.774409 0.585862 0.883760
0.874221 0.591490 0.889727
0.926812 0.594460 0.893025
0.244218 0.664112 0.870178
0.326419 0.668686 0.875141
0.413870 0.673579 0.880405
0.504942 0.678698 0.885876
0.598818 0.683997 0.891510
0.694999 0.689449 0.897178
0.793148 0.695033 0.902885
0.893019 0.700738 0.908662
0.945613 0.703786 0.911830
0.263102 0.775288 0.889905
0.345343 0.779936 0.894848
0.432840 0.784907 0.899982
0.523961 0.790107 0.905295
0.617889 0.795490 0.910739
0.714127 0.801029 0.916284
0.812337 0.806705 0.921910
0.912272 0.812504 0.927600
0.963880 0.815649 0.930698
0.282361 0.888660 0.909511
0.364647 0.893401 0.914306
0.452193 0.898467 0.919366
0.543369 0.903762 0.924597
0.637356 0.909220 0.929954
0.733656 0.914850 0.935406
0.831931 0.920631 0.940932
0.931937 0.926547 0.946518
0.982063 0.929819 0.949529
0.292676 0.947147 0.920114
0.375012 0.951635 0.924846
0.462612 0.956384 0.929837
0.553845 0.961303 0.934994
0.647895 0.966341 0.940271
0.744261 0.971465 0.945638
0.842607 0.976652 0.951075
0.942686 0.981882 0.956565
0.991508 0.984655 0.959503
0.158803 0.155354 0.819768
0.240874 0.159800 0.824671
0.328178 0.164552 0.829872
0.419085 0.169516 0.835280
0.512779 0.174646 0.840850
0.608762 0.179914 0.846552
0.706695 0.185300 0.852369
0.806333 0.190790 0.858286
0.858786 0.193605 0.861546
0.174465 0.248293 0.836278
0.256553 0.252738 0.841195
0.343877 0.257490 0.846411
0.434808 0.262456 0.851835
0.528529 0.267592 0.857420
0.624542 0.272867 0.863138
0.722508 0.278264 0.868970
0.822182 0.283768 0.874902
0.874666 0.286602 0.878175
0.191159 0.347108 0.853829
0.273269 0.351563 0.858761
0.360619 0.356329 0.863992
0.451578 0.361312 0.869431
0.545331 0.366466 0.875031
0.641379 0.371763 0.880765
0.739384 0.377185 0.886613
0.839101 0.382716 0.892556
0.891618 0.385582 0.895797
0.208578 0.449993 0.872113
0.290715 0.454474 0.877060
0.378095 0.459268 0.882307
0.469088 0.464283 0.887761
0.562878 0.469471 0.893362
0.658967 0.474806 0.899027
0.757016 0.480268 0.904786
0.856781 0.485843 0.910623
0.909335 0.488756 0.913824
0.226569 0.556083 0.890978
0.308737 0.560606 0.895890
0.396152 0.565445 0.901068
0.487185 0.570507 0.906432
0.581018 0.575746 0.911935
0.677153 0.581135 0.917547
0.775252 0.586653 0.923247
0.875069 0.592288 0.929018
0.927665 0.595265 0.932166
0.245040 0.664883 0.910017
0.327244 0.669464 0.914867
0.414700 0.674364 0.919992
0.505776 0.679491 0.925296
0.599657 0.684798 0.930734
0.695844 0.690257 0.936274
0.793998 0.695850 0.941897
0.893875 0.701562 0.947586
0.946437 0.704619 0.950664
0.263929 0.776083 0.929209
0.346174 0.780740 0.933995
0.433675 0.785720 0.939048
0.524801 0.790928 0.944276
0.618736 0.796321 0.949630
0.714979 0.801868 0.955082
0.813195 0.807553 0.960609
0.913137 0.813361 0.966198
0.964680 0.816514 0.969191
0.283192 0.889486 0.948458
0.365483 0.894237 0.953162
0.453035 0.899313 0.958127
0.544216 0.904613 0.963260
0.638209 0.910084 0.968513
0.734516 0.915727 0.973858
0.832798 0.921520 0.979272
0.932810 0.927447 0.984742
0.982835 0.930729 0.987636
0.293513 0.947947 0.958744
0.375853 0.952433 0.963373
0.463459 0.957180 0.968255
0.554699 0.962094 0.973300
0.648754 0.967125 0.978461
0.745128 0.972242 0.983707
0.843481 0.977420 0.989018
0.943568 0.982639 0.994378
0.992257 0.985405 0.997187
