library/cube/Fuji_Air_003.cube
# CINEGRADE LAB — Premium Cinematic LUT
# Title: Fuji Air
# Category: Fuji 400H Emulation
# Description: Pastel tones, green shadows, airy feel emulating Fuji Pro 400H
# Mood: Soft, pastel, delicate
# Variant: 4
# Generated: 2026-05-21T16:12:50.568421
TITLE "Fuji Air"
LUT_3D_SIZE 33
0.160367 0.158237 0.179014
0.179098 0.159614 0.180450
0.198278 0.161026 0.181921
0.217841 0.162467 0.183422
0.237738 0.163935 0.184948
0.257933 0.165426 0.186497
0.278397 0.166938 0.188067
0.299106 0.168470 0.189656
0.320041 0.170019 0.191262
0.341185 0.171584 0.192885
0.362524 0.173165 0.194523
0.384046 0.174760 0.196175
0.405740 0.176369 0.197840
0.427597 0.177991 0.199518
0.449609 0.179624 0.201208
0.471767 0.181270 0.202910
0.494065 0.182927 0.204623
0.516497 0.184594 0.206346
0.539058 0.186271 0.208079
0.561742 0.187959 0.209822
0.584545 0.189656 0.211575
0.607462 0.191362 0.213336
0.630490 0.193077 0.215106
0.653624 0.194800 0.216885
0.676862 0.196532 0.218672
0.700199 0.198272 0.220467
0.723634 0.200019 0.222269
0.747163 0.201774 0.224079
0.770784 0.203537 0.225897
0.794494 0.205307 0.227721
0.813924 0.206749 0.229221
0.813935 0.206699 0.229243
0.813947 0.206649 0.229266
0.165180 0.180330 0.183848
0.183912 0.181706 0.185286
0.203092 0.183117 0.186758
0.222656 0.184558 0.188260
0.242554 0.186025 0.189787
0.262750 0.187515 0.191338
0.283215 0.189026 0.192909
0.303925 0.190557 0.194499
0.324861 0.192105 0.196106
0.346006 0.193670 0.197730
0.367346 0.195250 0.199369
0.388869 0.196845 0.201022
0.410564 0.198453 0.202689
0.432422 0.200074 0.204368
0.454435 0.201708 0.206060
0.476594 0.203353 0.207763
0.498894 0.205009 0.209476
0.521328 0.206676 0.211201
0.543890 0.208353 0.212935
0.566575 0.210041 0.214680
0.589380 0.211737 0.216433
0.612298 0.213443 0.218196
0.635328 0.215158 0.219967
0.658464 0.216881 0.221747
0.681703 0.218613 0.223535
0.705042 0.220353 0.225332
0.728479 0.222101 0.227135
0.752010 0.223856 0.228947
0.775632 0.225619 0.230765
0.799344 0.227389 0.232591
0.818776 0.228831 0.234091
0.818789 0.228782 0.234115
0.818802 0.228733 0.234138
0.170110 0.202947 0.188801
0.188843 0.204322 0.190240
0.208024 0.205733 0.191714
0.227588 0.207173 0.193216
0.247487 0.208639 0.194745
0.267684 0.210129 0.196297
0.288150 0.211640 0.197869
0.308861 0.213170 0.199460
0.329798 0.214717 0.201069
0.350944 0.216282 0.202694
0.372286 0.217862 0.204334
0.393810 0.219456 0.205988
0.415506 0.221064 0.207656
0.437366 0.222685 0.209337
0.459380 0.224318 0.211029
0.481540 0.225963 0.212734
0.503841 0.227619 0.214449
0.526277 0.229286 0.216174
0.548840 0.230963 0.217910
0.571527 0.232650 0.219656
0.594333 0.234347 0.221410
0.617254 0.236053 0.223174
0.640284 0.237767 0.224947
0.663422 0.239491 0.226728
0.686663 0.241223 0.228518
0.710004 0.242963 0.230315
0.733443 0.244711 0.232120
0.756976 0.246467 0.233932
0.780600 0.248230 0.235752
0.804314 0.250001 0.237579
0.823748 0.251443 0.239081
0.823762 0.251395 0.239105
0.823776 0.251347 0.239129
0.175141 0.226010 0.193856
0.193874 0.227385 0.195296
0.213057 0.228795 0.196771
0.232622 0.230234 0.198275
0.252522 0.231700 0.199804
0.272720 0.233190 0.201357
0.293187 0.234700 0.202931
0.313899 0.236230 0.204523
0.334837 0.237777 0.206133
0.355984 0.239341 0.207759
0.377327 0.240921 0.209401
0.398852 0.242515 0.211056
0.420550 0.244123 0.212725
0.442411 0.245743 0.214407
0.464426 0.247376 0.216101
0.486588 0.249021 0.217806
0.508891 0.250677 0.219523
0.531327 0.252344 0.221250
0.553892 0.254022 0.222987
0.576581 0.255709 0.224733
0.599389 0.257406 0.226489
0.622311 0.259112 0.228255
0.645344 0.260827 0.230029
0.668483 0.262551 0.231811
0.691726 0.264283 0.233602
0.715069 0.266024 0.235400
0.738510 0.267772 0.237206
0.762044 0.269529 0.239020
0.785671 0.271292 0.240841
0.809387 0.273064 0.242670
0.828823 0.274507 0.244172
0.828838 0.274460 0.244197
0.828854 0.274413 0.244222
0.180260 0.249463 0.199000
0.198994 0.250837 0.200441
0.218177 0.252247 0.201917
0.237744 0.253686 0.203422
0.257645 0.255152 0.204953
0.277844 0.256641 0.206507
0.298312 0.258151 0.208082
0.319025 0.259680 0.209676
0.339964 0.261228 0.211287
0.361113 0.262792 0.212914
0.382457 0.264371 0.214557
0.403983 0.265965 0.216214
0.425683 0.267573 0.217884
0.447545 0.269194 0.219567
0.469561 0.270827 0.221262
0.491725 0.272472 0.222969
0.514029 0.274129 0.224686
0.536467 0.275796 0.226414
0.559034 0.277473 0.228153
0.581725 0.279161 0.229901
0.604534 0.280858 0.231658
0.627458 0.282565 0.233424
0.650493 0.284281 0.235200
0.673634 0.286005 0.236983
0.696879 0.287738 0.238775
0.720224 0.289479 0.240575
0.743666 0.291228 0.242382
0.767203 0.292985 0.244197
0.790832 0.294750 0.246020
0.814550 0.296522 0.247849
0.833988 0.297966 0.249353
0.834005 0.297920 0.249379
0.834022 0.297875 0.249404
0.185458 0.273262 0.204224
0.204193 0.274636 0.205667
0.223377 0.276045 0.207144
0.242944 0.277484 0.208650
0.262847 0.278950 0.210182
0.283047 0.280439 0.211737
0.303516 0.281949 0.213313
0.324231 0.283479 0.214908
0.345171 0.285026 0.216521
0.366321 0.286590 0.218149
0.387666 0.288170 0.219793
0.409194 0.289764 0.221451
0.430895 0.291372 0.223123
0.452758 0.292994 0.224807
0.474777 0.294627 0.226503
0.496942 0.296273 0.228211
0.519248 0.297929 0.229930
0.541688 0.299597 0.231659
0.564256 0.301275 0.233399
0.586949 0.302964 0.235148
0.609760 0.304661 0.236907
0.632686 0.306369 0.238674
0.655722 0.308085 0.240451
0.678865 0.309810 0.242236
0.702112 0.311544 0.244029
0.725460 0.313286 0.245830
0.748904 0.315036 0.247639
0.772443 0.316794 0.249455
0.796074 0.318560 0.251279
0.819795 0.320333 0.253109
0.839235 0.321778 0.254615
0.839253 0.321734 0.254641
0.839271 0.321691 0.254667
0.190727 0.297373 0.209521
0.209463 0.298747 0.210965
0.228648 0.300157 0.212443
0.248217 0.301596 0.213951
0.268120 0.303062 0.215484
0.288321 0.304551 0.217040
0.308792 0.306061 0.218617
0.329508 0.307591 0.220214
0.350450 0.309139 0.221827
0.371601 0.310703 0.223457
0.392947 0.312283 0.225102
0.414477 0.313878 0.226761
0.436179 0.315487 0.228434
0.458044 0.317108 0.230120
0.480064 0.318743 0.231817
0.502231 0.320389 0.233526
0.524539 0.322046 0.235246
0.546981 0.323714 0.236977
0.569551 0.325393 0.238718
0.592245 0.327082 0.240468
0.615058 0.328781 0.242228
0.637986 0.330489 0.243997
0.661025 0.332207 0.245775
0.684170 0.333933 0.247561
0.707419 0.335668 0.249355
0.730769 0.337411 0.251158
0.754215 0.339162 0.252968
0.777757 0.340921 0.254785
0.801390 0.342688 0.256610
0.825113 0.344462 0.258442
0.844555 0.345909 0.259949
0.844574 0.345867 0.259976
0.844594 0.345825 0.260003
0.196061 0.321770 0.214885
0.214799 0.323144 0.216330
0.233985 0.324553 0.217809
0.253555 0.325993 0.219318
0.273459 0.327459 0.220852
0.293662 0.328949 0.222410
0.314134 0.330460 0.223988
0.334851 0.331990 0.225586
0.355794 0.333538 0.227200
0.376947 0.335103 0.228832
0.398295 0.336684 0.230478
0.419826 0.338279 0.232138
0.441530 0.339889 0.233812
0.463397 0.341511 0.235499
0.485418 0.343146 0.237198
0.507587 0.344793 0.238908
0.529897 0.346451 0.240630
0.552340 0.348121 0.242361
0.574913 0.349801 0.244104
0.597609 0.351491 0.245855
0.620424 0.353191 0.247616
0.643354 0.354900 0.249387
0.666394 0.356618 0.251166
0.689542 0.358346 0.252953
0.712793 0.360082 0.254749
0.736145 0.361826 0.256552
0.759594 0.363579 0.258364
0.783138 0.365339 0.260183
0.806773 0.367108 0.262009
0.830499 0.368884 0.263842
0.849943 0.370332 0.265350
0.849964 0.370291 0.265377
0.849985 0.370252 0.265405
0.201456 0.346429 0.220310
0.220195 0.347803 0.221756
0.239382 0.349213 0.223237
0.258953 0.350654 0.224747
0.278859 0.352120 0.226283
0.299063 0.353610 0.227841
0.319536 0.355122 0.229421
0.340255 0.356653 0.231020
0.361200 0.358202 0.232636
0.382354 0.359768 0.234268
0.403704 0.361350 0.235915
0.425237 0.362946 0.237577
0.446942 0.364556 0.239252
0.468811 0.366180 0.240940
0.490834 0.367816 0.242640
0.513005 0.369464 0.244352
0.535316 0.371123 0.246075
0.557761 0.372794 0.247808
0.580336 0.374475 0.249551
0.603034 0.376166 0.251304
0.625851 0.377867 0.253067
0.648783 0.379578 0.254838
0.671826 0.381298 0.256618
0.694976 0.383027 0.258407
0.718229 0.384764 0.260204
0.741583 0.386510 0.262009
0.765035 0.388264 0.263821
0.788581 0.390027 0.265642
0.812219 0.391797 0.267469
0.835947 0.393574 0.269304
0.855394 0.395024 0.270812
0.855416 0.394986 0.270841
0.855438 0.394949 0.270870
0.206907 0.371332 0.225793
0.225647 0.372707 0.227240
0.244836 0.374118 0.228722
0.264408 0.375559 0.230233
0.284315 0.377026 0.231770
0.304521 0.378517 0.233330
0.324995 0.380030 0.234911
0.345716 0.381562 0.236511
0.366662 0.383112 0.238128
0.387818 0.384679 0.239762
0.409169 0.386261 0.241411
0.430704 0.387859 0.243074
0.452411 0.389470 0.244750
0.474282 0.391095 0.246439
0.496307 0.392732 0.248141
0.518479 0.394382 0.249854
0.540793 0.396042 0.251577
0.563240 0.397714 0.253312
0.585817 0.399397 0.255056
0.608517 0.401090 0.256811
0.631336 0.402793 0.258574
0.654270 0.404505 0.260347
0.677316 0.406226 0.262129
0.700468 0.407957 0.263919
0.723724 0.409696 0.265717
0.747080 0.411444 0.267523
0.770534 0.413200 0.269337
0.794083 0.414964 0.271158
0.817724 0.416736 0.272987
0.841454 0.418516 0.274823
0.860903 0.419968 0.276333
0.860927 0.419932 0.276362
0.860951 0.419897 0.276392
0.212410 0.396463 0.231330
0.231152 0.397839 0.232779
0.250342 0.399251 0.234262
0.269916 0.400693 0.235774
0.289824 0.402161 0.237312
0.310031 0.403654 0.238873
0.330508 0.405167 0.240456
0.351229 0.406700 0.242057
0.372177 0.408252 0.243675
0.393335 0.409820 0.245310
0.414688 0.411404 0.246960
0.436225 0.413003 0.248624
0.457934 0.414615 0.250302
0.479806 0.416242 0.251992
0.501833 0.417880 0.253695
0.524008 0.419531 0.255409
0.546323 0.421194 0.257134
0.568773 0.422867 0.258870
0.591351 0.424552 0.260616
0.614054 0.426246 0.262371
0.636876 0.427951 0.264136
0.659812 0.429665 0.265910
0.682860 0.431388 0.267693
0.706014 0.433121 0.269484
0.729273 0.434862 0.271284
0.752631 0.436612 0.273091
0.776088 0.438370 0.274906
0.799639 0.440137 0.276729
0.823283 0.441911 0.278559
0.847016 0.443693 0.280396
0.866468 0.445147 0.281907
0.866493 0.445114 0.281937
0.866518 0.445081 0.281968
0.217964 0.421809 0.236918
0.236706 0.423186 0.238368
0.255898 0.424599 0.239852
0.275473 0.426042 0.241366
0.295383 0.427512 0.242905
0.315592 0.429006 0.244468
0.336070 0.430521 0.246051
0.356793 0.432055 0.247653
0.377743 0.433608 0.249273
0.398902 0.435178 0.250909
0.420257 0.436763 0.252560
0.441796 0.438364 0.254226
0.463507 0.439978 0.255905
0.485381 0.441606 0.257596
0.507410 0.443247 0.259300
0.529587 0.444899 0.261016
0.551904 0.446564 0.262742
0.574356 0.448239 0.264479
0.596937 0.449925 0.266226
0.619642 0.451622 0.267983
0.642466 0.453329 0.269749
0.665405 0.455045 0.271524
0.688455 0.456770 0.273308
0.711612 0.458505 0.275101
0.734873 0.460249 0.276902
0.758234 0.462001 0.278710
0.781694 0.463761 0.280527
0.805248 0.465530 0.282351
0.828894 0.467307 0.284182
0.852630 0.469091 0.286021
0.872084 0.470548 0.287533
0.872110 0.470518 0.287564
0.872137 0.470488 0.287595
0.223563 0.447357 0.242554
0.242307 0.448736 0.244005
0.261501 0.450151 0.245491
0.281077 0.451596 0.247005
0.300989 0.453067 0.248546
0.321199 0.454562 0.250110
0.341679 0.456079 0.251694
0.362404 0.457615 0.253298
0.383356 0.459169 0.254919
0.404517 0.460741 0.256556
0.425874 0.462328 0.258209
0.447415 0.463931 0.259875
0.469128 0.465547 0.261556
0.491004 0.467177 0.263248
0.513035 0.468819 0.264954
0.535214 0.470474 0.266670
0.557534 0.472140 0.268398
0.579988 0.473818 0.270136
0.602571 0.475507 0.271884
0.625278 0.477205 0.273643
0.648105 0.478914 0.275410
0.671046 0.480633 0.277187
0.694099 0.482361 0.278972
0.717258 0.484098 0.280766
0.740522 0.485844 0.282568
0.763886 0.487599 0.284378
0.787348 0.489362 0.286196
0.810905 0.491133 0.288021
0.834554 0.492913 0.289853
0.858293 0.494700 0.291693
0.877750 0.496160 0.293207
0.877777 0.496132 0.293238
0.877805 0.496106 0.293270
0.229208 0.473099 0.248236
0.247953 0.474480 0.249688
0.267148 0.475896 0.251175
0.286726 0.477342 0.252691
0.306640 0.478815 0.254233
0.326852 0.480312 0.255798
0.347333 0.481831 0.257384
0.368061 0.483369 0.258988
0.389014 0.484925 0.260611
0.410177 0.486499 0.262249
0.431536 0.488088 0.263903
0.453079 0.489693 0.265571
0.474794 0.491311 0.267252
0.496672 0.492943 0.268947
0.518706 0.494588 0.270653
0.540887 0.496245 0.272371
0.563209 0.497914 0.274100
0.585665 0.499594 0.275839
0.608251 0.501285 0.277589
0.630961 0.502986 0.279348
0.653790 0.504698 0.281117
0.676734 0.506419 0.282895
0.699789 0.508150 0.284681
0.722951 0.509890 0.286476
0.746217 0.511638 0.288280
0.769584 0.513396 0.290091
0.793049 0.515162 0.291910
0.816609 0.516936 0.293737
0.840261 0.518718 0.295571
0.864003 0.520509 0.297412
0.883462 0.521972 0.298926
0.883491 0.521948 0.298959
0.883521 0.521924 0.298991
0.234895 0.499024 0.253962
0.253642 0.500407 0.255415
0.272838 0.501825 0.256903
0.292418 0.503274 0.258420
0.312333 0.504749 0.259963
0.332547 0.506248 0.261530
0.353031 0.507768 0.263117
0.373760 0.509309 0.264723
0.394715 0.510867 0.266346
0.415880 0.512443 0.267986
0.437241 0.514035 0.269641
0.458786 0.515642 0.271310
0.480503 0.517263 0.272993
0.502384 0.518897 0.274688
0.524420 0.520545 0.276396
0.546603 0.522204 0.278115
0.568928 0.523876 0.279845
0.591387 0.525558 0.281586
0.613975 0.527252 0.283337
0.636687 0.528956 0.285098
0.659518 0.530670 0.286868
0.682465 0.532394 0.288647
0.705523 0.534128 0.290435
0.728688 0.535871 0.292231
0.751957 0.537623 0.294036
0.775327 0.539383 0.295848
0.798794 0.541152 0.297668
0.822357 0.542930 0.299496
0.846012 0.544715 0.301332
0.869757 0.546509 0.303174
0.889220 0.547975 0.304690
0.889250 0.547955 0.304723
0.889281 0.547935 0.304756
0.240622 0.525126 0.259730
0.259371 0.526511 0.261184
0.278569 0.527931 0.262673
0.298151 0.529382 0.264192
0.318068 0.530859 0.265736
0.338283 0.532360 0.267303
0.358769 0.533883 0.268891
0.379500 0.535426 0.270499
0.400457 0.536988 0.272123
0.421625 0.538566 0.273764
0.442988 0.540160 0.275421
0.464534 0.541770 0.277091
0.486254 0.543393 0.278775
0.508137 0.545030 0.280472
0.530175 0.546681 0.282181
0.552361 0.548343 0.283901
0.574688 0.550017 0.285633
0.597150 0.551703 0.287375
0.619740 0.553400 0.289127
0.642455 0.555107 0.290889
0.665289 0.556824 0.292660
0.688239 0.558551 0.294441
0.711299 0.560288 0.296230
0.734467 0.562034 0.298027
0.757739 0.563789 0.299833
0.781112 0.565553 0.301647
0.804582 0.567326 0.303469
0.828148 0.569107 0.305298
0.851806 0.570896 0.307134
0.875554 0.572693 0.308978
0.895020 0.574163 0.310495
0.895052 0.574146 0.310529
0.895084 0.574130 0.310563
0.246388 0.551396 0.265537
0.265138 0.552784 0.266993
0.284338 0.554206 0.268483
0.303922 0.555660 0.270003
0.323841 0.557140 0.271548
0.344059 0.558644 0.273117
0.364546 0.560169 0.274706
0.385279 0.561715 0.276315
0.406239 0.563279 0.277941
0.427408 0.564860 0.279583
0.448774 0.566457 0.281241
0.470323 0.568069 0.282912
0.492045 0.569696 0.284598
0.513930 0.571336 0.286296
0.535971 0.572989 0.288006
0.558159 0.574655 0.289727
0.580489 0.576332 0.291460
0.602953 0.578021 0.293204
0.625546 0.579721 0.294957
0.648263 0.581431 0.296720
0.671100 0.583152 0.298493
0.694053 0.584883 0.300274
0.717116 0.586623 0.302065
0.740287 0.588373 0.303864
0.763562 0.590131 0.305671
0.786938 0.591899 0.307486
0.810411 0.593675 0.309309
0.833980 0.595460 0.311139
0.857642 0.597252 0.312977
0.881393 0.599053 0.314822
0.900861 0.600527 0.316340
0.900895 0.600514 0.316375
0.900929 0.600502 0.316410
0.252191 0.577830 0.271383
0.270943 0.579220 0.272840
0.290145 0.580645 0.274332
0.309731 0.582102 0.275853
0.329652 0.583584 0.277399
0.349872 0.585091 0.278969
0.370361 0.586620 0.280560
0.391096 0.588168 0.282170
0.412058 0.589735 0.283797
0.433230 0.591319 0.285440
0.454598 0.592920 0.287099
0.476149 0.594535 0.288772
0.497873 0.596165 0.290459
0.519761 0.597808 0.292158
0.541805 0.599465 0.293869
0.563996 0.601134 0.295592
0.586328 0.602815 0.297326
0.608794 0.604507 0.299071
0.631390 0.606210 0.300826
0.654111 0.607924 0.302590
0.676951 0.609649 0.304364
0.699906 0.611383 0.306147
0.722972 0.613127 0.307939
0.746146 0.614880 0.309739
0.769424 0.616643 0.311547
0.792803 0.618414 0.313364
0.816280 0.620194 0.315188
0.839852 0.621983 0.317020
0.863516 0.623779 0.318859
0.887271 0.625584 0.320705
0.906743 0.627063 0.322224
0.906777 0.627054 0.322260
0.906813 0.627046 0.322296
0.258030 0.604421 0.277267
0.276785 0.605814 0.278725
0.295988 0.607243 0.280217
0.315576 0.608702 0.281740
0.335499 0.610188 0.283288
0.355721 0.611697 0.284859
0.376212 0.613229 0.286450
0.396950 0.614781 0.288061
0.417914 0.616351 0.289690
0.439088 0.617939 0.291335
0.460458 0.619542 0.292995
0.482012 0.621161 0.294669
0.503739 0.622794 0.296357
0.525630 0.624441 0.298057
0.547675 0.626101 0.299770
0.569869 0.627774 0.301494
0.592204 0.629459 0.303230
0.614673 0.631155 0.304975
0.637272 0.632862 0.306731
0.659995 0.634580 0.308497
0.682838 0.636308 0.310272
0.705796 0.638046 0.312057
0.728866 0.639794 0.313850
0.752043 0.641551 0.315651
0.775324 0.643318 0.317461
0.798706 0.645093 0.319278
0.822186 0.646878 0.321104
0.845762 0.648670 0.322937
0.869429 0.650472 0.324777
0.893188 0.652281 0.326625
0.912662 0.653763 0.328146
0.912699 0.653759 0.328182
0.912735 0.653756 0.328218
0.263904 0.631165 0.283186
0.282660 0.632561 0.284645
0.301866 0.633993 0.286139
0.321456 0.635455 0.287662
0.341381 0.636944 0.289212
0.361605 0.638458 0.290784
0.382099 0.639993 0.292377
0.402839 0.641548 0.293989
0.423805 0.643122 0.295619
0.444982 0.644713 0.297265
0.466354 0.646320 0.298926
0.487911 0.647943 0.300602
0.509640 0.649580 0.302291
0.531534 0.651231 0.303993
0.553582 0.652895 0.305707
0.575778 0.654571 0.307432
0.598116 0.656259 0.309169
0.620588 0.657959 0.310916
0.643190 0.659671 0.312673
0.665916 0.661393 0.314440
0.688762 0.663125 0.316216
0.711723 0.664867 0.318002
0.734796 0.666620 0.319796
0.757976 0.668381 0.321599
0.781260 0.670152 0.323410
0.804646 0.671932 0.325229
0.828129 0.673721 0.327056
0.851708 0.675518 0.328890
0.875379 0.677324 0.330732
0.899141 0.679138 0.332581
0.918619 0.680625 0.334103
0.918657 0.680625 0.334140
0.918695 0.680627 0.334177
0.269812 0.658057 0.289140
0.288570 0.659457 0.290600
0.307778 0.660892 0.292095
0.327370 0.662358 0.293620
0.347297 0.663851 0.295170
0.367523 0.665368 0.296744
0.388019 0.666907 0.298338
0.408762 0.668466 0.299952
0.429731 0.670043 0.301583
0.450910 0.671638 0.303230
0.472285 0.673249 0.304892
0.493844 0.674876 0.306569
0.515576 0.676517 0.308259
0.537472 0.678172 0.309963
0.559523 0.679840 0.311678
0.581722 0.681520 0.313405
0.604063 0.683213 0.315142
0.626538 0.684917 0.316891
0.649143 0.686633 0.318649
0.671872 0.688359 0.320418
0.694721 0.690096 0.322195
0.717685 0.691843 0.323982
0.740761 0.693599 0.325778
0.763944 0.695366 0.327582
0.787232 0.697141 0.329394
0.810621 0.698926 0.331214
0.834108 0.700719 0.333042
0.857690 0.702521 0.334878
0.881365 0.704332 0.336721
0.905130 0.706151 0.338571
0.924612 0.707643 0.340094
0.924651 0.707649 0.340132
0.924691 0.707655 0.340170
0.275752 0.685094 0.295127
0.294512 0.686497 0.296589
0.313722 0.687936 0.298085
0.333316 0.689406 0.299611
0.353246 0.690902 0.301162
0.373474 0.692423 0.302737
0.393973 0.693966 0.304333
0.414718 0.695529 0.305947
0.435689 0.697111 0.307580
0.456871 0.698710 0.309228
0.478248 0.700325 0.310892
0.499810 0.701956 0.312570
0.521545 0.703601 0.314262
0.543444 0.705260 0.315966
0.565498 0.706933 0.317683
0.587700 0.708618 0.319411
0.610043 0.710315 0.321150
0.632522 0.712024 0.322899
0.655130 0.713744 0.324659
0.677862 0.715475 0.326429
0.700714 0.717216 0.328208
0.723682 0.718968 0.329996
0.746761 0.720730 0.331793
0.769947 0.722501 0.333598
0.793239 0.724281 0.335412
0.816631 0.726071 0.337233
0.840121 0.727869 0.339063
0.863707 0.729677 0.340900
0.887386 0.731492 0.342744
0.911155 0.733316 0.344595
0.930639 0.734814 0.346119
0.930680 0.734824 0.346158
0.930721 0.734837 0.346197
0.281723 0.712271 0.301147
0.300485 0.713678 0.302610
0.319698 0.715121 0.304107
0.339294 0.716595 0.305634
0.359226 0.718096 0.307187
0.379457 0.719621 0.308763
0.399958 0.721168 0.310360
0.420705 0.722735 0.311976
0.441680 0.724321 0.313610
0.462864 0.725925 0.315259
0.484244 0.727545 0.316924
0.505809 0.729180 0.318604
0.527547 0.730830 0.320297
0.549448 0.732494 0.322002
0.571505 0.734171 0.323720
0.593710 0.735860 0.325449
0.616057 0.737562 0.327190
0.638538 0.739276 0.328941
0.661149 0.741001 0.330702
0.683885 0.742737 0.332473
0.706740 0.744483 0.334253
0.729711 0.746240 0.336042
0.752793 0.748007 0.337840
0.775984 0.749783 0.339647
0.799278 0.751569 0.341462
0.822674 0.753363 0.343285
0.846168 0.755167 0.345115
0.869758 0.756980 0.346954
0.893440 0.758801 0.348799
0.917213 0.760630 0.350652
0.936701 0.762133 0.352177
0.936743 0.762149 0.352217
0.936786 0.762167 0.352257
0.287725 0.739586 0.307198
0.306490 0.740997 0.308663
0.325704 0.742445 0.310161
0.345303 0.743923 0.311690
0.365237 0.745428 0.313244
0.385471 0.746958 0.314821
0.405975 0.748509 0.316419
0.426724 0.750081 0.318036
0.447701 0.751672 0.319671
0.468888 0.753280 0.321322
0.490272 0.754905 0.322988
0.511839 0.756545 0.324669
0.533580 0.758199 0.326363
0.555484 0.759868 0.328070
0.577544 0.761550 0.329789
0.599752 0.763245 0.331519
0.622102 0.764952 0.333261
0.644587 0.766670 0.335013
0.667201 0.768401 0.336776
0.689940 0.770142 0.338548
0.712799 0.771893 0.340329
0.735773 0.773655 0.342120
0.758859 0.775427 0.343920
0.782052 0.777209 0.345727
0.805351 0.779000 0.347544
0.828750 0.780801 0.349368
0.852248 0.782610 0.351200
0.875841 0.784428 0.353039
0.899527 0.786255 0.354886
0.923304 0.788090 0.356740
0.942795 0.789599 0.358267
0.942839 0.789621 0.358307
0.942883 0.789644 0.358348
0.293757 0.767035 0.313281
0.312524 0.768451 0.314746
0.331741 0.769903 0.316246
0.351342 0.771386 0.317775
0.371279 0.772896 0.319331
0.391515 0.774431 0.320909
0.412021 0.775987 0.322509
0.432774 0.777564 0.324127
0.453753 0.779159 0.325763
0.474943 0.780772 0.327415
0.496329 0.782402 0.329083
0.517900 0.784047 0.330765
0.539643 0.785707 0.332460
0.561551 0.787381 0.334168
0.583614 0.789068 0.335889
0.605825 0.790768 0.337620
0.628178 0.792480 0.339363
0.650666 0.794204 0.341117
0.673284 0.795940 0.342881
0.696026 0.797686 0.344654
0.718888 0.799444 0.346437
0.741866 0.801211 0.348229
0.764955 0.802989 0.350030
0.788153 0.804776 0.351839
0.811455 0.806573 0.353656
0.834858 0.808380 0.355482
0.858359 0.810195 0.357315
0.881957 0.812019 0.359156
0.905647 0.813852 0.361004
0.929427 0.815693 0.362859
0.948737 0.817208 0.364387
0.948779 0.817236 0.364428
0.948821 0.817265 0.364469
0.299817 0.794617 0.319393
0.318587 0.796038 0.320860
0.337806 0.797495 0.322361
0.357410 0.798983 0.323891
0.377350 0.800498 0.325448
0.397588 0.802037 0.327028
0.418097 0.803599 0.328628
0.438853 0.805180 0.330248
0.459835 0.806781 0.331885
0.481028 0.808400 0.333539
0.502417 0.810034 0.335208
0.523990 0.811685 0.336891
0.545737 0.813350 0.338587
0.567648 0.815029 0.340297
0.589714 0.816722 0.342018
0.611929 0.818428 0.343751
0.634285 0.820145 0.345496
0.656776 0.821875 0.347250
0.679397 0.823617 0.349015
0.702143 0.825369 0.350790
0.725009 0.827132 0.352574
0.747990 0.828905 0.354367
0.771083 0.830689 0.356169
0.794284 0.832482 0.357980
0.817590 0.834285 0.359799
0.840997 0.836098 0.361625
0.864502 0.837919 0.363460
0.888103 0.839750 0.365302
0.911797 0.841589 0.367151
0.935582 0.843436 0.369008
0.954597 0.844957 0.370537
0.954636 0.844991 0.370579
0.954674 0.845027 0.370621
0.305907 0.822329 0.325534
0.324678 0.823755 0.327002
0.343900 0.825217 0.328505
0.363507 0.826710 0.330036
0.383449 0.828230 0.331594
0.403690 0.829775 0.333175
0.424202 0.831342 0.334777
0.444960 0.832929 0.336398
0.465946 0.834535 0.338036
0.487141 0.836159 0.339691
0.508534 0.837800 0.341361
0.530110 0.839456 0.343046
0.551860 0.841126 0.344744
0.573774 0.842811 0.346454
0.595843 0.844510 0.348177
0.618061 0.846221 0.349912
0.640421 0.847945 0.351657
0.662916 0.849681 0.353413
0.685540 0.851428 0.355179
0.708289 0.853187 0.356955
