library/cube/Fuji_Air_003.cube
# CINEGRADE LAB — Premium Cinematic LUT
# Title: Fuji Air
# Category: Fuji 400H Emulation
# Description: Pastel tones, green shadows, airy feel emulating Fuji Pro 400H
# Mood: Soft, pastel, delicate
# Variant: 4
# Generated: 2026-05-21T16:12:50.568421
TITLE "Fuji Air"
LUT_3D_SIZE 9
0.160367 0.158237 0.179014
0.237738 0.163935 0.184948
0.320041 0.170019 0.191262
0.405740 0.176369 0.197840
0.494065 0.182927 0.204623
0.584545 0.189656 0.211575
0.676862 0.196532 0.218672
0.770784 0.203537 0.225897
0.813947 0.206649 0.229266
0.180260 0.249463 0.199000
0.257645 0.255152 0.204953
0.339964 0.261228 0.211287
0.425683 0.267573 0.217884
0.514029 0.274129 0.224686
0.604534 0.280858 0.231658
0.696879 0.287738 0.238775
0.790832 0.294750 0.246020
0.834022 0.297875 0.249404
0.201456 0.346429 0.220310
0.278859 0.352120 0.226283
0.361200 0.358202 0.232636
0.446942 0.364556 0.239252
0.535316 0.371123 0.246075
0.625851 0.377867 0.253067
0.718229 0.384764 0.260204
0.812219 0.391797 0.267469
0.855438 0.394949 0.270870
0.223563 0.447357 0.242554
0.300989 0.453067 0.248546
0.383356 0.459169 0.254919
0.469128 0.465547 0.261556
0.557534 0.472140 0.268398
0.648105 0.478914 0.275410
0.740522 0.485844 0.282568
0.834554 0.492913 0.289853
0.877805 0.496106 0.293270
0.246388 0.551396 0.265537
0.323841 0.557140 0.271548
0.406239 0.563279 0.277941
0.492045 0.569696 0.284598
0.580489 0.576332 0.291460
0.671100 0.583152 0.298493
0.763562 0.590131 0.305671
0.857642 0.597252 0.312977
0.900929 0.600502 0.316410
0.269812 0.658057 0.289140
0.347297 0.663851 0.295170
0.429731 0.670043 0.301583
0.515576 0.676517 0.308259
0.604063 0.683213 0.315142
0.694721 0.690096 0.322195
0.787232 0.697141 0.329394
0.881365 0.704332 0.336721
0.924691 0.707655 0.340170
0.293757 0.767035 0.313281
0.371279 0.772896 0.319331
0.453753 0.779159 0.325763
0.539643 0.785707 0.332460
0.628178 0.792480 0.339363
0.718888 0.799444 0.346437
0.811455 0.806573 0.353656
0.905647 0.813852 0.361004
0.948821 0.817265 0.364469
0.318167 0.878135 0.337902
0.395731 0.884081 0.343972
0.478251 0.890432 0.350424
0.564191 0.897071 0.357141
0.652779 0.903931 0.364064
0.743546 0.910943 0.371158
0.836174 0.918145 0.378398
0.930430 0.925517 0.385766
0.972190 0.929053 0.389249
0.331188 0.936029 0.351135
0.408797 0.941717 0.357220
0.491366 0.947749 0.363688
0.577359 0.954006 0.370422
0.666005 0.960425 0.377362
0.756833 0.966964 0.384472
0.849525 0.973594 0.391729
0.943849 0.980289 0.399114
0.984375 0.983389 0.402609
0.162373 0.160172 0.252041
0.239746 0.165872 0.258001
0.322051 0.171957 0.264342
0.407751 0.178309 0.270946
0.496078 0.184869 0.277754
0.586560 0.191601 0.284732
0.678879 0.198479 0.291856
0.772804 0.205487 0.299107
0.815970 0.208602 0.302501
0.182270 0.251394 0.272115
0.259656 0.257085 0.278094
0.341978 0.263164 0.284454
0.427699 0.269513 0.291077
0.516048 0.276072 0.297905
0.606555 0.282805 0.304903
0.698903 0.289688 0.312046
0.792860 0.296703 0.319317
0.836052 0.299833 0.322727
0.203470 0.348360 0.293513
0.280875 0.354056 0.299511
0.363218 0.360142 0.305890
0.448963 0.366500 0.312532
0.537340 0.373071 0.319380
0.627879 0.379819 0.326398
0.720261 0.386721 0.333561
0.814255 0.393758 0.340852
0.857477 0.396915 0.344278
0.225582 0.449295 0.315844
0.303010 0.455009 0.321861
0.385380 0.461117 0.328260
0.471155 0.467499 0.334922
0.559564 0.474098 0.341790
0.650139 0.480878 0.348828
0.742560 0.487813 0.356011
0.836597 0.494887 0.363323
0.879852 0.498086 0.366764
0.248411 0.553345 0.338913
0.325867 0.559094 0.344950
0.408268 0.565239 0.351368
0.494078 0.571663 0.358050
0.582526 0.578306 0.364939
0.673142 0.585132 0.371997
0.765608 0.592118 0.379200
0.859693 0.599245 0.386532
0.902984 0.602503 0.389990
0.271840 0.660022 0.362602
0.349328 0.665823 0.368658
0.431766 0.672023 0.375096
0.517615 0.678504 0.381798
0.606107 0.685207 0.388706
0.696770 0.692098 0.395785
0.789286 0.699151 0.403009
0.883425 0.706350 0.410361
0.926754 0.709681 0.413835
0.295790 0.769023 0.386829
0.373316 0.774892 0.392904
0.455795 0.781164 0.399362
0.541689 0.787720 0.406084
0.630230 0.794502 0.413013
0.720945 0.801474 0.420111
0.813517 0.808612 0.427356
0.907715 0.815900 0.434729
0.950794 0.819322 0.438219
0.320206 0.880151 0.411536
0.397774 0.886106 0.417630
0.480299 0.892467 0.424108
0.566244 0.899116 0.430850
0.654838 0.905969 0.437799
0.745611 0.912997 0.444918
0.838245 0.920215 0.452183
0.932508 0.927603 0.459576
0.974117 0.931060 0.463083
0.333233 0.937961 0.424852
0.410846 0.943647 0.430962
0.493421 0.949674 0.437455
0.579420 0.955924 0.444214
0.668071 0.962334 0.451179
0.758906 0.968863 0.458314
0.851605 0.975479 0.465596
0.945936 0.982158 0.473006
0.986264 0.985247 0.476525
0.164508 0.162236 0.329735
0.241882 0.167938 0.335724
0.324188 0.174025 0.342092
0.409891 0.180379 0.348724
0.498219 0.186941 0.355560
0.588704 0.193675 0.362566
0.681026 0.200556 0.369717
0.774954 0.207566 0.376995
0.818122 0.210685 0.380417
0.184408 0.253455 0.349903
0.261797 0.259149 0.355910
0.344120 0.265231 0.362297
0.429843 0.271582 0.368947
0.518194 0.278144 0.375803
0.608705 0.284881 0.382828
0.701056 0.291767 0.389999
0.795016 0.298786 0.397297
0.838212 0.301920 0.400734
0.205612 0.350422 0.371393
0.283020 0.356121 0.377419
0.365365 0.362211 0.383825
0.451113 0.368573 0.390495
0.539493 0.375149 0.397371
0.630035 0.381901 0.404416
0.722421 0.388807 0.411606
0.816419 0.395849 0.418924
0.859644 0.399011 0.422377
0.227728 0.451362 0.393817
0.305159 0.457082 0.399861
0.387532 0.463194 0.406287
0.473310 0.469582 0.412977
0.561723 0.476186 0.419872
0.652302 0.482971 0.426937
0.744728 0.489912 0.434148
0.838769 0.496992 0.441486
0.882027 0.500197 0.444954
0.250562 0.555424 0.416978
0.328021 0.561179 0.423042
0.410426 0.567330 0.429487
0.496239 0.573760 0.436196
0.584691 0.580409 0.443112
0.675312 0.587242 0.450197
0.767783 0.594235 0.457428
0.861873 0.601369 0.464786
0.905168 0.604633 0.468271
0.273996 0.662118 0.440758
0.351488 0.667926 0.446841
0.433930 0.674133 0.453306
0.519783 0.680621 0.460035
0.608279 0.687332 0.466970
0.698948 0.694231 0.474076
0.791470 0.701292 0.481327
0.885614 0.708498 0.488706
0.928947 0.711838 0.492206
0.297951 0.771142 0.465076
0.375482 0.777019 0.471178
0.457965 0.783299 0.477663
0.543864 0.789863 0.484412
0.632410 0.796654 0.491367
0.723131 0.803635 0.498492
0.815709 0.810783 0.505764
0.909913 0.818079 0.513163
0.952884 0.821511 0.516680
0.322373 0.882298 0.489873
0.399946 0.888263 0.495995
0.482476 0.894634 0.502498
0.568426 0.901292 0.509267
0.657026 0.908139 0.516243
0.747805 0.915185 0.523388
0.840445 0.922419 0.530680
0.934715 0.929814 0.538100
0.976160 0.933125 0.541632
0.335406 0.940013 0.503278
0.413024 0.945696 0.509415
0.495604 0.951717 0.515935
0.581609 0.957960 0.522720
0.670267 0.964360 0.529711
0.761108 0.970876 0.536873
0.853814 0.977477 0.544181
0.948016 0.984139 0.551617
0.988265 0.987215 0.555162
0.166731 0.164389 0.410648
0.244106 0.170093 0.416666
0.326414 0.176182 0.423063
0.412118 0.182539 0.429723
0.500449 0.189103 0.436588
0.590936 0.195839 0.443623
0.683261 0.202722 0.450802
0.777192 0.209735 0.458109
0.820362 0.212857 0.461559
0.186635 0.255605 0.430912
0.264025 0.261302 0.436948
0.346351 0.267387 0.443364
0.432076 0.273741 0.450043
0.520430 0.280307 0.456927
0.610943 0.287046 0.463981
0.703298 0.293936 0.471180
0.797262 0.300959 0.478507
0.840460 0.304096 0.481972
0.207843 0.352573 0.452499
0.285253 0.358277 0.458553
0.367601 0.364370 0.464988
0.453351 0.370737 0.471686
0.541734 0.377316 0.478590
0.632280 0.384073 0.485664
0.724669 0.390984 0.492882
0.818671 0.398030 0.500229
0.861900 0.401197 0.503709
0.229964 0.453520 0.475018
0.307397 0.459244 0.481091
0.389773 0.465362 0.487545
0.475554 0.471755 0.494263
0.563971 0.478364 0.501187
0.654554 0.485155 0.508280
0.746984 0.492101 0.515519
0.841030 0.499187 0.522885
0.884292 0.502398 0.526382
0.252802 0.557593 0.498275
0.330264 0.563354 0.504367
0.412672 0.569512 0.510840
0.498489 0.575948 0.517578
0.586946 0.582604 0.524521
0.677571 0.589443 0.531634
0.770047 0.596442 0.538893
0.864142 0.603584 0.546280
0.907440 0.606855 0.549792
0.276241 0.664305 0.522150
0.353737 0.670120 0.528261
0.436182 0.676334 0.534754
0.522040 0.682830 0.541511
0.610541 0.689548 0.548474
0.701214 0.696454 0.555607
0.793741 0.703523 0.562886
0.887892 0.710738 0.570293
0.931229 0.714086 0.573821
0.300202 0.773352 0.546562
0.377736 0.779237 0.552692
0.460224 0.785525 0.559205
0.546128 0.792099 0.565982
0.634678 0.798898 0.572965
0.725405 0.805888 0.580118
0.817989 0.813045 0.587417
0.912200 0.820350 0.594844
0.955055 0.823791 0.598388
0.324629 0.884538 0.571453
0.402206 0.890512 0.577602
0.484741 0.896892 0.584134
0.570697 0.903555 0.590931
0.659303 0.910403 0.597934
0.750088 0.917466 0.605107
0.842735 0.924715 0.612426
0.937011 0.931962 0.619873
0.978280 0.935268 0.623433
0.337667 0.942146 0.584951
0.415291 0.947825 0.591115
0.497876 0.953840 0.597662
0.583887 0.960074 0.604475
0.672551 0.966463 0.611493
0.763399 0.972965 0.618683
0.856112 0.979551 0.626018
0.950160 0.986195 0.633482
0.990343 0.989257 0.637054
0.169023 0.166612 0.494052
0.246399 0.172317 0.500099
0.328708 0.178409 0.506526
0.414414 0.184767 0.513216
0.502747 0.191334 0.520110
0.593237 0.198072 0.527174
0.685564 0.204958 0.534383
0.779498 0.211973 0.541720
0.822671 0.215098 0.545199
0.188930 0.257824 0.514416
0.266322 0.263524 0.520481
0.348649 0.269612 0.526926
0.434377 0.275970 0.533634
0.522734 0.282538 0.540548
0.613250 0.289281 0.547631
0.705608 0.296175 0.554860
0.799575 0.303201 0.562216
0.842777 0.306343 0.565709
0.210142 0.354794 0.536101
0.287554 0.360501 0.542185
0.369904 0.366599 0.548649
0.455658 0.372970 0.555377
0.544044 0.379554 0.562310
0.634593 0.386315 0.569412
0.726987 0.393230 0.576660
0.820993 0.400281 0.584036
0.864225 0.403453 0.587545
0.232267 0.455747 0.558719
0.309703 0.461477 0.564821
0.392082 0.467600 0.571304
0.477867 0.473998 0.578051
0.566287 0.480613 0.585004
0.656874 0.487408 0.592126
0.749309 0.494361 0.599394
0.843359 0.501452 0.606789
0.886625 0.504669 0.610314
0.255110 0.559833 0.582074
0.332576 0.565600 0.588195
0.414987 0.571764 0.594697
0.500808 0.578206 0.601464
0.589269 0.584868 0.608436
0.679899 0.591714 0.615578
0.772379 0.598720 0.622865
0.866480 0.605869 0.630281
0.909782 0.609147 0.633821
0.278554 0.666562 0.606046
0.356053 0.672384 0.612186
0.438503 0.678606 0.618708
0.524366 0.685109 0.625494
0.612871 0.691835 0.632486
0.703549 0.698749 0.639647
0.796082 0.705826 0.646955
0.890238 0.713049 0.654391
0.933580 0.716404 0.657947
0.302520 0.775632 0.630556
0.380059 0.781526 0.636714
0.462551 0.787823 0.643255
0.548460 0.794405 0.650061
0.637016 0.801213 0.657072
0.727748 0.808212 0.664254
0.820339 0.815378 0.671582
0.914556 0.822693 0.679037
0.957285 0.826143 0.682609
0.326954 0.886848 0.655543
0.404536 0.892832 0.661721
0.487076 0.899221 0.668281
0.573037 0.905875 0.675106
0.661648 0.912740 0.682137
0.752440 0.919819 0.689339
0.845093 0.927085 0.696686
0.939376 0.934170 0.704162
0.980459 0.937471 0.707749
0.339997 0.944341 0.669135
0.417626 0.950015 0.675328
0.500217 0.956023 0.681903
0.586234 0.962247 0.688744
0.674904 0.968624 0.695791
0.765759 0.975112 0.703009
0.858479 0.981681 0.710372
0.952361 0.988306 0.717864
0.992477 0.991353 0.721463
0.171370 0.168891 0.579503
0.248747 0.174599 0.585580
0.331058 0.180692 0.592037
0.416767 0.187053 0.598757
0.505102 0.193621 0.605682
0.595594 0.200362 0.612776
0.687924 0.207250 0.620016
0.781861 0.214268 0.627382
0.825037 0.217396 0.630891
0.191281 0.260101 0.599968
0.268675 0.265804 0.606063
0.351004 0.271895 0.612539
0.436734 0.278256 0.619277
0.525094 0.284827 0.626221
0.615614 0.291573 0.633334
0.707975 0.298470 0.640592
0.801946 0.305500 0.647978
0.845150 0.308646 0.651501
0.212497 0.357072 0.621755
0.289911 0.362784 0.627868
0.372265 0.368886 0.634362
0.458021 0.375260 0.641120
0.546411 0.381848 0.648083
0.636963 0.388614 0.655215
0.729360 0.395534 0.662493
0.823371 0.402590 0.669898
0.866606 0.405767 0.673437
0.234627 0.458032 0.644474
0.312066 0.463767 0.650605
0.394447 0.469895 0.657118
0.480236 0.476298 0.663895
0.568660 0.482919 0.670877
0.659251 0.489720 0.678029
0.751690 0.496678 0.685326
0.845745 0.503775 0.692752
0.889014 0.506999 0.696305
0.257474 0.562130 0.667928
0.334943 0.567904 0.674079
0.417358 0.574074 0.680611
0.503183 0.580522 0.687407
0.591648 0.587191 0.694409
0.682283 0.594044 0.701580
0.774769 0.601056 0.708897
0.868874 0.608212 0.716342
0.912180 0.611497 0.719911
0.280923 0.668878 0.692001
0.358427 0.674707 0.698170
0.440880 0.680936 0.704721
0.526747 0.687447 0.711536
0.615258 0.694181 0.718557
0.705941 0.701102 0.725749
0.798480 0.708187 0.733085
0.892642 0.715418 0.740550
0.935987 0.718782 0.744135
0.304895 0.777972 0.716609
0.382438 0.783874 0.722797
0.464935 0.790179 0.729367
0.550849 0.796770 0.736202
0.639410 0.803587 0.743243
0.730148 0.810595 0.750454
0.822745 0.817770 0.757810
0.916968 0.825094 0.765295
0.959564 0.828553 0.768895
0.329335 0.889218 0.741695
0.406921 0.895211 0.747902
0.489466 0.901610 0.754491
0.575433 0.908256 0.761345
0.664050 0.915139 0.768406
0.754848 0.922234 0.775636
0.847508 0.929515 0.783013
0.941798 0.936426 0.790517
0.982685 0.939721 0.794133
0.342384 0.946587 0.755384
0.420018 0.952255 0.761606
0.502615 0.958255 0.768210
0.588637 0.964468 0.775080
0.677314 0.970832 0.782156
0.768175 0.977305 0.789402
0.860902 0.983857 0.796794
0.954608 0.990462 0.804315
0.994657 0.993493 0.807943
0.173765 0.171219 0.666700
0.251144 0.176928 0.672808
0.333457 0.183024 0.679295
0.419167 0.189386 0.686046
0.507504 0.195957 0.693002
0.597999 0.202700 0.700127
0.690332 0.209591 0.707396
0.784272 0.216612 0.714794
0.827451 0.219743 0.718332
0.193680 0.262426 0.687268
0.271076 0.268132 0.693394
0.353407 0.274226 0.699900
0.439140 0.280590 0.706669
0.527502 0.287165 0.713643
0.618025 0.293915 0.720787
0.710389 0.300815 0.728076
0.804364 0.307849 0.735492
0.847571 0.310999 0.739045
0.214900 0.359400 0.709158
0.292317 0.365115 0.715302
0.374673 0.371221 0.721826
0.460432 0.377600 0.728614
0.548825 0.384192 0.735607
0.639381 0.390963 0.742770
0.731782 0.397887 0.750078
0.825797 0.404948 0.757514
0.869035 0.408130 0.761082
0.237034 0.460367 0.731979
0.314476 0.466107 0.738141
0.396861 0.472240 0.744684
0.482653 0.478648 0.751491
0.571081 0.485274 0.758504
0.661676 0.492081 0.765686
0.754119 0.499045 0.773013
0.848180 0.506148 0.780468
0.891452 0.509378 0.784052
0.259887 0.564477 0.755536
0.337359 0.570257 0.761716
0.419778 0.576433 0.768278
0.505607 0.582888 0.775104
0.594076 0.589564 0.782136
0.684715 0.596423 0.789338
0.777206 0.603443 0.796685
0.871317 0.610605 0.804160
0.914627 0.613898 0.807759
0.283341 0.671243 0.779709
0.360848 0.677080 0.785909
0.443306 0.683316 0.792489
0.529177 0.689834 0.799335
0.617693 0.696576 0.806386
0.708381 0.703505 0.813607
0.800925 0.710598 0.820974
0.895093 0.717838 0.828468
0.938443 0.721210 0.832083
0.307319 0.780362 0.804419
0.384865 0.786273 0.810637
0.467367 0.792586 0.817237
0.553286 0.799186 0.824101
0.641853 0.806011 0.831172
0.732596 0.813028 0.838412
0.825199 0.820212 0.845799
0.919429 0.827546 0.853313
0.961883 0.831015 0.856942
0.331764 0.891638 0.829606
0.409355 0.897641 0.835842
0.491905 0.904040 0.842461
0.577877 0.910691 0.849345
0.666501 0.917591 0.856434
0.757305 0.924702 0.863694
0.849971 0.931837 0.871100
0.944269 0.938722 0.878634
0.984950 0.942011 0.882279
0.344819 0.948875 0.843393
0.422458 0.954537 0.849644
0.505060 0.960527 0.856278
0.591089 0.966729 0.863177
0.679772 0.973079 0.870282
0.770640 0.979536 0.877558
0.863375 0.986069 0.884980
0.956894 0.992653 0.892529
0.996873 0.995668 0.896186
0.176202 0.173589 0.755422
0.253582 0.179300 0.761562
0.335897 0.185398 0.768080
0.421609 0.191763 0.774863
0.509949 0.198336 0.781849
0.600446 0.205081 0.789006
0.692782 0.211975 0.796306
0.786725 0.218998 0.803735
0.829907 0.222133 0.807304
0.196121 0.264794 0.776096
0.273518 0.270503 0.782253
0.355852 0.276600 0.788789
0.441587 0.282967 0.795590
0.529952 0.289545 0.802595
0.620478 0.296298 0.809770
0.712846 0.303202 0.817090
0.806825 0.310240 0.824537
0.850035 0.313394 0.828121
0.217345 0.361770 0.798090
0.294764 0.367489 0.804265
0.377123 0.373599 0.810820
0.462885 0.379982 0.817639
0.551281 0.386579 0.824663
0.641841 0.393354 0.831857
0.734246 0.400283 0.839196
0.828265 0.407349 0.846662
0.871507 0.410536 0.850261
0.239483 0.462745 0.821015
0.316928 0.468489 0.827208
0.399316 0.474628 0.833782
0.485112 0.481042 0.840620
0.573544 0.487673 0.847663
0.664143 0.494485 0.854876
0.756591 0.501455 0.862234
0.850656 0.508564 0.869720
0.893932 0.511800 0.873333
0.262341 0.566868 0.844676
0.339816 0.572654 0.850887
0.422239 0.578836 0.857479
0.508072 0.585298 0.864336
0.596546 0.591980 0.871399
0.687190 0.598846 0.878631
0.779686 0.605873 0.886008
0.873802 0.613042 0.893509
0.917116 0.616342 0.897047
0.285800 0.673653 0.868953
0.363311 0.679497 0.875182
0.445773 0.685740 0.881793
0.531649 0.692266 0.888669
0.620170 0.699016 0.895692
0.710864 0.705953 0.902747
0.803413 0.713054 0.909910
0.897587 0.720302 0.917163
0.940941 0.723682 0.920632
0.309784 0.782796 0.893753
0.387335 0.788715 0.899844
0.469841 0.795038 0.906280
0.555765 0.801646 0.912942
0.644337 0.808481 0.919770
0.735087 0.815507 0.926727
0.827696 0.822700 0.933785
0.921932 0.830043 0.940925
0.964236 0.833521 0.944304
0.334235 0.894103 0.918271
0.411831 0.900115 0.924274
0.494386 0.906504 0.930612
0.580364 0.913172 0.937168
0.668993 0.920089 0.943883
0.759804 0.927216 0.950719
0.852477 0.934179 0.957648
0.946722 0.941053 0.964652
0.987247 0.944334 0.967923
0.347296 0.951200 0.931425
0.424940 0.956854 0.937345
0.507548 0.962834 0.943593
0.593583 0.969024 0.950053
0.682273 0.975359 0.956664
0.773148 0.981799 0.963388
0.865889 0.988312 0.970200
0.959212 0.994874 0.977080
0.999122 0.997872 0.980261
0.176767 0.174071 0.775982
0.254149 0.179786 0.782129
0.336465 0.185886 0.788656
0.422179 0.192254 0.795446
0.510521 0.198830 0.802441
0.601021 0.205579 0.809606
0.693360 0.212475 0.816915
0.787307 0.219502 0.824351
0.830491 0.222641 0.827928
0.196690 0.265277 0.796682
0.274089 0.270990 0.802847
0.356425 0.277091 0.809392
0.442162 0.283462 0.816201
0.530530 0.290044 0.823214
0.621059 0.296801 0.830397
0.713431 0.303709 0.837725
0.807413 0.310751 0.845180
0.850626 0.313910 0.848771
0.217918 0.362258 0.818704
0.295339 0.367982 0.824886
0.377700 0.374097 0.831450
0.463466 0.380485 0.838277
0.551865 0.387087 0.845309
0.642429 0.393867 0.852511
0.734838 0.400801 0.859858
0.828861 0.407871 0.867332
0.872106 0.411064 0.870938
0.240060 0.463242 0.841656
0.317508 0.468993 0.847857
0.399899 0.475137 0.854438
0.485698 0.481557 0.861284
0.574134 0.488194 0.868335
0.664737 0.495012 0.875556
0.757189 0.501988 0.882922
0.851259 0.509103 0.890416
0.894539 0.512345 0.894015
0.262922 0.567380 0.865343
0.340401 0.573173 0.871562
0.422827 0.579362 0.878163
0.508664 0.585830 0.885028
0.597142 0.592519 0.892098
0.687791 0.599392 0.899205
0.780292 0.606426 0.906414
0.874414 0.613603 0.913716
0.917731 0.616910 0.917214
0.286386 0.674185 0.889647
0.363901 0.680036 0.895825
0.446367 0.686288 0.902300
0.532248 0.692822 0.909006
0.620772 0.699579 0.915884
0.711472 0.706524 0.922895
0.804027 0.713633 0.930013
0.898207 0.720889 0.937217
0.941565 0.724278 0.940637
0.310375 0.783354 0.913970
0.387930 0.789282 0.920019
0.470441 0.795613 0.926411
0.556370 0.802229 0.933027
0.644947 0.809073 0.939806
0.735703 0.816108 0.946711
0.828317 0.823311 0.953715
0.922560 0.830663 0.960798
0.964812 0.834150 0.964121
0.334831 0.894692 0.938336
0.412432 0.900714 0.944289
0.494992 0.907110 0.950575
0.580975 0.913792 0.957077
0.669610 0.920722 0.963735
0.760427 0.927861 0.970510
0.853107 0.934787 0.977378
0.947321 0.941657 0.984316
0.987789 0.944937 0.987525
0.347898 0.951775 0.951319
0.425547 0.957426 0.957182
0.508160 0.963402 0.963371
0.594201 0.969586 0.969768
0.682897 0.975913 0.976315
0.773779 0.982342 0.982972
0.866527 0.988844 0.989714
0.959793 0.995392 0.996522
0.999640 0.998382 0.999632
