library/cube/Future_Shock_003.cube
# CINEGRADE LAB — Premium Cinematic LUT
# Title: Future Shock
# Category: Cyberpunk Cinema
# Description: Cyan/magenta split with high contrast for futuristic cyberpunk visuals
# Mood: Futuristic, neon, dystopian
# Variant: 4
# Generated: 2026-05-21T16:12:28.755112
TITLE "Future Shock"
LUT_3D_SIZE 9
0.000000 0.034159 0.015671
0.000000 0.031931 0.014664
0.085273 0.025414 0.009353
0.252354 0.015347 0.000474
0.426875 0.005006 0.000000
0.608405 0.000000 0.000000
0.796527 0.000000 0.000000
0.989792 0.000000 0.000000
1.000000 0.000000 0.000000
0.000000 0.026997 0.012553
0.000000 0.025049 0.011771
0.094083 0.018467 0.006339
0.273007 0.008109 0.000000
0.458433 0.000000 0.000000
0.649962 0.000000 0.000000
0.847207 0.000000 0.000000
1.000000 0.000000 0.000000
1.000000 0.000000 0.000000
0.000000 0.133346 0.000000
0.000000 0.131252 0.000000
0.081815 0.124225 0.000000
0.271133 0.113225 0.000000
0.466083 0.102034 0.000000
0.666298 0.090667 0.000000
0.871421 0.079141 0.000000
1.000000 0.067861 0.000000
1.000000 0.065326 0.000000
0.000000 0.322698 0.000000
0.000000 0.320142 0.000000
0.054062 0.312391 0.000000
0.252419 0.300498 0.000000
0.455608 0.288448 0.000000
0.663290 0.276255 0.000000
0.873921 0.263990 0.000000
1.000000 0.252210 0.000000
1.000000 0.249303 0.000000
0.000000 0.508038 0.000000
0.000000 0.505012 0.000000
0.026647 0.496562 0.000000
0.232747 0.483822 0.000000
0.442945 0.470951 0.000000
0.656935 0.457961 0.000000
0.870528 0.445050 0.000000
1.000000 0.432824 0.000000
1.000000 0.429499 0.000000
0.000000 0.689330 0.000000
0.000000 0.685805 0.000000
0.000000 0.676657 0.000000
0.212313 0.663088 0.000000
0.428411 0.649407 0.000000
0.647666 0.635621 0.000000
0.862267 0.622104 0.000000
1.000000 0.609468 0.000000
1.000000 0.605651 0.000000
0.000000 0.865491 0.000000
0.000000 0.861548 0.000000
0.000000 0.851796 0.000000
0.191444 0.837495 0.000000
0.412438 0.823079 0.000000
0.636033 0.808554 0.000000
0.850009 0.794502 0.000000
1.000000 0.781521 0.000000
1.000000 0.777162 0.000000
0.000000 1.000000 0.000000
0.000000 1.000000 0.000000
0.000000 1.000000 0.000000
0.170848 1.000000 0.000000
0.395760 0.989714 0.000000
0.622822 0.974984 0.000000
0.834890 0.960843 0.000000
1.000000 0.947879 0.000000
1.000000 0.943151 0.000000
0.000000 1.000000 0.000000
0.000000 1.000000 0.000000
0.000000 1.000000 0.000000
0.180661 0.999193 0.000000
0.408881 0.984081 0.000000
0.638873 0.968748 0.000000
0.848351 0.954264 0.000000
1.000000 0.941221 0.000000
1.000000 0.936076 0.000000
0.000000 0.033393 0.015322
0.000000 0.031194 0.014338
0.086196 0.024668 0.009012
0.254545 0.014569 0.000096
0.430236 0.004200 0.000000
0.612842 0.000000 0.000000
0.801948 0.000000 0.000000
0.995936 0.000000 0.000000
1.000000 0.000000 0.000000
0.000000 0.026326 0.012280
0.000000 0.024406 0.011520
0.094932 0.017820 0.006078
0.274966 0.007436 0.000000
0.461410 0.000000 0.000000
0.653869 0.000000 0.000000
0.851959 0.000000 0.000000
1.000000 0.000000 0.000000
1.000000 0.000000 0.000000
0.000000 0.132626 0.000000
0.000000 0.130559 0.000000
0.082624 0.123531 0.000000
0.272903 0.112513 0.000000
0.468731 0.101306 0.000000
0.669742 0.089927 0.000000
0.875584 0.078392 0.000000
1.000000 0.067134 0.000000
1.000000 0.064635 0.000000
0.000000 0.321821 0.000000
0.000000 0.319291 0.000000
0.054857 0.311543 0.000000
0.254039 0.299636 0.000000
0.457976 0.287575 0.000000
0.666332 0.275373 0.000000
0.877345 0.263113 0.000000
1.000000 0.251359 0.000000
1.000000 0.248486 0.000000
0.000000 0.507002 0.000000
0.000000 0.504000 0.000000
0.027435 0.495554 0.000000
0.234236 0.482803 0.000000
0.445065 0.469923 0.000000
0.659618 0.456927 0.000000
0.873383 0.444027 0.000000
1.000000 0.431832 0.000000
1.000000 0.428537 0.000000
0.000000 0.688126 0.000000
0.000000 0.684622 0.000000
0.000440 0.675476 0.000000
0.213691 0.661897 0.000000
0.430315 0.648207 0.000000
0.650035 0.634415 0.000000
0.864627 0.620911 0.000000
1.000000 0.608310 0.000000
1.000000 0.604514 0.000000
0.000000 0.864148 0.000000
0.000000 0.860216 0.000000
0.000000 0.850459 0.000000
0.192729 0.836142 0.000000
0.414156 0.821711 0.000000
0.638134 0.807172 0.000000
0.851960 0.793129 0.000000
1.000000 0.780180 0.000000
1.000000 0.775829 0.000000
0.000000 1.000000 0.000000
0.000000 1.000000 0.000000
0.000000 1.000000 0.000000
0.172020 1.000000 0.000000
0.397295 0.988359 0.000000
0.624678 0.973569 0.000000
0.836509 0.959395 0.000000
1.000000 0.946423 0.000000
1.000000 0.941657 0.000000
0.000000 1.000000 0.000000
0.000000 1.000000 0.000000
0.000000 1.000000 0.000000
0.181782 0.997747 0.000000
0.410303 0.982575 0.000000
0.640565 0.967182 0.000000
0.849758 0.952665 0.000000
1.000000 0.939618 0.000000
1.000000 0.934433 0.000000
0.000000 0.030497 0.150231
0.000000 0.028335 0.148722
0.084989 0.021810 0.142869
0.254597 0.011686 0.133434
0.431449 0.001297 0.123751
0.615122 0.000000 0.113839
0.805204 0.000000 0.103715
0.999888 0.000000 0.093466
1.000000 0.000000 0.091431
0.000000 0.023552 0.145556
0.000000 0.021667 0.144383
0.093676 0.015083 0.138528
0.274808 0.004680 0.128869
0.462261 0.000000 0.119001
0.655641 0.000000 0.108943
0.854569 0.000000 0.098710
1.000000 0.000000 0.088527
1.000000 0.000000 0.086925
0.000000 0.129823 0.121510
0.000000 0.127789 0.120733
0.081345 0.120766 0.114980
0.272575 0.109733 0.105230
0.469271 0.098514 0.095307
0.671069 0.087127 0.085230
0.877620 0.075586 0.075012
1.000000 0.064354 0.065117
1.000000 0.061894 0.064010
0.000000 0.318877 0.083588
0.000000 0.316378 0.083250
0.053577 0.308634 0.077679
0.253574 0.296716 0.067947
0.458249 0.284647 0.058076
0.667269 0.272439 0.048083
0.878642 0.260186 0.038061
1.000000 0.248459 0.028583
1.000000 0.245619 0.028012
0.000000 0.503909 0.047569
0.000000 0.500933 0.047655
0.026156 0.492491 0.042290
0.233647 0.479731 0.032624
0.445096 0.466843 0.022853
0.660202 0.453841 0.012988
0.874119 0.440953 0.003262
1.000000 0.428790 0.000000
1.000000 0.425521 0.000000
0.000000 0.684868 0.013408
0.000000 0.681384 0.013908
0.000000 0.672241 0.008773
0.212995 0.658651 0.000000
0.430132 0.644952 0.000000
0.650308 0.631151 0.000000
0.864873 0.617661 0.000000
1.000000 0.605093 0.000000
1.000000 0.601315 0.000000
0.000000 0.860748 0.000000
0.000000 0.856826 0.000000
0.000000 0.847061 0.000000
0.191937 0.832727 0.000000
0.413787 0.818279 0.000000
0.638135 0.803722 0.000000
0.851798 0.789687 0.000000
1.000000 0.776765 0.000000
1.000000 0.772417 0.000000
0.000000 1.000000 0.000000
0.000000 1.000000 0.000000
0.000000 1.000000 0.000000
0.171112 0.999534 0.000000
0.396739 0.984911 0.000000
0.624432 0.970057 0.000000
0.836015 0.955847 0.000000
1.000000 0.942864 0.000000
1.000000 0.938056 0.000000
0.000000 1.000000 0.000000
0.000000 1.000000 0.000000
0.000000 1.000000 0.000000
0.180812 0.994199 0.000000
0.409624 0.978961 0.000000
0.640147 0.963504 0.000000
0.849050 0.948949 0.000000
1.000000 0.935894 0.000000
1.000000 0.930661 0.000000
0.000000 0.025986 0.387903
0.000000 0.023867 0.385481
0.082160 0.017348 0.378739
0.253016 0.007206 0.368452
0.431019 0.000000 0.357979
0.615749 0.000000 0.347338
0.806796 0.000000 0.336547
1.000000 0.000000 0.325700
1.000000 0.000000 0.323167
0.000000 0.019181 0.380394
0.000000 0.017335 0.378506
0.090815 0.010759 0.371962
0.273035 0.000341 0.361650
0.461486 0.000000 0.351189
0.655776 0.000000 0.340597
0.855530 0.000000 0.329888
1.000000 0.000000 0.319306
1.000000 0.000000 0.317386
0.000000 0.125438 0.354194
0.000000 0.123440 0.352892
0.078475 0.116424 0.346640
0.270645 0.105380 0.336428
0.468197 0.094153 0.326101
0.670771 0.082760 0.315675
0.878020 0.071215 0.305164
1.000000 0.060011 0.295061
1.000000 0.057591 0.293808
0.000000 0.314361 0.314765
0.000000 0.311893 0.314081
0.050713 0.304157 0.308194
0.251514 0.292230 0.298182
0.456916 0.280153 0.288087
0.666589 0.267940 0.277922
0.878302 0.255696 0.267794
1.000000 0.243997 0.258279
1.000000 0.241190 0.257726
0.000000 0.499248 0.277836
0.000000 0.496299 0.277749
0.023299 0.487863 0.272242
0.231468 0.475093 0.262471
0.443526 0.462198 0.252646
0.659174 0.449190 0.242779
0.873224 0.436313 0.233117
1.000000 0.424181 0.224276
1.000000 0.420937 0.224401
0.000000 0.680044 0.243338
0.000000 0.676580 0.243830
0.000000 0.667438 0.238719
0.210709 0.653837 0.229228
0.428350 0.640128 0.219708
0.648970 0.626317 0.210172
0.863492 0.612838 0.201053
1.000000 0.600302 0.192968
1.000000 0.596539 0.193748
0.000000 0.855777 0.211366
0.000000 0.851862 0.212400
0.000000 0.842088 0.207681
0.189554 0.827735 0.198488
0.411817 0.813267 0.189293
0.636526 0.798692 0.180104
0.850011 0.784660 0.171578
1.000000 0.771764 0.164310
1.000000 0.767414 0.165715
0.000000 1.000000 0.182618
0.000000 1.000000 0.184012
0.000000 1.000000 0.179549
0.168610 0.994549 0.170559
0.394580 0.979859 0.161608
0.622574 0.964939 0.152701
0.833899 0.950688 0.144735
1.000000 0.937691 0.138290
1.000000 0.932836 0.140253
0.000000 1.000000 0.186345
0.000000 1.000000 0.188227
0.000000 1.000000 0.184143
0.178240 0.989037 0.175463
0.407336 0.973730 0.166831
0.638111 0.958205 0.158249
0.846717 0.943608 0.150860
1.000000 0.930541 0.145260
1.000000 0.925256 0.147697
0.000000 0.021494 0.624929
0.000000 0.019418 0.621636
0.079333 0.012905 0.614047
0.251420 0.002745 0.602947
0.430557 0.000000 0.591724
0.616327 0.000000 0.580394
0.808325 0.000000 0.568974
1.000000 0.000000 0.557569
1.000000 0.000000 0.554575
0.000000 0.014828 0.614722
0.000000 0.013021 0.612158
0.087954 0.006451 0.604964
0.271246 0.000000 0.594038
0.460679 0.000000 0.583023
0.655866 0.000000 0.571934
0.856433 0.000000 0.560787
1.000000 0.000000 0.549843
1.000000 0.000000 0.547641
0.000000 0.121069 0.586499
0.000000 0.119106 0.584708
0.075603 0.112097 0.577995
0.268698 0.101042 0.567358
0.467093 0.089806 0.556663
0.670430 0.078406 0.545924
0.878229 0.066864 0.535162
1.000000 0.055684 0.524881
1.000000 0.053302 0.523516
0.000000 0.309857 0.545684
0.000000 0.307421 0.544691
0.047848 0.299692 0.538524
0.249438 0.287756 0.528268
0.455554 0.275672 0.517983
0.665869 0.263453 0.507681
0.877899 0.251218 0.497480
1.000000 0.239546 0.487962
1.000000 0.236772 0.487459
0.000000 0.494598 0.507964
0.000000 0.491675 0.507740
0.020438 0.483243 0.502125
0.229274 0.470464 0.492282
0.441929 0.457562 0.482436
0.658109 0.444547 0.472599
0.872271 0.431682 0.463034
1.000000 0.419581 0.454357
1.000000 0.416361 0.454686
0.000000 0.675227 0.473242
0.000000 0.671782 0.473760
0.000000 0.662640 0.468705
0.208409 0.649028 0.459306
0.426543 0.635308 0.449927
0.647598 0.621488 0.440579
0.862060 0.608020 0.431716
1.000000 0.595514 0.423951
1.000000 0.591765 0.425080
0.000000 0.850808 0.441579
0.000000 0.846899 0.442795
0.000000 0.837116 0.438288
0.187158 0.822743 0.429343
0.409823 0.808255 0.420441
0.634886 0.793659 0.411589
0.848182 0.779631 0.403466
1.000000 0.766759 0.396667
1.000000 0.762407 0.398554
0.000000 1.000000 0.413592
0.000000 1.000000 0.415322
0.000000 1.000000 0.411225
0.166098 0.989546 0.402635
0.392404 0.974788 0.394125
0.620692 0.959801 0.385699
0.831754 0.945510 0.378277
1.000000 0.932499 0.372440
1.000000 0.927596 0.375011
0.000000 1.000000 0.418612
0.000000 1.000000 0.420964
0.000000 0.999005 0.417380
0.175660 0.983854 0.409231
0.405033 0.968478 0.401165
0.636059 0.952885 0.393185
0.844366 0.938246 0.386456
1.000000 0.925165 0.381576
1.000000 0.919828 0.384722
0.000000 0.017022 0.861331
0.000000 0.014988 0.857208
0.076507 0.008481 0.848811
0.249808 0.000000 0.836940
0.430063 0.000000 0.825006
0.616859 0.000000 0.813026
0.809792 0.000000 0.801016
1.000000 0.000000 0.789092
1.000000 0.000000 0.785674
0.000000 0.010492 0.848560
0.000000 0.008723 0.845360
0.085093 0.002159 0.837555
0.269442 0.000000 0.826053
0.459842 0.000000 0.814521
0.655911 0.000000 0.802973
0.857277 0.000000 0.791424
1.000000 0.000000 0.780157
1.000000 0.000000 0.777708
0.000000 0.116715 0.818442
0.000000 0.114786 0.816199
0.072730 0.107784 0.809063
0.266736 0.096717 0.798038
0.465959 0.085473 0.787010
0.670046 0.074067 0.775995
0.878363 0.062528 0.765018
1.000000 0.051371 0.754594
1.000000 0.049026 0.753150
0.000000 0.305367 0.776366
0.000000 0.302961 0.775099
0.044980 0.295238 0.768687
0.247347 0.283293 0.758222
0.454164 0.271201 0.747781
0.665108 0.258977 0.737377
0.877433 0.246750 0.727137
1.000000 0.235107 0.717650
1.000000 0.232365 0.717230
0.000000 0.489958 0.737972
0.000000 0.487060 0.737643
0.017574 0.478632 0.731954
0.227064 0.465844 0.722074
0.440305 0.452933 0.712240
0.657006 0.439911 0.702465
0.871262 0.427058 0.693030
1.000000 0.414988 0.684548
1.000000 0.411792 0.685111
0.000000 0.670417 0.703138
0.000000 0.666990 0.703713
0.000000 0.657849 0.698746
0.206093 0.644225 0.689471
0.424711 0.630493 0.680265
0.646191 0.616662 0.671135
0.860579 0.603204 0.662558
1.000000 0.590730 0.655144
1.000000 0.586993 0.656650
0.000000 0.845841 0.671890
0.000000 0.841937 0.673318
0.000000 0.832144 0.669054
0.184747 0.817750 0.660386
0.407808 0.803242 0.651806
0.633216 0.788625 0.643320
0.846313 0.774599 0.635629
1.000000 0.761752 0.629325
1.000000 0.757396 0.631721
0.000000 1.000000 0.644767
0.000000 1.000000 0.646862
0.000000 0.999114 0.643160
0.163576 0.984523 0.634997
0.390211 0.969697 0.626954
0.618788 0.954644 0.619036
0.829579 0.940312 0.612184
1.000000 0.927287 0.606977
1.000000 0.922336 0.610180
0.000000 1.000000 0.651174
0.000000 1.000000 0.654023
0.000000 0.993871 0.650964
0.173071 0.978649 0.643369
0.402718 0.963205 0.635895
0.633989 0.947543 0.628540
0.841998 0.932861 0.622492
1.000000 0.919768 0.618353
1.000000 0.914378 0.622225
0.000000 0.012730 1.000000
0.000000 0.010727 1.000000
0.073824 0.004218 1.000000
0.248316 0.000000 1.000000
0.429667 0.000000 1.000000
0.617467 0.000000 1.000000
0.811317 0.000000 1.000000
1.000000 0.000000 1.000000
1.000000 0.000000 1.000000
0.000000 0.006307 1.000000
0.000000 0.004568 1.000000
0.082353 0.000000 1.000000
0.267738 0.000000 1.000000
0.459088 0.000000 1.000000
0.656021 0.000000 1.000000
0.858169 0.000000 1.000000
1.000000 0.000000 1.000000
1.000000 0.000000 1.000000
0.000000 0.112491 1.000000
0.000000 0.110592 1.000000
0.069963 0.103593 1.000000
0.264862 0.092511 1.000000
0.464898 0.081255 1.000000
0.669719 0.069840 0.999606
0.878529 0.058303 0.988582
1.000000 0.047168 0.978160
1.000000 0.044858 0.976765
0.000000 0.300993 1.000000
0.000000 0.298614 0.998927
0.042208 0.290895 0.992450
0.245336 0.278937 0.981936
0.452841 0.266836 0.971478
0.664401 0.254605 0.961090
0.876999 0.242386 0.950913
1.000000 0.230771 0.941536
1.000000 0.228059 0.941258
0.000000 0.485423 0.961792
0.000000 0.482548 0.961490
0.014799 0.474123 0.955838
0.224931 0.461324 0.946012
0.438747 0.448404 0.936264
0.655957 0.435374 0.926604
0.870287 0.422532 0.917329
1.000000 0.410494 0.909052
1.000000 0.407321 0.909833
0.000000 0.665705 0.927209
0.000000 0.662296 0.927907
0.000000 0.653153 0.923072
0.203854 0.639517 0.913944
0.422945 0.625774 0.904909
0.644843 0.611932 0.895974
0.859142 0.598486 0.887633
1.000000 0.586045 0.880493
1.000000 0.582322 0.882266
0.000000 0.840967 0.896511
0.000000 0.837068 0.898142
0.000000 0.827265 0.894086
0.182418 0.812851 0.885636
0.405866 0.798323 0.877289
0.631616 0.783687 0.869050
0.844505 0.769666 0.861641
1.000000 0.756846 0.855649
1.000000 0.752489 0.858333
0.000000 1.000000 0.870122
0.000000 1.000000 0.872482
0.000000 0.994241 0.869044
0.161147 0.979584 0.861145
0.388107 0.964694 0.853373
0.616972 0.949578 0.845728
0.827492 0.935210 0.839176
1.000000 0.922176 0.834292
1.000000 0.917183 0.837777
0.000000 1.000000 0.877454
0.000000 0.999224 0.880589
0.000000 0.988827 0.877809
0.170591 0.973540 0.870485
0.400512 0.958032 0.863278
0.632033 0.942308 0.856184
0.839749 0.927589 0.850416
1.000000 0.914492 0.846578
1.000000 0.909055 0.850700
0.000000 0.009558 1.000000
0.000000 0.007513 1.000000
0.072101 0.000932 1.000000
0.247701 0.000000 1.000000
0.430072 0.000000 1.000000
0.618805 0.000000 1.000000
0.813504 0.000000 1.000000
1.000000 0.000000 1.000000
1.000000 0.000000 1.000000
0.000000 0.003008 1.000000
0.000000 0.001241 1.000000
0.080370 0.000000 1.000000
0.266726 0.000000 1.000000
0.458964 0.000000 1.000000
0.656707 0.000000 1.000000
0.859589 0.000000 1.000000
1.000000 0.000000 1.000000
1.000000 0.000000 1.000000
0.000000 0.108971 1.000000
0.000000 0.107058 1.000000
0.067803 0.100023 1.000000
0.263548 0.088893 1.000000
0.464353 0.077597 1.000000
0.669872 0.066149 1.000000
0.879131 0.054594 1.000000
1.000000 0.043466 1.000000
1.000000 0.041182 1.000000
0.000000 0.297194 1.000000
0.000000 0.294814 1.000000
0.039948 0.287076 1.000000
0.243807 0.275090 1.000000
0.451974 0.262966 1.000000
0.664131 0.250719 1.000000
0.876975 0.238505 1.000000
1.000000 0.226919 1.000000
1.000000 0.224242 1.000000
0.000000 0.481390 1.000000
0.000000 0.478526 1.000000
0.012495 0.470096 1.000000
0.223254 0.457284 1.000000
0.437636 0.444357 1.000000
0.655353 0.431326 1.000000
0.869750 0.418507 1.000000
1.000000 0.406516 1.000000
1.000000 0.403383 1.000000
0.000000 0.661473 1.000000
0.000000 0.658083 1.000000
0.000000 0.648947 1.000000
0.202098 0.635311 1.000000
0.421670 0.621572 1.000000
0.643998 0.607740 1.000000
0.858217 0.594331 1.000000
1.000000 0.581950 1.000000
1.000000 0.578271 1.000000
0.000000 0.836597 1.000000
0.000000 0.832721 1.000000
0.000000 0.822929 1.000000
0.180644 0.808520 1.000000
0.404503 0.794002 1.000000
0.630618 0.779379 1.000000
0.843327 0.765398 1.000000
1.000000 0.752645 1.000000
1.000000 0.748328 1.000000
0.000000 1.000000 1.000000
0.000000 0.999849 1.000000
0.000000 0.989994 1.000000
0.159391 0.975309 1.000000
0.386711 0.960394 1.000000
0.615901 0.945259 1.000000
0.826192 0.930901 1.000000
1.000000 0.917908 1.000000
1.000000 0.912923 1.000000
0.000000 0.999093 1.000000
0.000000 0.994958 1.000000
0.000000 0.984546 1.000000
0.168935 0.969241 1.000000
0.399175 0.953719 1.000000
0.630996 0.937984 1.000000
0.838473 0.923283 1.000000
1.000000 0.910237 1.000000
1.000000 0.904812 1.000000
0.000000 0.008737 1.000000
0.000000 0.006716 1.000000
0.072843 0.000127 1.000000
0.249594 0.000000 1.000000
0.433024 0.000000 1.000000
0.622727 0.000000 1.000000
0.818310 0.000000 1.000000
1.000000 0.000000 1.000000
1.000000 0.000000 1.000000
0.000000 0.002271 1.000000
0.000000 0.000529 1.000000
0.081036 0.000000 1.000000
0.268394 0.000000 1.000000
0.461548 0.000000 1.000000
0.660124 0.000000 1.000000
0.863759 0.000000 1.000000
1.000000 0.000000 1.000000
1.000000 0.000000 1.000000
0.000000 0.108177 1.000000
0.000000 0.106289 1.000000
0.068429 0.099254 1.000000
0.265036 0.088107 1.000000
0.466625 0.076797 1.000000
0.672853 0.065339 1.000000
0.882558 0.053787 1.000000
1.000000 0.042682 1.000000
1.000000 0.040433 1.000000
0.000000 0.296237 1.000000
0.000000 0.293882 1.000000
0.040561 0.286146 1.000000
0.245156 0.274147 1.000000
0.453987 0.262015 1.000000
0.666738 0.249762 1.000000
0.879814 0.237558 1.000000
1.000000 0.226003 1.000000
1.000000 0.223357 1.000000
0.000000 0.480266 1.000000
0.000000 0.477424 1.000000
0.013108 0.468997 1.000000
0.224487 0.456175 1.000000
0.439423 0.443241 1.000000
0.657634 0.430205 1.000000
0.872072 0.417402 1.000000
1.000000 0.405447 1.000000
1.000000 0.402341 1.000000
0.000000 0.660171 1.000000
0.000000 0.656799 1.000000
0.000000 0.647665 1.000000
0.203238 0.634019 1.000000
0.423269 0.620273 1.000000
0.646002 0.606435 1.000000
0.860110 0.593042 1.000000
1.000000 0.580699 1.000000
1.000000 0.577038 1.000000
0.000000 0.835136 1.000000
0.000000 0.831267 1.000000
0.000000 0.821469 1.000000
0.181714 0.807044 1.000000
0.405950 0.792511 1.000000
0.632398 0.777874 1.000000
0.844888 0.763903 1.000000
1.000000 0.751183 1.000000
1.000000 0.746869 1.000000
0.000000 1.000000 1.000000
0.000000 0.998432 1.000000
0.000000 0.988524 1.000000
0.160391 0.973779 1.000000
0.388030 0.958807 1.000000
0.617504 0.943615 1.000000
0.827523 0.929228 1.000000
1.000000 0.916234 1.000000
1.000000 0.911212 1.000000
0.000000 0.997570 1.000000
0.000000 0.993390 1.000000
0.000000 0.982924 1.000000
0.169911 0.967561 1.000000
0.400424 0.951981 1.000000
0.632497 0.936191 1.000000
0.839689 0.921460 1.000000
1.000000 0.908416 1.000000
1.000000 0.902951 1.000000
