library/cube/Future_Shock_003.cube
# CINEGRADE LAB — Premium Cinematic LUT
# Title: Future Shock
# Category: Cyberpunk Cinema
# Description: Cyan/magenta split with high contrast for futuristic cyberpunk visuals
# Mood: Futuristic, neon, dystopian
# Variant: 4
# Generated: 2026-05-21T16:12:28.755112
TITLE "Future Shock"
LUT_3D_SIZE 5
0.000000 0.034159 0.015671
0.085273 0.025414 0.009353
0.426875 0.005006 0.000000
0.796527 0.000000 0.000000
1.000000 0.000000 0.000000
0.000000 0.133346 0.000000
0.081815 0.124225 0.000000
0.466083 0.102034 0.000000
0.871421 0.079141 0.000000
1.000000 0.065326 0.000000
0.000000 0.508038 0.000000
0.026647 0.496562 0.000000
0.442945 0.470951 0.000000
0.870528 0.445050 0.000000
1.000000 0.429499 0.000000
0.000000 0.865491 0.000000
0.000000 0.851796 0.000000
0.412438 0.823079 0.000000
0.850009 0.794502 0.000000
1.000000 0.777162 0.000000
0.000000 1.000000 0.000000
0.000000 1.000000 0.000000
0.408881 0.984081 0.000000
0.848351 0.954264 0.000000
1.000000 0.936076 0.000000
0.000000 0.030497 0.150231
0.084989 0.021810 0.142869
0.431449 0.001297 0.123751
0.805204 0.000000 0.103715
1.000000 0.000000 0.091431
0.000000 0.129823 0.121510
0.081345 0.120766 0.114980
0.469271 0.098514 0.095307
0.877620 0.075586 0.075012
1.000000 0.061894 0.064010
0.000000 0.503909 0.047569
0.026156 0.492491 0.042290
0.445096 0.466843 0.022853
0.874119 0.440953 0.003262
1.000000 0.425521 0.000000
0.000000 0.860748 0.000000
0.000000 0.847061 0.000000
0.413787 0.818279 0.000000
0.851798 0.789687 0.000000
1.000000 0.772417 0.000000
0.000000 1.000000 0.000000
0.000000 1.000000 0.000000
0.409624 0.978961 0.000000
0.849050 0.948949 0.000000
1.000000 0.930661 0.000000
0.000000 0.021494 0.624929
0.079333 0.012905 0.614047
0.430557 0.000000 0.591724
0.808325 0.000000 0.568974
1.000000 0.000000 0.554575
0.000000 0.121069 0.586499
0.075603 0.112097 0.577995
0.467093 0.089806 0.556663
0.878229 0.066864 0.535162
1.000000 0.053302 0.523516
0.000000 0.494598 0.507964
0.020438 0.483243 0.502125
0.441929 0.457562 0.482436
0.872271 0.431682 0.463034
1.000000 0.416361 0.454686
0.000000 0.850808 0.441579
0.000000 0.837116 0.438288
0.409823 0.808255 0.420441
0.848182 0.779631 0.403466
1.000000 0.762407 0.398554
0.000000 1.000000 0.418612
0.000000 0.999005 0.417380
0.405033 0.968478 0.401165
0.844366 0.938246 0.386456
1.000000 0.919828 0.384722
0.000000 0.012730 1.000000
0.073824 0.004218 1.000000
0.429667 0.000000 1.000000
0.811317 0.000000 1.000000
1.000000 0.000000 1.000000
0.000000 0.112491 1.000000
0.069963 0.103593 1.000000
0.464898 0.081255 1.000000
0.878529 0.058303 0.988582
1.000000 0.044858 0.976765
0.000000 0.485423 0.961792
0.014799 0.474123 0.955838
0.438747 0.448404 0.936264
0.870287 0.422532 0.917329
1.000000 0.407321 0.909833
0.000000 0.840967 0.896511
0.000000 0.827265 0.894086
0.405866 0.798323 0.877289
0.844505 0.769666 0.861641
1.000000 0.752489 0.858333
0.000000 1.000000 0.877454
0.000000 0.988827 0.877809
0.400512 0.958032 0.863278
0.839749 0.927589 0.850416
1.000000 0.909055 0.850700
0.000000 0.008737 1.000000
0.072843 0.000127 1.000000
0.433024 0.000000 1.000000
0.818310 0.000000 1.000000
1.000000 0.000000 1.000000
0.000000 0.108177 1.000000
0.068429 0.099254 1.000000
0.466625 0.076797 1.000000
0.882558 0.053787 1.000000
1.000000 0.040433 1.000000
0.000000 0.480266 1.000000
0.013108 0.468997 1.000000
0.439423 0.443241 1.000000
0.872072 0.417402 1.000000
1.000000 0.402341 1.000000
0.000000 0.835136 1.000000
0.000000 0.821469 1.000000
0.405950 0.792511 1.000000
0.844888 0.763903 1.000000
1.000000 0.746869 1.000000
0.000000 0.997570 1.000000
0.000000 0.982924 1.000000
0.400424 0.951981 1.000000
0.839689 0.921460 1.000000
1.000000 0.902951 1.000000
