library/cube/Future_Shock_003.cube
# CINEGRADE LAB — Premium Cinematic LUT
# Title: Future Shock
# Category: Cyberpunk Cinema
# Description: Cyan/magenta split with high contrast for futuristic cyberpunk visuals
# Mood: Futuristic, neon, dystopian
# Variant: 4
# Generated: 2026-05-21T16:12:28.755112
TITLE "Future Shock"
LUT_3D_SIZE 33
0.000000 0.034159 0.015671
0.000000 0.033594 0.015413
0.000000 0.033035 0.015159
0.000000 0.032480 0.014910
0.000000 0.031931 0.014664
0.000000 0.031387 0.014423
0.004661 0.030338 0.013676
0.044717 0.027886 0.011524
0.085273 0.025414 0.009353
0.126322 0.022924 0.007161
0.167856 0.020416 0.004951
0.209869 0.017890 0.002722
0.252354 0.015347 0.000474
0.295304 0.012787 0.000000
0.338711 0.010209 0.000000
0.382571 0.007616 0.000000
0.426875 0.005006 0.000000
0.471616 0.002380 0.000000
0.516790 0.000000 0.000000
0.562388 0.000000 0.000000
0.608405 0.000000 0.000000
0.654833 0.000000 0.000000
0.701668 0.000000 0.000000
0.748901 0.000000 0.000000
0.796527 0.000000 0.000000
0.844540 0.000000 0.000000
0.892933 0.000000 0.000000
0.941220 0.000000 0.000000
0.989792 0.000000 0.000000
1.000000 0.000000 0.000000
1.000000 0.000000 0.000000
1.000000 0.000000 0.000000
1.000000 0.000000 0.000000
0.000000 0.032280 0.014820
0.000000 0.031733 0.014576
0.000000 0.031191 0.014337
0.000000 0.030654 0.014102
0.000000 0.030123 0.013870
0.000000 0.029596 0.013644
0.005284 0.028554 0.012900
0.046173 0.026079 0.010722
0.087545 0.023586 0.008525
0.129394 0.021075 0.006310
0.171714 0.018547 0.004076
0.214497 0.016002 0.001824
0.257736 0.013439 0.000000
0.301425 0.010861 0.000000
0.345558 0.008266 0.000000
0.390127 0.005656 0.000000
0.435126 0.003030 0.000000
0.480548 0.000389 0.000000
0.526388 0.000000 0.000000
0.572638 0.000000 0.000000
0.619292 0.000000 0.000000
0.666344 0.000000 0.000000
0.713788 0.000000 0.000000
0.761617 0.000000 0.000000
0.809825 0.000000 0.000000
0.858406 0.000000 0.000000
0.907202 0.000000 0.000000
0.955878 0.000000 0.000000
1.000000 0.000000 0.000000
1.000000 0.000000 0.000000
1.000000 0.000000 0.000000
1.000000 0.000000 0.000000
1.000000 0.000000 0.000000
0.000000 0.030460 0.014017
0.000000 0.029930 0.013787
0.000000 0.029406 0.013562
0.000000 0.028887 0.013341
0.000000 0.028373 0.013124
0.000000 0.027864 0.012911
0.005913 0.026829 0.012171
0.047607 0.024333 0.009968
0.089770 0.021819 0.007748
0.132394 0.019288 0.005509
0.175473 0.016741 0.003252
0.219001 0.014177 0.000978
0.262970 0.011598 0.000000
0.307375 0.009002 0.000000
0.352207 0.006391 0.000000
0.397462 0.003765 0.000000
0.443133 0.001124 0.000000
0.489212 0.000000 0.000000
0.535695 0.000000 0.000000
0.582574 0.000000 0.000000
0.629843 0.000000 0.000000
0.677496 0.000000 0.000000
0.725527 0.000000 0.000000
0.773930 0.000000 0.000000
0.822698 0.000000 0.000000
0.871826 0.000000 0.000000
0.920929 0.000000 0.000000
0.969961 0.000000 0.000000
1.000000 0.000000 0.000000
1.000000 0.000000 0.000000
1.000000 0.000000 0.000000
1.000000 0.000000 0.000000
1.000000 0.000000 0.000000
0.000000 0.028699 0.013261
0.000000 0.028187 0.013046
0.000000 0.027680 0.012835
0.000000 0.027178 0.012628
0.000000 0.026682 0.012424
0.000000 0.026190 0.012225
0.006547 0.025162 0.011489
0.049021 0.022646 0.009263
0.091949 0.020113 0.007019
0.135323 0.017564 0.004758
0.179137 0.014998 0.002480
0.223385 0.012418 0.000185
0.268060 0.009821 0.000000
0.313155 0.007210 0.000000
0.358664 0.004583 0.000000
0.404582 0.001943 0.000000
0.450900 0.000000 0.000000
0.497614 0.000000 0.000000
0.544717 0.000000 0.000000
0.592202 0.000000 0.000000
0.640064 0.000000 0.000000
0.688296 0.000000 0.000000
0.736893 0.000000 0.000000
0.785849 0.000000 0.000000
0.835156 0.000000 0.000000
0.884811 0.000000 0.000000
0.934122 0.000000 0.000000
0.983469 0.000000 0.000000
1.000000 0.000000 0.000000
1.000000 0.000000 0.000000
1.000000 0.000000 0.000000
1.000000 0.000000 0.000000
1.000000 0.000000 0.000000
0.000000 0.026997 0.012553
0.000000 0.026502 0.012351
0.000000 0.026013 0.012154
0.000000 0.025528 0.011961
0.000000 0.025049 0.011771
0.000000 0.024575 0.011586
0.007187 0.023554 0.010853
0.050416 0.021019 0.008604
0.094083 0.018467 0.006339
0.138182 0.015901 0.004057
0.182707 0.013318 0.001758
0.227651 0.010721 0.000000
0.273007 0.008109 0.000000
0.318770 0.005483 0.000000
0.364933 0.002842 0.000000
0.411489 0.000188 0.000000
0.458433 0.000000 0.000000
0.505759 0.000000 0.000000
0.553459 0.000000 0.000000
0.601529 0.000000 0.000000
0.649962 0.000000 0.000000
0.698752 0.000000 0.000000
0.747894 0.000000 0.000000
0.797381 0.000000 0.000000
0.847207 0.000000 0.000000
0.897367 0.000000 0.000000
0.946784 0.000000 0.000000
0.996406 0.000000 0.000000
1.000000 0.000000 0.000000
1.000000 0.000000 0.000000
1.000000 0.000000 0.000000
1.000000 0.000000 0.000000
1.000000 0.000000 0.000000
0.000000 0.025353 0.011891
0.000000 0.024876 0.011703
0.000000 0.024403 0.011519
0.000000 0.023936 0.011340
0.000000 0.023474 0.011164
0.000000 0.023017 0.010992
0.007833 0.022003 0.010263
0.051791 0.019450 0.007993
0.096174 0.016882 0.005707
0.140974 0.014299 0.003404
0.186185 0.011700 0.001086
0.231801 0.009088 0.000000
0.277816 0.006461 0.000000
0.324223 0.003821 0.000000
0.371016 0.001167 0.000000
0.418189 0.000000 0.000000
0.465736 0.000000 0.000000
0.513651 0.000000 0.000000
0.561928 0.000000 0.000000
0.610561 0.000000 0.000000
0.659544 0.000000 0.000000
0.708871 0.000000 0.000000
0.758536 0.000000 0.000000
0.808534 0.000000 0.000000
0.858858 0.000000 0.000000
0.909243 0.000000 0.000000
0.958919 0.000000 0.000000
1.000000 0.000000 0.000000
1.000000 0.000000 0.000000
1.000000 0.000000 0.000000
1.000000 0.000000 0.000000
1.000000 0.000000 0.000000
1.000000 0.000000 0.000000
0.000000 0.037157 0.008833
0.000000 0.036684 0.008661
0.000000 0.036216 0.008493
0.000000 0.035753 0.008328
0.000000 0.035296 0.008168
0.000000 0.034843 0.008012
0.006056 0.033825 0.007290
0.050722 0.031243 0.005001
0.095798 0.028646 0.002697
0.141278 0.026035 0.000378
0.187154 0.023410 0.000000
0.233422 0.020770 0.000000
0.280074 0.018118 0.000000
0.327105 0.015452 0.000000
0.374508 0.012773 0.000000
0.422278 0.010082 0.000000
0.470408 0.007378 0.000000
0.518893 0.004662 0.000000
0.567727 0.001934 0.000000
0.616904 0.000000 0.000000
0.666418 0.000000 0.000000
0.716263 0.000000 0.000000
0.766434 0.000000 0.000000
0.816925 0.000000 0.000000
0.867731 0.000000 0.000000
0.918248 0.000000 0.000000
0.968146 0.000000 0.000000
1.000000 0.000000 0.000000
1.000000 0.000000 0.000000
1.000000 0.000000 0.000000
1.000000 0.000000 0.000000
1.000000 0.000000 0.000000
1.000000 0.000000 0.000000
0.000000 0.085378 0.000000
0.000000 0.084876 0.000000
0.000000 0.084379 0.000000
0.000000 0.083887 0.000000
0.000000 0.083400 0.000000
0.000000 0.082919 0.000000
0.000000 0.081863 0.000000
0.043047 0.079219 0.000000
0.088799 0.076561 0.000000
0.134940 0.073889 0.000000
0.181465 0.071204 0.000000
0.228367 0.068505 0.000000
0.275640 0.065794 0.000000
0.323279 0.063071 0.000000
0.371276 0.060335 0.000000
0.419627 0.057586 0.000000
0.468326 0.054827 0.000000
0.517366 0.052055 0.000000
0.566742 0.049273 0.000000
0.616448 0.046479 0.000000
0.666479 0.043675 0.000000
0.716828 0.040860 0.000000
0.767491 0.038034 0.000000
0.818462 0.035199 0.000000
0.869735 0.032354 0.000000
0.920293 0.029548 0.000000
0.970382 0.026770 0.000000
1.000000 0.023989 0.000000
1.000000 0.021207 0.000000
1.000000 0.020266 0.000000
1.000000 0.019757 0.000000
1.000000 0.019255 0.000000
1.000000 0.018760 0.000000
0.000000 0.133346 0.000000
0.000000 0.132815 0.000000
0.000000 0.132289 0.000000
0.000000 0.131768 0.000000
0.000000 0.131252 0.000000
0.000000 0.130741 0.000000
0.000000 0.129647 0.000000
0.035410 0.126943 0.000000
0.081815 0.124225 0.000000
0.128596 0.121494 0.000000
0.175746 0.118750 0.000000
0.223261 0.115994 0.000000
0.271133 0.113225 0.000000
0.319357 0.110445 0.000000
0.367927 0.107653 0.000000
0.416838 0.104849 0.000000
0.466083 0.102034 0.000000
0.515658 0.099208 0.000000
0.565555 0.096372 0.000000
0.615771 0.093525 0.000000
0.666298 0.090667 0.000000
0.717133 0.087800 0.000000
0.768268 0.084923 0.000000
0.819699 0.082037 0.000000
0.871421 0.079141 0.000000
0.921919 0.076309 0.000000
0.972161 0.073494 0.000000
1.000000 0.070678 0.000000
1.000000 0.067861 0.000000
1.000000 0.066896 0.000000
1.000000 0.066365 0.000000
1.000000 0.065842 0.000000
1.000000 0.065326 0.000000
0.000000 0.181061 0.000000
0.000000 0.180501 0.000000
0.000000 0.179946 0.000000
0.000000 0.179396 0.000000
0.000000 0.178851 0.000000
0.000000 0.178311 0.000000
0.000000 0.177180 0.000000
0.027814 0.174416 0.000000
0.074849 0.171640 0.000000
0.122246 0.168851 0.000000
0.170000 0.166049 0.000000
0.218105 0.163236 0.000000
0.266554 0.160411 0.000000
0.315343 0.157575 0.000000
0.364465 0.154727 0.000000
0.413914 0.151869 0.000000
0.463686 0.149000 0.000000
0.513774 0.146121 0.000000
0.564173 0.143231 0.000000
0.614878 0.140332 0.000000
0.665883 0.137423 0.000000
0.717182 0.134504 0.000000
0.768771 0.131576 0.000000
0.820644 0.128639 0.000000
0.872796 0.125694 0.000000
0.923133 0.122840 0.000000
0.973490 0.119989 0.000000
1.000000 0.117139 0.000000
1.000000 0.114290 0.000000
1.000000 0.113301 0.000000
1.000000 0.112748 0.000000
1.000000 0.112203 0.000000
1.000000 0.111664 0.000000
0.000000 0.228524 0.000000
0.000000 0.227935 0.000000
0.000000 0.227351 0.000000
0.000000 0.226772 0.000000
0.000000 0.226199 0.000000
0.000000 0.225630 0.000000
0.000000 0.224462 0.000000
0.020258 0.221640 0.000000
0.067900 0.218806 0.000000
0.115893 0.215959 0.000000
0.164228 0.213102 0.000000
0.212902 0.210232 0.000000
0.261907 0.207352 0.000000
0.311239 0.204461 0.000000
0.360892 0.201559 0.000000
0.410860 0.198647 0.000000
0.461138 0.195725 0.000000
0.511720 0.192793 0.000000
0.562601 0.189851 0.000000
0.613776 0.186900 0.000000
0.665239 0.183940 0.000000
0.716985 0.180970 0.000000
0.769009 0.177992 0.000000
0.821305 0.175005 0.000000
0.873583 0.172024 0.000000
0.923941 0.169139 0.000000
0.974376 0.166256 0.000000
1.000000 0.163373 0.000000
1.000000 0.160492 0.000000
1.000000 0.159479 0.000000
1.000000 0.158904 0.000000
1.000000 0.158336 0.000000
1.000000 0.157775 0.000000
0.000000 0.275736 0.000000
0.000000 0.275118 0.000000
0.000000 0.274506 0.000000
0.000000 0.273898 0.000000
0.000000 0.273295 0.000000
0.000000 0.272698 0.000000
0.000000 0.271493 0.000000
0.012742 0.268614 0.000000
0.060971 0.265723 0.000000
0.109536 0.262820 0.000000
0.158432 0.259907 0.000000
0.207654 0.256983 0.000000
0.257194 0.254048 0.000000
0.307049 0.251103 0.000000
0.357213 0.248148 0.000000
0.407679 0.245183 0.000000
0.458443 0.242208 0.000000
0.509500 0.239224 0.000000
0.560844 0.236230 0.000000
0.612470 0.233228 0.000000
0.664372 0.230217 0.000000
0.716546 0.227198 0.000000
0.768987 0.224170 0.000000
0.821689 0.221134 0.000000
0.873929 0.218125 0.000000
0.924351 0.215207 0.000000
0.974828 0.212291 0.000000
1.000000 0.209377 0.000000
1.000000 0.206466 0.000000
1.000000 0.205429 0.000000
1.000000 0.204831 0.000000
1.000000 0.204240 0.000000
1.000000 0.203655 0.000000
0.000000 0.322698 0.000000
0.000000 0.322051 0.000000
0.000000 0.321410 0.000000
0.000000 0.320773 0.000000
0.000000 0.320142 0.000000
0.000000 0.319515 0.000000
0.000000 0.318274 0.000000
0.005268 0.315338 0.000000
0.054062 0.312391 0.000000
0.103179 0.309433 0.000000
0.152615 0.306465 0.000000
0.202363 0.303487 0.000000
0.252419 0.300498 0.000000
0.302776 0.297500 0.000000
0.353431 0.294492 0.000000
0.404376 0.291475 0.000000
0.455608 0.288448 0.000000
0.507120 0.285413 0.000000
0.558908 0.282368 0.000000
0.610966 0.279316 0.000000
0.663290 0.276255 0.000000
0.715874 0.273185 0.000000
0.768714 0.270108 0.000000
0.821804 0.267024 0.000000
0.873921 0.263990 0.000000
0.924371 0.261041 0.000000
0.974854 0.258094 0.000000
1.000000 0.255150 0.000000
1.000000 0.252210 0.000000
1.000000 0.251148 0.000000
1.000000 0.250527 0.000000
1.000000 0.249912 0.000000
1.000000 0.249303 0.000000
0.000000 0.369409 0.000000
0.000000 0.368734 0.000000
0.000000 0.368063 0.000000
0.000000 0.367397 0.000000
0.000000 0.366737 0.000000
0.000000 0.366081 0.000000
0.000000 0.364803 0.000000
0.000000 0.361812 0.000000
0.047173 0.358810 0.000000
0.096822 0.355798 0.000000
0.146777 0.352776 0.000000
0.197032 0.349744 0.000000
0.247583 0.346702 0.000000
0.298424 0.343651 0.000000
0.349550 0.340591 0.000000
0.400955 0.337522 0.000000
0.452635 0.334444 0.000000
0.504585 0.331358 0.000000
0.556798 0.328263 0.000000
0.609271 0.325160 0.000000
0.661999 0.322050 0.000000
0.714975 0.318931 0.000000
0.768197 0.315805 0.000000
0.821658 0.312672 0.000000
0.873567 0.309618 0.000000
0.924010 0.306638 0.000000
0.974465 0.303661 0.000000
1.000000 0.300689 0.000000
1.000000 0.297721 0.000000
1.000000 0.296634 0.000000
1.000000 0.295988 0.000000
1.000000 0.295348 0.000000
1.000000 0.294715 0.000000
0.000000 0.415870 0.000000
0.000000 0.415165 0.000000
0.000000 0.414466 0.000000
0.000000 0.413771 0.000000
0.000000 0.413081 0.000000
0.000000 0.412395 0.000000
0.000000 0.411082 0.000000
0.000000 0.408035 0.000000
0.040307 0.404979 0.000000
0.090467 0.401913 0.000000
0.140921 0.398837 0.000000
0.191664 0.395753 0.000000
0.242691 0.392658 0.000000
0.293996 0.389555 0.000000
0.345574 0.386444 0.000000
0.397421 0.383323 0.000000
0.449531 0.380195 0.000000
0.501899 0.377058 0.000000
0.554521 0.373913 0.000000
0.607391 0.370761 0.000000
0.660504 0.367601 0.000000
0.713857 0.364434 0.000000
0.767443 0.361259 0.000000
0.821259 0.358078 0.000000
0.872877 0.355006 0.000000
0.923278 0.351996 0.000000
0.973670 0.348991 0.000000
1.000000 0.345991 0.000000
1.000000 0.342996 0.000000
1.000000 0.341883 0.000000
1.000000 0.341212 0.000000
1.000000 0.340547 0.000000
1.000000 0.339887 0.000000
0.000000 0.462080 0.000000
0.000000 0.461346 0.000000
0.000000 0.460617 0.000000
0.000000 0.459893 0.000000
0.000000 0.459173 0.000000
0.000000 0.458458 0.000000
0.000000 0.457107 0.000000
0.000000 0.454007 0.000000
0.033465 0.450897 0.000000
0.084116 0.447778 0.000000
0.135050 0.444649 0.000000
0.186261 0.441512 0.000000
0.237744 0.438366 0.000000
0.289495 0.435211 0.000000
0.341507 0.432048 0.000000
0.393777 0.428877 0.000000
0.446299 0.425698 0.000000
0.499069 0.422511 0.000000
0.552081 0.419316 0.000000
0.605331 0.416115 0.000000
0.658814 0.412906 0.000000
0.712525 0.409690 0.000000
0.766461 0.406467 0.000000
0.820615 0.403237 0.000000
0.871861 0.400151 0.000000
0.922186 0.397113 0.000000
0.972481 0.394080 0.000000
1.000000 0.391053 0.000000
1.000000 0.388031 0.000000
1.000000 0.386893 0.000000
1.000000 0.386195 0.000000
1.000000 0.385503 0.000000
1.000000 0.384817 0.000000
0.000000 0.508038 0.000000
0.000000 0.507275 0.000000
0.000000 0.506516 0.000000
0.000000 0.505762 0.000000
0.000000 0.505012 0.000000
0.000000 0.504266 0.000000
0.000000 0.502880 0.000000
0.000000 0.499726 0.000000
0.026647 0.496562 0.000000
0.077770 0.493390 0.000000
0.129165 0.490209 0.000000
0.180825 0.487020 0.000000
0.232747 0.483822 0.000000
0.284924 0.480616 0.000000
0.337353 0.477402 0.000000
0.390029 0.474180 0.000000
0.442945 0.470951 0.000000
0.496099 0.467714 0.000000
0.549485 0.464470 0.000000
0.603098 0.461219 0.000000
0.656935 0.457961 0.000000
0.710989 0.454696 0.000000
0.765257 0.451425 0.000000
0.819735 0.448147 0.000000
0.870528 0.445050 0.000000
0.920744 0.441984 0.000000
0.970911 0.438924 0.000000
1.000000 0.435871 0.000000
1.000000 0.432824 0.000000
1.000000 0.431659 0.000000
1.000000 0.430934 0.000000
1.000000 0.430214 0.000000
1.000000 0.429499 0.000000
0.000000 0.553744 0.000000
0.000000 0.552951 0.000000
0.000000 0.552162 0.000000
0.000000 0.551377 0.000000
0.000000 0.550597 0.000000
0.000000 0.549821 0.000000
0.000000 0.548397 0.000000
0.000000 0.545190 0.000000
0.019855 0.541974 0.000000
0.071431 0.538749 0.000000
0.123268 0.535516 0.000000
0.175360 0.532275 0.000000
0.227702 0.529025 0.000000
0.280289 0.525768 0.000000
0.333116 0.522504 0.000000
0.386180 0.519232 0.000000
0.439475 0.515952 0.000000
0.492996 0.512665 0.000000
0.546739 0.509372 0.000000
0.600699 0.506071 0.000000
0.654873 0.502764 0.000000
0.709255 0.499451 0.000000
0.763841 0.496131 0.000000
0.818627 0.492805 0.000000
0.868890 0.489699 0.000000
0.918965 0.486606 0.000000
0.968970 0.483520 0.000000
1.000000 0.480441 0.000000
1.000000 0.477369 0.000000
1.000000 0.476176 0.000000
1.000000 0.475422 0.000000
1.000000 0.474673 0.000000
1.000000 0.473929 0.000000
0.000000 0.599196 0.000000
0.000000 0.598372 0.000000
0.000000 0.597552 0.000000
0.000000 0.596737 0.000000
0.000000 0.595925 0.000000
0.000000 0.595118 0.000000
0.000000 0.593657 0.000000
0.000000 0.590397 0.000000
0.013090 0.587128 0.000000
0.065102 0.583851 0.000000
0.117362 0.580566 0.000000
0.169867 0.577274 0.000000
0.222612 0.573973 0.000000
0.275591 0.570665 0.000000
0.328801 0.567350 0.000000
0.382236 0.564027 0.000000
0.435892 0.560697 0.000000
0.489764 0.557361 0.000000
0.543848 0.554018 0.000000
0.598141 0.550668 0.000000
0.652636 0.547312 0.000000
0.707330 0.543949 0.000000
0.762219 0.540580 0.000000
0.816975 0.537221 0.000000
0.866959 0.534095 0.000000
0.916862 0.530975 0.000000
0.966674 0.527863 0.000000
1.000000 0.524758 0.000000
1.000000 0.521661 0.000000
1.000000 0.520440 0.000000
1.000000 0.519656 0.000000
1.000000 0.518877 0.000000
1.000000 0.518102 0.000000
0.000000 0.644392 0.000000
0.000000 0.643537 0.000000
0.000000 0.642686 0.000000
0.000000 0.641839 0.000000
0.000000 0.640996 0.000000
0.000000 0.640156 0.000000
0.000000 0.638658 0.000000
0.000000 0.635345 0.000000
0.006354 0.632024 0.000000
0.058783 0.628695 0.000000
0.111450 0.625358 0.000000
0.164351 0.622014 0.000000
0.217481 0.618662 0.000000
0.270836 0.615303 0.000000
0.324410 0.611937 0.000000
0.378201 0.608563 0.000000
0.432202 0.605184 0.000000
0.486410 0.601797 0.000000
0.540820 0.598404 0.000000
0.595429 0.595004 0.000000
0.650231 0.591599 0.000000
0.705223 0.588187 0.000000
0.760401 0.584769 0.000000
0.814947 0.581385 0.000000
0.864747 0.578231 0.000000
0.914446 0.575085 0.000000
0.964036 0.571947 0.000000
1.000000 0.568817 0.000000
1.000000 0.565696 0.000000
1.000000 0.564445 0.000000
1.000000 0.563630 0.000000
1.000000 0.562818 0.000000
1.000000 0.562011 0.000000
0.000000 0.689330 0.000000
0.000000 0.688443 0.000000
0.000000 0.687560 0.000000
0.000000 0.686681 0.000000
0.000000 0.685805 0.000000
0.000000 0.684933 0.000000
0.000000 0.683397 0.000000
0.000000 0.680031 0.000000
0.000000 0.676657 0.000000
0.052477 0.673276 0.000000
0.105534 0.669888 0.000000
0.158814 0.666492 0.000000
0.212313 0.663088 0.000000
0.266026 0.659678 0.000000
0.319950 0.656261 0.000000
0.374080 0.652837 0.000000
0.428411 0.649407 0.000000
0.482939 0.645970 0.000000
0.537661 0.642526 0.000000
0.592571 0.639077 0.000000
0.647666 0.635621 0.000000
0.702942 0.632160 0.000000
0.758395 0.628692 0.000000
0.812681 0.625284 0.000000
0.862267 0.622104 0.000000
0.911733 0.618931 0.000000
0.961071 0.615768 0.000000
1.000000 0.612613 0.000000
1.000000 0.609468 0.000000
1.000000 0.608185 0.000000
1.000000 0.607337 0.000000
1.000000 0.606492 0.000000
1.000000 0.605651 0.000000
0.000000 0.734008 0.000000
0.000000 0.733088 0.000000
0.000000 0.732172 0.000000
0.000000 0.731260 0.000000
0.000000 0.730351 0.000000
0.000000 0.729446 0.000000
0.000000 0.727870 0.000000
0.000000 0.724452 0.000000
0.000000 0.721026 0.000000
0.046187 0.717592 0.000000
0.099616 0.714151 0.000000
0.153258 0.710703 0.000000
0.207110 0.707249 0.000000
0.261167 0.703787 0.000000
0.315424 0.700319 0.000000
0.369878 0.696844 0.000000
0.424524 0.693362 0.000000
0.479358 0.689874 0.000000
0.534376 0.686380 0.000000
0.589574 0.682880 0.000000
0.644948 0.679374 0.000000
0.700495 0.675862 0.000000
0.756209 0.672345 0.000000
0.810191 0.668913 0.000000
0.859532 0.665706 0.000000
0.908736 0.662508 0.000000
0.957794 0.659319 0.000000
1.000000 0.656139 0.000000
1.000000 0.652969 0.000000
1.000000 0.651654 0.000000
1.000000 0.650771 0.000000
1.000000 0.649891 0.000000
1.000000 0.649014 0.000000
0.000000 0.778422 0.000000
0.000000 0.777469 0.000000
0.000000 0.776519 0.000000
0.000000 0.775573 0.000000
0.000000 0.774630 0.000000
0.000000 0.773690 0.000000
0.000000 0.772075 0.000000
0.000000 0.768603 0.000000
0.000000 0.765124 0.000000
0.039914 0.761638 0.000000
0.093699 0.758145 0.000000
0.147688 0.754645 0.000000
0.201877 0.751138 0.000000
0.256262 0.747625 0.000000
0.310838 0.744105 0.000000
0.365601 0.740578 0.000000
0.420547 0.737045 0.000000
0.475673 0.733506 0.000000
0.530974 0.729961 0.000000
0.586446 0.726409 0.000000
0.642086 0.722852 0.000000
0.697890 0.719289 0.000000
0.753853 0.715721 0.000000
0.807489 0.712266 0.000000
0.856558 0.709032 0.000000
0.905471 0.705808 0.000000
0.954221 0.702593 0.000000
1.000000 0.699388 0.000000
1.000000 0.696194 0.000000
1.000000 0.694845 0.000000
1.000000 0.693924 0.000000
1.000000 0.693007 0.000000
1.000000 0.692092 0.000000
0.000000 0.822569 0.000000
0.000000 0.821581 0.000000
0.000000 0.820597 0.000000
0.000000 0.819616 0.000000
0.000000 0.818637 0.000000
0.000000 0.817662 0.000000
0.000000 0.816006 0.000000
0.000000 0.812481 0.000000
0.000000 0.808950 0.000000
0.033660 0.805411 0.000000
0.087786 0.801865 0.000000
0.142107 0.798312 0.000000
0.196618 0.794752 0.000000
0.251315 0.791186 0.000000
0.306195 0.787614 0.000000
0.361254 0.784035 0.000000
0.416487 0.780450 0.000000
0.471890 0.776859 0.000000
0.527460 0.773261 0.000000
0.583194 0.769658 0.000000
0.639087 0.766049 0.000000
0.695136 0.762434 0.000000
0.751336 0.758813 0.000000
0.804590 0.755336 0.000000
0.853358 0.752076 0.000000
0.901954 0.748825 0.000000
0.950368 0.745584 0.000000
0.998594 0.742354 0.000000
1.000000 0.739134 0.000000
1.000000 0.737749 0.000000
1.000000 0.736790 0.000000
1.000000 0.735833 0.000000
1.000000 0.734878 0.000000
0.000000 0.865491 0.000000
0.000000 0.864502 0.000000
0.000000 0.863516 0.000000
0.000000 0.862531 0.000000
0.000000 0.861548 0.000000
0.000000 0.860568 0.000000
0.000000 0.858901 0.000000
0.000000 0.855352 0.000000
0.000000 0.851796 0.000000
0.027551 0.848232 0.000000
0.081998 0.844660 0.000000
0.136630 0.841081 0.000000
0.191444 0.837495 0.000000
0.246435 0.833902 0.000000
0.301601 0.830301 0.000000
0.356936 0.826693 0.000000
0.412438 0.823079 0.000000
0.468102 0.819457 0.000000
0.523925 0.815829 0.000000
0.579903 0.812195 0.000000
0.636033 0.808554 0.000000
0.692312 0.804906 0.000000
0.748735 0.801252 0.000000
0.801570 0.797771 0.000000
0.850009 0.794502 0.000000
0.898257 0.791242 0.000000
0.946308 0.787992 0.000000
0.994153 0.784751 0.000000
1.000000 0.781521 0.000000
1.000000 0.780114 0.000000
1.000000 0.779129 0.000000
1.000000 0.778145 0.000000
1.000000 0.777162 0.000000
0.000000 0.906428 0.000000
0.000000 0.905506 0.000000
0.000000 0.904582 0.000000
0.000000 0.903658 0.000000
0.000000 0.902733 0.000000
0.000000 0.901807 0.000000
0.000000 0.900188 0.000000
0.000000 0.896674 0.000000
0.000000 0.893149 0.000000
0.021678 0.889615 0.000000
0.076420 0.886070 0.000000
0.131340 0.882516 0.000000
0.186433 0.878953 0.000000
0.241696 0.875380 0.000000
0.297125 0.871798 0.000000
0.352716 0.868207 0.000000
0.408465 0.864607 0.000000
0.464370 0.860997 0.000000
0.520426 0.857379 0.000000
0.576630 0.853753 0.000000
0.632979 0.850117 0.000000
0.689468 0.846473 0.000000
0.746096 0.842821 0.000000
0.798481 0.839370 0.000000
0.846557 0.836125 0.000000
0.894426 0.832888 0.000000
0.942083 0.829659 0.000000
0.989519 0.826438 0.000000
1.000000 0.823226 0.000000
1.000000 0.821822 0.000000
1.000000 0.820834 0.000000
1.000000 0.819845 0.000000
1.000000 0.818855 0.000000
0.000000 0.947766 0.000000
0.000000 0.946891 0.000000
0.000000 0.946013 0.000000
0.000000 0.945132 0.000000
0.000000 0.944247 0.000000
0.000000 0.943359 0.000000
0.000000 0.941771 0.000000
0.000000 0.938274 0.000000
0.000000 0.934765 0.000000
0.015734 0.931244 0.000000
0.070761 0.927711 0.000000
0.125957 0.924167 0.000000
0.181319 0.920611 0.000000
0.236842 0.917043 0.000000
0.292524 0.913464 0.000000
0.348361 0.909874 0.000000
0.404349 0.906273 0.000000
0.460484 0.902660 0.000000
0.516764 0.899037 0.000000
