library/cube/Glamour_Burst_002.cube
# CINEGRADE LAB — Premium Cinematic LUT
# Title: Glamour Burst
# Category: Hyperreal Fashion
# Description: Punchy, saturated, with flawless skin rendering for fashion editorials
# Mood: Bold, vibrant, high-impact
# Variant: 3
# Generated: 2026-05-21T16:12:20.811996
TITLE "Glamour Burst"
LUT_3D_SIZE 5
0.000000 0.000000 0.000000
0.215551 0.000000 0.000000
0.574803 0.000000 0.000000
0.934055 0.000000 0.000000
1.000000 0.000000 0.000000
0.000000 0.197646 0.000000
0.190072 0.190072 0.000000
0.610523 0.190998 0.000000
0.996719 0.178122 0.000000
1.000000 0.170397 0.000000
0.000000 0.527056 0.000000
0.147607 0.519482 0.000000
0.506859 0.506859 0.000000
0.951069 0.514121 0.000000
1.000000 0.506395 0.000000
0.000000 0.856466 0.000000
0.105142 0.848892 0.000000
0.464394 0.836269 0.000000
0.823646 0.823646 0.000000
1.000000 0.816072 0.000000
0.000000 1.000000 0.000000
0.079663 1.000000 0.000000
0.438915 1.000000 0.000000
0.798167 1.000000 0.000000
1.000000 1.000000 0.000000
0.000000 0.000000 0.220553
0.212979 0.000000 0.212979
0.572231 0.000000 0.200356
0.931483 0.000000 0.187733
1.000000 0.000000 0.180159
0.000000 0.195074 0.195074
0.187500 0.187500 0.187500
0.546752 0.174877 0.174877
0.906004 0.162254 0.162254
1.000000 0.154680 0.154680
0.000000 0.524484 0.152609
0.145035 0.516910 0.145035
0.504287 0.504287 0.132412
0.948304 0.511497 0.119789
1.000000 0.503772 0.112215
0.000000 0.853894 0.110144
0.102570 0.846320 0.102570
0.461822 0.833697 0.089947
0.821074 0.821074 0.077324
1.000000 0.839770 0.069750
0.000000 1.000000 0.084665
0.077091 1.000000 0.077091
0.436343 1.000000 0.064468
0.795595 1.000000 0.051845
1.000000 1.000000 0.044271
0.000000 0.000000 0.588141
0.208692 0.000000 0.580567
0.567944 0.000000 0.567944
0.927196 0.000000 0.555321
1.000000 0.000000 0.547747
0.000000 0.190787 0.562662
0.183213 0.183213 0.555088
0.542465 0.170590 0.542465
0.901717 0.157967 0.529842
1.000000 0.150393 0.522268
0.000000 0.520197 0.520197
0.140748 0.512623 0.512623
0.500000 0.500000 0.500000
0.859252 0.487377 0.487377
1.000000 0.479803 0.479803
0.000000 0.849607 0.477732
0.098283 0.842033 0.470158
0.457535 0.829410 0.457535
0.816787 0.816787 0.444912
1.000000 0.835397 0.437338
0.000000 1.000000 0.452253
0.072804 1.000000 0.444679
0.432056 1.000000 0.432056
0.791308 1.000000 0.419433
1.000000 1.000000 0.411859
0.000000 0.000000 0.955729
0.204405 0.000000 0.948155
0.563657 0.000000 0.935532
0.922909 0.000000 0.922909
1.000000 0.000000 0.915335
0.000000 0.186500 0.930250
0.178926 0.178926 0.922676
0.538178 0.166303 0.910053
0.897430 0.153680 0.897430
1.000000 0.146106 0.889856
0.000000 0.515910 0.887785
0.136461 0.508336 0.880211
0.495713 0.495713 0.867588
0.854965 0.483090 0.854965
1.000000 0.475516 0.847391
0.000000 0.845320 0.845320
0.093996 0.837746 0.837746
0.453248 0.825123 0.825123
0.812500 0.812500 0.812500
1.000000 0.804926 0.804926
0.000000 1.000000 0.819841
0.068517 1.000000 0.812267
0.427769 1.000000 0.799644
0.787021 1.000000 0.787021
1.000000 1.000000 0.779447
0.000000 0.000000 1.000000
0.201833 0.000000 1.000000
0.561085 0.000000 1.000000
0.920337 0.000000 1.000000
1.000000 0.000000 1.000000
0.000000 0.183928 1.000000
0.176354 0.176354 1.000000
0.535606 0.163731 1.000000
0.894858 0.151108 1.000000
1.000000 0.143534 1.000000
0.000000 0.513338 1.000000
0.133889 0.505764 1.000000
0.493141 0.493141 1.000000
0.852393 0.480518 1.000000
1.000000 0.472944 1.000000
0.000000 0.842748 1.000000
0.091424 0.835174 1.000000
0.450676 0.822551 1.000000
0.809928 0.809928 1.000000
1.000000 0.802354 1.000000
0.000000 1.000000 1.000000
0.065945 1.000000 1.000000
0.425197 1.000000 1.000000
0.784449 1.000000 1.000000
1.000000 1.000000 1.000000
