library/cube/Glamour_Burst_002.cube
# CINEGRADE LAB — Premium Cinematic LUT
# Title: Glamour Burst
# Category: Hyperreal Fashion
# Description: Punchy, saturated, with flawless skin rendering for fashion editorials
# Mood: Bold, vibrant, high-impact
# Variant: 3
# Generated: 2026-05-21T16:12:20.811996
TITLE "Glamour Burst"
LUT_3D_SIZE 33
0.000000 0.000000 0.000000
0.000000 0.000000 0.000000
0.000000 0.000000 0.000000
0.000000 0.000000 0.000000
0.035925 0.000000 0.000000
0.080832 0.000000 0.000000
0.125738 0.000000 0.000000
0.170645 0.000000 0.000000
0.215551 0.000000 0.000000
0.260458 0.000000 0.000000
0.305364 0.000000 0.000000
0.350271 0.000000 0.000000
0.395177 0.000000 0.000000
0.440084 0.000000 0.000000
0.484990 0.000000 0.000000
0.529897 0.000000 0.000000
0.574803 0.000000 0.000000
0.619709 0.000000 0.000000
0.664616 0.000000 0.000000
0.709522 0.000000 0.000000
0.754429 0.000000 0.000000
0.799335 0.000000 0.000000
0.844242 0.000000 0.000000
0.889148 0.000000 0.000000
0.934055 0.000000 0.000000
0.978961 0.000000 0.000000
1.000000 0.000000 0.000000
1.000000 0.000000 0.000000
1.000000 0.000000 0.000000
1.000000 0.000000 0.000000
1.000000 0.000000 0.000000
1.000000 0.000000 0.000000
1.000000 0.000000 0.000000
0.000000 0.000000 0.000000
0.000000 0.000000 0.000000
0.020000 0.010000 0.000000
0.020000 0.010000 0.000000
0.058620 0.008712 0.000000
0.106894 0.007103 0.000000
0.125738 0.000000 0.000000
0.170645 0.000000 0.000000
0.215551 0.000000 0.000000
0.260458 0.000000 0.000000
0.305364 0.000000 0.000000
0.350271 0.000000 0.000000
0.395177 0.000000 0.000000
0.440084 0.000000 0.000000
0.484990 0.000000 0.000000
0.529897 0.000000 0.000000
0.574803 0.000000 0.000000
0.619709 0.000000 0.000000
0.664616 0.000000 0.000000
0.709522 0.000000 0.000000
0.754429 0.000000 0.000000
0.799335 0.000000 0.000000
0.844242 0.000000 0.000000
0.889148 0.000000 0.000000
0.934055 0.000000 0.000000
0.978961 0.000000 0.000000
1.000000 0.000000 0.000000
1.000000 0.000000 0.000000
1.000000 0.000000 0.000000
1.000000 0.000000 0.000000
1.000000 0.000000 0.000000
1.000000 0.000000 0.000000
1.000000 0.000000 0.000000
0.000000 0.000000 0.000000
0.000000 0.000000 0.000000
0.000000 0.000000 0.000000
0.020000 0.010000 0.000000
0.058620 0.008712 0.000000
0.106894 0.007103 0.000000
0.155169 0.005494 0.000000
0.203443 0.003884 0.000000
0.251717 0.002275 0.000000
0.299992 0.000665 0.000000
0.348266 0.000000 0.000000
0.396541 0.000000 0.000000
0.395177 0.000000 0.000000
0.440084 0.000000 0.000000
0.484990 0.000000 0.000000
0.529897 0.000000 0.000000
0.574803 0.000000 0.000000
0.619709 0.000000 0.000000
0.664616 0.000000 0.000000
0.709522 0.000000 0.000000
0.754429 0.000000 0.000000
0.799335 0.000000 0.000000
0.844242 0.000000 0.000000
0.889148 0.000000 0.000000
0.934055 0.000000 0.000000
0.978961 0.000000 0.000000
1.000000 0.000000 0.000000
1.000000 0.000000 0.000000
1.000000 0.000000 0.000000
1.000000 0.000000 0.000000
1.000000 0.000000 0.000000
1.000000 0.000000 0.000000
1.000000 0.000000 0.000000
0.000000 0.000000 0.000000
0.000000 0.000000 0.000000
0.000000 0.000000 0.000000
0.000000 0.000000 0.000000
0.035925 0.000000 0.000000
0.106894 0.007103 0.000000
0.155169 0.005494 0.000000
0.203443 0.003884 0.000000
0.251717 0.002275 0.000000
0.299992 0.000665 0.000000
0.348266 0.000000 0.000000
0.396541 0.000000 0.000000
0.444815 0.000000 0.000000
0.493090 0.000000 0.000000
0.541364 0.000000 0.000000
0.589639 0.000000 0.000000
0.637913 0.000000 0.000000
0.619709 0.000000 0.000000
0.664616 0.000000 0.000000
0.709522 0.000000 0.000000
0.754429 0.000000 0.000000
0.799335 0.000000 0.000000
0.844242 0.000000 0.000000
0.889148 0.000000 0.000000
0.934055 0.000000 0.000000
0.978961 0.000000 0.000000
1.000000 0.000000 0.000000
1.000000 0.000000 0.000000
1.000000 0.000000 0.000000
1.000000 0.000000 0.000000
1.000000 0.000000 0.000000
1.000000 0.000000 0.000000
1.000000 0.000000 0.000000
0.000000 0.032941 0.000000
0.000000 0.032941 0.000000
0.000000 0.032941 0.000000
0.000000 0.032941 0.000000
0.031679 0.031679 0.000000
0.076585 0.030101 0.000000
0.150604 0.039093 0.000000
0.198878 0.037484 0.000000
0.247152 0.035874 0.000000
0.295427 0.034265 0.000000
0.343701 0.032656 0.000000
0.391976 0.031046 0.000000
0.440250 0.029437 0.000000
0.488525 0.027827 0.000000
0.536799 0.026218 0.000000
0.585074 0.024608 0.000000
0.633348 0.022999 0.000000
0.681623 0.021389 0.000000
0.729897 0.019780 0.000000
0.778172 0.018171 0.000000
0.826446 0.016561 0.000000
0.874721 0.014952 0.000000
0.922995 0.013342 0.000000
0.884902 0.001699 0.000000
0.929808 0.000121 0.000000
0.974715 0.000000 0.000000
1.000000 0.000000 0.000000
1.000000 0.000000 0.000000
1.000000 0.000000 0.000000
1.000000 0.000000 0.000000
1.000000 0.000000 0.000000
1.000000 0.000000 0.000000
1.000000 0.000000 0.000000
0.000000 0.074117 0.000000
0.000000 0.074117 0.000000
0.000000 0.074117 0.000000
0.000000 0.074117 0.000000
0.026371 0.072855 0.000000
0.071277 0.071277 0.000000
0.116184 0.069699 0.000000
0.193172 0.079484 0.000000
0.241446 0.077874 0.000000
0.289721 0.076265 0.000000
0.337995 0.074655 0.000000
0.386270 0.073046 0.000000
0.434544 0.071436 0.000000
0.482819 0.069827 0.000000
0.531093 0.068218 0.000000
0.579368 0.066608 0.000000
0.627642 0.064999 0.000000
0.675916 0.063389 0.000000
0.724191 0.061780 0.000000
0.772465 0.060170 0.000000
0.820740 0.058561 0.000000
0.869014 0.056951 0.000000
0.917289 0.055342 0.000000
0.965563 0.053733 0.000000
1.000000 0.052123 0.000000
1.000000 0.050514 0.000000
1.000000 0.048904 0.000000
1.000000 0.047295 0.000000
1.000000 0.034986 0.000000
1.000000 0.033723 0.000000
1.000000 0.033723 0.000000
1.000000 0.033723 0.000000
1.000000 0.033723 0.000000
0.000000 0.115293 0.000000
0.000000 0.115293 0.000000
0.000000 0.115293 0.000000
0.000000 0.115293 0.000000
0.021062 0.114031 0.000000
0.065969 0.112453 0.000000
0.110875 0.110875 0.000000
0.155782 0.109298 0.000000
0.200688 0.107720 0.000000
0.284014 0.118265 0.000000
0.332289 0.116655 0.000000
0.380563 0.115046 0.000000
0.428838 0.113436 0.000000
0.477112 0.111827 0.000000
0.525387 0.110217 0.000000
0.573661 0.108608 0.000000
0.621936 0.106998 0.000000
0.670210 0.105389 0.000000
0.718485 0.103780 0.000000
0.766759 0.102170 0.000000
0.815034 0.100561 0.000000
0.863308 0.098951 0.000000
0.911583 0.097342 0.000000
0.959857 0.095732 0.000000
1.000000 0.094123 0.000000
1.000000 0.092513 0.000000
1.000000 0.090904 0.000000
1.000000 0.089294 0.000000
1.000000 0.087685 0.000000
1.000000 0.086397 0.000000
1.000000 0.086397 0.000000
1.000000 0.086397 0.000000
1.000000 0.086397 0.000000
0.000000 0.156470 0.000000
0.000000 0.156470 0.000000
0.000000 0.156470 0.000000
0.000000 0.156470 0.000000
0.015754 0.155207 0.000000
0.060661 0.153630 0.000000
0.105567 0.152052 0.000000
0.150474 0.150474 0.000000
0.195380 0.148896 0.000000
0.240287 0.147318 0.000000
0.326583 0.158655 0.000000
0.374857 0.157045 0.000000
0.423132 0.155436 0.000000
0.471406 0.153827 0.000000
0.519681 0.152217 0.000000
0.567955 0.150608 0.000000
0.616230 0.148998 0.000000
0.664504 0.147389 0.000000
0.712778 0.145779 0.000000
0.761053 0.144170 0.000000
0.809327 0.142560 0.000000
0.857602 0.140951 0.000000
0.905876 0.139342 0.000000
0.954151 0.137732 0.000000
1.000000 0.136123 0.000000
1.000000 0.134513 0.000000
1.000000 0.132904 0.000000
1.000000 0.131294 0.000000
1.000000 0.129685 0.000000
1.000000 0.128397 0.000000
1.000000 0.128397 0.000000
1.000000 0.128397 0.000000
1.000000 0.128397 0.000000
0.000000 0.197646 0.000000
0.000000 0.197646 0.000000
0.000000 0.197646 0.000000
0.000000 0.197646 0.000000
0.010446 0.196384 0.000000
0.055353 0.194806 0.000000
0.100259 0.193228 0.000000
0.145166 0.191650 0.000000
0.190072 0.190072 0.000000
0.234979 0.188494 0.000000
0.279885 0.186916 0.000000
0.324792 0.185338 0.000000
0.417425 0.197436 0.000000
0.465700 0.195826 0.000000
0.513974 0.194217 0.000000
0.562249 0.192607 0.000000
0.610523 0.190998 0.000000
0.658798 0.189389 0.000000
0.707072 0.187779 0.000000
0.755347 0.186170 0.000000
0.803621 0.184560 0.000000
0.851896 0.182951 0.000000
0.900170 0.181341 0.000000
0.948445 0.179732 0.000000
0.996719 0.178122 0.000000
1.000000 0.176513 0.000000
1.000000 0.174903 0.000000
1.000000 0.173294 0.000000
1.000000 0.171685 0.000000
1.000000 0.170397 0.000000
1.000000 0.170397 0.000000
1.000000 0.170397 0.000000
1.000000 0.170397 0.000000
0.000000 0.238822 0.000000
0.000000 0.238822 0.000000
0.000000 0.238822 0.000000
0.000000 0.238822 0.000000
0.005138 0.237560 0.000000
0.050045 0.235982 0.000000
0.094951 0.234404 0.000000
0.139858 0.232826 0.000000
0.184764 0.231248 0.000000
0.229670 0.229670 0.000000
0.274577 0.228093 0.000000
0.319483 0.226515 0.000000
0.364390 0.224937 0.000000
0.459994 0.237826 0.000000
0.508268 0.236217 0.000000
0.556543 0.234607 0.000000
0.604817 0.232998 0.000000
0.653092 0.231388 0.000000
0.701366 0.229779 0.000000
0.749640 0.228169 0.000000
0.797915 0.226560 0.000000
0.846189 0.224951 0.000000
0.894464 0.223341 0.000000
0.942738 0.221732 0.000000
0.991013 0.220122 0.000000
1.000000 0.218513 0.000000
1.000000 0.216903 0.000000
1.000000 0.215294 0.000000
1.000000 0.213684 0.000000
1.000000 0.212397 0.000000
1.000000 0.212397 0.000000
1.000000 0.212397 0.000000
1.000000 0.212397 0.000000
0.000000 0.279998 0.000000
0.000000 0.279998 0.000000
0.000000 0.279998 0.000000
0.000000 0.279998 0.000000
0.000000 0.278736 0.000000
0.044736 0.277158 0.000000
0.089643 0.275580 0.000000
0.134549 0.274003 0.000000
0.179456 0.272425 0.000000
0.224362 0.270847 0.000000
0.269269 0.269269 0.000000
0.314175 0.267691 0.000000
0.359082 0.266113 0.000000
0.403988 0.264535 0.000000
0.502562 0.278216 0.000000
0.550836 0.276607 0.000000
0.599111 0.274998 0.000000
0.647385 0.273388 0.000000
0.695660 0.271779 0.000000
0.743934 0.270169 0.000000
0.792209 0.268560 0.000000
0.840483 0.266950 0.000000
0.888758 0.265341 0.000000
0.937032 0.263731 0.000000
0.985307 0.262122 0.000000
1.000000 0.260512 0.000000
1.000000 0.258903 0.000000
1.000000 0.257294 0.000000
1.000000 0.255684 0.000000
1.000000 0.254397 0.000000
1.000000 0.254397 0.000000
1.000000 0.254397 0.000000
1.000000 0.254397 0.000000
0.000000 0.321175 0.000000
0.000000 0.321175 0.000000
0.000000 0.321175 0.000000
0.000000 0.321175 0.000000
0.000000 0.319912 0.000000
0.039428 0.318335 0.000000
0.084335 0.316757 0.000000
0.129241 0.315179 0.000000
0.174148 0.313601 0.000000
0.219054 0.312023 0.000000
0.263961 0.310445 0.000000
0.308867 0.308867 0.000000
0.353774 0.307289 0.000000
0.398680 0.305711 0.000000
0.443587 0.304134 0.000000
0.488493 0.302556 0.000000
0.593405 0.316997 0.000000
0.641679 0.315388 0.000000
0.689954 0.313778 0.000000
0.738228 0.312169 0.000000
0.786502 0.310560 0.000000
0.834777 0.308950 0.000000
0.883051 0.307341 0.000000
0.931326 0.305731 0.000000
0.979600 0.304122 0.000000
1.000000 0.302512 0.000000
1.000000 0.300903 0.000000
1.000000 0.299293 0.000000
1.000000 0.297684 0.000000
1.000000 0.296396 0.000000
1.000000 0.296396 0.000000
1.000000 0.296396 0.000000
1.000000 0.296396 0.000000
0.000000 0.362351 0.000000
0.000000 0.362351 0.000000
0.000000 0.362351 0.000000
0.000000 0.362351 0.000000
0.000000 0.361089 0.000000
0.034120 0.359511 0.000000
0.079027 0.357933 0.000000
0.123933 0.356355 0.000000
0.168840 0.354777 0.000000
0.213746 0.353199 0.000000
0.258653 0.351621 0.000000
0.303559 0.350043 0.000000
0.348466 0.348466 0.000000
0.393372 0.346888 0.000000
0.438279 0.345310 0.000000
0.483185 0.343732 0.000000
0.528091 0.342154 0.000000
0.635973 0.357388 0.000000
0.684247 0.355778 0.000000
0.732522 0.354169 0.000000
0.780796 0.352559 0.000000
0.829071 0.350950 0.000000
0.877345 0.349340 0.000000
0.925620 0.347731 0.000000
0.973894 0.346121 0.000000
1.000000 0.344512 0.000000
1.000000 0.342903 0.000000
1.000000 0.341293 0.000000
1.000000 0.339684 0.000000
1.000000 0.338396 0.000000
1.000000 0.338396 0.000000
1.000000 0.338396 0.000000
1.000000 0.338396 0.000000
0.000000 0.403527 0.000000
0.000000 0.403527 0.000000
0.000000 0.403527 0.000000
0.000000 0.403527 0.000000
0.000000 0.402265 0.000000
0.028812 0.400687 0.000000
0.073719 0.399109 0.000000
0.118625 0.397531 0.000000
0.163531 0.395953 0.000000
0.208438 0.394375 0.000000
0.253344 0.392798 0.000000
0.298251 0.391220 0.000000
0.343157 0.389642 0.000000
0.388064 0.388064 0.000000
0.432970 0.386486 0.000000
0.477877 0.384908 0.000000
0.522783 0.383330 0.000000
0.567690 0.381752 0.000000
0.612596 0.380174 0.000000
0.726816 0.396169 0.000000
0.775090 0.394559 0.000000
0.823364 0.392950 0.000000
0.871639 0.391340 0.000000
0.919913 0.389731 0.000000
0.968188 0.388121 0.000000
1.000000 0.386512 0.000000
1.000000 0.384902 0.000000
1.000000 0.383293 0.000000
1.000000 0.381683 0.000000
1.000000 0.380396 0.000000
1.000000 0.380396 0.000000
1.000000 0.380396 0.000000
1.000000 0.380396 0.000000
0.000000 0.444704 0.000000
0.000000 0.444704 0.000000
0.000000 0.444704 0.000000
0.000000 0.444704 0.000000
0.000000 0.443441 0.000000
0.023504 0.441863 0.000000
0.068410 0.440285 0.000000
0.113317 0.438708 0.000000
0.158223 0.437130 0.000000
0.203130 0.435552 0.000000
0.248036 0.433974 0.000000
0.292943 0.432396 0.000000
0.337849 0.430818 0.000000
0.382756 0.429240 0.000000
0.427662 0.427662 0.000000
0.472569 0.426084 0.000000
0.517475 0.424507 0.000000
0.562382 0.422929 0.000000
0.607288 0.421351 0.000000
0.652195 0.419773 0.000000
0.769384 0.436559 0.000000
0.817658 0.434949 0.000000
0.865933 0.433340 0.000000
0.914207 0.431730 0.000000
0.962482 0.430121 0.000000
1.000000 0.428512 0.000000
1.000000 0.426902 0.000000
1.000000 0.425293 0.000000
1.000000 0.423683 0.000000
1.000000 0.422396 0.000000
1.000000 0.422396 0.000000
1.000000 0.422396 0.000000
1.000000 0.422396 0.000000
0.000000 0.485880 0.000000
0.000000 0.485880 0.000000
0.000000 0.485880 0.000000
0.000000 0.485880 0.000000
0.000000 0.484617 0.000000
0.018196 0.483040 0.000000
0.063102 0.481462 0.000000
0.108009 0.479884 0.000000
0.152915 0.478306 0.000000
0.197822 0.476728 0.000000
0.242728 0.475150 0.000000
0.287635 0.473572 0.000000
0.332541 0.471994 0.000000
0.377448 0.470416 0.000000
0.422354 0.468839 0.000000
0.467261 0.467261 0.000000
0.512167 0.465683 0.000000
0.557074 0.464105 0.000000
0.601980 0.462527 0.000000
0.646887 0.460949 0.000000
0.691793 0.459371 0.000000
0.811952 0.476949 0.000000
0.860226 0.475340 0.000000
0.908501 0.473730 0.000000
0.956775 0.472121 0.000000
1.000000 0.470511 0.000000
1.000000 0.468902 0.000000
1.000000 0.467292 0.000000
1.000000 0.465683 0.000000
1.000000 0.464395 0.000000
1.000000 0.464395 0.000000
1.000000 0.464395 0.000000
1.000000 0.464395 0.000000
0.000000 0.527056 0.000000
0.000000 0.527056 0.000000
0.000000 0.527056 0.000000
0.000000 0.527056 0.000000
0.000000 0.525794 0.000000
0.012888 0.524216 0.000000
0.057794 0.522638 0.000000
0.102701 0.521060 0.000000
0.147607 0.519482 0.000000
0.192514 0.517904 0.000000
0.237420 0.516326 0.000000
0.282327 0.514748 0.000000
0.327233 0.513171 0.000000
0.372140 0.511593 0.000000
0.417046 0.510015 0.000000
0.461953 0.508437 0.000000
0.506859 0.506859 0.000000
0.551765 0.505281 0.000000
0.596672 0.503703 0.000000
0.641578 0.502125 0.000000
0.686485 0.500547 0.000000
0.731391 0.498970 0.000000
0.776298 0.497392 0.000000
0.902795 0.515730 0.000000
0.951069 0.514121 0.000000
0.999344 0.512511 0.000000
1.000000 0.510902 0.000000
1.000000 0.509292 0.000000
1.000000 0.507683 0.000000
1.000000 0.506395 0.000000
1.000000 0.506395 0.000000
1.000000 0.506395 0.000000
1.000000 0.506395 0.000000
0.000000 0.568232 0.000000
0.000000 0.568232 0.000000
0.000000 0.568232 0.000000
0.000000 0.568232 0.000000
0.000000 0.566970 0.000000
0.007580 0.565392 0.000000
0.052486 0.563814 0.000000
0.097393 0.562236 0.000000
0.142299 0.560658 0.000000
0.187205 0.559080 0.000000
0.232112 0.557503 0.000000
0.277018 0.555925 0.000000
0.321925 0.554347 0.000000
0.366831 0.552769 0.000000
0.411738 0.551191 0.000000
0.456644 0.549613 0.000000
0.501551 0.548035 0.000000
0.546457 0.546457 0.000000
0.591364 0.544879 0.000000
0.636270 0.543302 0.000000
0.681177 0.541724 0.000000
0.726083 0.540146 0.000000
0.770990 0.538568 0.000000
0.815896 0.536990 0.000000
0.945363 0.556120 0.000000
0.993637 0.554511 0.000000
1.000000 0.552901 0.000000
1.000000 0.551292 0.000000
1.000000 0.549683 0.000000
1.000000 0.548395 0.000000
1.000000 0.548395 0.000000
1.000000 0.548395 0.000000
1.000000 0.548395 0.000000
0.000000 0.609409 0.000000
0.000000 0.609409 0.000000
0.000000 0.609409 0.000000
0.000000 0.609409 0.000000
0.000000 0.608146 0.000000
0.002271 0.606568 0.000000
0.047178 0.604990 0.000000
0.092084 0.603413 0.000000
0.136991 0.601835 0.000000
0.181897 0.600257 0.000000
0.226804 0.598679 0.000000
0.271710 0.597101 0.000000
0.316617 0.595523 0.000000
0.361523 0.593945 0.000000
0.406430 0.592367 0.000000
0.451336 0.590789 0.000000
0.496243 0.589211 0.000000
0.541149 0.587634 0.000000
0.586056 0.586056 0.000000
0.630962 0.584478 0.000000
0.675869 0.582900 0.000000
0.720775 0.581322 0.000000
0.765682 0.579744 0.000000
0.810588 0.578166 0.000000
0.855495 0.576588 0.000000
0.987931 0.596511 0.000000
1.000000 0.594901 0.000000
1.000000 0.593292 0.000000
1.000000 0.591682 0.000000
1.000000 0.590395 0.000000
1.000000 0.590395 0.000000
1.000000 0.590395 0.000000
1.000000 0.590395 0.000000
0.000000 0.650585 0.000000
0.000000 0.650585 0.000000
0.000000 0.650585 0.000000
0.000000 0.650585 0.000000
0.000000 0.649322 0.000000
0.000000 0.647745 0.000000
0.041870 0.646167 0.000000
0.086776 0.644589 0.000000
0.131683 0.643011 0.000000
0.176589 0.641433 0.000000
0.221496 0.639855 0.000000
0.266402 0.638277 0.000000
0.311309 0.636699 0.000000
0.356215 0.635121 0.000000
0.401122 0.633544 0.000000
0.446028 0.631966 0.000000
0.490935 0.630388 0.000000
0.535841 0.628810 0.000000
0.580748 0.627232 0.000000
0.625654 0.625654 0.000000
0.670561 0.624076 0.000000
0.715467 0.622498 0.000000
0.760374 0.620920 0.000000
0.805280 0.619343 0.000000
0.850186 0.617765 0.000000
0.895093 0.616187 0.000000
0.939999 0.614609 0.000000
1.000000 0.635292 0.000000
1.000000 0.633682 0.000000
1.000000 0.632395 0.000000
1.000000 0.632395 0.000000
1.000000 0.632395 0.000000
1.000000 0.632395 0.000000
0.000000 0.691761 0.000000
0.000000 0.691761 0.000000
0.000000 0.691761 0.000000
0.000000 0.691761 0.000000
0.000000 0.690499 0.000000
0.000000 0.688921 0.000000
0.036562 0.687343 0.000000
0.081468 0.685765 0.000000
0.126375 0.684187 0.000000
0.171281 0.682609 0.000000
0.216188 0.681031 0.000000
0.261094 0.679453 0.000000
0.306001 0.677876 0.000000
0.350907 0.676298 0.000000
0.395814 0.674720 0.000000
0.440720 0.673142 0.000000
0.485627 0.671564 0.000000
0.530533 0.669986 0.000000
0.575439 0.668408 0.000000
0.620346 0.666830 0.000000
0.665252 0.665252 0.000000
0.710159 0.663675 0.000000
0.755065 0.662097 0.000000
0.799972 0.660519 0.000000
0.844878 0.658941 0.000000
0.889785 0.657363 0.000000
0.934691 0.655785 0.000000
0.979598 0.654207 0.000000
1.000000 0.675682 0.000000
1.000000 0.674394 0.000000
1.000000 0.674394 0.000000
1.000000 0.674394 0.000000
1.000000 0.674394 0.000000
0.000000 0.732937 0.000000
0.000000 0.732937 0.000000
0.000000 0.732937 0.000000
0.000000 0.732937 0.000000
0.000000 0.731675 0.000000
0.000000 0.730097 0.000000
0.031254 0.728519 0.000000
0.076160 0.726941 0.000000
0.121067 0.725363 0.000000
0.165973 0.723785 0.000000
0.210879 0.722208 0.000000
0.255786 0.720630 0.000000
0.300692 0.719052 0.000000
0.345599 0.717474 0.000000
0.390505 0.715896 0.000000
0.435412 0.714318 0.000000
0.480318 0.712740 0.000000
0.525225 0.711162 0.000000
0.570131 0.709584 0.000000
0.615038 0.708007 0.000000
0.659944 0.706429 0.000000
0.704851 0.704851 0.000000
0.749757 0.703273 0.000000
0.794664 0.701695 0.000000
0.839570 0.700117 0.000000
0.884477 0.698539 0.000000
0.929383 0.696961 0.000000
0.974290 0.695383 0.000000
1.000000 0.693806 0.000000
1.000000 0.692543 0.000000
1.000000 0.716394 0.000000
1.000000 0.716394 0.000000
1.000000 0.716394 0.000000
0.000000 0.774114 0.000000
0.000000 0.774114 0.000000
0.000000 0.774114 0.000000
0.000000 0.774114 0.000000
0.000000 0.772851 0.000000
0.000000 0.771273 0.000000
0.025945 0.769695 0.000000
0.070852 0.768118 0.000000
0.115758 0.766540 0.000000
0.160665 0.764962 0.000000
0.205571 0.763384 0.000000
0.250478 0.761806 0.000000
0.295384 0.760228 0.000000
0.340291 0.758650 0.000000
0.385197 0.757072 0.000000
0.430104 0.755494 0.000000
0.475010 0.753916 0.000000
0.519917 0.752339 0.000000
0.564823 0.750761 0.000000
0.609730 0.749183 0.000000
0.654636 0.747605 0.000000
0.699543 0.746027 0.000000
0.744449 0.744449 0.000000
0.789356 0.742871 0.000000
0.834262 0.741293 0.000000
0.879169 0.739715 0.000000
0.924075 0.738138 0.000000
0.968982 0.736560 0.000000
1.000000 0.734982 0.000000
1.000000 0.733719 0.000000
1.000000 0.733719 0.000000
1.000000 0.758394 0.000000
1.000000 0.758394 0.000000
0.000000 0.815290 0.000000
0.000000 0.815290 0.000000
0.000000 0.815290 0.000000
0.000000 0.815290 0.000000
0.000000 0.814027 0.000000
0.000000 0.812450 0.000000
0.020637 0.810872 0.000000
0.065544 0.809294 0.000000
0.110450 0.807716 0.000000
0.155357 0.806138 0.000000
0.200263 0.804560 0.000000
0.245170 0.802982 0.000000
0.290076 0.801404 0.000000
0.334983 0.799826 0.000000
0.379889 0.798249 0.000000
0.424796 0.796671 0.000000
0.469702 0.795093 0.000000
0.514609 0.793515 0.000000
0.559515 0.791937 0.000000
0.604422 0.790359 0.000000
0.649328 0.788781 0.000000
0.694235 0.787203 0.000000
0.739141 0.785625 0.000000
0.784048 0.784048 0.000000
0.828954 0.782470 0.000000
0.873860 0.780892 0.000000
0.918767 0.779314 0.000000
0.963673 0.777736 0.000000
1.000000 0.776158 0.000000
1.000000 0.774896 0.000000
1.000000 0.774896 0.000000
1.000000 0.774896 0.000000
1.000000 0.800394 0.000000
0.000000 0.856466 0.000000
0.000000 0.856466 0.000000
0.000000 0.856466 0.000000
0.000000 0.856466 0.000000
0.000000 0.855204 0.000000
0.000000 0.853626 0.000000
0.015329 0.852048 0.000000
0.060236 0.850470 0.000000
0.105142 0.848892 0.000000
0.150049 0.847314 0.000000
0.194955 0.845736 0.000000
0.239862 0.844158 0.000000
0.284768 0.842581 0.000000
0.329675 0.841003 0.000000
0.374581 0.839425 0.000000
0.419488 0.837847 0.000000
0.464394 0.836269 0.000000
0.509300 0.834691 0.000000
0.554207 0.833113 0.000000
0.599113 0.831535 0.000000
0.644020 0.829957 0.000000
0.688926 0.828380 0.000000
0.733833 0.826802 0.000000
0.778739 0.825224 0.000000
0.823646 0.823646 0.000000
0.868552 0.822068 0.000000
0.913459 0.820490 0.000000
0.958365 0.818912 0.000000
1.000000 0.817334 0.000000
1.000000 0.816072 0.000000
1.000000 0.816072 0.000000
1.000000 0.816072 0.000000
1.000000 0.816072 0.000000
0.000000 0.897642 0.000000
0.000000 0.897642 0.000000
0.000000 0.897642 0.000000
0.000000 0.897642 0.000000
0.000000 0.896380 0.000000
0.000000 0.894802 0.000000
0.010021 0.893224 0.000000
0.054928 0.891646 0.000000
0.099834 0.890068 0.000000
0.144740 0.888490 0.000000
0.189647 0.886913 0.000000
0.234553 0.885335 0.000000
0.279460 0.883757 0.000000
0.324366 0.882179 0.000000
0.369273 0.880601 0.000000
0.414179 0.879023 0.000000
0.459086 0.877445 0.000000
0.503992 0.875867 0.000000
0.548899 0.874289 0.000000
0.593805 0.872712 0.000000
0.638712 0.871134 0.000000
0.683618 0.869556 0.000000
0.728525 0.867978 0.000000
0.773431 0.866400 0.000000
0.818338 0.864822 0.000000
0.863244 0.863244 0.000000
0.908151 0.861666 0.000000
0.953057 0.860088 0.000000
0.997964 0.858511 0.000000
1.000000 0.857248 0.000000
1.000000 0.857248 0.000000
1.000000 0.857248 0.000000
1.000000 0.857248 0.000000
0.000000 0.938819 0.000000
0.000000 0.938819 0.000000
0.000000 0.938819 0.000000
0.000000 0.938819 0.000000
0.000000 0.937556 0.000000
0.000000 0.935978 0.000000
0.004713 0.934400 0.000000
0.049619 0.932823 0.000000
0.094526 0.931245 0.000000
0.139432 0.929667 0.000000
0.184339 0.928089 0.000000
0.229245 0.926511 0.000000
0.274152 0.924933 0.000000
0.319058 0.923355 0.000000
0.363965 0.921777 0.000000
0.408871 0.920199 0.000000
0.453778 0.918621 0.000000
0.498684 0.917044 0.000000
0.543591 0.915466 0.000000
