library/cube/Glamour_Burst_002.cube
# CINEGRADE LAB — Premium Cinematic LUT
# Title: Glamour Burst
# Category: Hyperreal Fashion
# Description: Punchy, saturated, with flawless skin rendering for fashion editorials
# Mood: Bold, vibrant, high-impact
# Variant: 3
# Generated: 2026-05-21T16:12:20.811996
TITLE "Glamour Burst"
LUT_3D_SIZE 9
0.000000 0.000000 0.000000
0.035925 0.000000 0.000000
0.215551 0.000000 0.000000
0.395177 0.000000 0.000000
0.574803 0.000000 0.000000
0.754429 0.000000 0.000000
0.934055 0.000000 0.000000
1.000000 0.000000 0.000000
1.000000 0.000000 0.000000
0.000000 0.032941 0.000000
0.031679 0.031679 0.000000
0.247152 0.035874 0.000000
0.440250 0.029437 0.000000
0.633348 0.022999 0.000000
0.826446 0.016561 0.000000
0.929808 0.000121 0.000000
1.000000 0.000000 0.000000
1.000000 0.000000 0.000000
0.000000 0.197646 0.000000
0.010446 0.196384 0.000000
0.190072 0.190072 0.000000
0.417425 0.197436 0.000000
0.610523 0.190998 0.000000
0.803621 0.184560 0.000000
0.996719 0.178122 0.000000
1.000000 0.171685 0.000000
1.000000 0.170397 0.000000
0.000000 0.362351 0.000000
0.000000 0.361089 0.000000
0.168840 0.354777 0.000000
0.348466 0.348466 0.000000
0.528091 0.342154 0.000000
0.780796 0.352559 0.000000
0.973894 0.346121 0.000000
1.000000 0.339684 0.000000
1.000000 0.338396 0.000000
0.000000 0.527056 0.000000
0.000000 0.525794 0.000000
0.147607 0.519482 0.000000
0.327233 0.513171 0.000000
0.506859 0.506859 0.000000
0.686485 0.500547 0.000000
0.951069 0.514121 0.000000
1.000000 0.507683 0.000000
1.000000 0.506395 0.000000
0.000000 0.691761 0.000000
0.000000 0.690499 0.000000
0.126375 0.684187 0.000000
0.306001 0.677876 0.000000
0.485627 0.671564 0.000000
0.665252 0.665252 0.000000
0.844878 0.658941 0.000000
1.000000 0.675682 0.000000
1.000000 0.674394 0.000000
0.000000 0.856466 0.000000
0.000000 0.855204 0.000000
0.105142 0.848892 0.000000
0.284768 0.842581 0.000000
0.464394 0.836269 0.000000
0.644020 0.829957 0.000000
0.823646 0.823646 0.000000
1.000000 0.817334 0.000000
1.000000 0.816072 0.000000
0.000000 1.000000 0.000000
0.000000 1.000000 0.000000
0.083910 1.000000 0.000000
0.263536 1.000000 0.000000
0.443161 1.000000 0.000000
0.622787 0.994662 0.000000
0.802413 0.988351 0.000000
0.982039 0.982039 0.000000
1.000000 0.980777 0.000000
0.000000 1.000000 0.000000
0.000000 1.000000 0.000000
0.079663 1.000000 0.000000
0.259289 1.000000 0.000000
0.438915 1.000000 0.000000
0.618541 1.000000 0.000000
0.798167 1.000000 0.000000
0.977793 1.000000 0.000000
1.000000 1.000000 0.000000
0.000000 0.000000 0.036759
0.035497 0.000000 0.035497
0.215122 0.000000 0.029185
0.394748 0.000000 0.022873
0.574374 0.000000 0.016562
0.754000 0.000000 0.010250
0.933626 0.000000 0.003939
1.000000 0.000000 0.000000
1.000000 0.000000 0.000000
0.000000 0.032512 0.032512
0.031250 0.031250 0.031250
0.210876 0.024938 0.024938
0.390502 0.018627 0.018627
0.570128 0.012315 0.012315
0.749754 0.006004 0.006004
0.929380 0.000000 0.000000
1.000000 0.000000 0.000000
1.000000 0.000000 0.000000
0.000000 0.197217 0.011280
0.010018 0.195955 0.010018
0.189643 0.189643 0.003706
0.416965 0.196999 0.000000
0.610062 0.190561 0.000000
0.803160 0.184123 0.000000
0.996258 0.177685 0.000000
1.000000 0.158086 0.000000
1.000000 0.156823 0.000000
0.000000 0.361922 0.000000
0.000000 0.360660 0.000000
0.168411 0.354348 0.000000
0.348037 0.348037 0.000000
0.587238 0.358560 0.000000
0.780335 0.352122 0.000000
0.973433 0.345684 0.000000
1.000000 0.339246 0.000000
1.000000 0.337959 0.000000
0.000000 0.526627 0.000000
0.000000 0.525365 0.000000
0.147178 0.519053 0.000000
0.326804 0.512742 0.000000
0.506430 0.506430 0.000000
0.686056 0.500119 0.000000
0.950608 0.513683 0.000000
1.000000 0.507246 0.000000
1.000000 0.505958 0.000000
0.000000 0.691332 0.000000
0.000000 0.690070 0.000000
0.125946 0.683758 0.000000
0.305572 0.677447 0.000000
0.485198 0.671135 0.000000
0.664824 0.664824 0.000000
0.844450 0.658512 0.000000
1.000000 0.675245 0.000000
1.000000 0.673957 0.000000
0.000000 0.856037 0.000000
0.000000 0.854775 0.000000
0.104713 0.848463 0.000000
0.284339 0.842152 0.000000
0.463965 0.835840 0.000000
0.643591 0.829529 0.000000
0.823217 0.823217 0.000000
1.000000 0.816906 0.000000
1.000000 0.841956 0.000000
0.000000 1.000000 0.000000
0.000000 1.000000 0.000000
0.083481 1.000000 0.000000
0.263107 1.000000 0.000000
0.442733 1.000000 0.000000
0.622359 0.994234 0.000000
0.801985 0.987922 0.000000
0.981611 0.981611 0.000000
1.000000 0.980348 0.000000
0.000000 1.000000 0.000000
0.000000 1.000000 0.000000
0.079234 1.000000 0.000000
0.258860 1.000000 0.000000
0.438486 1.000000 0.000000
0.618112 1.000000 0.000000
0.797738 1.000000 0.000000
0.977364 1.000000 0.000000
1.000000 1.000000 0.000000
0.000000 0.000000 0.220553
0.033353 0.000000 0.219291
0.212979 0.000000 0.212979
0.392605 0.000000 0.206667
0.572231 0.000000 0.200356
0.751857 0.000000 0.194044
0.931483 0.000000 0.187733
1.000000 0.000000 0.181421
1.000000 0.000000 0.180159
0.000000 0.030369 0.216306
0.029107 0.029107 0.215044
0.208732 0.022795 0.208732
0.388358 0.016483 0.202421
0.567984 0.010172 0.196109
0.747610 0.003860 0.189798
0.927236 0.000000 0.183486
1.000000 0.000000 0.177175
1.000000 0.000000 0.175912
0.000000 0.195074 0.195074
0.007874 0.193812 0.193812
0.187500 0.187500 0.187500
0.367126 0.181188 0.181188
0.546752 0.174877 0.174877
0.726378 0.168565 0.168565
0.906004 0.162254 0.162254
1.000000 0.155942 0.155942
1.000000 0.154680 0.154680
0.000000 0.359779 0.173841
0.000000 0.358517 0.172579
0.166268 0.352205 0.166268
0.345893 0.345893 0.159956
0.584933 0.356374 0.153644
0.778031 0.349936 0.147333
0.971129 0.343498 0.141021
1.000000 0.337060 0.134710
1.000000 0.319385 0.133447
0.000000 0.524484 0.152609
0.000000 0.523222 0.151347
0.145035 0.516910 0.145035
0.324661 0.510598 0.138723
0.504287 0.504287 0.132412
0.755206 0.517935 0.126100
0.948304 0.511497 0.119789
1.000000 0.505059 0.113477
1.000000 0.503772 0.112215
0.000000 0.689189 0.131376
0.000000 0.687927 0.130114
0.123803 0.681615 0.123803
0.303428 0.675303 0.117491
0.483054 0.668992 0.111179
0.662680 0.662680 0.104868
0.842306 0.656369 0.098556
1.000000 0.673058 0.092245
1.000000 0.671771 0.090982
0.000000 0.853894 0.110144
0.000000 0.852632 0.108882
0.102570 0.846320 0.102570
0.282196 0.840008 0.096258
0.461822 0.833697 0.089947
0.641448 0.827385 0.083635
0.821074 0.821074 0.077324
1.000000 0.814762 0.071012
1.000000 0.839770 0.069750
0.000000 1.000000 0.088911
0.000000 1.000000 0.087649
0.081338 1.000000 0.081338
0.260963 1.000000 0.075026
0.440589 0.998402 0.068714
0.620215 0.992090 0.062403
0.799841 0.985779 0.056091
0.979467 0.979467 0.049780
1.000000 0.978205 0.048517
0.000000 1.000000 0.084665
0.000000 1.000000 0.083403
0.077091 1.000000 0.077091
0.256717 1.000000 0.070779
0.436343 1.000000 0.064468
0.615969 1.000000 0.058156
0.795595 1.000000 0.051845
0.975221 1.000000 0.045533
1.000000 1.000000 0.044271
0.000000 0.000000 0.404347
0.031210 0.000000 0.403085
0.210836 0.000000 0.396773
0.390462 0.000000 0.390462
0.570087 0.000000 0.384150
0.749713 0.000000 0.377838
0.929339 0.000000 0.371527
1.000000 0.000000 0.365215
1.000000 0.000000 0.363953
0.000000 0.028225 0.400100
0.026963 0.026963 0.398838
0.206589 0.020652 0.392527
0.386215 0.014340 0.386215
0.565841 0.008028 0.379903
0.745467 0.001717 0.373592
0.925093 0.000000 0.367280
1.000000 0.000000 0.360969
1.000000 0.000000 0.359706
0.000000 0.192930 0.378868
0.005731 0.191668 0.377606
0.185357 0.185357 0.371294
0.364982 0.179045 0.364982
0.544608 0.172733 0.358671
0.724234 0.166422 0.352359
0.903860 0.160110 0.346048
1.000000 0.153799 0.339736
1.000000 0.152536 0.338474
0.000000 0.357635 0.357635
0.000000 0.356373 0.356373
0.164124 0.350062 0.350062
0.343750 0.343750 0.343750
0.523376 0.337438 0.337438
0.703002 0.331127 0.331127
0.882628 0.324815 0.324815
1.000000 0.318504 0.318504
1.000000 0.317241 0.317241
0.000000 0.522340 0.336403
0.000000 0.521078 0.335141
0.142892 0.514767 0.328829
0.322518 0.508455 0.322518
0.502143 0.502143 0.316206
0.752902 0.515749 0.309894
0.946000 0.509311 0.303583
1.000000 0.502873 0.297271
1.000000 0.501585 0.296009
0.000000 0.687045 0.315170
0.000000 0.685783 0.313908
0.121659 0.679472 0.307597
0.301285 0.673160 0.301285
0.480911 0.666848 0.294973
0.660537 0.660537 0.288662
0.923175 0.677310 0.282350
1.000000 0.670872 0.276039
1.000000 0.669584 0.274776
0.000000 0.851750 0.293938
0.000000 0.850488 0.292676
0.100427 0.844177 0.286364
0.280053 0.837865 0.280053
0.459678 0.831553 0.273741
0.639304 0.825242 0.267429
0.818930 0.818930 0.261118
0.998556 0.812619 0.254806
1.000000 0.837584 0.253544
0.000000 1.000000 0.272705
0.000000 1.000000 0.271443
0.079194 1.000000 0.265132
0.258820 1.000000 0.258820
0.438446 0.996258 0.252508
0.618072 0.989947 0.246197
0.797698 0.983635 0.239885
0.977324 0.977324 0.233574
1.000000 0.976061 0.232311
0.000000 1.000000 0.268459
0.000000 1.000000 0.267197
0.074948 1.000000 0.260885
0.254574 1.000000 0.254574
0.434199 1.000000 0.248262
0.613825 1.000000 0.241950
0.793451 1.000000 0.235639
0.973077 1.000000 0.229327
1.000000 1.000000 0.228065
0.000000 0.000000 0.588141
0.029066 0.000000 0.586879
0.208692 0.000000 0.580567
0.388318 0.000000 0.574256
0.567944 0.000000 0.567944
0.747570 0.000000 0.561632
0.927196 0.000000 0.555321
1.000000 0.000000 0.549009
1.000000 0.000000 0.547747
0.000000 0.026082 0.583894
0.024820 0.024820 0.582632
0.204446 0.018508 0.576321
0.384072 0.012197 0.570009
0.563697 0.005885 0.563697
0.743323 0.000000 0.557386
0.922949 0.000000 0.551074
1.000000 0.000000 0.544763
1.000000 0.000000 0.543500
0.000000 0.190787 0.562662
0.003587 0.189525 0.561400
0.183213 0.183213 0.555088
0.362839 0.176902 0.548777
0.542465 0.170590 0.542465
0.722091 0.164278 0.536153
0.901717 0.157967 0.529842
1.000000 0.151655 0.523530
1.000000 0.150393 0.522268
0.000000 0.355492 0.541430
0.000000 0.354230 0.540167
0.161981 0.347918 0.533856
0.341607 0.341607 0.527544
0.521232 0.335295 0.521232
0.700858 0.328983 0.514921
0.880484 0.322672 0.508609
1.000000 0.316360 0.502298
1.000000 0.315098 0.501035
0.000000 0.520197 0.520197
0.000000 0.518935 0.518935
0.140748 0.512623 0.512623
0.320374 0.506312 0.506312
0.500000 0.500000 0.500000
0.679626 0.493688 0.493688
0.859252 0.487377 0.487377
1.000000 0.481065 0.481065
1.000000 0.479803 0.479803
0.000000 0.684902 0.498965
0.000000 0.683640 0.497702
0.119516 0.677328 0.491391
0.299142 0.671017 0.485079
0.478768 0.664705 0.478768
0.658393 0.658393 0.472456
0.920871 0.675124 0.466144
1.000000 0.668686 0.459833
1.000000 0.667398 0.458570
0.000000 0.849607 0.477732
0.000000 0.848345 0.476470
0.098283 0.842033 0.470158
0.277909 0.835722 0.463847
0.457535 0.829410 0.457535
0.637161 0.823098 0.451223
0.816787 0.816787 0.444912
1.000000 0.836685 0.438600
1.000000 0.835397 0.437338
0.000000 1.000000 0.456500
0.000000 1.000000 0.455237
0.077051 1.000000 0.448926
0.256677 1.000000 0.442614
0.436302 0.994115 0.436302
0.615928 0.987803 0.429991
0.795554 0.981492 0.423679
0.975180 0.975180 0.417368
1.000000 0.973918 0.416106
0.000000 1.000000 0.452253
0.000000 1.000000 0.450991
0.072804 1.000000 0.444679
0.252430 1.000000 0.438368
0.432056 1.000000 0.432056
0.611682 1.000000 0.425744
0.791308 1.000000 0.419433
0.970934 1.000000 0.413121
1.000000 1.000000 0.411859
0.000000 0.000000 0.771935
0.026923 0.000000 0.770673
0.206549 0.000000 0.764361
0.386175 0.000000 0.758050
0.565801 0.000000 0.751738
0.745426 0.000000 0.745426
0.925052 0.000000 0.739115
1.000000 0.000000 0.732803
1.000000 0.000000 0.731541
0.000000 0.023939 0.767689
0.022676 0.022676 0.766426
0.202302 0.016365 0.760115
0.381928 0.010053 0.753803
0.561554 0.003742 0.747492
0.741180 0.000000 0.741180
0.920806 0.000000 0.734868
1.000000 0.000000 0.728557
1.000000 0.000000 0.727295
0.000000 0.188644 0.746456
0.001444 0.187381 0.745194
0.181070 0.181070 0.738882
0.360696 0.174758 0.732571
0.540322 0.168447 0.726259
0.719947 0.162135 0.719947
0.899573 0.155823 0.713636
1.000000 0.149512 0.707324
1.000000 0.148250 0.706062
0.000000 0.353349 0.725224
0.000000 0.352086 0.723961
0.159837 0.345775 0.717650
0.339463 0.339463 0.711338
0.519089 0.333152 0.705027
0.698715 0.326840 0.698715
0.878341 0.320528 0.692403
1.000000 0.314217 0.686092
1.000000 0.312955 0.684830
0.000000 0.518054 0.703991
0.000000 0.516791 0.702729
0.138605 0.510480 0.696417
0.318231 0.504168 0.690106
0.497857 0.497857 0.683794
0.677482 0.491545 0.677482
0.857108 0.485233 0.671171
1.000000 0.478922 0.664859
1.000000 0.477660 0.663597
0.000000 0.682759 0.682759
0.000000 0.681496 0.681496
0.117372 0.675185 0.675185
0.296998 0.668873 0.668873
0.476624 0.662562 0.662562
0.656250 0.656250 0.656250
0.835876 0.649938 0.649938
1.000000 0.643627 0.643627
1.000000 0.642365 0.642365
0.000000 0.847464 0.661526
0.000000 0.846201 0.660264
0.096140 0.839890 0.653952
0.275766 0.833578 0.647641
0.455392 0.827267 0.641329
0.635018 0.820955 0.635018
0.814643 0.814643 0.628706
1.000000 0.834499 0.622394
1.000000 0.833211 0.621132
0.000000 1.000000 0.640294
0.000000 1.000000 0.639031
0.074907 1.000000 0.632720
0.254533 0.998283 0.626408
0.434159 0.991972 0.620097
0.613785 0.985660 0.613785
0.793411 0.979348 0.607473
0.973037 0.973037 0.601162
1.000000 1.000000 0.599900
0.000000 1.000000 0.636047
0.000000 1.000000 0.634785
0.070661 1.000000 0.628473
0.250287 1.000000 0.622162
0.429913 1.000000 0.615850
0.609538 1.000000 0.609538
0.789164 1.000000 0.603227
0.968790 1.000000 0.596915
1.000000 1.000000 0.595653
0.000000 0.000000 0.955729
0.024779 0.000000 0.954467
0.204405 0.000000 0.948155
0.384031 0.000000 0.941844
0.563657 0.000000 0.935532
0.743283 0.000000 0.929221
0.922909 0.000000 0.922909
1.000000 0.000000 0.916597
1.000000 0.000000 0.915335
0.000000 0.021795 0.951483
0.020533 0.020533 0.950220
0.200159 0.014221 0.943909
0.379785 0.007910 0.937597
0.559411 0.001598 0.931286
0.739037 0.000000 0.924974
0.918662 0.000000 0.918662
1.000000 0.000000 0.912351
1.000000 0.000000 0.911089
0.000000 0.186500 0.930250
0.000000 0.185238 0.928988
0.178926 0.178926 0.922676
0.358552 0.172615 0.916365
0.538178 0.166303 0.910053
0.717804 0.159992 0.903742
0.897430 0.153680 0.897430
1.000000 0.147368 0.891118
1.000000 0.146106 0.889856
0.000000 0.351205 0.909018
0.000000 0.349943 0.907755
0.157694 0.343631 0.901444
0.337320 0.337320 0.895132
0.516946 0.331008 0.888821
0.696572 0.324697 0.882509
0.876197 0.318385 0.876197
1.000000 0.312073 0.869886
1.000000 0.310811 0.868624
0.000000 0.515910 0.887785
0.000000 0.514648 0.886523
0.136461 0.508336 0.880211
0.316087 0.502025 0.873900
0.495713 0.495713 0.867588
0.675339 0.489402 0.861277
0.854965 0.483090 0.854965
1.000000 0.476778 0.848653
1.000000 0.475516 0.847391
0.000000 0.680615 0.866553
0.000000 0.679353 0.865290
0.115229 0.673041 0.858979
0.294855 0.666730 0.852667
0.474481 0.660418 0.846356
0.654107 0.654107 0.840044
0.833732 0.647795 0.833732
1.000000 0.641483 0.827421
1.000000 0.640221 0.826159
0.000000 0.845320 0.845320
0.000000 0.844058 0.844058
0.093996 0.837746 0.837746
0.273622 0.831435 0.831435
0.453248 0.825123 0.825123
0.632874 0.818812 0.818812
0.812500 0.812500 0.812500
0.992126 0.806188 0.806188
1.000000 0.804926 0.804926
0.000000 1.000000 0.824088
0.000000 1.000000 0.822825
0.072764 1.000000 0.816514
0.252390 0.996140 0.810202
0.432016 0.989828 0.803891
0.611642 0.983517 0.797579
0.791268 0.977205 0.791268
0.970893 0.970893 0.784956
1.000000 0.999024 0.783694
0.000000 1.000000 0.819841
0.000000 1.000000 0.818579
0.068517 1.000000 0.812267
0.248143 1.000000 0.805956
0.427769 1.000000 0.799644
0.607395 1.000000 0.793333
0.787021 1.000000 0.787021
0.966647 1.000000 0.780709
1.000000 1.000000 0.779447
0.000000 0.000000 1.000000
0.022636 0.000000 1.000000
0.202262 0.000000 1.000000
0.381888 0.000000 1.000000
0.561514 0.000000 1.000000
0.741140 0.000000 1.000000
0.920766 0.000000 1.000000
1.000000 0.000000 1.000000
1.000000 0.000000 1.000000
0.000000 0.019652 1.000000
0.018389 0.018389 1.000000
0.198015 0.012078 1.000000
0.377641 0.005766 1.000000
0.557267 0.000000 1.000000
0.736893 0.000000 1.000000
0.916519 0.000000 1.000000
1.000000 0.000000 1.000000
1.000000 0.000000 1.000000
0.000000 0.184357 1.000000
0.000000 0.183094 1.000000
0.176783 0.176783 1.000000
0.356409 0.170471 1.000000
0.536035 0.164160 1.000000
0.715661 0.157848 1.000000
0.895287 0.151537 1.000000
1.000000 0.145225 1.000000
1.000000 0.143963 1.000000
0.000000 0.349062 1.000000
0.000000 0.347799 1.000000
0.155550 0.341488 1.000000
0.335176 0.335176 1.000000
0.514802 0.328865 1.000000
0.694428 0.322553 1.000000
0.874054 0.316242 1.000000
1.000000 0.309930 1.000000
1.000000 0.308668 1.000000
0.000000 0.513767 1.000000
0.000000 0.512504 1.000000
0.134318 0.506193 1.000000
0.313944 0.499881 1.000000
0.493570 0.493570 1.000000
0.673196 0.487258 1.000000
0.852822 0.480947 1.000000
1.000000 0.474635 1.000000
1.000000 0.473373 1.000000
0.000000 0.678472 1.000000
0.000000 0.677209 1.000000
0.113085 0.670898 1.000000
0.292711 0.664586 1.000000
0.472337 0.658275 1.000000
0.651963 0.651963 1.000000
0.831589 0.645652 1.000000
1.000000 0.639340 1.000000
1.000000 0.638078 1.000000
0.000000 0.843177 1.000000
0.000000 0.841914 1.000000
0.091853 0.835603 1.000000
0.271479 0.829291 1.000000
0.451105 0.822980 1.000000
0.630731 0.816668 1.000000
0.810357 0.810357 0.996294
0.989982 0.804045 0.989982
1.000000 0.802783 0.988720
0.000000 1.000000 1.000000
0.000000 1.000000 1.000000
0.070620 1.000000 1.000000
0.250246 0.993996 0.993996
0.429872 0.987685 0.987685
0.609498 0.981373 0.981373
0.789124 0.975062 0.975062
0.968750 0.968750 0.968750
1.000000 0.967488 0.967488
0.000000 1.000000 1.000000
0.000000 1.000000 1.000000
0.066374 1.000000 0.996061
0.246000 1.000000 0.989750
0.425626 1.000000 0.983438
0.605252 1.000000 0.977127
0.784878 1.000000 0.970815
0.964504 1.000000 0.964504
1.000000 1.000000 0.963241
0.000000 0.000000 1.000000
0.022207 0.000000 1.000000
0.201833 0.000000 1.000000
0.381459 0.000000 1.000000
0.561085 0.000000 1.000000
0.740711 0.000000 1.000000
0.920337 0.000000 1.000000
1.000000 0.000000 1.000000
1.000000 0.000000 1.000000
0.000000 0.019223 1.000000
0.017961 0.017961 1.000000
0.197587 0.011649 1.000000
0.377213 0.005338 1.000000
0.556839 0.000000 1.000000
0.736464 0.000000 1.000000
0.916090 0.000000 1.000000
1.000000 0.000000 1.000000
1.000000 0.000000 1.000000
0.000000 0.183928 1.000000
0.000000 0.182666 1.000000
0.176354 0.176354 1.000000
0.355980 0.170043 1.000000
0.535606 0.163731 1.000000
0.715232 0.157419 1.000000
0.894858 0.151108 1.000000
1.000000 0.144796 1.000000
1.000000 0.143534 1.000000
0.000000 0.348633 1.000000
0.000000 0.347371 1.000000
0.155122 0.341059 1.000000
0.334748 0.334748 1.000000
0.514374 0.328436 1.000000
0.693999 0.322124 1.000000
0.873625 0.315813 1.000000
1.000000 0.309501 1.000000
1.000000 0.308239 1.000000
0.000000 0.513338 1.000000
0.000000 0.512076 1.000000
0.133889 0.505764 1.000000
0.313515 0.499453 1.000000
0.493141 0.493141 1.000000
0.672767 0.486829 1.000000
0.852393 0.480518 1.000000
1.000000 0.474206 1.000000
1.000000 0.472944 1.000000
0.000000 0.678043 1.000000
0.000000 0.676781 1.000000
0.112657 0.670469 1.000000
0.292283 0.664158 1.000000
0.471909 0.657846 1.000000
0.651534 0.651534 1.000000
0.831160 0.645223 1.000000
1.000000 0.638911 1.000000
1.000000 0.637649 1.000000
0.000000 0.842748 1.000000
0.000000 0.841486 1.000000
0.091424 0.835174 1.000000
0.271050 0.828863 1.000000
0.450676 0.822551 1.000000
0.630302 0.816239 1.000000
0.809928 0.809928 1.000000
0.989554 0.803616 1.000000
1.000000 0.802354 1.000000
0.000000 1.000000 1.000000
0.000000 1.000000 1.000000
0.070192 0.999879 1.000000
0.249818 0.993568 1.000000
0.429444 0.987256 1.000000
0.609069 0.980944 1.000000
0.788695 0.974633 1.000000
0.968321 0.968321 1.000000
1.000000 0.967059 1.000000
0.000000 1.000000 1.000000
0.000000 1.000000 1.000000
0.065945 1.000000 1.000000
0.245571 1.000000 1.000000
0.425197 1.000000 1.000000
0.604823 1.000000 1.000000
0.784449 1.000000 1.000000
0.964075 1.000000 1.000000
1.000000 1.000000 1.000000
