library/cube/Golden_Horizon_000.cube
# CINEGRADE LAB — Premium Cinematic LUT
# Title: Golden Horizon
# Category: Luxury Travel
# Description: Golden hour tones, rich landscapes, and vivid colors for travel content
# Mood: Wanderlust, golden, rich
# Variant: 1
# Generated: 2026-05-21T16:12:23.555377
TITLE "Golden Horizon"
LUT_3D_SIZE 33
0.000000 0.000000 0.000000
0.000000 0.000000 0.000000
0.029233 0.000000 0.000000
0.065111 0.000000 0.000000
0.100990 0.000000 0.000000
0.136870 0.000000 0.000000
0.172751 0.000000 0.000000
0.208634 0.000000 0.000000
0.244518 0.000000 0.000000
0.280405 0.000000 0.000000
0.316293 0.000000 0.000000
0.352183 0.000000 0.000000
0.388076 0.000000 0.000000
0.423972 0.000000 0.000000
0.459870 0.000000 0.000000
0.495771 0.000000 0.000000
0.531675 0.000000 0.000000
0.567582 0.000000 0.000000
0.603493 0.000000 0.000000
0.639407 0.000000 0.000000
0.675325 0.000000 0.000000
0.711247 0.000000 0.000000
0.747173 0.000000 0.000000
0.783103 0.000000 0.000000
0.819038 0.000000 0.000000
0.854977 0.000000 0.000000
0.890921 0.000000 0.000000
0.926789 0.000000 0.000000
0.962528 0.000000 0.000000
0.998242 0.000000 0.000000
1.000000 0.000000 0.000000
1.000000 0.000000 0.000000
1.000000 0.000000 0.000000
0.000000 0.008631 0.000000
0.000000 0.007992 0.000000
0.028794 0.007525 0.000000
0.064675 0.006952 0.000000
0.100557 0.006379 0.000000
0.136440 0.005807 0.000000
0.172325 0.005234 0.000000
0.208213 0.004662 0.000000
0.244102 0.004090 0.000000
0.279993 0.003518 0.000000
0.315887 0.002946 0.000000
0.351784 0.002374 0.000000
0.387683 0.001802 0.000000
0.423585 0.001231 0.000000
0.459490 0.000659 0.000000
0.495399 0.000088 0.000000
0.531311 0.000000 0.000000
0.567227 0.000000 0.000000
0.603146 0.000000 0.000000
0.639069 0.000000 0.000000
0.674997 0.000000 0.000000
0.710928 0.000000 0.000000
0.746864 0.000000 0.000000
0.782805 0.000000 0.000000
0.818751 0.000000 0.000000
0.854701 0.000000 0.000000
0.890657 0.000000 0.000000
0.926515 0.000000 0.000000
0.962213 0.000000 0.000000
0.997883 0.000000 0.000000
1.000000 0.000000 0.000000
1.000000 0.000000 0.000000
1.000000 0.000000 0.000000
0.000000 0.044879 0.000000
0.000000 0.041556 0.000000
0.026931 0.041090 0.000000
0.062815 0.040518 0.000000
0.098701 0.039946 0.000000
0.134589 0.039374 0.000000
0.170479 0.038802 0.000000
0.206371 0.038231 0.000000
0.242266 0.037659 0.000000
0.278163 0.037088 0.000000
0.314063 0.036517 0.000000
0.349966 0.035946 0.000000
0.385873 0.035375 0.000000
0.421782 0.034804 0.000000
0.457695 0.034234 0.000000
0.493612 0.033663 0.000000
0.529532 0.033093 0.000000
0.565457 0.032523 0.000000
0.601385 0.031953 0.000000
0.637318 0.031383 0.000000
0.673256 0.030814 0.000000
0.709198 0.030244 0.000000
0.745145 0.029675 0.000000
0.781097 0.029105 0.000000
0.817054 0.028536 0.000000
0.853016 0.027967 0.000000
0.888985 0.027398 0.000000
0.924832 0.026831 0.000000
0.960483 0.026268 0.000000
0.996102 0.025705 0.000000
1.000000 0.025143 0.000000
1.000000 0.024687 0.000000
1.000000 0.024695 0.000000
0.000000 0.081131 0.000000
0.000000 0.081134 0.000000
0.025074 0.074658 0.000000
0.060963 0.074087 0.000000
0.096853 0.073516 0.000000
0.132746 0.072945 0.000000
0.168641 0.072374 0.000000
0.204539 0.071803 0.000000
0.240440 0.071232 0.000000
0.276344 0.070662 0.000000
0.312251 0.070092 0.000000
0.348161 0.069522 0.000000
0.384075 0.068952 0.000000
0.419993 0.068382 0.000000
0.455914 0.067813 0.000000
0.491840 0.067243 0.000000
0.527769 0.066674 0.000000
0.563703 0.066105 0.000000
0.599642 0.065536 0.000000
0.635585 0.064967 0.000000
0.671533 0.064399 0.000000
0.707486 0.063830 0.000000
0.743445 0.063262 0.000000
0.779409 0.062693 0.000000
0.815378 0.062125 0.000000
0.851353 0.061557 0.000000
0.887334 0.060989 0.000000
0.923168 0.060424 0.000000
0.958767 0.059863 0.000000
0.994331 0.059302 0.000000
1.000000 0.058743 0.000000
1.000000 0.058289 0.000000
1.000000 0.058298 0.000000
0.000000 0.117387 0.000000
0.000000 0.117390 0.000000
0.023224 0.108230 0.000000
0.059118 0.107660 0.000000
0.095013 0.107090 0.000000
0.130912 0.106519 0.000000
0.166813 0.105950 0.000000
0.202717 0.105380 0.000000
0.238625 0.104810 0.000000
0.274536 0.104241 0.000000
0.310450 0.103672 0.000000
0.346369 0.103103 0.000000
0.382291 0.102534 0.000000
0.418217 0.101965 0.000000
0.454147 0.101397 0.000000
0.490082 0.100828 0.000000
0.526022 0.100260 0.000000
0.561966 0.099692 0.000000
0.597915 0.099125 0.000000
0.633869 0.098557 0.000000
0.669829 0.097989 0.000000
0.705794 0.097422 0.000000
0.741764 0.096855 0.000000
0.777740 0.096288 0.000000
0.813723 0.095721 0.000000
0.849711 0.095154 0.000000
0.885706 0.094587 0.000000
0.921525 0.094024 0.000000
0.957066 0.093465 0.000000
0.992570 0.092907 0.000000
1.000000 0.092350 0.000000
1.000000 0.091898 0.000000
1.000000 0.091909 0.000000
0.000000 0.153647 0.000000
0.000000 0.153652 0.000000
0.020744 0.153189 0.000000
0.057280 0.141237 0.000000
0.093181 0.140668 0.000000
0.129086 0.140099 0.000000
0.164994 0.139530 0.000000
0.200905 0.138962 0.000000
0.236820 0.138393 0.000000
0.272739 0.137825 0.000000
0.308662 0.137257 0.000000
0.344588 0.136689 0.000000
0.380519 0.136121 0.000000
0.416455 0.135554 0.000000
0.452395 0.134987 0.000000
0.488340 0.134420 0.000000
0.524290 0.133853 0.000000
0.560245 0.133286 0.000000
0.596205 0.132719 0.000000
0.632171 0.132153 0.000000
0.668142 0.131587 0.000000
0.704120 0.131020 0.000000
0.740103 0.130455 0.000000
0.776092 0.129889 0.000000
0.812088 0.129323 0.000000
0.848090 0.128758 0.000000
0.884099 0.128192 0.000000
0.919901 0.127631 0.000000
0.955380 0.127074 0.000000
0.990817 0.126519 0.000000
1.000000 0.125964 0.000000
1.000000 0.125516 0.000000
1.000000 0.125528 0.000000
0.000000 0.189913 0.000000
0.000000 0.189919 0.000000
0.018757 0.189457 0.000000
0.055449 0.174820 0.000000
0.091357 0.174252 0.000000
0.127269 0.173684 0.000000
0.163184 0.173116 0.000000
0.199103 0.172549 0.000000
0.235026 0.171982 0.000000
0.270953 0.171415 0.000000
0.306885 0.170848 0.000000
0.342820 0.170281 0.000000
0.378761 0.169715 0.000000
0.414706 0.169149 0.000000
0.450657 0.168583 0.000000
0.486613 0.168017 0.000000
0.522573 0.167451 0.000000
0.558540 0.166886 0.000000
0.594512 0.166321 0.000000
0.630490 0.165756 0.000000
0.666474 0.165191 0.000000
0.702464 0.164626 0.000000
0.738461 0.164061 0.000000
0.774464 0.163497 0.000000
0.810474 0.162933 0.000000
0.846491 0.162369 0.000000
0.882515 0.161805 0.000000
0.918298 0.161245 0.000000
0.953708 0.160692 0.000000
0.989074 0.160139 0.000000
1.000000 0.159588 0.000000
1.000000 0.159142 0.000000
1.000000 0.159156 0.000000
0.000000 0.226184 0.000000
0.000000 0.226191 0.000000
0.016777 0.225731 0.000000
0.052689 0.225165 0.000000
0.089541 0.207842 0.000000
0.125460 0.207275 0.000000
0.161383 0.206709 0.000000
0.197311 0.206143 0.000000
0.233242 0.205577 0.000000
0.269178 0.205011 0.000000
0.305119 0.204446 0.000000
0.341065 0.203880 0.000000
0.377016 0.203315 0.000000
0.412972 0.202751 0.000000
0.448933 0.202186 0.000000
0.484900 0.201622 0.000000
0.520873 0.201057 0.000000
0.556851 0.200493 0.000000
0.592836 0.199930 0.000000
0.628827 0.199366 0.000000
0.664824 0.198803 0.000000
0.700828 0.198239 0.000000
0.736839 0.197676 0.000000
0.772856 0.197113 0.000000
0.808881 0.196551 0.000000
0.844913 0.195988 0.000000
0.880952 0.195426 0.000000
0.916715 0.194868 0.000000
0.952051 0.194318 0.000000
0.987340 0.193768 0.000000
1.000000 0.193220 0.000000
1.000000 0.192777 0.000000
1.000000 0.192793 0.000000
0.000000 0.262462 0.000000
0.000000 0.262471 0.000000
0.014803 0.262012 0.000000
0.050722 0.261447 0.000000
0.087733 0.241438 0.000000
0.123660 0.240873 0.000000
0.159592 0.240308 0.000000
0.195528 0.239743 0.000000
0.231469 0.239179 0.000000
0.267415 0.238614 0.000000
0.303365 0.238050 0.000000
0.339322 0.237487 0.000000
0.375283 0.236923 0.000000
0.411250 0.236360 0.000000
0.447223 0.235797 0.000000
0.483202 0.235234 0.000000
0.519187 0.234671 0.000000
0.555179 0.234109 0.000000
0.591176 0.233546 0.000000
0.627181 0.232984 0.000000
0.663192 0.232423 0.000000
0.699210 0.231861 0.000000
0.735235 0.231300 0.000000
0.771268 0.230738 0.000000
0.807308 0.230177 0.000000
0.843356 0.229616 0.000000
0.879411 0.229056 0.000000
0.915152 0.228500 0.000000
0.950409 0.227953 0.000000
0.985616 0.227407 0.000000
1.000000 0.226862 0.000000
1.000000 0.226422 0.000000
1.000000 0.226440 0.000000
0.000000 0.298747 0.000000
0.000000 0.298757 0.000000
0.012836 0.298300 0.000000
0.048763 0.297737 0.000000
0.084694 0.297174 0.000000
0.121868 0.274477 0.000000
0.157809 0.273914 0.000000
0.193755 0.273351 0.000000
0.229706 0.272788 0.000000
0.265662 0.272225 0.000000
0.301623 0.271663 0.000000
0.337591 0.271101 0.000000
0.373564 0.270539 0.000000
0.409543 0.269977 0.000000
0.445528 0.269416 0.000000
0.481519 0.268854 0.000000
0.517517 0.268293 0.000000
0.553522 0.267733 0.000000
0.589534 0.267172 0.000000
0.625552 0.266612 0.000000
0.661578 0.266051 0.000000
0.697611 0.265492 0.000000
0.733651 0.264932 0.000000
0.769700 0.264372 0.000000
0.805756 0.263813 0.000000
0.841820 0.263254 0.000000
0.877892 0.262695 0.000000
0.913608 0.262142 0.000000
0.948781 0.261598 0.000000
0.983900 0.261055 0.000000
1.000000 0.260514 0.000000
1.000000 0.260077 0.000000
1.000000 0.260097 0.000000
0.000000 0.335040 0.000000
0.000000 0.335052 0.000000
0.010875 0.334597 0.000000
0.046811 0.334035 0.000000
0.082751 0.333474 0.000000
0.120085 0.308090 0.000000
0.156035 0.307528 0.000000
0.191991 0.306967 0.000000
0.227953 0.306405 0.000000
0.263920 0.305844 0.000000
0.299893 0.305284 0.000000
0.335872 0.304723 0.000000
0.371857 0.304163 0.000000
0.407848 0.303603 0.000000
0.443847 0.303043 0.000000
0.479851 0.302484 0.000000
0.515863 0.301924 0.000000
0.551882 0.301365 0.000000
0.587908 0.300807 0.000000
0.623941 0.300248 0.000000
0.659982 0.299690 0.000000
0.696030 0.299132 0.000000
0.732087 0.298574 0.000000
0.768151 0.298016 0.000000
0.804224 0.297458 0.000000
0.840305 0.296901 0.000000
0.876395 0.296344 0.000000
0.912085 0.295794 0.000000
0.947168 0.295254 0.000000
0.982194 0.294715 0.000000
1.000000 0.294177 0.000000
1.000000 0.293744 0.000000
1.000000 0.293766 0.000000
0.000000 0.371341 0.000000
0.000000 0.371355 0.000000
0.008921 0.370902 0.000000
0.044865 0.370342 0.000000
0.080815 0.369783 0.000000
0.116771 0.369223 0.000000
0.154271 0.341151 0.000000
0.190238 0.340591 0.000000
0.226210 0.340031 0.000000
0.262189 0.339472 0.000000
0.298174 0.338913 0.000000
0.334165 0.338355 0.000000
0.370163 0.337796 0.000000
0.406168 0.337238 0.000000
0.442179 0.336680 0.000000
0.478198 0.336123 0.000000
0.514224 0.335565 0.000000
0.550257 0.335008 0.000000
0.586298 0.334451 0.000000
0.622347 0.333894 0.000000
0.658403 0.333338 0.000000
0.694468 0.332782 0.000000
0.730541 0.332226 0.000000
0.766623 0.331670 0.000000
0.802713 0.331115 0.000000
0.838812 0.330559 0.000000
0.874920 0.330004 0.000000
0.910581 0.329457 0.000000
0.945569 0.328920 0.000000
0.980497 0.328385 0.000000
1.000000 0.327851 0.000000
1.000000 0.327422 0.000000
1.000000 0.327447 0.000000
0.000000 0.407651 0.000000
0.000000 0.407668 0.000000
0.006972 0.407216 0.000000
0.042927 0.406658 0.000000
0.078887 0.406101 0.000000
0.114854 0.405544 0.000000
0.152515 0.374782 0.000000
0.188493 0.374224 0.000000
0.224478 0.373667 0.000000
0.260469 0.373110 0.000000
0.296466 0.372553 0.000000
0.332471 0.371996 0.000000
0.368482 0.371439 0.000000
0.404500 0.370883 0.000000
0.440526 0.370327 0.000000
0.476559 0.369772 0.000000
0.512600 0.369216 0.000000
0.548649 0.368661 0.000000
0.584705 0.368106 0.000000
0.620770 0.367551 0.000000
0.656843 0.366997 0.000000
0.692925 0.366443 0.000000
0.729015 0.365889 0.000000
0.765114 0.365335 0.000000
0.801222 0.364782 0.000000
0.837340 0.364228 0.000000
0.873466 0.363675 0.000000
0.909098 0.363131 0.000000
0.943985 0.362598 0.000000
0.978808 0.362067 0.000000
1.000000 0.361538 0.000000
1.000000 0.361112 0.000000
1.000000 0.361140 0.000000
0.000000 0.443971 0.000000
0.000000 0.443990 0.000000
0.005031 0.443540 0.000000
0.040996 0.442985 0.000000
0.076967 0.442430 0.000000
0.112945 0.441875 0.000000
0.148928 0.441320 0.000000
0.186759 0.407868 0.000000
0.222756 0.407312 0.000000
0.258760 0.406757 0.000000
0.294770 0.406202 0.000000
0.330788 0.405647 0.000000
0.366814 0.405093 0.000000
0.402846 0.404539 0.000000
0.438887 0.403985 0.000000
0.474935 0.403431 0.000000
0.510992 0.402878 0.000000
0.547056 0.402325 0.000000
0.583129 0.401772 0.000000
0.619211 0.401219 0.000000
0.655301 0.400667 0.000000
0.691400 0.400115 0.000000
0.727508 0.399563 0.000000
0.763625 0.399012 0.000000
0.799752 0.398460 0.000000
0.835888 0.397909 0.000000
0.872034 0.397359 0.000000
0.907634 0.396817 0.000000
0.942415 0.396289 0.000000
0.977129 0.395762 0.000000
1.000000 0.395237 0.000000
1.000000 0.394815 0.000000
1.000000 0.394845 0.000000
0.000000 0.480302 0.000000
0.000000 0.480323 0.000000
0.003095 0.479875 0.000000
0.039072 0.479322 0.000000
0.075054 0.478769 0.000000
0.111044 0.478216 0.000000
0.147040 0.477664 0.000000
0.185034 0.441522 0.000000
0.221044 0.440968 0.000000
0.257061 0.440415 0.000000
0.293086 0.439862 0.000000
0.329118 0.439309 0.000000
0.365158 0.438757 0.000000
0.401206 0.438205 0.000000
0.437262 0.437653 0.000000
0.473326 0.437102 0.000000
0.509398 0.436551 0.000000
0.545480 0.436000 0.000000
0.581569 0.435449 0.000000
0.617668 0.434899 0.000000
0.653776 0.434349 0.000000
0.689893 0.433799 0.000000
0.726020 0.433250 0.000000
0.762156 0.432700 0.000000
0.798302 0.432151 0.000000
0.834458 0.431603 0.000000
0.870624 0.431054 0.000000
0.906190 0.430516 0.000000
0.940860 0.429992 0.000000
0.975459 0.429470 0.000000
1.000000 0.428949 0.000000
1.000000 0.428532 0.000000
1.000000 0.428565 0.000000
0.000000 0.516643 0.000000
0.000000 0.516667 0.000000
0.001166 0.516222 0.000000
0.037154 0.515671 0.000000
0.073149 0.515120 0.000000
0.109151 0.514570 0.000000
0.145160 0.514020 0.000000
0.181177 0.513470 0.000000
0.219342 0.474635 0.000000
0.255374 0.474084 0.000000
0.291413 0.473534 0.000000
0.327460 0.472983 0.000000
0.363515 0.472433 0.000000
0.399579 0.471883 0.000000
0.435651 0.471334 0.000000
0.471731 0.470785 0.000000
0.507821 0.470236 0.000000
0.543919 0.469687 0.000000
0.580026 0.469139 0.000000
0.616143 0.468591 0.000000
0.652269 0.468043 0.000000
0.688405 0.467496 0.000000
0.724551 0.466949 0.000000
0.760707 0.466402 0.000000
0.796872 0.465855 0.000000
0.833049 0.465309 0.000000
0.869235 0.464763 0.000000
0.904765 0.464228 0.000000
0.939319 0.463709 0.000000
0.973798 0.463191 0.000000
1.000000 0.462675 0.000000
1.000000 0.462263 0.000000
1.000000 0.462298 0.000000
0.000000 0.552997 0.000000
0.000000 0.553023 0.000000
0.000000 0.552580 0.000000
0.035244 0.552032 0.000000
0.071252 0.551483 0.000000
0.107267 0.550936 0.000000
0.143290 0.550388 0.000000
0.179320 0.549841 0.000000
0.217650 0.508314 0.000000
0.253697 0.507765 0.000000
0.289751 0.507217 0.000000
0.325814 0.506669 0.000000
0.361885 0.506121 0.000000
0.397965 0.505574 0.000000
0.434053 0.505027 0.000000
0.470151 0.504480 0.000000
0.506258 0.503934 0.000000
0.542374 0.503387 0.000000
0.578500 0.502842 0.000000
0.614635 0.502296 0.000000
0.650780 0.501751 0.000000
0.686936 0.501206 0.000000
0.723101 0.500661 0.000000
0.759277 0.500117 0.000000
0.795463 0.499573 0.000000
0.831660 0.499029 0.000000
0.867868 0.498485 0.000000
0.903361 0.497954 0.000000
0.937792 0.497439 0.000000
0.972146 0.496927 0.000000
1.000000 0.496416 0.000000
1.000000 0.496008 0.000000
1.000000 0.496047 0.000000
0.000000 0.589362 0.000000
0.000000 0.589391 0.000000
0.000000 0.588951 0.000000
0.033340 0.588405 0.000000
0.069361 0.587860 0.000000
0.105390 0.587314 0.000000
0.141427 0.586769 0.000000
0.177472 0.586225 0.000000
0.213526 0.585681 0.000000
0.252030 0.541459 0.000000
0.288101 0.540913 0.000000
0.324179 0.540367 0.000000
0.360267 0.539822 0.000000
0.396364 0.539277 0.000000
0.432470 0.538733 0.000000
0.468585 0.538188 0.000000
0.504710 0.537645 0.000000
0.540845 0.537101 0.000000
0.576989 0.536558 0.000000
0.613144 0.536015 0.000000
0.649309 0.535472 0.000000
0.685484 0.534930 0.000000
0.721670 0.534387 0.000000
0.757867 0.533846 0.000000
0.794074 0.533304 0.000000
0.830293 0.532763 0.000000
0.866523 0.532222 0.000000
0.901976 0.531694 0.000000
0.936279 0.531185 0.000000
0.970503 0.530677 0.000000
1.000000 0.530172 0.000000
1.000000 0.529769 0.000000
1.000000 0.529810 0.000000
0.000000 0.625741 0.000000
0.000000 0.625772 0.000000
0.000000 0.625335 0.000000
0.031443 0.624792 0.000000
0.067479 0.624249 0.000000
0.103522 0.623707 0.000000
0.139574 0.623165 0.000000
0.175634 0.622623 0.000000
0.211703 0.622081 0.000000
0.250375 0.575165 0.000000
0.286462 0.574622 0.000000
0.322557 0.574079 0.000000
0.358662 0.573536 0.000000
0.394777 0.572994 0.000000
0.430900 0.572452 0.000000
0.467034 0.571911 0.000000
0.503178 0.571369 0.000000
0.539332 0.570828 0.000000
0.575496 0.570288 0.000000
0.611670 0.569747 0.000000
0.647855 0.569207 0.000000
0.684051 0.568668 0.000000
0.720258 0.568128 0.000000
0.756476 0.567589 0.000000
0.792706 0.567050 0.000000
0.828946 0.566512 0.000000
0.865199 0.565974 0.000000
0.900611 0.565449 0.000000
0.934781 0.564946 0.000000
0.968869 0.564443 0.000000
1.000000 0.563943 0.000000
1.000000 0.563545 0.000000
1.000000 0.563590 0.000000
0.000000 0.662133 0.000000
0.000000 0.662168 0.000000
0.000000 0.661734 0.000000
0.029553 0.661193 0.000000
0.065603 0.660653 0.000000
0.101662 0.660113 0.000000
0.137729 0.659574 0.000000
0.173805 0.659035 0.000000
0.209891 0.658497 0.000000
0.245985 0.657959 0.000000
0.284834 0.608345 0.000000
0.320947 0.607805 0.000000
0.357070 0.607265 0.000000
0.393202 0.606725 0.000000
0.429345 0.606186 0.000000
0.465498 0.605647 0.000000
0.501661 0.605108 0.000000
0.537834 0.604570 0.000000
0.574018 0.604032 0.000000
0.610213 0.603495 0.000000
0.646419 0.602957 0.000000
0.682637 0.602421 0.000000
0.718865 0.601884 0.000000
0.755105 0.601348 0.000000
0.791357 0.600812 0.000000
0.827621 0.600276 0.000000
0.863896 0.599741 0.000000
0.899265 0.599220 0.000000
0.933297 0.598722 0.000000
0.967243 0.598226 0.000000
1.000000 0.597731 0.000000
1.000000 0.597338 0.000000
1.000000 0.597386 0.000000
0.000000 0.698540 0.000000
0.000000 0.698578 0.000000
0.000000 0.698146 0.000000
0.027669 0.697609 0.000000
0.063735 0.697072 0.000000
0.099810 0.696535 0.000000
0.135893 0.695999 0.000000
0.171986 0.695463 0.000000
0.208088 0.694927 0.000000
0.244200 0.694392 0.000000
0.283217 0.642082 0.000000
0.319348 0.641545 0.000000
0.355490 0.641007 0.000000
0.391641 0.640471 0.000000
0.427803 0.639934 0.000000
0.463975 0.639398 0.000000
0.500158 0.638862 0.000000
0.536352 0.638327 0.000000
0.572557 0.637792 0.000000
0.608774 0.637257 0.000000
0.645001 0.636723 0.000000
0.681240 0.636189 0.000000
0.717491 0.635655 0.000000
0.753754 0.635122 0.000000
0.790029 0.634589 0.000000
0.826316 0.634056 0.000000
0.862615 0.633524 0.000000
0.897939 0.633008 0.000000
0.931827 0.632515 0.000000
0.965627 0.632024 0.000000
0.999335 0.631535 0.000000
1.000000 0.631148 0.000000
1.000000 0.631200 0.000000
0.000000 0.734962 0.000000
0.000000 0.735002 0.000000
0.000000 0.734574 0.000000
0.025793 0.734040 0.000000
0.061874 0.733506 0.000000
0.097965 0.732972 0.000000
0.134066 0.732439 0.000000
0.170176 0.731906 0.000000
0.206295 0.731374 0.000000
0.242425 0.730842 0.000000
0.278564 0.730310 0.000000
0.317762 0.675300 0.000000
0.353922 0.674765 0.000000
0.390093 0.674232 0.000000
0.426275 0.673698 0.000000
0.462468 0.673165 0.000000
0.498671 0.672632 0.000000
0.534886 0.672100 0.000000
0.571113 0.671568 0.000000
0.607351 0.671036 0.000000
0.643600 0.670505 0.000000
0.679862 0.669974 0.000000
0.716136 0.669443 0.000000
0.752422 0.668913 0.000000
0.788721 0.668383 0.000000
0.825032 0.667853 0.000000
0.861356 0.667324 0.000000
0.896632 0.666812 0.000000
0.930372 0.666325 0.000000
0.964019 0.665840 0.000000
0.997572 0.665357 0.000000
1.000000 0.664976 0.000000
1.000000 0.665031 0.000000
0.000000 0.771399 0.000000
0.000000 0.771443 0.000000
0.000000 0.771018 0.000000
0.023922 0.770487 0.000000
0.060021 0.769956 0.000000
0.096129 0.769425 0.000000
0.132247 0.768895 0.000000
0.168375 0.768366 0.000000
0.204512 0.767837 0.000000
0.240660 0.767308 0.000000
0.276819 0.766780 0.000000
0.316187 0.709070 0.000000
0.352367 0.708539 0.000000
0.388558 0.708008 0.000000
0.424761 0.707478 0.000000
0.460974 0.706948 0.000000
0.497199 0.706418 0.000000
0.533436 0.705889 0.000000
0.569684 0.705360 0.000000
0.605945 0.704831 0.000000
0.642217 0.704303 0.000000
0.678502 0.703775 0.000000
0.714800 0.703248 0.000000
0.751110 0.702721 0.000000
0.787432 0.702194 0.000000
0.823768 0.701667 0.000000
0.860117 0.701141 0.000000
0.895345 0.700634 0.000000
0.928930 0.700153 0.000000
0.962420 0.699674 0.000000
0.995812 0.699198 0.000000
1.000000 0.698822 0.000000
1.000000 0.698881 0.000000
0.000000 0.807852 0.000000
0.000000 0.807900 0.000000
0.000000 0.807478 0.000000
0.022059 0.806950 0.000000
0.058175 0.806423 0.000000
0.094300 0.805896 0.000000
0.130436 0.805369 0.000000
0.166583 0.804843 0.000000
0.202739 0.804317 0.000000
0.238907 0.803792 0.000000
0.275085 0.803267 0.000000
0.311274 0.802742 0.000000
0.350825 0.742329 0.000000
0.387036 0.741802 0.000000
0.423260 0.741274 0.000000
0.459495 0.740747 0.000000
0.495742 0.740221 0.000000
0.532001 0.739695 0.000000
0.568272 0.739169 0.000000
0.604556 0.738644 0.000000
0.640852 0.738119 0.000000
0.677160 0.737594 0.000000
0.713482 0.737070 0.000000
0.749817 0.736546 0.000000
0.786165 0.736022 0.000000
0.822526 0.735499 0.000000
0.858901 0.734976 0.000000
0.894078 0.734473 0.000000
0.927503 0.733999 0.000000
0.960829 0.733527 0.000000
0.994056 0.733056 0.000000
1.000000 0.732687 0.000000
1.000000 0.732749 0.000000
0.000000 0.844323 0.000000
0.000000 0.844374 0.000000
0.000000 0.843956 0.000000
0.020202 0.843431 0.000000
0.056336 0.842907 0.000000
0.092480 0.842383 0.000000
0.128634 0.841860 0.000000
0.164800 0.841337 0.000000
0.200976 0.840815 0.000000
0.237163 0.840293 0.000000
0.273362 0.839772 0.000000
0.309571 0.839251 0.000000
0.349294 0.776137 0.000000
0.385528 0.775612 0.000000
0.421773 0.775088 0.000000
0.458030 0.774564 0.000000
0.494300 0.774041 0.000000
0.530582 0.773518 0.000000
0.566876 0.772996 0.000000
0.603183 0.772474 0.000000
0.639503 0.771952 0.000000
0.675837 0.771431 0.000000
0.712183 0.770910 0.000000
0.748543 0.770389 0.000000
0.784917 0.769869 0.000000
0.821304 0.769350 0.000000
0.857705 0.768830 0.000000
0.892830 0.768332 0.000000
0.926090 0.767864 0.000000
0.959248 0.767398 0.000000
0.992302 0.766934 0.000000
1.000000 0.766571 0.000000
1.000000 0.766637 0.000000
0.000000 0.880811 0.000000
0.000000 0.880866 0.000000
0.000000 0.880451 0.000000
0.018351 0.879930 0.000000
0.054504 0.879410 0.000000
0.090667 0.878889 0.000000
0.126841 0.878370 0.000000
0.163026 0.877851 0.000000
0.199222 0.877332 0.000000
0.235430 0.876814 0.000000
0.271649 0.876296 0.000000
0.307880 0.875779 0.000000
0.344123 0.875262 0.000000
0.384032 0.809440 0.000000
0.420300 0.808920 0.000000
0.456580 0.808399 0.000000
0.492872 0.807879 0.000000
0.529178 0.807360 0.000000
0.565496 0.806841 0.000000
0.601828 0.806322 0.000000
0.638173 0.805804 0.000000
0.674531 0.805286 0.000000
0.710903 0.804769 0.000000
0.747289 0.804252 0.000000
0.783689 0.803735 0.000000
0.820103 0.803219 0.000000
0.856531 0.802703 0.000000
0.891601 0.802209 0.000000
0.924690 0.801748 0.000000
0.957675 0.801289 0.000000
0.990552 0.800832 0.000000
1.000000 0.800475 0.000000
1.000000 0.800546 0.000000
0.000000 0.917317 0.000000
0.000000 0.917376 0.000000
0.000000 0.916965 0.000000
0.016507 0.916448 0.000000
0.052679 0.915931 0.000000
0.088862 0.915414 0.000000
0.125056 0.914898 0.000000
0.161261 0.914383 0.000000
0.197478 0.913868 0.000000
0.233707 0.913353 0.000000
0.269948 0.912839 0.000000
0.306201 0.912326 0.000000
0.342466 0.911813 0.000000
0.382549 0.843287 0.000000
0.418840 0.842769 0.000000
0.455143 0.842253 0.000000
0.491460 0.841736 0.000000
0.527790 0.841220 0.000000
0.564133 0.840705 0.000000
