library/cube/Golden_Vows_001.cube
# CINEGRADE LAB — Premium Cinematic LUT
# Title: Golden Vows
# Category: Dreamy Wedding
# Description: Soft, romantic, warm highlights with pastel tones for wedding photography
# Mood: Romantic, ethereal, tender
# Variant: 2
# Generated: 2026-05-21T16:12:18.400169
TITLE "Golden Vows"
LUT_3D_SIZE 5
0.188767 0.180392 0.180392
0.345963 0.181156 0.181154
0.518548 0.182834 0.182825
0.701752 0.185237 0.185215
0.829475 0.185745 0.185707
0.190318 0.341487 0.184213
0.349292 0.343346 0.186052
0.523899 0.346129 0.188810
0.709387 0.349647 0.192297
0.839165 0.351263 0.193877
0.198818 0.522472 0.193597
0.359913 0.525444 0.196527
0.536926 0.529352 0.200386
0.724416 0.534028 0.204966
0.854133 0.536821 0.207568
0.212930 0.718151 0.207885
0.374955 0.722404 0.211884
0.552382 0.727572 0.216792
0.740390 0.733464 0.222419
0.872099 0.737431 0.226114
0.222110 0.857048 0.218303
0.385744 0.862442 0.223378
0.565014 0.868761 0.229372
0.755120 0.875816 0.236095
0.889127 0.880955 0.240894
0.188695 0.180615 0.337859
0.346056 0.181489 0.338729
0.518828 0.183278 0.340509
0.702244 0.185792 0.343009
0.830181 0.186411 0.343611
0.190752 0.342078 0.342042
0.349924 0.344049 0.343990
0.524757 0.346944 0.346858
0.710497 0.350575 0.350457
0.840504 0.352303 0.352148
0.199750 0.523432 0.351787
0.361079 0.526517 0.354828
0.538356 0.530539 0.358800
0.725410 0.535352 0.363470
0.855308 0.538255 0.366180
0.214045 0.719541 0.366433
0.376216 0.723903 0.370539
0.553811 0.729181 0.375556
0.742011 0.735185 0.381292
0.873942 0.739264 0.385097
0.223731 0.858824 0.377215
0.387547 0.864329 0.382399
0.567024 0.870760 0.388503
0.757365 0.877929 0.395336
0.891608 0.883182 0.400247
0.188875 0.181075 0.509815
0.346403 0.182059 0.510793
0.519366 0.183958 0.512682
0.702999 0.186584 0.515293
0.831133 0.187314 0.516004
0.191436 0.342906 0.514360
0.350810 0.344988 0.516418
0.525872 0.347996 0.519396
0.711869 0.351741 0.523107
0.842109 0.353581 0.524908
0.200932 0.524629 0.524467
0.362498 0.527827 0.527618
0.540044 0.531963 0.531702
0.726668 0.536913 0.536463
0.856750 0.539927 0.539282
0.215410 0.721168 0.539470
0.377732 0.725640 0.543684
0.555498 0.731028 0.548809
0.743894 0.737143 0.554654
0.876051 0.741335 0.558571
0.225602 0.860837 0.550616
0.389604 0.866453 0.555909
0.569292 0.872997 0.562123
0.759872 0.880279 0.569068
0.894350 0.885645 0.574090
0.189240 0.181706 0.691506
0.346939 0.182800 0.692593
0.520097 0.184810 0.694592
0.703950 0.187548 0.697313
0.832279 0.188389 0.698133
0.192305 0.343905 0.696413
0.351884 0.346098 0.698581
0.527179 0.349219 0.701670
0.713438 0.353077 0.705493
0.843915 0.355030 0.707405
0.202297 0.525997 0.706882
0.364104 0.529308 0.710145
0.541338 0.533587 0.714324
0.728123 0.538646 0.719192
0.858394 0.541771 0.722121
0.216961 0.722966 0.722243
0.379435 0.727547 0.726565
0.557377 0.733046 0.731798
0.745974 0.739273 0.737753
0.878358 0.743577 0.741780
0.227658 0.863021 0.733753
0.391849 0.868748 0.739155
0.571753 0.875405 0.745479
0.762576 0.882801 0.752536
0.897288 0.888281 0.757668
0.188904 0.181623 0.818824
0.346778 0.182827 0.820019
0.520135 0.184948 0.822127
0.704212 0.187797 0.824958
0.832739 0.188750 0.825888
0.192473 0.344190 0.824092
0.352260 0.346495 0.826370
0.527792 0.349727 0.829570
0.714316 0.353700 0.833505
0.845037 0.355766 0.835529
0.202961 0.526651 0.834922
0.365013 0.530075 0.838297
0.541941 0.534496 0.842571
0.728889 0.539665 0.847548
0.859355 0.542900 0.850586
0.217811 0.724049 0.850642
0.380442 0.728740 0.855071
0.558563 0.734350 0.860413
0.747366 0.740688 0.866478
0.879979 0.745106 0.870616
0.229014 0.864490 0.862516
0.393397 0.870329 0.868027
0.573520 0.877099 0.874462
0.764592 0.884609 0.881629
0.899535 0.890202 0.886873
