library/cube/Golden_Vows_001.cube
# CINEGRADE LAB — Premium Cinematic LUT
# Title: Golden Vows
# Category: Dreamy Wedding
# Description: Soft, romantic, warm highlights with pastel tones for wedding photography
# Mood: Romantic, ethereal, tender
# Variant: 2
# Generated: 2026-05-21T16:12:18.400169
TITLE "Golden Vows"
LUT_3D_SIZE 33
0.188767 0.180392 0.180392
0.207250 0.180424 0.180424
0.226128 0.180478 0.180477
0.245363 0.180550 0.180549
0.264923 0.180639 0.180639
0.284784 0.180746 0.180745
0.304922 0.180868 0.180866
0.325320 0.181005 0.181003
0.345963 0.181156 0.181154
0.366836 0.181322 0.181319
0.387928 0.181500 0.181497
0.409228 0.181692 0.181688
0.430727 0.181897 0.181891
0.452415 0.182113 0.182107
0.474286 0.182342 0.182335
0.496333 0.182582 0.182574
0.518548 0.182834 0.182825
0.540927 0.183097 0.183087
0.563464 0.183371 0.183359
0.586153 0.183656 0.183643
0.608992 0.183952 0.183937
0.631975 0.184257 0.184241
0.655098 0.184574 0.184556
0.678358 0.184900 0.184881
0.701752 0.185237 0.185215
0.725276 0.185583 0.185560
0.748927 0.185939 0.185914
0.772704 0.186305 0.186278
0.796573 0.186679 0.186650
0.820459 0.187059 0.187028
0.830623 0.186900 0.186867
0.830044 0.186319 0.186284
0.829475 0.185745 0.185707
0.188534 0.199082 0.180521
0.207041 0.199132 0.180571
0.225943 0.199202 0.180640
0.245203 0.199291 0.180729
0.264789 0.199398 0.180835
0.284675 0.199521 0.180958
0.304839 0.199660 0.181096
0.325264 0.199814 0.181250
0.345934 0.199983 0.181417
0.366835 0.200165 0.181599
0.387955 0.200361 0.181794
0.409283 0.200570 0.182002
0.430810 0.200792 0.182222
0.452528 0.201025 0.182455
0.474429 0.201271 0.182700
0.496505 0.201529 0.182956
0.518751 0.201798 0.183223
0.541161 0.202078 0.183502
0.563730 0.202369 0.183792
0.586452 0.202671 0.184092
0.609323 0.202984 0.184403
0.632339 0.203307 0.184725
0.655496 0.203641 0.185057
0.678790 0.203985 0.185398
0.702219 0.204338 0.185750
0.725778 0.204702 0.186112
0.749465 0.205076 0.186483
0.773278 0.205459 0.186864
0.797190 0.205851 0.187254
0.821082 0.206247 0.187648
0.831290 0.206105 0.187504
0.830744 0.205543 0.186938
0.830207 0.204985 0.186378
0.188431 0.218254 0.180759
0.206963 0.218321 0.180825
0.225891 0.218408 0.180911
0.245176 0.218514 0.181017
0.264788 0.218638 0.181140
0.284700 0.218778 0.181279
0.304891 0.218934 0.181434
0.325343 0.219105 0.181604
0.346041 0.219291 0.181789
0.366970 0.219491 0.181987
0.388118 0.219704 0.182199
0.409475 0.219930 0.182424
0.431032 0.220168 0.182661
0.452780 0.220419 0.182911
0.474711 0.220682 0.183172
0.496819 0.220957 0.183446
0.519096 0.221243 0.183730
0.541538 0.221541 0.184026
0.564139 0.221849 0.184333
0.586894 0.222169 0.184650
0.609799 0.222499 0.184978
0.632849 0.222839 0.185317
0.656040 0.223190 0.185666
0.679370 0.223552 0.186024
0.702834 0.223923 0.186393
0.726429 0.224304 0.186772
0.750153 0.224695 0.187161
0.774002 0.225096 0.187559
0.797962 0.225506 0.187966
0.821857 0.225918 0.188376
0.832103 0.225794 0.188249
0.831577 0.225248 0.187700
0.831060 0.224707 0.187157
0.188454 0.237865 0.181099
0.207011 0.237949 0.181182
0.225965 0.238053 0.181285
0.245276 0.238176 0.181407
0.264914 0.238317 0.181547
0.284854 0.238474 0.181703
0.305072 0.238647 0.181875
0.325552 0.238836 0.182062
0.346278 0.239038 0.182263
0.367236 0.239255 0.182479
0.388413 0.239485 0.182707
0.409801 0.239729 0.182949
0.431388 0.239984 0.183203
0.453166 0.240253 0.183470
0.475129 0.240533 0.183748
0.497268 0.240825 0.184038
0.519578 0.241129 0.184340
0.542052 0.241443 0.184653
0.564687 0.241769 0.184976
0.587475 0.242106 0.185311
0.610414 0.242453 0.185656
0.633499 0.242811 0.186012
0.656726 0.243180 0.186378
0.680091 0.243558 0.186754
0.703591 0.243947 0.187140
0.727223 0.244346 0.187536
0.750984 0.244754 0.187942
0.774872 0.245172 0.188357
0.798883 0.245600 0.188782
0.822781 0.246028 0.189208
0.833044 0.245921 0.189097
0.832548 0.245392 0.188565
0.832061 0.244869 0.188039
0.188598 0.257881 0.181537
0.207181 0.257982 0.181637
0.226161 0.258103 0.181757
0.245499 0.258243 0.181896
0.265164 0.258401 0.182052
0.285131 0.258575 0.182225
0.305378 0.258765 0.182414
0.325887 0.258971 0.182618
0.346641 0.259191 0.182836
0.367629 0.259425 0.183068
0.388836 0.259672 0.183314
0.410254 0.259932 0.183573
0.431872 0.260206 0.183844
0.453682 0.260491 0.184127
0.475677 0.260789 0.184423
0.497848 0.261098 0.184730
0.520191 0.261419 0.185048
0.542699 0.261751 0.185378
0.565367 0.262094 0.185719
0.588190 0.262448 0.186071
0.611164 0.262813 0.186433
0.634284 0.263188 0.186806
0.657547 0.263574 0.187189
0.680949 0.263970 0.187582
0.704486 0.264376 0.187985
0.728156 0.264793 0.188399
0.751956 0.265219 0.188822
0.775882 0.265654 0.189254
0.799932 0.266100 0.189697
0.823850 0.266545 0.190139
0.834128 0.266454 0.190045
0.833662 0.265943 0.189530
0.833205 0.265436 0.189020
0.188860 0.278273 0.182071
0.207469 0.278391 0.182187
0.226476 0.278529 0.182324
0.245841 0.278686 0.182479
0.265534 0.278861 0.182653
0.285529 0.279052 0.182842
0.305805 0.279260 0.183048
0.326343 0.279483 0.183269
0.347127 0.279720 0.183504
0.368145 0.279971 0.183753
0.389383 0.280235 0.184016
0.410832 0.280513 0.184291
0.432482 0.280803 0.184580
0.454324 0.281106 0.184880
0.476351 0.281421 0.185192
0.498556 0.281748 0.185517
0.520933 0.282086 0.185852
0.543475 0.282435 0.186199
0.566178 0.282796 0.186557
0.589036 0.283168 0.186926
0.612046 0.283550 0.187305
0.635202 0.283943 0.187695
0.658502 0.284346 0.188096
0.681941 0.284760 0.188506
0.705517 0.285183 0.188927
0.729225 0.285617 0.189357
0.753063 0.286061 0.189797
0.777029 0.286514 0.190247
0.801119 0.286977 0.190707
0.825060 0.287439 0.191166
0.835352 0.287365 0.191088
0.834917 0.286871 0.190590
0.834490 0.286381 0.190097
0.189235 0.299018 0.182696
0.207871 0.299152 0.182829
0.226906 0.299308 0.182983
0.246299 0.299482 0.183155
0.266021 0.299674 0.183345
0.286045 0.299883 0.183552
0.306350 0.300107 0.183775
0.326918 0.300347 0.184012
0.347733 0.300601 0.184264
0.368781 0.300870 0.184530
0.390051 0.301152 0.184810
0.411532 0.301447 0.185103
0.433214 0.301754 0.185408
0.455089 0.302075 0.185725
0.477150 0.302407 0.186055
0.499389 0.302751 0.186396
0.521800 0.303106 0.186749
0.544377 0.303473 0.187113
0.567115 0.303851 0.187488
0.590010 0.304240 0.187874
0.613056 0.304640 0.188270
0.636250 0.305050 0.188678
0.659587 0.305471 0.189095
0.683064 0.305902 0.189523
0.706678 0.306344 0.189961
0.730426 0.306795 0.190408
0.754304 0.307256 0.190866
0.778310 0.307727 0.191333
0.802442 0.308208 0.191810
0.826409 0.308687 0.192286
0.836714 0.308630 0.192224
0.836309 0.308152 0.191743
0.835913 0.307681 0.191267
0.189722 0.320095 0.183411
0.208386 0.320247 0.183561
0.227448 0.320419 0.183731
0.246871 0.320610 0.183921
0.266622 0.320820 0.184128
0.286675 0.321046 0.184351
0.307010 0.321287 0.184591
0.327609 0.321545 0.184845
0.348455 0.321816 0.185114
0.369535 0.322102 0.185398
0.390837 0.322401 0.185694
0.412350 0.322713 0.186004
0.434066 0.323038 0.186326
0.455975 0.323376 0.186660
0.478069 0.323725 0.187007
0.500343 0.324087 0.187365
0.522789 0.324460 0.187735
0.545402 0.324844 0.188116
0.568177 0.325240 0.188509
0.591108 0.325646 0.188912
0.614192 0.326064 0.189326
0.637423 0.326491 0.189750
0.660799 0.326930 0.190185
0.684316 0.327379 0.190630
0.707969 0.327837 0.191085
0.731757 0.328306 0.191550
0.755676 0.328785 0.192025
0.779723 0.329274 0.192510
0.803896 0.329772 0.193004
0.827895 0.330269 0.193496
0.838212 0.330228 0.193451
0.837838 0.329768 0.192987
0.837472 0.329313 0.192528
0.190318 0.341487 0.184213
0.209010 0.341656 0.184380
0.228102 0.341846 0.184567
0.247553 0.342054 0.184774
0.267334 0.342281 0.184997
0.287418 0.342524 0.185238
0.307784 0.342783 0.185495
0.328414 0.343057 0.185766
0.349292 0.343346 0.186052
0.370404 0.343649 0.186352
0.391739 0.343966 0.186666
0.413286 0.344295 0.186992
0.435035 0.344638 0.187332
0.456978 0.344993 0.187683
0.479108 0.345360 0.188047
0.501417 0.345739 0.188423
0.523899 0.346129 0.188810
0.546549 0.346531 0.189208
0.569361 0.346944 0.189617
0.592330 0.347368 0.190038
0.615451 0.347803 0.190469
0.638722 0.348248 0.190910
0.662137 0.348704 0.191362
0.685693 0.349171 0.191825
0.709387 0.349647 0.192297
0.733215 0.350134 0.192780
0.757176 0.350631 0.193272
0.781265 0.351137 0.193774
0.805481 0.351653 0.194286
0.829516 0.352167 0.194795
0.839845 0.352143 0.194766
0.839500 0.351700 0.194319
0.839165 0.351263 0.193877
0.191021 0.363179 0.185101
0.209743 0.363366 0.185285
0.228863 0.363572 0.185489
0.248345 0.363798 0.185712
0.268156 0.364042 0.185953
0.288271 0.364302 0.186211
0.308669 0.364579 0.186484
0.329331 0.364870 0.186773
0.350241 0.365177 0.187076
0.371386 0.365497 0.187393
0.392755 0.365831 0.187723
0.414336 0.366178 0.188067
0.436120 0.366538 0.188424
0.458098 0.366910 0.188792
0.480264 0.367295 0.189173
0.502609 0.367691 0.189566
0.525128 0.368099 0.189970
0.547815 0.368519 0.190386
0.570665 0.368949 0.190812
0.593672 0.369391 0.191250
0.616833 0.369843 0.191698
0.640142 0.370306 0.192157
0.663597 0.370780 0.192627
0.687194 0.371264 0.193106
0.710929 0.371758 0.193596
0.734800 0.372263 0.194096
0.758802 0.372777 0.194606
0.782935 0.373301 0.195125
0.807194 0.373835 0.195654
0.831271 0.374367 0.196181
0.841609 0.374359 0.196168
0.841295 0.373934 0.195738
0.840991 0.373513 0.195313
0.191830 0.385158 0.186073
0.210581 0.385362 0.186274
0.229732 0.385586 0.186495
0.249244 0.385829 0.186735
0.269086 0.386090 0.186993
0.289233 0.386368 0.187267
0.309663 0.386662 0.187558
0.330358 0.386971 0.187863
0.351301 0.387294 0.188183
0.372480 0.387632 0.188518
0.393883 0.387983 0.188865
0.415499 0.388348 0.189226
0.437318 0.388725 0.189600
0.459333 0.389115 0.189986
0.481534 0.389517 0.190384
0.503917 0.389931 0.190794
0.526473 0.390356 0.191215
0.549199 0.390793 0.191648
0.572087 0.391242 0.192092
0.595133 0.391701 0.192547
0.618334 0.392171 0.193012
0.641684 0.392652 0.193488
0.665180 0.393143 0.193975
0.688818 0.393645 0.194472
0.712595 0.394157 0.194979
0.736508 0.394679 0.195497
0.760554 0.395211 0.196024
0.784730 0.395753 0.196561
0.809033 0.396305 0.197108
0.833157 0.396854 0.197652
0.843504 0.396863 0.197655
0.843222 0.396455 0.197242
0.842948 0.396052 0.196834
0.192743 0.407412 0.187128
0.211524 0.407633 0.187345
0.230706 0.407874 0.187583
0.250249 0.408135 0.187840
0.270123 0.408413 0.188115
0.290302 0.408708 0.188407
0.310765 0.409019 0.188714
0.331493 0.409346 0.189037
0.352471 0.409687 0.189374
0.373684 0.410042 0.189725
0.395122 0.410411 0.190090
0.416774 0.410793 0.190468
0.438629 0.411188 0.190859
0.460680 0.411595 0.191262
0.482919 0.412015 0.191677
0.505339 0.412446 0.192104
0.527934 0.412889 0.192543
0.550698 0.413344 0.192993
0.573626 0.413810 0.193454
0.596713 0.414287 0.193926
0.619954 0.414774 0.194409
0.643345 0.415273 0.194903
0.666883 0.415782 0.195407
0.690563 0.416301 0.195921
0.714383 0.416831 0.196446
0.738339 0.417371 0.196981
0.762429 0.417921 0.197525
0.786650 0.418481 0.198080
0.810998 0.419051 0.198644
0.835175 0.419618 0.199206
0.845530 0.419643 0.199226
0.845277 0.419253 0.198829
0.845034 0.418867 0.198438
0.193758 0.429931 0.188263
0.212570 0.430169 0.188498
0.231783 0.430427 0.188753
0.251358 0.430705 0.189027
0.271265 0.431001 0.189319
0.291477 0.431313 0.189627
0.311973 0.431642 0.189952
0.332736 0.431986 0.190292
0.353748 0.432344 0.190646
0.374997 0.432717 0.191014
0.396471 0.433103 0.191396
0.418158 0.433503 0.191791
0.440051 0.433915 0.192199
0.462139 0.434340 0.192620
0.484416 0.434777 0.193052
0.506875 0.435226 0.193496
0.529509 0.435687 0.193952
0.552313 0.436159 0.194420
0.575281 0.436643 0.194898
0.598408 0.437138 0.195388
0.621691 0.437643 0.195888
0.645124 0.438159 0.196399
0.668704 0.438686 0.196921
0.692428 0.439223 0.197453
0.716291 0.439771 0.197995
0.740292 0.440329 0.198547
0.764426 0.440897 0.199109
0.788692 0.441474 0.199681
0.813087 0.442062 0.200263
0.837323 0.442648 0.200843
0.847683 0.442689 0.200878
0.847462 0.442316 0.200499
0.847249 0.441948 0.200125
0.194874 0.452704 0.189479
0.213717 0.452959 0.189730
0.232963 0.453235 0.190003
0.252571 0.453531 0.190294
0.272511 0.453844 0.190602
0.292757 0.454174 0.190928
0.313287 0.454520 0.191270
0.334084 0.454881 0.191627
0.355132 0.455257 0.191998
0.376417 0.455647 0.192384
0.397927 0.456051 0.192783
0.419652 0.456468 0.193195
0.441582 0.456898 0.193620
0.463709 0.457340 0.194058
0.486025 0.457795 0.194508
0.508523 0.458262 0.194969
0.531197 0.458740 0.195443
0.554041 0.459230 0.195927
0.577050 0.459732 0.196423
0.600219 0.460244 0.196930
0.623544 0.460767 0.197448
0.647020 0.461301 0.197976
0.670643 0.461846 0.198515
0.694411 0.462401 0.199065
0.718319 0.462967 0.199624
0.742365 0.463542 0.200194
0.766545 0.464128 0.200774
0.790857 0.464724 0.201363
0.815298 0.465329 0.201963
0.839599 0.465934 0.202561
0.849965 0.465992 0.202612
0.849774 0.465636 0.202250
0.849446 0.465287 0.201888
0.196090 0.475724 0.190774
0.214966 0.475996 0.191042
0.234244 0.476290 0.191331
0.253885 0.476602 0.191639
0.273859 0.476933 0.191965
0.294139 0.477280 0.192308
0.314705 0.477644 0.192667
0.335538 0.478023 0.193041
0.356622 0.478416 0.193430
0.377943 0.478824 0.193832
0.399491 0.479245 0.194249
0.421253 0.479680 0.194678
0.443222 0.480127 0.195121
0.465388 0.480588 0.195576
0.487743 0.481060 0.196043
0.510281 0.481544 0.196522
0.532996 0.482041 0.197012
0.555881 0.482548 0.197514
0.578932 0.483067 0.198028
0.602144 0.483598 0.198552
0.625511 0.484139 0.199087
0.649031 0.484691 0.199633
0.672699 0.485253 0.200190
0.696511 0.485826 0.200756
0.720465 0.486410 0.201334
0.744556 0.487003 0.201921
0.768783 0.487607 0.202518
0.793142 0.488221 0.203125
0.817632 0.488844 0.203742
0.841747 0.489472 0.204351
0.851807 0.489551 0.204408
0.851339 0.489217 0.204052
0.850881 0.488888 0.203701
0.197405 0.498982 0.192147
0.216314 0.499272 0.192432
0.235625 0.499583 0.192738
0.255301 0.499913 0.193064
0.275309 0.500261 0.193407
0.295624 0.500626 0.193767
0.316226 0.501007 0.194142
0.337095 0.501403 0.194534
0.358216 0.501814 0.194939
0.379575 0.502239 0.195359
0.401160 0.502678 0.195793
0.422962 0.503131 0.196240
0.444969 0.503596 0.196700
0.467175 0.504074 0.197172
0.489570 0.504564 0.197656
0.512150 0.505066 0.198152
0.534906 0.505580 0.198660
0.557833 0.506106 0.199180
0.580927 0.506643 0.199711
0.604182 0.507191 0.200253
0.627593 0.507750 0.200805
0.651157 0.508319 0.201369
0.674870 0.508900 0.201943
0.698728 0.509491 0.202527
0.722728 0.510092 0.203122
0.746810 0.510705 0.203725
0.770800 0.511333 0.204330
0.794908 0.511971 0.204946
0.819133 0.512618 0.205570
0.843254 0.513266 0.206195
0.853307 0.513361 0.206267
0.852870 0.513045 0.205929
0.852444 0.512735 0.205595
0.198818 0.522472 0.193597
0.217760 0.522779 0.193899
0.237106 0.523107 0.194223
0.256816 0.523455 0.194565
0.276860 0.523820 0.194925
0.297211 0.524203 0.195302
0.317849 0.524601 0.195695
0.338755 0.525015 0.196104
0.359913 0.525444 0.196527
0.381311 0.525887 0.196964
0.402935 0.526343 0.197415
0.424776 0.526813 0.197879
0.446823 0.527296 0.198356
0.469069 0.527792 0.198845
0.491506 0.528300 0.199347
0.514127 0.528820 0.199861
0.536926 0.529352 0.200386
0.559896 0.529895 0.200923
0.583033 0.530450 0.201472
0.606332 0.531016 0.202031
0.629788 0.531593 0.202601
0.653398 0.532180 0.203182
0.677011 0.532784 0.203769
0.700649 0.533401 0.204363
0.724416 0.534028 0.204966
0.748308 0.534664 0.205579
0.772323 0.535311 0.206202
0.796457 0.535966 0.206834
0.820708 0.536632 0.207475
0.844889 0.537299 0.208118
0.854934 0.537410 0.208206
0.854529 0.537113 0.207884
0.854133 0.536821 0.207568
0.200329 0.546186 0.195123
0.219305 0.546511 0.195443
0.238685 0.546857 0.195783
0.258430 0.547222 0.196143
0.278510 0.547605 0.196520
0.298898 0.548005 0.196914
0.319573 0.548421 0.197325
0.340517 0.548852 0.197750
0.361714 0.549299 0.198191
0.383150 0.549759 0.198645
0.404814 0.550234 0.199113
0.426695 0.550721 0.199595
0.448783 0.551222 0.200089
0.471070 0.551736 0.200596
0.493549 0.552261 0.201115
0.516213 0.552799 0.201646
0.539054 0.553349 0.202189
0.562069 0.553910 0.202744
0.585250 0.554483 0.203309
0.608375 0.555076 0.203880
0.631628 0.555681 0.204460
0.655022 0.556296 0.205050
0.678552 0.556921 0.205651
0.702215 0.557556 0.206261
0.726007 0.558201 0.206882
0.749925 0.558856 0.207511
0.773965 0.559520 0.208151
0.798126 0.560194 0.208800
0.822405 0.560877 0.209458
0.846652 0.561564 0.210120
0.856687 0.561692 0.210223
0.856313 0.561413 0.209918
0.855949 0.561139 0.209619
0.201935 0.570119 0.196725
0.220946 0.570462 0.197062
0.240362 0.570825 0.197420
0.260143 0.571208 0.197796
0.280260 0.571608 0.198191
0.300685 0.572026 0.198602
0.321398 0.572460 0.199030
0.342380 0.572909 0.199473
0.363616 0.573373 0.199930
0.385092 0.573851 0.200402
0.406796 0.574343 0.200888
0.428718 0.574849 0.201387
0.450848 0.575367 0.201898
0.473178 0.575899 0.202423
0.495699 0.576442 0.202959
0.518345 0.577001 0.203506
0.541013 0.577581 0.204060
0.563842 0.578172 0.204626
0.586825 0.578773 0.205202
0.609958 0.579385 0.205788
0.633235 0.580008 0.206385
0.656654 0.580641 0.206992
0.680209 0.581284 0.207610
0.703897 0.581937 0.208237
0.727715 0.582600 0.208874
0.751660 0.583273 0.209521
0.775727 0.583956 0.210177
0.799916 0.584648 0.210843
0.824222 0.585349 0.211518
0.848540 0.586056 0.212199
0.858565 0.586201 0.212317
0.858222 0.585940 0.212030
0.857889 0.585684 0.211748
0.203638 0.594266 0.198403
0.222684 0.594626 0.198757
0.242136 0.595007 0.199131
0.261954 0.595407 0.199525
0.282108 0.595825 0.199937
0.302571 0.596261 0.200365
0.323322 0.596712 0.200810
0.344344 0.597179 0.201270
0.365620 0.597661 0.201745
0.387136 0.598157 0.202235
0.408882 0.598667 0.202737
0.430845 0.599190 0.203254
0.452893 0.599736 0.203780
0.475066 0.600298 0.204316
0.497419 0.600873 0.204864
0.519944 0.601459 0.205424
0.542636 0.602057 0.205995
0.565488 0.602665 0.206577
0.588496 0.603285 0.207170
0.611653 0.603915 0.207773
0.634956 0.604556 0.208387
0.658399 0.605207 0.209011
0.681981 0.605868 0.209645
0.705695 0.606539 0.210290
0.729540 0.607220 0.210944
0.753512 0.607911 0.211607
0.777607 0.608612 0.212281
0.801824 0.609322 0.212963
0.826159 0.610042 0.213656
0.850555 0.610768 0.214355
0.860567 0.610930 0.214489
0.860256 0.610688 0.214219
0.859954 0.610450 0.213953
0.205435 0.618621 0.200154
0.224517 0.618998 0.200525
0.244006 0.619397 0.200917
0.263861 0.619815 0.201328
0.284053 0.620251 0.201757
0.304555 0.620704 0.202203
0.325346 0.621173 0.202665
0.346408 0.621657 0.203143
0.367721 0.622157 0.203635
0.389109 0.622687 0.204137
0.410714 0.623230 0.204653
0.432525 0.623786 0.205182
0.454532 0.624354 0.205723
0.476728 0.624935 0.206276
0.499104 0.625528 0.206841
0.521653 0.626132 0.207417
0.544369 0.626747 0.208005
0.567245 0.627374 0.208604
0.590278 0.628011 0.209214
0.613460 0.628660 0.209834
0.636789 0.629319 0.210465
0.660259 0.629988 0.211106
0.683867 0.630667 0.211757
0.707608 0.631356 0.212418
0.731481 0.632056 0.213089
0.755481 0.632765 0.213770
0.779605 0.633484 0.214460
0.803851 0.634212 0.215160
0.828216 0.634950 0.215869
0.852693 0.635697 0.216587
0.862693 0.635876 0.216737
0.862412 0.635651 0.216483
0.862141 0.635432 0.216235
0.207326 0.643179 0.201979
0.226446 0.643574 0.202368
0.245972 0.643991 0.202777
0.265865 0.644426 0.203205
0.286096 0.644880 0.203651
0.306582 0.645357 0.204114
0.327259 0.645861 0.204590
0.348196 0.646381 0.205081
0.369376 0.646915 0.205586
0.390786 0.647462 0.206105
0.412413 0.648023 0.206638
0.434247 0.648597 0.207183
0.456278 0.649183 0.207741
0.478497 0.649782 0.208311
0.500897 0.650393 0.208893
0.523470 0.651015 0.209486
0.546210 0.651648 0.210090
0.569112 0.652293 0.210706
0.592170 0.652949 0.211333
0.615379 0.653615 0.211970
0.638734 0.654292 0.212617
0.662231 0.654979 0.213275
0.685866 0.655677 0.213943
0.709636 0.656385 0.214622
0.733537 0.657102 0.215310
0.757566 0.657830 0.216007
0.781719 0.658567 0.216715
0.805995 0.659313 0.217431
0.830390 0.660070 0.218158
0.854903 0.660835 0.218893
0.864940 0.661032 0.219060
0.864691 0.660826 0.218824
0.864450 0.660626 0.218593
0.209312 0.667936 0.203878
0.228468 0.668349 0.204284
0.247937 0.668798 0.204708
0.267733 0.669270 0.205151
0.287854 0.669760 0.205612
0.308275 0.670266 0.206089
0.328974 0.670788 0.206582
0.349932 0.671326 0.207090
0.371135 0.671877 0.207612
0.392567 0.672443 0.208148
0.414217 0.673022 0.208697
0.436074 0.673614 0.209259
0.458128 0.674218 0.209833
0.480372 0.674835 0.210420
0.502796 0.675464 0.211019
0.525394 0.676104 0.211629
0.548160 0.676756 0.212250
0.571088 0.677418 0.212883
0.594172 0.678092 0.213526
0.617408 0.678777 0.214180
0.640790 0.679472 0.214845
0.664315 0.680177 0.215520
0.687979 0.680893 0.216205
0.711777 0.681619 0.216900
0.735707 0.682355 0.217605
0.759766 0.683101 0.218320
0.783950 0.683856 0.219044
0.808257 0.684621 0.219778
0.832683 0.685396 0.220521
0.857227 0.686180 0.221274
0.867309 0.686396 0.221458
0.867090 0.686208 0.221239
0.866880 0.686026 0.221025
0.211145 0.692932 0.205846
0.230207 0.693383 0.206266
0.249666 0.693854 0.206707
0.269483 0.694345 0.207167
0.289625 0.694852 0.207644
0.310067 0.695377 0.208138
0.330788 0.695917 0.208648
0.351769 0.696472 0.209172
0.372995 0.697042 0.209711
0.394450 0.697625 0.210264
0.416123 0.698222 0.210830
0.438004 0.698832 0.211409
0.460083 0.699455 0.212000
0.482352 0.700090 0.212604
0.504801 0.700736 0.213219
0.527425 0.701395 0.213846
0.550218 0.702065 0.214484
0.573172 0.702746 0.215134
0.596283 0.703438 0.215794
0.619546 0.704141 0.216465
0.642957 0.704854 0.217147
0.666511 0.705578 0.217839
0.690203 0.706312 0.218541
0.714032 0.707056 0.219253
0.737992 0.707810 0.219975
0.762081 0.708574 0.220707
0.786296 0.709348 0.221448
0.810634 0.710132 0.222199
0.835093 0.710925 0.222960
0.859670 0.711727 0.223729
0.869798 0.711962 0.223932
0.869610 0.711793 0.223730
0.869430 0.711629 0.223533
0.212930 0.718151 0.207885
0.232012 0.718619 0.208322
0.251492 0.719109 0.208780
0.271330 0.719617 0.209256
0.291494 0.720142 0.209750
0.311959 0.720685 0.210261
0.332703 0.721243 0.210787
0.353707 0.721816 0.211328
0.374955 0.722404 0.211884
0.396435 0.723006 0.212453
0.418133 0.723621 0.213036
0.440038 0.724249 0.213632
0.462143 0.724889 0.214240
0.484436 0.725542 0.214860
0.506912 0.726207 0.215493
0.529563 0.726884 0.216137
0.552382 0.727572 0.216792
0.575364 0.728271 0.217458
0.598503 0.728982 0.218136
0.621795 0.729703 0.218824
0.645234 0.730434 0.219522
0.668817 0.731176 0.220231
0.692540 0.731929 0.220950
0.716399 0.732691 0.221680
0.740390 0.733464 0.222419
0.764510 0.734247 0.223168
0.788757 0.735039 0.223926
0.813128 0.735841 0.224694
0.837620 0.736652 0.225472
0.862230 0.737473 0.226259
0.872407 0.737727 0.226479
0.872248 0.737576 0.226294
0.872099 0.737431 0.226114
0.214809 0.743563 0.209996
0.233913 0.744049 0.210450
0.253415 0.744556 0.210924
0.273275 0.745083 0.211418
0.293462 0.745626 0.211928
0.313950 0.746187 0.212456
0.334717 0.746763 0.212999
0.355744 0.747354 0.213557
0.377017 0.747960 0.214129
0.398521 0.748580 0.214716
0.420244 0.749213 0.215315
0.442175 0.749859 0.215928
0.464305 0.750518 0.216553
0.486625 0.751189 0.217190
0.509128 0.751873 0.217840
0.531806 0.752567 0.218501
0.554653 0.753274 0.219173
0.577663 0.753991 0.219856
0.600831 0.754720 0.220550
0.624152 0.755459 0.221256
0.647621 0.756209 0.221971
0.671234 0.756970 0.222697
0.694988 0.757741 0.223433
0.718878 0.758522 0.224180
0.742901 0.759313 0.224936
0.767054 0.760114 0.225702
0.791333 0.760925 0.226478
0.815737 0.761745 0.227263
0.840263 0.762575 0.228058
0.864907 0.763415 0.228862
0.875133 0.763688 0.229100
0.875005 0.763555 0.228932
0.874887 0.763428 0.228769
0.216783 0.769165 0.212180
0.235909 0.769670 0.212651
0.255433 0.770195 0.213142
0.275316 0.770739 0.213652
0.295526 0.771301 0.214179
0.316038 0.771879 0.214723
0.336829 0.772474 0.215283
0.357881 0.773083 0.215858
0.379179 0.773707 0.216447
0.400708 0.774345 0.217051
0.422457 0.774997 0.217667
0.444414 0.775661 0.218297
0.466571 0.776338 0.218939
0.488918 0.777027 0.219593
0.511448 0.777729 0.220259
0.534154 0.778442 0.220937
0.557030 0.779167 0.221626
0.580069 0.779903 0.222327
0.603267 0.780650 0.223038
