library/cube/Golden_Horizon_000.cube
# CINEGRADE LAB — Premium Cinematic LUT
# Title: Golden Horizon
# Category: Luxury Travel
# Description: Golden hour tones, rich landscapes, and vivid colors for travel content
# Mood: Wanderlust, golden, rich
# Variant: 1
# Generated: 2026-05-21T16:12:23.555377
TITLE "Golden Horizon"
LUT_3D_SIZE 9
0.000000 0.000000 0.000000
0.100990 0.000000 0.000000
0.244518 0.000000 0.000000
0.388076 0.000000 0.000000
0.531675 0.000000 0.000000
0.675325 0.000000 0.000000
0.819038 0.000000 0.000000
0.962528 0.000000 0.000000
1.000000 0.000000 0.000000
0.000000 0.117387 0.000000
0.095013 0.107090 0.000000
0.238625 0.104810 0.000000
0.382291 0.102534 0.000000
0.526022 0.100260 0.000000
0.669829 0.097989 0.000000
0.813723 0.095721 0.000000
0.957066 0.093465 0.000000
1.000000 0.091909 0.000000
0.000000 0.262462 0.000000
0.087733 0.241438 0.000000
0.231469 0.239179 0.000000
0.375283 0.236923 0.000000
0.519187 0.234671 0.000000
0.663192 0.232423 0.000000
0.807308 0.230177 0.000000
0.950409 0.227953 0.000000
1.000000 0.226440 0.000000
0.000000 0.407651 0.000000
0.078887 0.406101 0.000000
0.224478 0.373667 0.000000
0.368482 0.371439 0.000000
0.512600 0.369216 0.000000
0.656843 0.366997 0.000000
0.801222 0.364782 0.000000
0.943985 0.362598 0.000000
1.000000 0.361140 0.000000
0.000000 0.552997 0.000000
0.071252 0.551483 0.000000
0.217650 0.508314 0.000000
0.361885 0.506121 0.000000
0.506258 0.503934 0.000000
0.650780 0.501751 0.000000
0.795463 0.499573 0.000000
0.937792 0.497439 0.000000
1.000000 0.496047 0.000000
0.000000 0.698540 0.000000
0.063735 0.697072 0.000000
0.208088 0.694927 0.000000
0.355490 0.641007 0.000000
0.500158 0.638862 0.000000
0.645001 0.636723 0.000000
0.790029 0.634589 0.000000
0.931827 0.632515 0.000000
1.000000 0.631200 0.000000
0.000000 0.844323 0.000000
0.056336 0.842907 0.000000
0.200976 0.840815 0.000000
0.349294 0.776137 0.000000
0.494300 0.774041 0.000000
0.639503 0.771952 0.000000
0.784917 0.769869 0.000000
0.926090 0.767864 0.000000
1.000000 0.766637 0.000000
0.000000 0.990387 0.000000
0.049051 0.989032 0.000000
0.194019 0.987000 0.000000
0.339189 0.984976 0.000000
0.488679 0.909508 0.000000
0.634285 0.907477 0.000000
0.780125 0.905452 0.000000
0.920577 0.903524 0.000000
1.000000 0.902398 0.000000
0.000000 1.000000 0.000000
0.048278 1.000000 0.000000
0.193636 1.000000 0.000000
0.339219 1.000000 0.000000
0.485041 1.000000 0.000000
0.631110 1.000000 0.000000
0.777438 1.000000 0.000000
0.917095 1.000000 0.000000
1.000000 1.000000 0.000000
0.000000 0.000000 0.126221
0.100316 0.000000 0.124604
0.243851 0.000000 0.122304
0.387418 0.000000 0.120001
0.531028 0.000000 0.117696
0.674692 0.000000 0.115389
0.818421 0.000000 0.113078
0.961901 0.000000 0.110769
1.000000 0.000000 0.109148
0.000000 0.108017 0.120128
0.094352 0.106417 0.118503
0.237975 0.104138 0.116195
0.381654 0.101863 0.113884
0.525400 0.099591 0.111570
0.669226 0.097321 0.109253
0.813140 0.095053 0.106933
0.956464 0.092799 0.104620
1.000000 0.091246 0.103002
0.000000 0.261796 0.111492
0.085997 0.260218 0.109858
0.230836 0.238514 0.108629
0.374668 0.236261 0.106309
0.518592 0.234010 0.103985
0.662619 0.231763 0.101657
0.806759 0.229519 0.099326
0.949831 0.227297 0.097010
1.000000 0.225787 0.095399
0.000000 0.406995 0.103314
0.078252 0.405447 0.101671
0.223862 0.373013 0.101034
0.367888 0.370788 0.098703
0.512030 0.368566 0.096368
0.656299 0.366349 0.094029
0.800708 0.364135 0.091685
0.943431 0.361955 0.089367
1.000000 0.360500 0.087766
0.000000 0.552354 0.095107
0.070629 0.550844 0.093454
0.214759 0.548657 0.091114
0.361312 0.505483 0.091064
0.505713 0.503297 0.088717
0.650266 0.501117 0.086366
0.794982 0.498941 0.084009
0.937262 0.496811 0.081690
1.000000 0.495423 0.080103
0.000000 0.697914 0.086867
0.063126 0.696448 0.085203
0.207506 0.694307 0.082851
0.354938 0.640385 0.083392
0.499639 0.638243 0.081031
0.644517 0.636106 0.078666
0.789582 0.633974 0.076295
0.931322 0.631904 0.073976
1.000000 0.630595 0.072406
0.000000 0.843716 0.078592
0.055739 0.842304 0.076916
0.200411 0.840215 0.074551
0.345262 0.838133 0.072180
0.493806 0.773441 0.073307
0.639048 0.771355 0.070927
0.784503 0.769275 0.068541
0.925608 0.767274 0.066223
1.000000 0.766054 0.064674
0.000000 0.989803 0.070281
0.048467 0.988451 0.068591
0.193471 0.986422 0.066211
0.338679 0.984402 0.063826
0.488211 0.908930 0.065543
0.633860 0.906902 0.063147
0.779745 0.904880 0.060745
0.920119 0.902957 0.058429
1.000000 0.901839 0.056904
0.000000 1.000000 0.068316
0.047713 1.000000 0.066633
0.193111 1.000000 0.064257
0.338738 1.000000 0.061876
0.484604 1.000000 0.059490
0.630721 1.000000 0.057097
0.777099 1.000000 0.054699
0.916669 1.000000 0.052408
1.000000 1.000000 0.050934
0.000000 0.000000 0.263184
0.099585 0.000000 0.261564
0.243127 0.000000 0.259259
0.386704 0.000000 0.256950
0.530326 0.000000 0.254636
0.674005 0.000000 0.252318
0.817751 0.000000 0.249995
0.961219 0.000000 0.247673
1.000000 0.000000 0.246036
0.000000 0.107286 0.257074
0.093635 0.105686 0.255439
0.237268 0.103409 0.253120
0.380961 0.101135 0.250796
0.524724 0.098864 0.248468
0.668568 0.096595 0.246134
0.812504 0.094329 0.243795
0.955806 0.092076 0.241462
1.000000 0.090525 0.239823
0.000000 0.241628 0.249487
0.086380 0.240049 0.247838
0.230147 0.237793 0.245503
0.373996 0.235541 0.243164
0.517941 0.233292 0.240818
0.661991 0.231046 0.238468
0.806157 0.228803 0.236111
0.949198 0.226584 0.233769
1.000000 0.225078 0.232132
0.000000 0.406283 0.240162
0.077561 0.404737 0.238497
0.221500 0.402514 0.236146
0.367238 0.370079 0.235479
0.511404 0.367859 0.233117
0.655701 0.365644 0.230748
0.800139 0.363432 0.228373
0.942822 0.361254 0.226023
1.000000 0.359804 0.224390
0.000000 0.551655 0.231874
0.069951 0.550147 0.230193
0.214104 0.547963 0.227823
0.360683 0.504788 0.227741
0.505113 0.502605 0.225360
0.649698 0.500426 0.222973
0.794447 0.498252 0.220579
0.936677 0.496126 0.218221
1.000000 0.494743 0.216596
0.000000 0.697231 0.223532
0.062460 0.695769 0.221833
0.206868 0.693630 0.219445
0.351433 0.691498 0.217051
0.499065 0.637567 0.217547
0.643978 0.635432 0.215140
0.789081 0.633303 0.212725
0.930761 0.631237 0.210361
1.000000 0.629934 0.208747
0.000000 0.843053 0.215135
0.055086 0.841644 0.213417
0.199790 0.839558 0.211009
0.344675 0.837480 0.208594
0.493257 0.772784 0.209675
0.638539 0.770701 0.207246
0.784036 0.768624 0.204810
0.925072 0.766627 0.202441
1.000000 0.765414 0.200842
0.000000 0.989162 0.206679
0.047827 0.987814 0.204942
0.192867 0.985789 0.202513
0.338114 0.983772 0.200076
0.483577 0.981764 0.197632
0.633380 0.906270 0.199291
0.779312 0.904252 0.196832
0.919607 0.902334 0.194459
1.000000 0.901224 0.192878
0.000000 1.000000 0.204556
0.047093 1.000000 0.202819
0.192531 1.000000 0.200388
0.338201 1.000000 0.197950
0.484113 1.000000 0.195504
0.630278 1.000000 0.193051
0.776707 1.000000 0.190590
0.916189 1.000000 0.188237
1.000000 1.000000 0.186701
0.000000 0.000000 0.400145
0.098856 0.000000 0.398521
0.242405 0.000000 0.396210
0.385992 0.000000 0.393893
0.529626 0.000000 0.391570
0.673320 0.000000 0.389240
0.817084 0.000000 0.386903
0.960540 0.000000 0.384566
1.000000 0.000000 0.382913
0.000000 0.106555 0.394014
0.092919 0.104956 0.392369
0.236564 0.102681 0.390038
0.380271 0.100408 0.387699
0.524050 0.098137 0.385354
0.667913 0.095870 0.383003
0.811870 0.093604 0.380643
0.955151 0.091354 0.378289
1.000000 0.089806 0.376629
0.000000 0.240905 0.386384
0.085677 0.239327 0.384719
0.229459 0.237073 0.382365
0.373327 0.234822 0.380005
0.517292 0.232574 0.377637
0.661366 0.230330 0.375262
0.805558 0.228089 0.372880
0.948567 0.225871 0.370510
1.000000 0.224369 0.368845
0.000000 0.375369 0.378685
0.078560 0.373819 0.376998
0.222520 0.371593 0.374622
0.366590 0.369371 0.372238
0.510782 0.367153 0.369847
0.655106 0.364939 0.367447
0.799574 0.362729 0.365040
0.942216 0.360554 0.362656
1.000000 0.359109 0.360989
0.000000 0.509985 0.370915
0.069273 0.549451 0.366912
0.213451 0.547270 0.364511
0.357763 0.545093 0.362103
0.504516 0.501913 0.361980
0.649132 0.499736 0.359555
0.793916 0.497564 0.357122
0.936095 0.495442 0.354725
1.000000 0.494064 0.353060
0.000000 0.696550 0.360175
0.061795 0.695090 0.358440
0.206232 0.692954 0.356014
0.350828 0.690825 0.353580
0.498493 0.636892 0.354035
0.643442 0.634760 0.351584
0.788583 0.632633 0.349124
0.930204 0.630571 0.346715
1.000000 0.629274 0.345055
0.000000 0.842391 0.351650
0.054434 0.840985 0.349891
0.199171 0.838903 0.347439
0.344091 0.836828 0.344977
0.489207 0.834760 0.342507
0.638033 0.770048 0.343532
0.783572 0.767974 0.341044
0.924538 0.765982 0.338624
1.000000 0.764776 0.336973
0.000000 0.988523 0.343046
0.047188 0.987178 0.341261
0.192265 0.985157 0.338781
0.337551 0.983144 0.336292
0.483056 0.981139 0.333793
0.632903 0.905640 0.335397
0.778882 0.903625 0.332880
0.919098 0.901713 0.330449
1.000000 0.900610 0.328811
0.000000 1.000000 0.340760
0.046474 1.000000 0.338968
0.191953 1.000000 0.336481
0.337667 1.000000 0.333984
0.483625 1.000000 0.331479
0.629839 1.000000 0.328963
0.776319 1.000000 0.326438
0.915711 1.000000 0.324021
1.000000 1.000000 0.322422
0.000000 0.000000 0.537105
0.098128 0.000000 0.535475
0.241685 0.000000 0.533157
0.385282 0.000000 0.530831
0.528930 0.000000 0.528496
0.672638 0.000000 0.526153
0.816420 0.000000 0.523801
0.959863 0.000000 0.521448
1.000000 0.000000 0.519778
0.000000 0.105824 0.530948
0.092204 0.104227 0.529291
0.235861 0.101952 0.526946
0.379582 0.099681 0.524592
0.523379 0.097412 0.522230
0.667261 0.095145 0.519859
0.811241 0.092880 0.517478
0.954499 0.090632 0.515102
1.000000 0.089086 0.513418
0.000000 0.240182 0.523271
0.084976 0.238606 0.521588
0.228774 0.236353 0.519214
0.372661 0.234103 0.516832
0.516647 0.231857 0.514441
0.660744 0.229614 0.512040
0.804962 0.227374 0.509630
0.947939 0.225160 0.507232
1.000000 0.223660 0.505537
0.000000 0.374656 0.515504
0.077872 0.373108 0.513793
0.221852 0.370884 0.511390
0.365945 0.368664 0.508978
0.510162 0.366448 0.506557
0.654514 0.364236 0.504125
0.799012 0.362027 0.501684
0.941612 0.359856 0.499265
1.000000 0.358414 0.497564
0.000000 0.509285 0.507645
0.070890 0.507773 0.505904
0.215093 0.505584 0.503471
0.359433 0.503401 0.501028
0.503922 0.501222 0.498576
0.648570 0.499047 0.496113
0.793388 0.496878 0.493639
0.935516 0.494758 0.491201
1.000000 0.493386 0.489495
0.000000 0.644109 0.499690
0.064029 0.642639 0.497919
0.205598 0.692280 0.492558
0.350225 0.690153 0.490083
0.495026 0.688033 0.487597
0.642909 0.634088 0.488000
0.788089 0.631964 0.485493
0.929648 0.629906 0.483037
1.000000 0.628615 0.481331
0.000000 0.841731 0.488138
0.053784 0.840328 0.486335
0.198554 0.838249 0.483838
0.343510 0.836177 0.481329
0.488663 0.834112 0.478810
0.637530 0.769397 0.479785
0.783112 0.767325 0.477244
0.924007 0.765338 0.474770
1.000000 0.764139 0.473067
0.000000 0.987885 0.479381
0.046551 0.986544 0.477547
0.191665 0.984527 0.475015
0.336990 0.982517 0.472473
0.482538 0.980515 0.469918
0.628318 0.978522 0.467352
0.778455 0.903000 0.468888
0.918591 0.901093 0.466399
1.000000 0.899997 0.464702
0.000000 1.000000 0.476928
0.045856 1.000000 0.475081
0.191377 1.000000 0.472536
0.337135 1.000000 0.469979
0.483139 1.000000 0.467412
0.629402 1.000000 0.464833
0.775934 1.000000 0.462243
0.915237 1.000000 0.459761
1.000000 1.000000 0.458097
0.000000 0.000000 0.674062
0.097402 0.000000 0.672425
0.240967 0.000000 0.670098
0.384575 0.000000 0.667762
0.528235 0.000000 0.665415
0.671960 0.000000 0.663057
0.815760 0.000000 0.660690
0.959188 0.000000 0.658319
1.000000 0.000000 0.656630
0.000000 0.105094 0.667875
0.091490 0.103498 0.666205
0.235160 0.101225 0.663845
0.378896 0.098954 0.661475
0.522710 0.096686 0.659094
0.666613 0.094420 0.656702
0.810615 0.092157 0.654299
0.953849 0.089910 0.651899
1.000000 0.088368 0.650190
0.000000 0.239459 0.660147
0.084275 0.237885 0.658444
0.228090 0.235633 0.656050
0.371996 0.233385 0.653644
0.516004 0.231141 0.651228
0.660125 0.228899 0.648800
0.804370 0.226661 0.646361
0.947313 0.224448 0.643933
1.000000 0.222953 0.642208
0.000000 0.373944 0.652308
0.077184 0.372398 0.650571
0.221185 0.370175 0.648141
0.365302 0.367957 0.645699
0.509545 0.365743 0.643246
0.653925 0.363533 0.640782
0.798454 0.361326 0.638305
0.941011 0.359157 0.635851
1.000000 0.357720 0.634113
0.000000 0.508586 0.644355
0.070216 0.507077 0.642582
0.214444 0.504890 0.640116
0.358811 0.502708 0.637637
0.503330 0.500532 0.635147
0.648010 0.498359 0.632644
0.792864 0.496192 0.630129
0.934939 0.494076 0.627649
1.000000 0.492709 0.625901
0.000000 0.643425 0.636286
0.063368 0.641959 0.634477
0.207863 0.639815 0.631972
0.352523 0.637677 0.629456
0.497358 0.635545 0.626927
0.642380 0.633418 0.624385
0.787599 0.631296 0.621830
0.929096 0.629243 0.619326
1.000000 0.627957 0.617572
0.000000 0.778500 0.628098
0.056637 0.777084 0.626252
0.201441 0.774990 0.623709
0.342930 0.835528 0.617650
0.488122 0.833466 0.615080
0.633525 0.831411 0.612497
0.782656 0.766678 0.613407
0.923479 0.764696 0.610879
1.000000 0.763503 0.609122
0.000000 0.913848 0.619790
0.045915 0.985912 0.613799
0.191067 0.983898 0.611214
0.336432 0.981892 0.608617
0.482022 0.979893 0.606006
0.627847 0.977903 0.603381
0.778033 0.902376 0.604857
0.918087 0.900474 0.602307
1.000000 0.899386 0.600550
0.000000 1.000000 0.613060
0.045240 1.000000 0.611156
0.190803 1.000000 0.608551
0.336605 1.000000 0.605934
0.482657 1.000000 0.603304
0.628969 1.000000 0.600660
0.775552 1.000000 0.598003
0.914764 1.000000 0.595455
1.000000 1.000000 0.593726
0.000000 0.000000 0.811016
0.096676 0.000000 0.809371
0.240251 0.000000 0.807034
0.383869 0.000000 0.804686
0.527544 0.000000 0.802325
0.671285 0.000000 0.799952
0.815103 0.000000 0.797567
0.958516 0.000000 0.795177
1.000000 0.000000 0.793469
0.000000 0.104364 0.804794
0.090778 0.102770 0.803111
0.234461 0.100497 0.800734
0.378213 0.098228 0.798346
0.522044 0.095961 0.795945
0.665967 0.093697 0.793531
0.809992 0.091434 0.791104
0.953201 0.089189 0.788679
1.000000 0.087649 0.786945
0.000000 0.238737 0.797012
0.083576 0.237164 0.795288
0.227408 0.234915 0.792871
0.371334 0.232668 0.790441
0.515364 0.230425 0.787998
0.659509 0.228185 0.785542
0.803781 0.225948 0.783073
0.946690 0.223738 0.780614
1.000000 0.222246 0.778858
0.000000 0.373232 0.789096
0.076499 0.371689 0.787332
0.220521 0.369468 0.784873
0.364661 0.367252 0.782401
0.508930 0.365039 0.779915
0.653339 0.362831 0.777416
0.797899 0.360626 0.774903
0.940412 0.358460 0.772411
1.000000 0.357028 0.770636
0.000000 0.507888 0.781045
0.069543 0.506381 0.779239
0.213796 0.504196 0.776737
0.358192 0.502017 0.774222
0.502741 0.499842 0.771692
0.647454 0.497672 0.769149
0.792343 0.495507 0.766591
0.934364 0.493395 0.764068
1.000000 0.492033 0.762277
0.000000 0.642743 0.772857
0.062708 0.641279 0.771009
0.207233 0.639138 0.768463
0.351924 0.637003 0.765903
0.496794 0.634873 0.763328
0.641853 0.632749 0.760739
0.787112 0.630629 0.758136
0.928546 0.628580 0.755582
1.000000 0.627300 0.753778
0.000000 0.777836 0.764530
0.055990 0.776423 0.762638
0.200828 0.774332 0.760047
0.345857 0.772248 0.757441
0.491088 0.770170 0.754820
0.636533 0.768098 0.752185
0.782203 0.766032 0.749535
0.922953 0.764054 0.746951
1.000000 0.762869 0.745139
0.000000 0.913206 0.756061
0.049388 0.911851 0.754124
0.194579 0.909817 0.751487
0.339987 0.907791 0.748835
0.481509 0.979273 0.742055
0.627380 0.977286 0.739371
0.773499 0.975307 0.736671
0.917585 0.899857 0.738174
1.000000 0.898777 0.736356
0.000000 1.000000 0.749154
0.044626 1.000000 0.747192
0.190231 1.000000 0.744527
0.336078 1.000000 0.741848
0.482177 1.000000 0.739154
0.628539 1.000000 0.736444
0.775175 1.000000 0.733719
0.914295 1.000000 0.731103
1.000000 1.000000 0.729308
0.000000 0.000000 0.947965
0.095952 0.000000 0.946312
0.239536 0.000000 0.943964
0.383166 0.000000 0.941602
0.526855 0.000000 0.939227
0.670612 0.000000 0.936837
0.814450 0.000000 0.934433
0.957847 0.000000 0.932023
1.000000 0.000000 0.930294
0.000000 0.103635 0.941706
0.090067 0.102042 0.940007
0.233764 0.099771 0.937613
0.377531 0.097502 0.935205
0.521381 0.095236 0.932782
0.665325 0.092973 0.930345
0.809373 0.090712 0.927894
0.952556 0.088468 0.925443
1.000000 0.086932 0.923682
0.000000 0.238016 0.933864
0.082879 0.236445 0.932118
0.226728 0.234196 0.929677
0.370674 0.231951 0.927222
0.514726 0.229710 0.924751
0.658897 0.227471 0.922266
0.803196 0.225236 0.919765
0.946070 0.223028 0.917274
1.000000 0.221540 0.915485
0.000000 0.372522 0.925867
0.075814 0.370980 0.924075
0.219858 0.368761 0.921586
0.364022 0.366547 0.919081
0.508318 0.364336 0.916562
0.652756 0.362129 0.914027
0.797348 0.359926 0.911476
0.939816 0.357764 0.908946
1.000000 0.356336 0.907132
0.000000 0.507191 0.917715
0.068872 0.505686 0.915874
0.213151 0.503504 0.913336
0.357574 0.501327 0.910782
0.502154 0.499154 0.908212
0.646901 0.496986 0.905626
0.791826 0.494823 0.903025
0.933793 0.492714 0.900457
1.000000 0.491358 0.898621
0.000000 0.642062 0.909404
0.062049 0.640601 0.907514
0.206604 0.638462 0.904925
0.351329 0.636330 0.902321
0.496234 0.634202 0.899700
0.641330 0.632080 0.897062
0.786629 0.629964 0.894408
0.927998 0.627918 0.891804
1.000000 0.626645 0.889950
0.000000 0.777174 0.900932
0.055345 0.775764 0.898993
0.200216 0.773676 0.896352
0.345282 0.771595 0.893696
0.490553 0.769519 0.891022
0.636040 0.767450 0.888332
0.781753 0.765387 0.885625
0.922430 0.763414 0.882985
1.000000 0.762236 0.881116
0.000000 0.912565 0.892297
0.048756 0.911214 0.890308
0.193985 0.909183 0.887615
0.339433 0.907160 0.884905
0.485111 0.905144 0.882178
0.631029 0.903135 0.879434
0.777198 0.901132 0.876672
0.917086 0.899241 0.873998
1.000000 0.898169 0.872118
0.000000 1.000000 0.885211
0.044013 1.000000 0.883189
0.189661 1.000000 0.880463
0.335554 1.000000 0.877720
0.481700 1.000000 0.874960
0.628112 1.000000 0.872183
0.774801 1.000000 0.869389
0.913828 1.000000 0.866705
1.000000 1.000000 0.864841
0.000000 0.000000 1.000000
0.095288 0.000000 1.000000
0.238881 0.000000 1.000000
0.382523 0.000000 1.000000
0.526226 0.000000 1.000000
0.670001 0.000000 1.000000
0.813858 0.000000 1.000000
0.957238 0.000000 1.000000
1.000000 0.000000 1.000000
0.000000 0.102964 1.000000
0.089416 0.101372 1.000000
0.233126 0.099102 1.000000
0.376909 0.096835 1.000000
0.520778 0.094570 1.000000
0.664743 0.092308 1.000000
0.808815 0.090048 1.000000
0.951972 0.087806 1.000000
1.000000 0.086272 1.000000
0.000000 0.237353 1.000000
0.082240 0.235784 1.000000
0.226107 0.233537 1.000000
0.370073 0.231293 1.000000
0.514149 0.229053 1.000000
0.658345 0.226816 1.000000
0.802672 0.224582 1.000000
0.945509 0.222376 1.000000
1.000000 0.220892 1.000000
0.000000 0.371869 1.000000
0.075189 0.370330 1.000000
0.219254 0.368113 1.000000
0.363443 0.365900 1.000000
0.507766 0.363691 1.000000
0.652234 0.361487 1.000000
0.796858 0.359285 1.000000
0.939280 0.357126 1.000000
1.000000 0.355702 1.000000
0.000000 0.506552 1.000000
0.068259 0.505050 1.000000
0.212564 0.502870 1.000000
0.357017 0.500695 1.000000
0.501628 0.498524 1.000000
0.646409 0.496359 1.000000
0.791370 0.494197 1.000000
0.933281 0.492092 1.000000
1.000000 0.490741 1.000000
0.000000 0.641440 1.000000
0.061450 0.639981 1.000000
0.206035 0.637845 1.000000
0.350793 0.635715 1.000000
0.495733 0.633590 1.000000
0.640867 0.631471 1.000000
0.786206 0.629356 1.000000
0.927511 0.627315 1.000000
1.000000 0.626048 1.000000
0.000000 0.776570 1.000000
0.054758 0.775164 1.000000
0.199665 0.773079 1.000000
0.344768 0.771000 1.000000
0.490078 0.768928 1.000000
0.635607 0.766861 1.000000
0.781365 0.764801 1.000000
0.921967 0.762833 1.000000
1.000000 0.761661 1.000000
0.000000 0.911983 1.000000
0.048182 0.910635 1.000000
0.193451 0.908608 1.000000
0.338940 0.906588 1.000000
0.484661 0.904575 1.000000
0.630625 0.902569 1.000000
0.776843 0.900570 1.000000
0.916647 0.898684 0.999117
1.000000 0.897619 0.997179
0.000000 1.000000 1.000000
0.043459 1.000000 1.000000
0.189151 1.000000 1.000000
0.335089 1.000000 1.000000
0.481283 1.000000 1.000000
0.627746 1.000000 0.997223
0.774488 1.000000 0.994364
0.913422 1.000000 0.991614
1.000000 1.000000 0.989687
