library/cube/Golden_Vows_001.cube
# CINEGRADE LAB — Premium Cinematic LUT
# Title: Golden Vows
# Category: Dreamy Wedding
# Description: Soft, romantic, warm highlights with pastel tones for wedding photography
# Mood: Romantic, ethereal, tender
# Variant: 2
# Generated: 2026-05-21T16:12:18.400169
TITLE "Golden Vows"
LUT_3D_SIZE 9
0.188767 0.180392 0.180392
0.264923 0.180639 0.180639
0.345963 0.181156 0.181154
0.430727 0.181897 0.181891
0.518548 0.182834 0.182825
0.608992 0.183952 0.183937
0.701752 0.185237 0.185215
0.796573 0.186679 0.186650
0.829475 0.185745 0.185707
0.188598 0.257881 0.181537
0.265164 0.258401 0.182052
0.346641 0.259191 0.182836
0.431872 0.260206 0.183844
0.520191 0.261419 0.185048
0.611164 0.262813 0.186433
0.704486 0.264376 0.187985
0.799932 0.266100 0.189697
0.833205 0.265436 0.189020
0.190318 0.341487 0.184213
0.267334 0.342281 0.184997
0.349292 0.343346 0.186052
0.435035 0.344638 0.187332
0.523899 0.346129 0.188810
0.615451 0.347803 0.190469
0.709387 0.349647 0.192297
0.805481 0.351653 0.194286
0.839165 0.351263 0.193877
0.193758 0.429931 0.188263
0.271265 0.431001 0.189319
0.353748 0.432344 0.190646
0.440051 0.433915 0.192199
0.529509 0.435687 0.193952
0.621691 0.437643 0.195888
0.716291 0.439771 0.197995
0.813087 0.442062 0.200263
0.847249 0.441948 0.200125
0.198818 0.522472 0.193597
0.276860 0.523820 0.194925
0.359913 0.525444 0.196527
0.446823 0.527296 0.198356
0.536926 0.529352 0.200386
0.629788 0.531593 0.202601
0.724416 0.534028 0.204966
0.820708 0.536632 0.207475
0.854133 0.536821 0.207568
0.205435 0.618621 0.200154
0.284053 0.620251 0.201757
0.367721 0.622157 0.203635
0.454532 0.624354 0.205723
0.544369 0.626747 0.208005
0.636789 0.629319 0.210465
0.731481 0.632056 0.213089
0.828216 0.634950 0.215869
0.862141 0.635432 0.216235
0.212930 0.718151 0.207885
0.291494 0.720142 0.209750
0.374955 0.722404 0.211884
0.462143 0.724889 0.214240
0.552382 0.727572 0.216792
0.645234 0.730434 0.219522
0.740390 0.733464 0.222419
0.837620 0.736652 0.225472
0.872099 0.737431 0.226114
0.221012 0.820928 0.216763
0.299945 0.823209 0.218896
0.383800 0.825761 0.221300
0.471409 0.828538 0.223926
0.562101 0.831514 0.226750
0.655436 0.834670 0.229753
0.751107 0.837996 0.232924
0.848885 0.841482 0.236253
0.883946 0.842560 0.237172
0.222110 0.857048 0.218303
0.301451 0.859609 0.220705
0.385744 0.862442 0.223378
0.473822 0.865502 0.226276
0.565014 0.868761 0.229372
0.658882 0.872204 0.232649
0.755120 0.875816 0.236095
0.853500 0.879591 0.239700
0.889127 0.880955 0.240894
0.188692 0.180467 0.256803
0.264889 0.180742 0.257077
0.345970 0.181286 0.257620
0.430779 0.182054 0.258384
0.518649 0.183019 0.259345
0.609144 0.184164 0.260484
0.701958 0.185477 0.261791
0.796839 0.186948 0.263253
0.829787 0.186041 0.262337
0.188651 0.258048 0.258039
0.265261 0.258595 0.258581
0.346784 0.259413 0.259393
0.432065 0.260456 0.260428
0.520437 0.261697 0.261660
0.611466 0.263119 0.263072
0.704848 0.264710 0.264652
0.800357 0.266462 0.266391
0.833669 0.265826 0.265741
0.190497 0.341746 0.260806
0.267560 0.342567 0.261617
0.349569 0.343661 0.262699
0.435367 0.344980 0.264006
0.524289 0.346500 0.265512
0.615902 0.348202 0.267199
0.709902 0.350075 0.269055
0.806065 0.352109 0.271072
0.839794 0.351746 0.270690
0.194061 0.430282 0.264946
0.271621 0.431380 0.266029
0.354159 0.432751 0.267384
0.440521 0.434350 0.268965
0.530042 0.436151 0.270746
0.622290 0.438135 0.272710
0.716961 0.440292 0.274845
0.813830 0.442612 0.277141
0.848045 0.442525 0.277030
0.199246 0.522915 0.270370
0.277343 0.524292 0.271726
0.360457 0.525944 0.273356
0.447431 0.527825 0.275213
0.537602 0.529909 0.277271
0.630536 0.532178 0.279514
0.724873 0.534653 0.281896
0.821208 0.537284 0.284432
0.854680 0.537501 0.284552
0.205986 0.619157 0.277018
0.284665 0.620815 0.278649
0.368176 0.622772 0.280549
0.455023 0.624996 0.282664
0.544898 0.627417 0.284973
0.637359 0.630015 0.287460
0.732095 0.632780 0.290111
0.828877 0.635702 0.292918
0.862856 0.636212 0.293312
0.213449 0.718809 0.284837
0.292049 0.720828 0.286729
0.375547 0.723117 0.288890
0.462774 0.725630 0.291273
0.553057 0.728340 0.293852
0.645956 0.731230 0.296610
0.741160 0.734288 0.299533
0.838443 0.737504 0.302614
0.872981 0.738311 0.303284
0.221659 0.821685 0.293806
0.300630 0.823993 0.295967
0.384527 0.826573 0.298397
0.472182 0.829378 0.301051
0.562921 0.832381 0.303902
0.656308 0.835566 0.306933
0.752033 0.838920 0.310131
0.849870 0.842434 0.313488
0.884990 0.843540 0.314435
0.222882 0.857899 0.295437
0.302267 0.860488 0.297867
0.386607 0.863349 0.300567
0.474734 0.866436 0.303492
0.565979 0.869724 0.306616
0.659905 0.873195 0.309920
0.756203 0.876836 0.313394
0.854646 0.880639 0.317027
0.890328 0.882032 0.318249
0.188695 0.180615 0.337859
0.264931 0.180917 0.338159
0.346056 0.181489 0.338729
0.430910 0.182285 0.339521
0.518828 0.183278 0.340509
0.609375 0.184451 0.341676
0.702244 0.185792 0.343009
0.797186 0.187291 0.344500
0.830181 0.186411 0.343611
0.188781 0.258288 0.339185
0.265435 0.258863 0.339754
0.347005 0.259708 0.340593
0.432335 0.260779 0.341655
0.520761 0.262048 0.342915
0.611847 0.263498 0.344355
0.705289 0.265118 0.345962
0.800861 0.266898 0.347730
0.834213 0.266289 0.347107
0.190752 0.342078 0.342042
0.267864 0.342927 0.342881
0.349924 0.344049 0.343990
0.435776 0.345396 0.345325
0.524757 0.346944 0.346858
0.616432 0.348674 0.348573
0.710497 0.350575 0.350457
0.806728 0.352638 0.352502
0.840504 0.352303 0.352148
0.194441 0.430706 0.346273
0.272053 0.431832 0.347383
0.354647 0.433232 0.348766
0.441069 0.434859 0.350374
0.530653 0.436688 0.352183
0.622968 0.438701 0.354175
0.717709 0.440886 0.356338
0.814653 0.443235 0.358663
0.848921 0.443176 0.358580
0.199750 0.523432 0.351787
0.277904 0.524837 0.353171
0.361079 0.526517 0.354828
0.448117 0.528426 0.356713
0.538356 0.530539 0.358800
0.631052 0.532849 0.361061
0.725410 0.535352 0.363470
0.821787 0.538011 0.366033
0.855308 0.538255 0.366180
0.206614 0.619766 0.358525
0.285354 0.621453 0.360184
0.368709 0.623460 0.362107
0.455592 0.625712 0.364249
0.545505 0.628159 0.366585
0.638008 0.630785 0.369098
0.732789 0.633578 0.371777
0.829619 0.636528 0.374612
0.863652 0.637066 0.375033
0.214045 0.719541 0.366433
0.292680 0.721587 0.368352
0.376216 0.723903 0.370539
0.463484 0.726444 0.372950
0.553811 0.729181 0.375556
0.646756 0.732099 0.378340
0.742011 0.735185 0.381292
0.839347 0.738429 0.384400
0.873942 0.739264 0.385097
0.222381 0.822515 0.375494
0.301393 0.824851 0.377681
0.385333 0.827458 0.380138
0.473032 0.830290 0.382819
0.563820 0.833322 0.385698
0.657259 0.836534 0.388756
0.753040 0.839917 0.391982
0.850935 0.843459 0.395366
0.886113 0.844593 0.396341
0.223731 0.858824 0.377215
0.303160 0.861440 0.379671
0.387547 0.864329 0.382399
0.475725 0.867444 0.385352
0.567024 0.870760 0.388503
0.661006 0.874259 0.391835
0.757365 0.877929 0.395336
0.855873 0.881760 0.398998
0.891608 0.883182 0.400247
0.188759 0.180821 0.422416
0.265035 0.181151 0.422744
0.346203 0.181750 0.423341
0.431103 0.182573 0.424160
0.519070 0.183594 0.425175
0.609669 0.184795 0.426370
0.702594 0.186164 0.427731
0.797598 0.187691 0.429249
0.830633 0.186839 0.428388
0.188972 0.258586 0.423833
0.265670 0.259188 0.424430
0.347288 0.260061 0.425295
0.432669 0.261160 0.426385
0.521148 0.262457 0.427672
0.612291 0.263935 0.429140
0.705793 0.265583 0.430776
0.801430 0.267391 0.432571
0.834821 0.266810 0.431975
0.191068 0.342468 0.426781
0.268229 0.343345 0.427647
0.350341 0.344494 0.428784
0.436248 0.345870 0.430146
0.525287 0.347445 0.431707
0.617025 0.349204 0.433450
0.711156 0.351134 0.435362
0.807457 0.353225 0.437435
0.841278 0.352918 0.437108
0.194882 0.431188 0.431102
0.272547 0.432342 0.432240
0.355198 0.433770 0.433650
0.441679 0.435425 0.435287
0.531327 0.437282 0.437123
0.623709 0.439324 0.439143
0.718522 0.441538 0.441334
0.815541 0.443915 0.443688
0.849498 0.443889 0.443620
0.200315 0.524006 0.436707
0.278526 0.525439 0.438118
0.361762 0.527148 0.439803
0.448866 0.529086 0.441716
0.539173 0.531227 0.443831
0.631613 0.533578 0.446111
0.726012 0.536108 0.448546
0.822432 0.538795 0.451136
0.856001 0.539067 0.451311
0.207303 0.620433 0.443535
0.286091 0.622150 0.445222
0.369303 0.624206 0.447168
0.456223 0.626485 0.449336
0.546176 0.628959 0.451699
0.638721 0.631613 0.454240
0.733547 0.634433 0.456946
0.830426 0.637411 0.459808
0.864513 0.637977 0.460257
0.214702 0.720330 0.451531
0.293373 0.722403 0.453477
0.376948 0.724747 0.455692
0.464257 0.727315 0.458129
0.554627 0.730081 0.460762
0.647620 0.733026 0.463574
0.742925 0.736139 0.466553
0.840315 0.739412 0.469689
0.874969 0.740275 0.470414
0.223165 0.823403 0.460683
0.302217 0.825766 0.462898
0.386200 0.828400 0.465382
0.473945 0.831261 0.468091
0.564783 0.834320 0.470996
0.658274 0.837561 0.474082
0.754110 0.840971 0.477335
0.852065 0.844542 0.480748
0.887301 0.845705 0.481750
0.224641 0.859806 0.462496
0.304114 0.862450 0.464979
0.388549 0.865367 0.467734
0.476778 0.868510 0.470714
0.568131 0.871854 0.473893
0.662171 0.875381 0.477253
0.758591 0.879079 0.480782
0.857164 0.882939 0.484471
0.892952 0.884389 0.485748
0.188875 0.181075 0.509815
0.265192 0.181432 0.510170
0.346403 0.182059 0.510793
0.431350 0.182910 0.511639
0.519366 0.183958 0.512682
0.610018 0.185187 0.513904
0.702999 0.186584 0.515293
0.798066 0.188139 0.516839
0.831133 0.187314 0.516004
0.189214 0.258932 0.511322
0.265957 0.259562 0.511945
0.347623 0.260463 0.512839
0.433055 0.261589 0.513956
0.521588 0.262914 0.515270
0.612789 0.264420 0.516766
0.706353 0.266096 0.518429
0.802054 0.267933 0.520252
0.835486 0.267379 0.519683
0.191436 0.342906 0.514360
0.268646 0.343811 0.515253
0.350810 0.344988 0.516418
0.436774 0.346392 0.517808
0.525872 0.347996 0.519396
0.617672 0.349783 0.521167
0.711869 0.351741 0.523107
0.808240 0.353861 0.525209
0.842109 0.353581 0.524908
0.195375 0.431719 0.518771
0.273093 0.432901 0.519937
0.355800 0.434356 0.521375
0.442342 0.436040 0.523039
0.532055 0.437926 0.524904
0.624505 0.439996 0.526952
0.719389 0.442238 0.529171
0.816484 0.444645 0.531553
0.850077 0.444650 0.531498
0.200932 0.524629 0.524467
0.279201 0.526090 0.525906
0.362498 0.527827 0.527618
0.449667 0.529793 0.529560
0.540044 0.531963 0.531702
0.632228 0.534356 0.534001
0.726668 0.536913 0.536463
0.823132 0.539627 0.539080
0.856750 0.539927 0.539282
0.208043 0.621149 0.531386
0.286704 0.622917 0.533096
0.369951 0.625000 0.535069
0.456908 0.627306 0.537264
0.546900 0.629808 0.539654
0.639488 0.632489 0.542222
0.734360 0.635337 0.544955
0.831288 0.638342 0.547844
0.865431 0.638937 0.548321
0.215410 0.721168 0.539470
0.294118 0.723268 0.541443
0.377732 0.725640 0.543684
0.465083 0.728235 0.546148
0.555498 0.731028 0.548809
0.648538 0.734001 0.551648
0.743894 0.737143 0.554654
0.841338 0.740443 0.557818
0.876051 0.741335 0.558571
0.224001 0.824339 0.548713
0.303093 0.826729 0.550955
0.387119 0.829392 0.553466
0.474911 0.832280 0.556202
0.565799 0.835367 0.559135
0.659343 0.838636 0.562248
0.755236 0.842074 0.565529
0.853250 0.845673 0.568969
0.888544 0.846864 0.569999
0.225602 0.860837 0.550616
0.305121 0.863508 0.553127
0.389604 0.866453 0.555909
0.477884 0.869624 0.558917
0.569292 0.872997 0.562123
0.663390 0.876552 0.565511
0.759872 0.880279 0.569068
0.858510 0.884167 0.572785
0.894350 0.885645 0.574090
0.189036 0.181372 0.599616
0.265395 0.181756 0.599997
0.346650 0.182411 0.600648
0.431643 0.183289 0.601522
0.519710 0.184365 0.602592
0.610415 0.185622 0.603841
0.703452 0.187047 0.605258
0.798584 0.188631 0.606832
0.831684 0.187833 0.606023
0.189502 0.259321 0.601213
0.266291 0.259978 0.601864
0.348005 0.260907 0.602784
0.433488 0.262061 0.603929
0.522076 0.263413 0.605271
0.613335 0.264948 0.606794
0.706961 0.266652 0.608486
0.802727 0.268518 0.610337
0.836200 0.267991 0.609794
0.191850 0.343387 0.604341
0.269109 0.344319 0.605262
0.351326 0.345524 0.606454
0.437346 0.346956 0.607872
0.526504 0.348588 0.609488
0.618367 0.350403 0.611287
0.712631 0.352390 0.613255
0.809073 0.354539 0.615385
0.842989 0.354286 0.615112
0.195913 0.432292 0.608844
0.273684 0.433501 0.610036
0.356450 0.434985 0.611502
0.443053 0.436697 0.613194
0.532830 0.438611 0.615087
0.625348 0.440710 0.617163
0.720305 0.442981 0.619411
0.817476 0.445416 0.621821
0.850707 0.445453 0.621779
0.201594 0.525294 0.614629
0.279921 0.526784 0.616096
0.363280 0.528549 0.617837
0.450515 0.530544 0.619806
0.540669 0.532756 0.621968
0.632892 0.535176 0.624293
0.727373 0.537761 0.626783
0.823881 0.540502 0.629427
0.857549 0.540830 0.629657
0.208829 0.621906 0.621639
0.287364 0.623726 0.623373
0.370646 0.625836 0.625373
0.457640 0.628170 0.627595
0.547673 0.630699 0.630012
0.640303 0.633408 0.632607
0.735222 0.636283 0.635367
0.832199 0.639317 0.638284
0.866397 0.639939 0.638788
0.216165 0.722048 0.629812
0.294909 0.724176 0.631811
0.378562 0.726574 0.634079
0.465955 0.729197 0.636571
0.556416 0.732018 0.639259
0.649504 0.735019 0.642125
0.744912 0.738189 0.645159
0.842411 0.741517 0.648350
0.877182 0.742437 0.649130
0.224883 0.825317 0.639146
0.304016 0.827735 0.641414
0.388086 0.830425 0.643953
0.475925 0.833341 0.646716
0.566862 0.836456 0.649677
0.660460 0.839753 0.652817
0.756410 0.843220 0.656126
0.854484 0.846848 0.659594
0.889836 0.848067 0.660652
0.226610 0.861910 0.641140
0.306174 0.864609 0.643678
0.390705 0.867581 0.646487
0.479037 0.870781 0.649522
0.570501 0.874182 0.652756
0.664658 0.877765 0.656172
0.761202 0.881521 0.659757
0.859906 0.885438 0.663502
0.895797 0.886944 0.664834
0.189240 0.181706 0.691506
0.265640 0.182118 0.691915
0.346939 0.182800 0.692593
0.431980 0.183706 0.693494
0.520097 0.184810 0.694592
0.610856 0.186095 0.695868
0.703950 0.187548 0.697313
0.799148 0.189160 0.698915
0.832279 0.188389 0.698133
0.189832 0.259747 0.693195
0.266666 0.260432 0.693873
0.348429 0.261389 0.694820
0.433964 0.262570 0.695992
0.522608 0.263951 0.697362
0.613926 0.265514 0.698913
0.707613 0.267247 0.700632
0.803445 0.269140 0.702511
0.836960 0.268641 0.701996
0.192305 0.343905 0.696413
0.269614 0.344866 0.697361
0.351884 0.346098 0.698581
0.437960 0.347558 0.700026
0.527179 0.349219 0.701670
0.619106 0.351062 0.703497
0.713438 0.353077 0.705493
0.809950 0.355255 0.707651
0.843915 0.355030 0.707405
0.196493 0.432902 0.701006
0.274318 0.434140 0.702226
0.357141 0.435652 0.703719
0.443806 0.437392 0.705439
0.533648 0.439335 0.707360
0.626236 0.441462 0.709465
0.721265 0.443762 0.711740
0.818137 0.446230 0.714166
0.851382 0.446295 0.714151
0.202297 0.525997 0.706882
0.280683 0.527515 0.708376
0.364104 0.529308 0.710145
0.451406 0.531332 0.712142
0.541338 0.533587 0.714324
0.633600 0.536034 0.716676
0.728123 0.538646 0.719192
0.824675 0.541415 0.721864
0.858394 0.541771 0.722121
0.209636 0.622705 0.713981
0.288066 0.624573 0.715740
0.371383 0.626711 0.717767
0.458415 0.629071 0.720016
0.548488 0.631629 0.722460
0.641163 0.634365 0.725082
0.736128 0.637268 0.727869
0.833155 0.640329 0.730813
0.867410 0.640979 0.731345
0.216961 0.722966 0.722243
0.295743 0.725121 0.724269
0.379435 0.727547 0.726565
0.466871 0.730198 0.729083
0.557377 0.733046 0.731798
0.650515 0.736075 0.734692
0.745974 0.739273 0.737753
0.843529 0.742629 0.740972
0.878358 0.743577 0.741780
0.225806 0.826333 0.731669
0.304980 0.828779 0.733964
0.389094 0.831497 0.736530
0.476981 0.834441 0.739320
0.567969 0.837584 0.742308
0.661621 0.840909 0.745477
0.757628 0.844404 0.748813
0.855764 0.848060 0.752309
0.891172 0.849307 0.753394
0.227658 0.863021 0.733753
0.307268 0.865748 0.736318
0.391849 0.868748 0.739155
0.480234 0.871976 0.742218
0.571753 0.875405 0.745479
0.665969 0.879017 0.748923
0.762576 0.882801 0.752536
0.861347 0.886747 0.756309
0.897288 0.888281 0.757668
0.189481 0.182076 0.785252
0.265923 0.182515 0.785688
0.347267 0.183225 0.786393
0.432356 0.184159 0.787321
0.520524 0.185290 0.788446
0.611337 0.186603 0.789751
0.704489 0.188084 0.791223
0.799754 0.189724 0.792853
0.832916 0.188980 0.792098
0.190200 0.260208 0.787031
0.267080 0.260921 0.787736
0.348892 0.261905 0.788711
0.434480 0.263115 0.789911
0.523179 0.264524 0.791308
0.614556 0.266115 0.792886
0.708306 0.267876 0.794634
0.804205 0.269798 0.796541
0.837762 0.269326 0.796053
0.192798 0.344459 0.790340
0.270157 0.345447 0.791316
0.352481 0.346708 0.792563
0.438615 0.348195 0.794035
0.527894 0.349884 0.795707
0.619885 0.351756 0.797562
0.714285 0.353800 0.799586
0.810869 0.356006 0.801772
0.844884 0.355809 0.801554
0.197110 0.433548 0.795023
0.274990 0.434814 0.796271
0.357871 0.436354 0.797792
0.444598 0.438122 0.799540
0.534506 0.440093 0.801488
0.627163 0.442249 0.803621
0.722266 0.444578 0.805925
0.818810 0.447080 0.808366
0.852100 0.447172 0.808378
0.203039 0.526735 0.800989
0.281483 0.528281 0.802511
0.364968 0.530103 0.804308
0.452322 0.532156 0.806333
0.542048 0.534452 0.808535
0.634349 0.536927 0.810914
0.728913 0.539567 0.813457
0.825511 0.542363 0.816156
0.859282 0.542747 0.816440
0.210343 0.623560 0.808177
0.288806 0.625455 0.809962
0.372159 0.627620 0.812016
0.459229 0.630008 0.814291
0.549344 0.632593 0.816762
0.642063 0.635356 0.819412
0.737075 0.638287 0.822226
0.834153 0.641376 0.825198
0.868464 0.642055 0.825757
0.217796 0.723919 0.816530
0.296615 0.726101 0.818583
0.380348 0.728555 0.820905
0.467826 0.731233 0.823451
0.558379 0.734109 0.826193
0.651565 0.737166 0.829114
0.747078 0.740391 0.832203
0.844688 0.743776 0.835449
0.879577 0.744753 0.836285
0.226767 0.827384 0.826046
0.305983 0.829858 0.828369
0.390142 0.832603 0.830962
0.478077 0.835575 0.833780
0.569116 0.838746 0.836795
0.662822 0.842100 0.839991
0.758888 0.845623 0.843355
0.857085 0.849307 0.846878
0.892550 0.850583 0.847991
0.228745 0.864166 0.828222
0.308402 0.866921 0.830814
0.393032 0.869950 0.833678
0.481469 0.873206 0.836768
0.573045 0.876663 0.840058
0.667321 0.880303 0.843529
0.763992 0.884116 0.847169
0.862830 0.888090 0.850971
0.898820 0.889652 0.852357
0.188904 0.181623 0.818824
0.265389 0.182090 0.819287
0.346778 0.182827 0.820019
0.431915 0.183788 0.820974
0.520135 0.184948 0.822127
0.611002 0.186288 0.823459
0.704212 0.187797 0.824958
0.799539 0.189466 0.826616
0.832739 0.188750 0.825888
0.189749 0.259848 0.820693
0.266676 0.260588 0.821425
0.348537 0.261600 0.822428
0.434178 0.262837 0.823655
0.522934 0.264274 0.825080
0.614371 0.265893 0.826686
0.708184 0.267682 0.828461
0.804149 0.269633 0.830396
0.837749 0.269189 0.829935
0.192473 0.344190 0.824092
0.269882 0.345206 0.825095
0.352260 0.346495 0.826370
0.438452 0.348011 0.827870
0.527792 0.349727 0.829570
0.619848 0.351628 0.831452
0.714316 0.353700 0.833505
0.810973 0.355935 0.835719
0.845037 0.355766 0.835529
0.196909 0.433371 0.828866
0.274844 0.434665 0.830141
0.357784 0.436233 0.831690
0.444573 0.438030 0.833465
0.534547 0.440030 0.835442
0.627275 0.442214 0.837603
0.722451 0.444572 0.839935
0.818669 0.447107 0.842391
0.852004 0.447226 0.842430
0.202961 0.526651 0.834922
0.281465 0.528225 0.836472
0.365013 0.530075 0.838297
0.452178 0.532172 0.840342
0.541941 0.534496 0.842571
0.634281 0.536998 0.844977
0.728889 0.539665 0.847548
0.825532 0.542489 0.850274
0.859355 0.542900 0.850586
0.210231 0.623593 0.842198
0.288728 0.625515 0.844010
0.372117 0.627707 0.846090
0.459227 0.630122 0.848393
0.549383 0.632735 0.850891
0.642146 0.635526 0.853567
0.737207 0.638485 0.856409
0.834336 0.641601 0.859408
0.868704 0.642308 0.859995
0.217811 0.724049 0.850642
0.296668 0.726259 0.852722
0.380442 0.728740 0.855071
0.467965 0.731446 0.857644
0.558563 0.734350 0.860413
0.651800 0.737435 0.863362
0.747366 0.740688 0.866478
0.845032 0.744101 0.869752
0.879979 0.745106 0.870616
0.226909 0.827613 0.860250
0.306168 0.830114 0.862599
0.390372 0.832888 0.865220
0.478355 0.835887 0.868064
0.569446 0.839087 0.871107
0.663208 0.842468 0.874331
0.759332 0.846020 0.877723
0.857591 0.849733 0.881274
0.893112 0.851037 0.882415
0.229014 0.864490 0.862516
0.308717 0.867273 0.865135
0.393397 0.870329 0.868027
0.481888 0.873613 0.871145
0.573520 0.877099 0.874462
0.667857 0.880768 0.877960
0.764592 0.884609 0.881629
0.863497 0.888612 0.885459
0.899535 0.890202 0.886873
