library/cube/Golden_Horizon_000.cube
# CINEGRADE LAB — Premium Cinematic LUT
# Title: Golden Horizon
# Category: Luxury Travel
# Description: Golden hour tones, rich landscapes, and vivid colors for travel content
# Mood: Wanderlust, golden, rich
# Variant: 1
# Generated: 2026-05-21T16:12:23.555377
TITLE "Golden Horizon"
LUT_3D_SIZE 5
0.000000 0.000000 0.000000
0.244518 0.000000 0.000000
0.531675 0.000000 0.000000
0.819038 0.000000 0.000000
1.000000 0.000000 0.000000
0.000000 0.262462 0.000000
0.231469 0.239179 0.000000
0.519187 0.234671 0.000000
0.807308 0.230177 0.000000
1.000000 0.226440 0.000000
0.000000 0.552997 0.000000
0.217650 0.508314 0.000000
0.506258 0.503934 0.000000
0.795463 0.499573 0.000000
1.000000 0.496047 0.000000
0.000000 0.844323 0.000000
0.200976 0.840815 0.000000
0.494300 0.774041 0.000000
0.784917 0.769869 0.000000
1.000000 0.766637 0.000000
0.000000 1.000000 0.000000
0.193636 1.000000 0.000000
0.485041 1.000000 0.000000
0.777438 1.000000 0.000000
1.000000 1.000000 0.000000
0.000000 0.000000 0.263184
0.243127 0.000000 0.259259
0.530326 0.000000 0.254636
0.817751 0.000000 0.249995
1.000000 0.000000 0.246036
0.000000 0.241628 0.249487
0.230147 0.237793 0.245503
0.517941 0.233292 0.240818
0.806157 0.228803 0.236111
1.000000 0.225078 0.232132
0.000000 0.551655 0.231874
0.214104 0.547963 0.227823
0.505113 0.502605 0.225360
0.794447 0.498252 0.220579
1.000000 0.494743 0.216596
0.000000 0.843053 0.215135
0.199790 0.839558 0.211009
0.493257 0.772784 0.209675
0.784036 0.768624 0.204810
1.000000 0.765414 0.200842
0.000000 1.000000 0.204556
0.192531 1.000000 0.200388
0.484113 1.000000 0.195504
0.776707 1.000000 0.190590
1.000000 1.000000 0.186701
0.000000 0.000000 0.537105
0.241685 0.000000 0.533157
0.528930 0.000000 0.528496
0.816420 0.000000 0.523801
1.000000 0.000000 0.519778
0.000000 0.240182 0.523271
0.228774 0.236353 0.519214
0.516647 0.231857 0.514441
0.804962 0.227374 0.509630
1.000000 0.223660 0.505537
0.000000 0.509285 0.507645
0.215093 0.505584 0.503471
0.503922 0.501222 0.498576
0.793388 0.496878 0.493639
1.000000 0.493386 0.489495
0.000000 0.841731 0.488138
0.198554 0.838249 0.483838
0.488663 0.834112 0.478810
0.783112 0.767325 0.477244
1.000000 0.764139 0.473067
0.000000 1.000000 0.476928
0.191377 1.000000 0.472536
0.483139 1.000000 0.467412
0.775934 1.000000 0.462243
1.000000 1.000000 0.458097
0.000000 0.000000 0.811016
0.240251 0.000000 0.807034
0.527544 0.000000 0.802325
0.815103 0.000000 0.797567
1.000000 0.000000 0.793469
0.000000 0.238737 0.797012
0.227408 0.234915 0.792871
0.515364 0.230425 0.787998
0.803781 0.225948 0.783073
1.000000 0.222246 0.778858
0.000000 0.507888 0.781045
0.213796 0.504196 0.776737
0.502741 0.499842 0.771692
0.792343 0.495507 0.766591
1.000000 0.492033 0.762277
0.000000 0.777836 0.764530
0.200828 0.774332 0.760047
0.491088 0.770170 0.754820
0.782203 0.766032 0.749535
1.000000 0.762869 0.745139
0.000000 1.000000 0.749154
0.190231 1.000000 0.744527
0.482177 1.000000 0.739154
0.775175 1.000000 0.733719
1.000000 1.000000 0.729308
0.000000 0.000000 1.000000
0.238881 0.000000 1.000000
0.526226 0.000000 1.000000
0.813858 0.000000 1.000000
1.000000 0.000000 1.000000
0.000000 0.237353 1.000000
0.226107 0.233537 1.000000
0.514149 0.229053 1.000000
0.802672 0.224582 1.000000
1.000000 0.220892 1.000000
0.000000 0.506552 1.000000
0.212564 0.502870 1.000000
0.501628 0.498524 1.000000
0.791370 0.494197 1.000000
1.000000 0.490741 1.000000
0.000000 0.776570 1.000000
0.199665 0.773079 1.000000
0.490078 0.768928 1.000000
0.781365 0.764801 1.000000
1.000000 0.761661 1.000000
0.000000 1.000000 1.000000
0.189151 1.000000 1.000000
0.481283 1.000000 1.000000
0.774488 1.000000 0.994364
1.000000 1.000000 0.989687
