library/cube/Green_Knight_004.cube
# CINEGRADE LAB — Premium Cinematic LUT
# Title: Green Knight
# Category: A24 Inspired
# Description: Artistic, unconventional, mood-driven looks inspired by A24 films
# Mood: Arthouse, unconventional, evocative
# Variant: 5
# Generated: 2026-05-21T16:12:46.407960
TITLE "Green Knight"
LUT_3D_SIZE 33
0.000000 0.000000 0.000000
0.000000 0.000000 0.000000
0.000000 0.000000 0.000000
0.016798 0.001586 0.001619
0.039599 0.003737 0.003813
0.063126 0.005954 0.006074
0.087132 0.008214 0.008377
0.111506 0.010506 0.010712
0.136182 0.012824 0.013072
0.161118 0.015165 0.015453
0.186284 0.017525 0.017853
0.211657 0.019902 0.020269
0.237220 0.022295 0.022700
0.262959 0.024702 0.025143
0.288861 0.027122 0.027599
0.314919 0.029554 0.030065
0.341122 0.031998 0.032542
0.367464 0.034452 0.035029
0.393939 0.036917 0.037525
0.420542 0.039392 0.040029
0.447266 0.041875 0.042542
0.474109 0.044368 0.045062
0.501066 0.046869 0.047589
0.528133 0.049379 0.050124
0.555308 0.051896 0.052665
0.582587 0.054421 0.055213
0.609967 0.056953 0.057767
0.637445 0.059492 0.060327
0.665020 0.062039 0.062892
0.692690 0.064592 0.065464
0.714821 0.066627 0.067509
0.715407 0.066653 0.067517
0.715990 0.066680 0.067526
0.000000 0.000000 0.000000
0.000001 0.000000 0.000000
0.000001 0.000000 0.000000
0.016855 0.001589 0.001620
0.039729 0.003743 0.003815
0.063331 0.005963 0.006077
0.087413 0.008227 0.008382
0.111862 0.010522 0.010717
0.136614 0.012844 0.013079
0.161626 0.015188 0.015461
0.186867 0.017552 0.017862
0.212315 0.019932 0.020279
0.237953 0.022328 0.022711
0.263765 0.024738 0.025155
0.289741 0.027162 0.027612
0.315871 0.029597 0.030080
0.342147 0.032044 0.032558
0.368561 0.034502 0.035046
0.395107 0.036970 0.037543
0.421780 0.039448 0.040048
0.448575 0.041935 0.042561
0.475487 0.044431 0.045083
0.502513 0.046935 0.047611
0.529648 0.049448 0.050147
0.556890 0.051968 0.052689
0.584236 0.054496 0.055238
0.611682 0.057031 0.057792
0.639226 0.059574 0.060353
0.666866 0.062123 0.062920
0.694599 0.064679 0.065492
0.716779 0.066716 0.067537
0.717355 0.066743 0.067546
0.717927 0.066769 0.067554
0.003295 0.013549 0.003479
0.003299 0.013555 0.003479
0.003303 0.013561 0.003480
0.020214 0.015158 0.005101
0.043163 0.017321 0.007298
0.066842 0.019550 0.009562
0.091002 0.021822 0.011868
0.115529 0.024127 0.014205
0.140358 0.026458 0.016568
0.165447 0.028811 0.018952
0.190765 0.031183 0.021355
0.216289 0.033572 0.023774
0.242003 0.035977 0.026207
0.267891 0.038396 0.028653
0.293942 0.040828 0.031111
0.320146 0.043272 0.033580
0.346496 0.045728 0.036060
0.372983 0.048194 0.038549
0.399602 0.050671 0.041048
0.426347 0.053157 0.043555
0.453213 0.055652 0.046069
0.480196 0.058156 0.048592
0.507292 0.060669 0.051122
0.534497 0.063190 0.053659
0.561808 0.065718 0.056203
0.589222 0.068254 0.058753
0.616736 0.070797 0.061309
0.644347 0.073347 0.063871
0.672053 0.075904 0.066439
0.699852 0.078468 0.069012
0.722082 0.080512 0.071059
0.722651 0.080544 0.071067
0.723216 0.080575 0.071076
0.009865 0.040498 0.010389
0.009876 0.040515 0.010391
0.009886 0.040533 0.010392
0.026856 0.042143 0.012015
0.049883 0.044320 0.014215
0.073641 0.046564 0.016480
0.097879 0.048850 0.018788
0.122484 0.051169 0.021128
0.147392 0.053514 0.023493
0.172560 0.055881 0.025879
0.197956 0.058267 0.028284
0.223558 0.060670 0.030704
0.249349 0.063089 0.033139
0.275314 0.065521 0.035588
0.301442 0.067967 0.038048
0.327722 0.070425 0.040519
0.354147 0.072894 0.043001
0.380709 0.075373 0.045492
0.407402 0.077863 0.047992
0.434220 0.080362 0.050501
0.461159 0.082870 0.053017
0.488214 0.085387 0.055542
0.515382 0.087912 0.058074
0.542657 0.090446 0.060612
0.570038 0.092987 0.063158
0.597522 0.095535 0.065709
0.625104 0.098091 0.068267
0.652784 0.100653 0.070831
0.680558 0.103222 0.073401
0.708424 0.105798 0.075976
0.730706 0.107854 0.078024
0.731269 0.107894 0.078033
0.731830 0.107934 0.078042
0.016712 0.068484 0.017553
0.016730 0.068513 0.017555
0.016747 0.068541 0.017558
0.033775 0.070165 0.019183
0.056878 0.072357 0.021384
0.080712 0.074614 0.023652
0.105028 0.076915 0.025962
0.129711 0.079248 0.028303
0.154696 0.081606 0.030670
0.179941 0.083987 0.033059
0.205414 0.086387 0.035465
0.231093 0.088804 0.037888
0.256959 0.091236 0.040325
0.283000 0.093682 0.042775
0.309203 0.096141 0.045237
0.335557 0.098612 0.047710
0.362056 0.101094 0.050194
0.388691 0.103586 0.052687
0.415457 0.106089 0.055189
0.442348 0.108601 0.057699
0.469358 0.111122 0.060218
0.496484 0.113652 0.062744
0.523722 0.116190 0.065277
0.551067 0.118735 0.067818
0.578518 0.121289 0.070365
0.606069 0.123849 0.072918
0.633720 0.126417 0.075478
0.661466 0.128992 0.078043
0.689307 0.131573 0.080614
0.717239 0.134160 0.083191
0.739571 0.136227 0.085240
0.740130 0.136276 0.085250
0.740687 0.136325 0.085260
0.023742 0.097116 0.024869
0.023766 0.097156 0.024872
0.023791 0.097196 0.024876
0.040876 0.098833 0.026503
0.064053 0.101038 0.028706
0.087962 0.103309 0.030975
0.112354 0.105624 0.033288
0.137113 0.107970 0.035631
0.162175 0.110342 0.038000
0.187495 0.112737 0.040390
0.213043 0.115150 0.042799
0.238797 0.117580 0.045223
0.264739 0.120025 0.047662
0.290853 0.122484 0.050114
0.317129 0.124956 0.052578
0.343557 0.127440 0.055053
0.370129 0.129935 0.057539
0.396836 0.132441 0.060033
0.423673 0.134956 0.062537
0.450634 0.137480 0.065049
0.477715 0.140014 0.067570
0.504911 0.142556 0.070098
0.532217 0.145106 0.072633
0.559631 0.147664 0.075175
0.587149 0.150229 0.077724
0.614768 0.152802 0.080279
0.642485 0.155381 0.082840
0.670297 0.157968 0.085407
0.698203 0.160560 0.087979
0.726199 0.163159 0.090558
0.748582 0.165237 0.092608
0.749137 0.165295 0.092618
0.749689 0.165352 0.092628
0.030916 0.126235 0.032297
0.030947 0.126286 0.032302
0.030978 0.126336 0.032306
0.048119 0.127986 0.033934
0.071368 0.130204 0.036139
0.095353 0.132489 0.038411
0.119819 0.134817 0.040725
0.144652 0.137176 0.043071
0.169788 0.139562 0.045442
0.195183 0.141969 0.047834
0.220805 0.144395 0.050244
0.246633 0.146838 0.052670
0.272647 0.149297 0.055111
0.298835 0.151769 0.057565
0.325183 0.154253 0.060031
0.351683 0.156750 0.062507
0.378325 0.159257 0.064994
0.405103 0.161775 0.067491
0.432010 0.164302 0.069996
0.459041 0.166839 0.072510
0.486191 0.169384 0.075032
0.513455 0.171938 0.077562
0.540829 0.174500 0.080099
0.568310 0.177070 0.082642
0.595894 0.179647 0.085193
0.623579 0.182231 0.087749
0.651361 0.184822 0.090312
0.679238 0.187419 0.092880
0.707208 0.190024 0.095454
0.735267 0.192634 0.098034
0.757699 0.194722 0.100086
0.758250 0.194788 0.100096
0.758798 0.194853 0.100107
0.038212 0.155751 0.039815
0.038249 0.155812 0.039820
0.038287 0.155873 0.039825
0.055483 0.157535 0.041455
0.078804 0.159767 0.043662
0.102861 0.162065 0.045936
0.127400 0.164405 0.048251
0.152307 0.166778 0.050599
0.177516 0.169176 0.052972
0.202983 0.171596 0.055366
0.228678 0.174035 0.057778
0.254578 0.176490 0.060206
0.280664 0.178961 0.062648
0.306923 0.181445 0.065104
0.333342 0.183942 0.067571
0.359912 0.186450 0.070050
0.386625 0.188969 0.072539
0.413472 0.191499 0.075037
0.440448 0.194038 0.077544
0.467547 0.196587 0.080059
0.494764 0.199144 0.082583
0.522095 0.201709 0.085114
0.549535 0.204283 0.087652
0.577082 0.206863 0.090197
0.604732 0.209452 0.092749
0.632481 0.212047 0.095307
0.660327 0.214649 0.097871
0.688267 0.217257 0.100441
0.716299 0.219872 0.103017
0.744421 0.222493 0.105598
0.766901 0.224591 0.107651
0.767447 0.224665 0.107662
0.767992 0.224738 0.107673
0.045616 0.185607 0.047407
0.045659 0.185679 0.047413
0.045703 0.185750 0.047419
0.062954 0.187423 0.049051
0.086345 0.189667 0.051259
0.110473 0.191978 0.053535
0.135084 0.194331 0.055852
0.160063 0.196716 0.058201
0.185343 0.199126 0.060576
0.210882 0.201558 0.062972
0.236648 0.204009 0.065385
0.262619 0.206477 0.067815
0.288776 0.208959 0.070260
0.315104 0.211455 0.072717
0.341593 0.213964 0.075186
0.368232 0.216484 0.077666
0.395013 0.219015 0.080156
0.421928 0.221556 0.082656
0.448971 0.224106 0.085165
0.476137 0.226666 0.087682
0.503420 0.229234 0.090207
0.530817 0.231811 0.092739
0.558322 0.234395 0.095279
0.585933 0.236987 0.097826
0.613647 0.239586 0.100379
0.641459 0.242191 0.102938
0.669368 0.244804 0.105504
0.697370 0.247423 0.108075
0.725464 0.250048 0.110652
0.753647 0.252679 0.113234
0.776173 0.254787 0.115288
0.776716 0.254868 0.115299
0.777257 0.254949 0.115311
0.053118 0.215763 0.055063
0.053168 0.215843 0.055070
0.053218 0.215924 0.055077
0.070521 0.217609 0.056710
0.093981 0.219865 0.058921
0.118179 0.222188 0.061198
0.142860 0.224553 0.063517
0.167909 0.226949 0.065868
0.193260 0.229372 0.068244
0.218869 0.231815 0.070641
0.244705 0.234278 0.073057
0.270745 0.236757 0.075488
0.296971 0.239251 0.077934
0.323368 0.241758 0.080393
0.349925 0.244278 0.082864
0.376632 0.246809 0.085345
0.403479 0.249351 0.087837
0.430461 0.251903 0.090338
0.457570 0.254465 0.092849
0.484801 0.257035 0.095367
0.512150 0.259614 0.097894
0.539611 0.262201 0.100428
0.567180 0.264796 0.102969
0.594855 0.267398 0.105517
0.622630 0.270007 0.108071
0.650505 0.272623 0.110632
0.678475 0.275246 0.113199
0.706538 0.277875 0.115771
0.734692 0.280510 0.118349
0.762935 0.283151 0.120933
0.785507 0.285268 0.122988
0.786046 0.285356 0.122999
0.786583 0.285443 0.123011
0.060710 0.246186 0.062777
0.060766 0.246276 0.062785
0.060823 0.246366 0.062793
0.078178 0.248062 0.064427
0.101705 0.250330 0.066639
0.125972 0.252663 0.068918
0.150722 0.255040 0.071239
0.175840 0.257448 0.073591
0.201260 0.259881 0.075969
0.226937 0.262337 0.078368
0.252842 0.264810 0.080785
0.278950 0.267300 0.083218
0.305243 0.269805 0.085665
0.331708 0.272324 0.088125
0.358331 0.274854 0.090598
0.385104 0.277396 0.093081
0.412017 0.279949 0.095574
0.439064 0.282511 0.098077
0.466238 0.285083 0.100588
0.493534 0.287664 0.103108
0.520946 0.290253 0.105636
0.548470 0.292850 0.108171
0.576102 0.295455 0.110714
0.603838 0.298067 0.113263
0.631675 0.300686 0.115818
0.659611 0.303311 0.118380
0.687641 0.305944 0.120948
0.715764 0.308582 0.123522
0.743977 0.311226 0.126101
0.772278 0.313877 0.128686
0.794895 0.316002 0.130742
0.795431 0.316097 0.130754
0.795963 0.316191 0.130766
0.068387 0.276853 0.070541
0.068449 0.276952 0.070550
0.068512 0.277050 0.070558
0.085918 0.278757 0.072194
0.109511 0.281036 0.074408
0.133845 0.283381 0.076688
0.158662 0.285768 0.079010
0.183848 0.288187 0.081364
0.209335 0.290632 0.083744
0.235080 0.293097 0.086144
0.261052 0.295582 0.088563
0.287226 0.298082 0.090997
0.313586 0.300598 0.093446
0.340116 0.303126 0.095908
0.366805 0.305667 0.098381
0.393643 0.308219 0.100866
0.420621 0.310782 0.103360
0.447732 0.313355 0.105864
0.474970 0.315936 0.108377
0.502328 0.318527 0.110898
0.529802 0.321126 0.113427
0.557388 0.323733 0.115964
0.585081 0.326347 0.118508
0.612878 0.328968 0.121058
0.640776 0.331596 0.123615
0.668770 0.334231 0.126178
0.696860 0.336873 0.128747
0.725041 0.339520 0.131322
0.753312 0.342173 0.133902
0.781670 0.344832 0.136488
0.804332 0.346966 0.138545
0.804863 0.347067 0.138557
0.805393 0.347167 0.138569
0.076143 0.307745 0.078352
0.076211 0.307852 0.078361
0.076280 0.307958 0.078370
0.093736 0.309675 0.080007
0.117394 0.311965 0.082222
0.141793 0.314320 0.084504
0.166677 0.316718 0.086828
0.191929 0.319147 0.089184
0.217483 0.321602 0.091564
0.243293 0.324078 0.093966
0.269331 0.326573 0.096386
0.295571 0.329083 0.098822
0.321995 0.331609 0.101272
0.348590 0.334147 0.103735
0.375343 0.336698 0.106210
0.402245 0.339260 0.108696
0.429286 0.341832 0.111192
0.456460 0.344414 0.113697
0.483759 0.347005 0.116211
0.511179 0.349605 0.118733
0.538715 0.352213 0.121264
0.566361 0.354829 0.123801
0.594114 0.357452 0.126346
0.621971 0.360083 0.128898
0.649927 0.362720 0.131456
0.677980 0.365363 0.134020
0.706127 0.368013 0.136590
0.734366 0.370669 0.139166
0.762693 0.373331 0.141747
0.791107 0.375998 0.144334
0.813812 0.378140 0.146391
0.814340 0.378246 0.146404
0.814866 0.378352 0.146416
0.083974 0.338844 0.086205
0.084048 0.338959 0.086215
0.084123 0.339073 0.086225
0.101627 0.340800 0.087863
0.125349 0.343099 0.090079
0.149813 0.345465 0.092362
0.174762 0.347873 0.094688
0.200079 0.350312 0.097045
0.225697 0.352776 0.099427
0.251573 0.355262 0.101830
0.277674 0.357766 0.104251
0.303978 0.360287 0.106688
0.330467 0.362822 0.109140
0.357125 0.365370 0.111604
0.383941 0.367929 0.114080
0.410905 0.370501 0.116567
0.438008 0.373082 0.119064
0.465243 0.375673 0.121571
0.492603 0.378273 0.124086
0.520084 0.380882 0.126609
0.547679 0.383498 0.129141
0.575385 0.386123 0.131679
0.603197 0.388755 0.134225
0.631111 0.391393 0.136778
0.659125 0.394039 0.139337
0.687236 0.396691 0.141902
0.715439 0.399349 0.144473
0.743734 0.402012 0.147050
0.772117 0.404682 0.149632
0.800586 0.407357 0.152219
0.823191 0.409506 0.154278
0.823701 0.409618 0.154290
0.824208 0.409730 0.154302
0.091877 0.370137 0.094097
0.091957 0.370259 0.094107
0.092037 0.370381 0.094118
0.109590 0.372117 0.095757
0.133374 0.374426 0.097975
0.157901 0.376801 0.100259
0.182913 0.379218 0.102586
0.208294 0.381667 0.104944
0.233976 0.384141 0.107327
0.259915 0.386636 0.109732
0.286079 0.389149 0.112154
0.312446 0.391678 0.114593
0.338997 0.394222 0.117045
0.365717 0.396779 0.119511
0.392595 0.399348 0.121988
0.419620 0.401928 0.124476
0.446783 0.404518 0.126974
0.474079 0.407117 0.129482
0.501499 0.409726 0.131998
0.529038 0.412342 0.134523
0.556692 0.414967 0.137055
0.584456 0.417600 0.139595
0.612326 0.420240 0.142142
0.640297 0.422886 0.144695
0.668368 0.425540 0.147255
0.696534 0.428199 0.149821
0.724794 0.430865 0.152393
0.753143 0.433536 0.154971
0.781580 0.436213 0.157553
0.810103 0.438895 0.160142
0.832491 0.441051 0.162201
0.832989 0.441168 0.162213
0.833483 0.441285 0.162226
0.099848 0.401611 0.102025
0.099934 0.401741 0.102036
0.100020 0.401870 0.102047
0.117619 0.403614 0.103687
0.141464 0.405932 0.105906
0.166053 0.408316 0.108192
0.191128 0.410742 0.110519
0.216571 0.413200 0.112879
0.242315 0.415682 0.115263
0.268316 0.418186 0.117669
0.294543 0.420708 0.120093
0.320971 0.423246 0.122532
0.347583 0.425798 0.124986
0.374364 0.428364 0.127453
0.401302 0.430941 0.129931
0.428387 0.433528 0.132420
0.455610 0.436127 0.134919
0.482964 0.438734 0.137428
0.510443 0.441350 0.139945
0.538040 0.443975 0.142471
0.565752 0.446608 0.145004
0.593572 0.449248 0.147545
0.621498 0.451895 0.150092
0.649526 0.454549 0.152647
0.677652 0.457210 0.155207
0.705873 0.459877 0.157774
0.734187 0.462549 0.160347
0.762590 0.465228 0.162925
0.791080 0.467912 0.165509
0.819611 0.470601 0.168098
0.841771 0.472763 0.170157
0.842255 0.472884 0.170170
0.842735 0.473005 0.170182
0.107885 0.433256 0.109987
0.107977 0.433392 0.109998
0.108068 0.433528 0.110009
0.125714 0.435280 0.111650
0.149618 0.437606 0.113871
0.174268 0.439999 0.116157
0.199403 0.442434 0.118486
0.224908 0.444900 0.120847
0.250713 0.447391 0.123233
0.276775 0.449903 0.125639
0.303062 0.452433 0.128064
0.329551 0.454979 0.130505
0.356223 0.457539 0.132960
0.383063 0.460112 0.135427
0.410060 0.462697 0.137907
0.437204 0.465293 0.140397
0.464485 0.467898 0.142897
0.491897 0.470513 0.145406
0.519433 0.473137 0.147924
0.547087 0.475769 0.150451
0.574855 0.478409 0.152985
0.602731 0.481056 0.155526
0.630712 0.483710 0.158075
0.658795 0.486371 0.160630
0.686975 0.489039 0.163192
0.715250 0.491712 0.165759
0.743616 0.494391 0.168332
0.772072 0.497076 0.170911
0.800615 0.499767 0.173496
0.828904 0.502462 0.176085
0.851023 0.504630 0.178145
0.851492 0.504756 0.178158
0.851958 0.504880 0.178170
0.115986 0.465062 0.117980
0.116082 0.465204 0.117991
0.116179 0.465346 0.118003
0.133870 0.467105 0.119645
0.157833 0.469440 0.121867
0.182542 0.471841 0.124154
0.207737 0.474283 0.126485
0.233302 0.476757 0.128846
0.259167 0.479256 0.131233
0.285288 0.481776 0.133641
0.311635 0.484314 0.136066
0.338182 0.486867 0.138508
0.364913 0.489435 0.140964
0.391812 0.492015 0.143432
0.418867 0.494607 0.145912
0.446068 0.497210 0.148403
0.473406 0.499823 0.150904
0.500874 0.502445 0.153415
0.528466 0.505075 0.155934
0.556176 0.507714 0.158461
0.583999 0.510361 0.160996
0.611930 0.513015 0.163538
0.639966 0.515675 0.166087
0.668102 0.518343 0.168643
0.696335 0.521016 0.171205
0.724662 0.523696 0.173773
0.753081 0.526381 0.176347
0.781588 0.529072 0.178927
0.810182 0.531768 0.181512
0.838169 0.534470 0.184102
0.860239 0.536643 0.186162
0.860693 0.536772 0.186175
0.861143 0.536901 0.186187
0.124147 0.497020 0.126003
0.124249 0.497168 0.126014
0.124351 0.497315 0.126026
0.142085 0.499082 0.127669
0.166106 0.501424 0.129892
0.190874 0.503832 0.132181
0.216127 0.506282 0.134512
0.241750 0.508763 0.136874
0.267674 0.511270 0.139262
0.293854 0.513797 0.141671
0.320259 0.516341 0.144097
0.346864 0.518902 0.146540
0.373652 0.521477 0.148996
0.400608 0.524064 0.151466
0.427720 0.526663 0.153947
0.454977 0.529272 0.156439
0.482371 0.531891 0.158940
0.509895 0.534520 0.161451
0.537542 0.537157 0.163971
0.565306 0.539802 0.166499
0.593183 0.542455 0.169035
0.621168 0.545115 0.171577
0.649256 0.547781 0.174127
0.677444 0.550455 0.176684
0.705730 0.553134 0.179246
0.734108 0.555819 0.181815
0.762578 0.558510 0.184390
0.791136 0.561207 0.186970
0.819769 0.563908 0.189555
0.847398 0.566615 0.192146
0.869413 0.568793 0.194206
0.869850 0.568925 0.194219
0.870283 0.569057 0.194231
0.132367 0.529122 0.134053
0.132474 0.529275 0.134065
0.132581 0.529427 0.134077
0.150359 0.531201 0.135721
0.174436 0.533550 0.137945
0.199260 0.535965 0.140234
0.224572 0.538422 0.142566
0.250252 0.540910 0.144930
0.276233 0.543423 0.147318
0.302470 0.545957 0.149728
0.328932 0.548509 0.152155
0.355594 0.551076 0.154598
0.382439 0.553657 0.157056
0.409451 0.556250 0.159526
0.436618 0.558855 0.162008
0.463930 0.561471 0.164500
0.491379 0.564096 0.167003
0.518957 0.566731 0.169515
0.546658 0.569374 0.172035
0.574475 0.572025 0.174563
0.602405 0.574683 0.177100
0.630442 0.577348 0.179643
0.658582 0.580021 0.182193
0.686822 0.582699 0.184750
0.715158 0.585384 0.187314
0.743587 0.588074 0.189883
0.772106 0.590771 0.192458
0.800713 0.593472 0.195038
0.829023 0.596178 0.197624
0.856583 0.598890 0.200215
0.878537 0.601072 0.202276
0.878957 0.601207 0.202288
0.879372 0.601342 0.202300
0.140644 0.561360 0.142130
0.140756 0.561519 0.142142
0.140868 0.561676 0.142155
0.158688 0.563455 0.143799
0.182820 0.565811 0.146023
0.207701 0.568233 0.148314
0.233068 0.570696 0.150647
0.258805 0.573191 0.153011
0.284842 0.575710 0.155400
0.311136 0.578250 0.157810
0.337653 0.580807 0.160239
0.364371 0.583381 0.162683
0.391270 0.585967 0.165141
0.418337 0.588567 0.167612
0.445558 0.591178 0.170094
0.472925 0.593799 0.172587
0.500427 0.596430 0.175090
0.528058 0.599070 0.177603
0.555812 0.601718 0.180123
0.583681 0.604374 0.182653
0.611663 0.607038 0.185189
0.639751 0.609708 0.187733
0.667942 0.612386 0.190284
0.696232 0.615069 0.192841
0.724618 0.617759 0.195405
0.753096 0.620454 0.197975
0.781664 0.623154 0.200550
0.810319 0.625860 0.203131
0.838236 0.628571 0.205717
0.865719 0.631287 0.208308
0.887605 0.633473 0.210369
0.888006 0.633611 0.210381
0.888402 0.633747 0.210392
0.148975 0.593729 0.150231
0.149093 0.593892 0.150244
0.149210 0.594053 0.150256
0.167072 0.595838 0.151902
0.191257 0.598200 0.154126
0.216193 0.600628 0.156418
0.241615 0.603097 0.158751
0.267407 0.605597 0.161116
0.293500 0.608122 0.163506
0.319848 0.610668 0.165917
0.346420 0.613231 0.168346
0.373192 0.615810 0.170791
0.400145 0.618402 0.173249
0.427266 0.621007 0.175721
0.454541 0.623623 0.178204
0.481960 0.626249 0.180698
0.509515 0.628885 0.183201
0.537198 0.631530 0.185714
0.565003 0.634183 0.188235
0.592923 0.636844 0.190765
0.620955 0.639513 0.193302
0.649094 0.642188 0.195846
0.677334 0.644869 0.198397
0.705673 0.647557 0.200955
0.734108 0.650251 0.203519
0.762634 0.652950 0.206089
0.791250 0.655655 0.208665
0.819953 0.658365 0.211246
0.847400 0.661080 0.213832
0.874799 0.663799 0.216423
0.896610 0.665988 0.218484
0.896990 0.666128 0.218496
0.897367 0.666267 0.218507
0.157361 0.626221 0.158356
0.157483 0.626388 0.158369
0.157605 0.626553 0.158382
0.175507 0.628343 0.160027
0.199746 0.630711 0.162253
0.224735 0.633144 0.164545
0.250211 0.635619 0.166879
0.276057 0.638124 0.169245
0.302204 0.640655 0.171635
0.328606 0.643205 0.174047
0.355231 0.645774 0.176476
0.382056 0.648357 0.178921
0.409063 0.650955 0.181381
0.436236 0.653564 0.183853
0.463563 0.656185 0.186336
0.491033 0.658816 0.188830
0.518640 0.661456 0.191334
0.546374 0.664106 0.193847
0.574229 0.666763 0.196369
0.602200 0.669428 0.198899
0.630281 0.672101 0.201437
0.658469 0.674780 0.203981
0.686758 0.677466 0.206533
0.715145 0.680157 0.209091
0.743627 0.682855 0.211655
0.772201 0.685558 0.214225
0.800863 0.688266 0.216801
0.829208 0.690979 0.219382
0.856510 0.693698 0.221968
0.883815 0.696420 0.224560
0.905544 0.698612 0.226621
0.905904 0.698754 0.226632
0.906259 0.698894 0.226643
0.165798 0.658831 0.166503
0.165925 0.659001 0.166516
0.166052 0.659170 0.166529
0.183994 0.660965 0.168175
0.208284 0.663337 0.170401
0.233325 0.665775 0.172694
0.258855 0.668255 0.175029
0.284754 0.670765 0.177395
0.310953 0.673300 0.179786
0.337407 0.675856 0.182198
0.364085 0.678429 0.184628
0.390963 0.681017 0.187073
0.418021 0.683618 0.189533
0.445245 0.686232 0.192006
0.472623 0.688857 0.194489
0.500145 0.691492 0.196984
0.527801 0.694137 0.199488
0.555585 0.696790 0.202002
0.583489 0.699451 0.204524
0.611509 0.702120 0.207054
0.639639 0.704796 0.209592
0.667874 0.707479 0.212137
0.696211 0.710168 0.214688
0.724646 0.712863 0.217246
0.753174 0.715564 0.219811
0.781794 0.718270 0.222381
0.810502 0.720982 0.224957
0.838353 0.723698 0.227538
0.865558 0.726419 0.230125
0.892760 0.729145 0.232716
0.914401 0.731339 0.234777
0.914739 0.731481 0.234788
0.915072 0.731622 0.234798
0.174285 0.691553 0.174672
0.174417 0.691726 0.174685
0.174548 0.691897 0.174697
0.192529 0.693696 0.176344
0.216870 0.696073 0.178570
0.241963 0.698516 0.180863
0.267544 0.701000 0.183199
0.293495 0.703515 0.185565
0.319746 0.706054 0.187957
0.346252 0.708613 0.190369
0.372981 0.711190 0.192800
0.399910 0.713782 0.195246
0.427018 0.716388 0.197706
0.454293 0.719006 0.200178
0.481721 0.721634 0.202663
0.509292 0.724273 0.205157
0.536998 0.726921 0.207662
0.564830 0.729578 0.210176
0.592783 0.732243 0.212698
0.620851 0.734915 0.215228
0.649028 0.737594 0.217766
0.677310 0.740280 0.220311
0.705693 0.742972 0.222863
0.734174 0.745670 0.225421
0.762748 0.748373 0.227986
0.791413 0.751082 0.230556
0.820165 0.753796 0.233132
0.847438 0.756515 0.235713
0.874537 0.759238 0.238299
0.901629 0.761966 0.240891
0.923174 0.764162 0.242952
0.923489 0.764305 0.242962
0.923799 0.764447 0.242972
0.182822 0.724381 0.182860
0.182958 0.724556 0.182873
0.183094 0.724730 0.182885
0.201113 0.726533 0.184532
0.225503 0.728914 0.186759
0.250647 0.731360 0.189053
0.276279 0.733848 0.191388
0.302280 0.736367 0.193755
0.328581 0.738910 0.196147
0.355138 0.741473 0.198560
0.381917 0.744054 0.200991
0.408896 0.746649 0.203437
0.436054 0.749258 0.205897
0.463378 0.751879 0.208370
0.490855 0.754511 0.210855
0.518474 0.757153 0.213350
0.546228 0.759804 0.215855
0.574108 0.762464 0.218368
0.602108 0.765131 0.220891
0.630223 0.767806 0.223421
0.658446 0.770488 0.225959
0.686774 0.773176 0.228504
0.715203 0.775871 0.231056
0.743728 0.778571 0.233614
0.772347 0.781277 0.236179
0.801056 0.783988 0.238749
0.829464 0.786704 0.241325
0.856456 0.789424 0.243906
0.883441 0.792150 0.246492
0.910415 0.794879 0.249083
0.931857 0.797077 0.251144
0.932147 0.797220 0.251153
0.932432 0.797362 0.251163
0.191406 0.757310 0.191067
0.191546 0.757488 0.191080
0.191686 0.757664 0.191093
0.209743 0.759469 0.192740
0.234182 0.761854 0.194967
0.259375 0.764304 0.197261
0.285056 0.766795 0.199597
0.311107 0.769317 0.201964
0.337458 0.771863 0.204356
0.364064 0.774430 0.206769
0.390893 0.777013 0.209200
0.417920 0.779612 0.211647
0.445127 0.782224 0.214107
0.472499 0.784848 0.216580
0.500023 0.787482 0.219065
0.527690 0.790127 0.221560
0.555491 0.792780 0.224065
0.583418 0.795442 0.226579
0.611464 0.798112 0.229101
