library/cube/Green_Knight_004.cube
# CINEGRADE LAB — Premium Cinematic LUT
# Title: Green Knight
# Category: A24 Inspired
# Description: Artistic, unconventional, mood-driven looks inspired by A24 films
# Mood: Arthouse, unconventional, evocative
# Variant: 5
# Generated: 2026-05-21T16:12:46.407960
TITLE "Green Knight"
LUT_3D_SIZE 9
0.000000 0.000000 0.000000
0.039599 0.003737 0.003813
0.136182 0.012824 0.013072
0.237220 0.022295 0.022700
0.341122 0.031998 0.032542
0.447266 0.041875 0.042542
0.555308 0.051896 0.052665
0.665020 0.062039 0.062892
0.715990 0.066680 0.067526
0.016712 0.068484 0.017553
0.056878 0.072357 0.021384
0.154696 0.081606 0.030670
0.256959 0.091236 0.040325
0.362056 0.101094 0.050194
0.469358 0.111122 0.060218
0.578518 0.121289 0.070365
0.689307 0.131573 0.080614
0.740687 0.136325 0.085260
0.045616 0.185607 0.047407
0.086345 0.189667 0.051259
0.185343 0.199126 0.060576
0.288776 0.208959 0.070260
0.395013 0.219015 0.080156
0.503420 0.229234 0.090207
0.613647 0.239586 0.100379
0.725464 0.250048 0.110652
0.777257 0.254949 0.115311
0.076143 0.307745 0.078352
0.117394 0.311965 0.082222
0.217483 0.321602 0.091564
0.321995 0.331609 0.101272
0.429286 0.341832 0.111192
0.538715 0.352213 0.121264
0.649927 0.362720 0.131456
0.762693 0.373331 0.141747
0.814866 0.378352 0.146416
0.107885 0.433256 0.109987
0.149618 0.437606 0.113871
0.250713 0.447391 0.123233
0.356223 0.457539 0.132960
0.464485 0.467898 0.142897
0.574855 0.478409 0.152985
0.686975 0.489039 0.163192
0.800615 0.499767 0.173496
0.851958 0.504880 0.178170
0.140644 0.561360 0.142130
0.182820 0.565811 0.146023
0.284842 0.575710 0.155400
0.391270 0.585967 0.165141
0.500427 0.596430 0.175090
0.611663 0.607038 0.185189
0.724618 0.617759 0.195405
0.838236 0.628571 0.205717
0.888402 0.633747 0.210392
0.174285 0.691553 0.174672
0.216870 0.696073 0.178570
0.319746 0.706054 0.187957
0.427018 0.716388 0.197706
0.536998 0.726921 0.207662
0.649028 0.737594 0.217766
0.762748 0.748373 0.227986
0.874537 0.759238 0.238299
0.923799 0.764447 0.242972
0.208711 0.823453 0.207535
0.251671 0.828013 0.211435
0.355331 0.838043 0.220825
0.463379 0.848422 0.230577
0.574111 0.858993 0.240534
0.686869 0.869698 0.250638
0.801288 0.880504 0.260856
0.909638 0.891389 0.271166
0.957709 0.896600 0.275830
0.231767 0.909006 0.228641
0.275047 0.913543 0.232535
0.379404 0.923560 0.241922
0.488139 0.933636 0.251670
0.599539 0.943631 0.261621
0.712939 0.953661 0.271718
0.827974 0.963685 0.281926
0.932207 0.973678 0.292226
0.978874 0.978272 0.296877
0.001911 0.001985 0.061703
0.041569 0.005728 0.065556
0.138283 0.014825 0.074855
0.239450 0.024304 0.084521
0.343477 0.034015 0.094401
0.449744 0.043902 0.104437
0.557903 0.053930 0.114596
0.667729 0.064081 0.124857
0.718742 0.068727 0.129522
0.018671 0.070520 0.079386
0.058892 0.074397 0.083253
0.156831 0.083654 0.092576
0.259214 0.093291 0.102265
0.364426 0.103156 0.112167
0.471841 0.113192 0.122224
0.581110 0.123365 0.132403
0.692003 0.133655 0.142682
0.743424 0.138411 0.147356
0.047633 0.187711 0.109360
0.088413 0.191774 0.113245
0.187523 0.201238 0.122593
0.291065 0.211076 0.132308
0.397409 0.221137 0.142234
0.505921 0.231361 0.152313
0.616248 0.241717 0.162513
0.728161 0.252183 0.172812
0.779991 0.257086 0.177495
0.078214 0.309907 0.140412
0.119513 0.314128 0.144311
0.219704 0.323768 0.153681
0.324318 0.333778 0.163415
0.431707 0.344004 0.173361
0.541231 0.354388 0.183457
0.652536 0.364897 0.193673
0.765391 0.375510 0.203987
0.817591 0.380531 0.208676
0.110007 0.435466 0.172140
0.151783 0.439816 0.176049
0.252972 0.449601 0.185435
0.358575 0.459750 0.195185
0.466928 0.470110 0.205144
0.577386 0.480621 0.215253
0.689591 0.491251 0.225479
0.803312 0.501979 0.235802
0.854549 0.507091 0.240493
0.142812 0.563608 0.204364
0.185028 0.568056 0.208278
0.287137 0.577954 0.217675
0.393650 0.588210 0.227435
0.502891 0.598671 0.237402
0.614207 0.609277 0.247518
0.727240 0.619996 0.257750
0.840790 0.630807 0.268076
0.890881 0.635979 0.272764
0.176496 0.693827 0.236973
0.219117 0.698343 0.240889
0.322072 0.708320 0.250292
0.429423 0.718651 0.260056
0.539479 0.729181 0.270026
0.651583 0.739850 0.280143
0.765374 0.750626 0.290374
0.876973 0.761486 0.300698
0.926133 0.766689 0.305380
0.210960 0.825744 0.269891
0.253953 0.830297 0.273803
0.357686 0.840322 0.283206
0.465806 0.850695 0.292969
0.576609 0.861261 0.302937
0.689434 0.871961 0.313049
0.803918 0.882760 0.323275
0.911924 0.893639 0.333591
0.959865 0.898843 0.338261
0.234043 0.911291 0.291037
0.277354 0.915820 0.294940
0.381778 0.925831 0.304336
0.490579 0.935786 0.314090
0.602043 0.945751 0.324048
0.715504 0.955748 0.334150
0.830535 0.965738 0.344362
0.934338 0.975694 0.354665
0.980848 0.980258 0.359318
0.004561 0.004736 0.147123
0.044282 0.008485 0.151030
0.141127 0.017592 0.160382
0.242425 0.027081 0.170100
0.346580 0.036803 0.180031
0.452970 0.046699 0.190116
0.561249 0.056736 0.200322
0.671190 0.066896 0.210629
0.722248 0.071548 0.215337
0.021379 0.073325 0.164982
0.061658 0.077208 0.168898
0.159718 0.086474 0.178269
0.262222 0.096119 0.188005
0.367552 0.105992 0.197953
0.475082 0.116035 0.208053
0.584460 0.126216 0.218273
0.695460 0.136514 0.228594
0.746923 0.141274 0.233305
0.050407 0.190588 0.195117
0.091241 0.194654 0.199045
0.190462 0.204124 0.208437
0.294116 0.213968 0.218193
0.400569 0.224035 0.228159
0.509186 0.234265 0.238277
0.619614 0.244626 0.248513
0.731626 0.255098 0.258847
0.783494 0.260002 0.263564
0.081050 0.312844 0.226313
0.122398 0.317067 0.230250
0.222692 0.326712 0.239657
0.327409 0.336725 0.249428
0.434898 0.346955 0.259408
0.544519 0.357342 0.269538
0.655918 0.367854 0.279785
0.768862 0.378470 0.290128
0.821015 0.383492 0.294845
0.112900 0.438454 0.258166
0.154722 0.442803 0.262108
0.256006 0.452591 0.271527
0.361703 0.462741 0.281307
0.470148 0.473103 0.291296
0.580695 0.483615 0.301432
0.692986 0.494246 0.311685
0.806790 0.504974 0.322032
0.857885 0.510085 0.326746
0.145757 0.566636 0.290498
0.188015 0.571081 0.294440
0.290212 0.580979 0.303864
0.396812 0.591235 0.313650
0.506137 0.601695 0.323641
0.617535 0.612300 0.333779
0.730646 0.623018 0.344031
0.844083 0.633827 0.354377
0.894095 0.638996 0.359083
0.179489 0.696883 0.323197
0.222149 0.701395 0.327136
0.325185 0.711370 0.336560
0.432616 0.721699 0.346345
0.542749 0.732225 0.356334
0.654928 0.742891 0.366468
0.768791 0.753663 0.376714
0.880137 0.764520 0.387053
0.929189 0.769718 0.391746
0.213998 0.828818 0.356187
0.257026 0.833365 0.360117
0.360833 0.843386 0.369537
0.469026 0.853754 0.379315
0.579899 0.864315 0.389296
0.692793 0.875009 0.399420
0.807342 0.885804 0.409655
0.914922 0.896677 0.419981
0.962727 0.901874 0.424657
0.237114 0.914361 0.377387
0.280456 0.918883 0.381303
0.384948 0.928839 0.390710
0.493816 0.938676 0.400474
0.605344 0.948608 0.410440
0.718868 0.958569 0.420548
0.833641 0.968521 0.430766
0.937162 0.978436 0.441072
0.983508 0.982966 0.445726
0.007345 0.007621 0.236662
0.047129 0.011378 0.240624
0.144105 0.020495 0.250031
0.245533 0.029994 0.259803
0.349815 0.039726 0.269785
0.456328 0.049631 0.279920
0.564725 0.059678 0.290174
0.674781 0.069847 0.300528
0.725885 0.074505 0.305281
0.024221 0.076264 0.254702
0.064558 0.080154 0.258668
0.162740 0.089428 0.268088
0.265364 0.099082 0.277872
0.370812 0.108963 0.287866
0.478455 0.119014 0.298011
0.587943 0.129203 0.308274
0.699049 0.139508 0.318636
0.750554 0.144273 0.323386
0.053317 0.193599 0.285002
0.094204 0.197669 0.288975
0.193538 0.207146 0.298410
0.297302 0.216996 0.308208
0.403863 0.227068 0.318215
0.512584 0.237304 0.328372
0.623114 0.247670 0.338645
0.735223 0.258147 0.349016
0.787130 0.263055 0.353765
0.084023 0.315917 0.316344
0.125420 0.320141 0.320320
0.225817 0.329790 0.329766
0.330636 0.339807 0.339574
0.438225 0.350041 0.349589
0.547942 0.360431 0.359752
0.659434 0.370946 0.370031
0.772468 0.381565 0.380405
0.824562 0.386588 0.385150
0.115931 0.441577 0.348325
0.157797 0.445926 0.352301
0.259177 0.455715 0.361752
0.364968 0.465867 0.371564
0.473505 0.476230 0.381582
0.584140 0.486744 0.391747
0.696516 0.497375 0.402026
0.810402 0.508105 0.412398
0.861340 0.513214 0.417134
0.148841 0.569798 0.380766
0.191140 0.574241 0.384737
0.293424 0.584138 0.394189
0.400111 0.594394 0.404000
0.509520 0.604853 0.414015
0.620999 0.615457 0.424176
0.734189 0.626174 0.434449
0.847494 0.636981 0.444814
0.897423 0.642147 0.449536
0.182622 0.700074 0.413557
0.225319 0.704582 0.417518
0.328435 0.714554 0.426965
0.435946 0.724880 0.436769
0.546156 0.735404 0.446777
0.658409 0.746067 0.456928
0.772344 0.756835 0.467189
0.883413 0.767689 0.477541
0.932354 0.772882 0.482246
0.217175 0.832026 0.446619
0.260238 0.836567 0.450567
0.364118 0.846583 0.460002
0.472384 0.856947 0.469795
0.583328 0.867503 0.479789
0.696289 0.878192 0.489925
0.810903 0.888981 0.500170
0.918028 0.899848 0.510503
0.965692 0.905038 0.515186
0.240324 0.917564 0.467872
0.283699 0.922080 0.471800
0.388257 0.931881 0.481218
0.497191 0.941685 0.490991
0.608784 0.951582 0.500965
0.722370 0.961506 0.511079
0.836856 0.971418 0.521300
0.940087 0.981291 0.531609
0.986266 0.985787 0.536264
0.010219 0.010594 0.328880
0.050065 0.014359 0.332899
0.147172 0.023486 0.342361
0.248729 0.032996 0.352186
0.353137 0.042737 0.362220
0.459772 0.052652 0.372405
0.568288 0.062709 0.382709
0.678457 0.072887 0.393110
0.729607 0.077551 0.397907
0.027154 0.079293 0.347103
0.067549 0.083188 0.351119
0.165851 0.092471 0.360589
0.268594 0.102133 0.370421
0.374159 0.112023 0.380461
0.481915 0.122082 0.390651
0.591512 0.132278 0.400958
0.702723 0.142591 0.411361
0.754270 0.147360 0.416150
0.056317 0.196698 0.377568
0.097258 0.200773 0.381586
0.196702 0.210255 0.391066
0.300577 0.220112 0.400907
0.407245 0.230190 0.410954
0.516071 0.240431 0.421150
0.626701 0.250803 0.431461
0.738907 0.261285 0.441867
0.790853 0.266195 0.446650
0.087087 0.319077 0.409058
0.128532 0.323303 0.413073
0.229032 0.332956 0.422558
0.333952 0.342977 0.432402
0.441640 0.353214 0.442453
0.551454 0.363608 0.452649
0.663037 0.374126 0.462960
0.776161 0.384748 0.473364
0.828186 0.389771 0.478137
0.119053 0.444787 0.441168
0.160964 0.449136 0.445177
0.262438 0.458927 0.454661
0.368322 0.469081 0.464504
0.476950 0.479445 0.474552
0.587674 0.489960 0.484744
0.700135 0.500592 0.495049
0.814103 0.511322 0.505445
0.864867 0.516430 0.510204
0.152016 0.573047 0.473718
0.194357 0.577488 0.477717
0.296727 0.587385 0.487195
0.403500 0.597640 0.497032
0.512993 0.608099 0.507071
0.624553 0.618702 0.517254
0.737820 0.629417 0.527547
0.850977 0.640223 0.537931
0.900819 0.645385 0.542670
0.185846 0.703351 0.506598
0.228581 0.707855 0.510582
0.331777 0.717825 0.520050
0.439366 0.728148 0.529874
0.549653 0.738669 0.539900
0.661981 0.749328 0.550067
0.775986 0.760094 0.560344
0.886756 0.770944 0.570709
0.935583 0.776131 0.575425
0.220444 0.835320 0.539732
0.263542 0.839855 0.543696
0.367495 0.849867 0.553148
0.475832 0.860226 0.562954
0.586846 0.870777 0.572961
0.699875 0.881460 0.583107
0.814554 0.892244 0.593361
0.921195 0.903105 0.603702
0.968716 0.908288 0.608390
0.243626 0.920854 0.561036
0.287033 0.925362 0.564975
0.391658 0.934995 0.574403
0.500658 0.944767 0.584185
0.612315 0.954627 0.594165
0.725962 0.964513 0.604284
0.840134 0.974384 0.614509
0.943070 0.984215 0.624820
0.989077 0.988674 0.629475
0.013162 0.013635 0.423116
0.053070 0.017407 0.427190
0.150307 0.026545 0.436708
0.251992 0.036065 0.446586
0.356526 0.045816 0.456673
0.463282 0.055741 0.466909
0.571915 0.065807 0.477261
0.682197 0.075993 0.487709
0.733393 0.080664 0.492550
0.030156 0.082388 0.441521
0.070608 0.086290 0.445588
0.169031 0.095582 0.455107
0.271892 0.105252 0.464987
0.377573 0.115150 0.475074
0.485441 0.125217 0.485309
0.595147 0.135421 0.495658
0.706462 0.145741 0.506103
0.758052 0.150515 0.510931
0.059388 0.199864 0.472153
0.100381 0.203943 0.476215
0.199936 0.213432 0.485739
0.303920 0.223294 0.495622
0.410695 0.233378 0.505710
0.519624 0.243625 0.515945
0.630354 0.254003 0.526293
0.742656 0.264490 0.536735
0.794641 0.269402 0.541551
0.090220 0.322303 0.503788
0.131714 0.326532 0.507843
0.232316 0.336188 0.517366
0.337337 0.346213 0.527247
0.445123 0.356454 0.537332
0.555032 0.366851 0.547562
0.666707 0.377372 0.557904
0.779919 0.387997 0.568337
0.831865 0.393021 0.573137
0.122244 0.448063 0.536026
0.164200 0.452412 0.540068
0.265767 0.462204 0.549585
0.371745 0.472360 0.559459
0.480463 0.482726 0.569535
0.591274 0.493241 0.579755
0.703820 0.503875 0.590085
0.817869 0.514605 0.600506
0.868446 0.519712 0.605286
0.155261 0.576361 0.568684
0.197643 0.580801 0.572710
0.300100 0.590697 0.582216
0.406958 0.600951 0.592077
0.516533 0.611409 0.602139
0.628174 0.622011 0.612344
0.741519 0.632725 0.622657
0.854510 0.643529 0.633058
0.904263 0.648689 0.637814
0.189140 0.706693 0.601653
0.231913 0.711192 0.605659
0.335188 0.721160 0.615147
0.442855 0.731480 0.624991
0.553218 0.741998 0.635034
0.665619 0.752655 0.645217
0.779695 0.763416 0.655507
0.890146 0.774263 0.665884
0.938854 0.779445 0.670611
0.223783 0.838678 0.634855
0.266915 0.843208 0.638836
0.370941 0.853215 0.648302
0.479350 0.863568 0.658122
0.590433 0.874115 0.668140
0.703529 0.884793 0.678296
0.818272 0.895571 0.688559
0.924404 0.906426 0.698906
0.971778 0.911602 0.703598
0.246998 0.924207 0.656208
0.290437 0.928668 0.660158
0.395128 0.938162 0.669595
0.504194 0.947898 0.679384
0.615914 0.957722 0.689370
0.729622 0.967569 0.699494
0.843455 0.977398 0.709721
0.946090 0.987184 0.720032
0.991922 0.991607 0.724686
0.016163 0.016731 0.518980
0.056132 0.020511 0.523111
0.153498 0.029659 0.532684
0.255311 0.039189 0.542616
0.359969 0.048950 0.552755
0.466846 0.058884 0.563040
0.575595 0.068959 0.573441
0.685989 0.079155 0.583935
0.737230 0.083831 0.588821
0.033215 0.085539 0.537568
0.073725 0.089446 0.541685
0.172266 0.098747 0.551254
0.275246 0.108425 0.561182
0.381041 0.118332 0.571315
0.489021 0.128406 0.581593
0.598835 0.138618 0.591986
0.710254 0.148945 0.602471
0.761885 0.153724 0.607337
0.062515 0.203084 0.568365
0.103561 0.207167 0.572472
0.203226 0.216662 0.582039
0.307318 0.226531 0.591964
0.414200 0.236621 0.602092
0.523231 0.246873 0.612365
0.634061 0.257256 0.622750
0.746458 0.267748 0.633227
0.798481 0.272663 0.638075
0.093410 0.325583 0.600146
0.134953 0.329813 0.604239
0.235656 0.339474 0.613800
0.340777 0.349503 0.623717
0.448661 0.359747 0.633836
0.558664 0.370148 0.644098
0.670431 0.380672 0.654471
0.783730 0.391299 0.664934
0.835586 0.396324 0.669761
0.125493 0.451391 0.632509
0.167493 0.455740 0.636585
0.269154 0.465535 0.646133
0.375223 0.475692 0.656037
0.484031 0.486059 0.666142
0.594929 0.496576 0.676388
0.707559 0.507210 0.686743
0.821612 0.517941 0.697187
0.872064 0.523046 0.701988
0.158564 0.579728 0.665273
0.200986 0.584165 0.669327
0.303528 0.594061 0.678858
0.410471 0.604315 0.688743
0.520129 0.614772 0.698828
0.631849 0.625373 0.709053
0.745271 0.636085 0.719385
0.858080 0.646888 0.729804
0.907741 0.652044 0.734575
0.192492 0.710086 0.698328
0.235302 0.714582 0.702355
0.338655 0.724547 0.711864
0.446400 0.734864 0.721726
0.556838 0.745380 0.731785
0.669312 0.756033 0.741983
0.783459 0.766791 0.752287
0.893568 0.777633 0.762675
0.942155 0.782811 0.767411
0.227179 0.842087 0.731597
0.270345 0.846611 0.735593
0.374443 0.856613 0.745074
0.482923 0.866962 0.754906
0.594075 0.877503 0.764935
0.707237 0.888176 0.775100
0.822044 0.898948 0.785369
0.927641 0.909798 0.795722
0.974864 0.914967 0.800418
0.250428 0.927611 0.752995
0.293897 0.931906 0.756955
0.398655 0.941367 0.766401
0.507786 0.951068 0.776197
0.619568 0.960855 0.786188
0.733336 0.970661 0.796314
0.846807 0.980448 0.806543
0.949133 0.990188 0.816853
0.994787 0.994573 0.821505
0.019212 0.019873 0.616219
0.059243 0.023661 0.620404
0.156736 0.032819 0.630032
0.258676 0.042359 0.640018
0.363458 0.052130 0.650208
0.470455 0.062074 0.660543
0.579319 0.072158 0.670992
0.689825 0.082363 0.681532
0.741111 0.087045 0.686462
0.036324 0.088735 0.634987
0.076891 0.092649 0.639154
0.175550 0.101958 0.648772
0.278647 0.111645 0.658747
0.384557 0.121559 0.668926
0.492647 0.131642 0.679248
0.602567 0.141861 0.689683
0.714090 0.152195 0.700208
0.765763 0.156978 0.705112
0.065692 0.206350 0.665947
0.106790 0.210436 0.670098
0.206563 0.219938 0.679708
0.310764 0.229813 0.689675
0.417751 0.239908 0.699843
0.526884 0.250167 0.710154
0.637812 0.260554 0.720575
0.750304 0.271051 0.731086
0.802365 0.275969 0.735966
0.096650 0.328908 0.697872
0.138240 0.333140 0.702004
0.239044 0.342805 0.711601
0.344264 0.352837 0.721554
0.452245 0.363085 0.731707
0.562342 0.373489 0.742001
0.674199 0.384016 0.752404
0.787586 0.394646 0.762895
0.839341 0.399671 0.767748
0.128791 0.454765 0.730359
0.170835 0.459114 0.734467
0.272588 0.468910 0.744047
0.378749 0.479068 0.753980
0.487646 0.489437 0.764112
0.598630 0.499954 0.774385
0.711343 0.510590 0.784764
0.825327 0.521321 0.795230
0.875711 0.526425 0.800051
0.161915 0.583138 0.763227
0.204377 0.587574 0.767307
0.307005 0.597469 0.776863
0.414031 0.607722 0.786772
0.523771 0.618178 0.796879
0.635571 0.628778 0.807124
0.749068 0.639489 0.817474
0.861679 0.650290 0.827909
0.911245 0.655443 0.832694
0.195892 0.713523 0.796366
0.238739 0.718015 0.800413
0.342170 0.727977 0.809941
0.449992 0.738292 0.819820
0.560506 0.748804 0.829896
0.673052 0.759454 0.840108
0.787267 0.770208 0.850423
0.897014 0.781047 0.860822
0.945478 0.786219 0.865566
0.230624 0.845539 0.829698
0.273824 0.850058 0.833709
0.377993 0.860055 0.843203
0.486544 0.870399 0.853047
0.597764 0.880935 0.863085
0.710992 0.891602 0.873258
0.825862 0.902369 0.883534
0.930897 0.913213 0.893891
0.977968 0.918374 0.898589
0.253906 0.930909 0.851140
0.297407 0.935176 0.855108
0.402229 0.944603 0.864561
0.511424 0.954268 0.874363
0.623269 0.964015 0.884358
0.737097 0.973780 0.894486
0.850180 0.983523 0.904715
0.952193 0.993218 0.915024
0.997665 0.997564 0.919673
0.021719 0.022450 0.695841
0.061809 0.026244 0.700071
0.159427 0.035411 0.709742
0.261491 0.044960 0.719770
0.366393 0.054740 0.730001
0.473506 0.064692 0.740376
0.582484 0.074785 0.750862
0.693099 0.084998 0.761440
0.744428 0.089686 0.766403
0.038883 0.091362 0.714753
0.079504 0.095281 0.718959
0.178279 0.104597 0.728616
0.281490 0.114292 0.738628
0.387511 0.124213 0.748843
0.495710 0.134303 0.759200
0.605735 0.144529 0.769667
0.717357 0.154869 0.780224
0.769070 0.159657 0.785158
0.068311 0.209042 0.745842
0.109460 0.213132 0.750028
0.209340 0.222639 0.759672
0.313646 0.232519 0.769671
0.420735 0.242620 0.779870
0.529969 0.252883 0.790210
0.640992 0.263275 0.800660
0.753577 0.273776 0.811197
0.805675 0.278696 0.816102
0.099327 0.331656 0.777880
0.140963 0.335890 0.782041
0.241864 0.345558 0.791668
0.347182 0.355593 0.801648
0.455257 0.365844 0.811827
0.565446 0.376250 0.822146
0.677392 0.386780 0.832572
0.790863 0.397412 0.843084
0.842524 0.402437 0.847957
0.131519 0.457558 0.810464
0.173607 0.461907 0.814596
0.275449 0.471704 0.824200
0.381700 0.481863 0.834156
0.490684 0.492232 0.844309
0.601752 0.502750 0.854601
0.714546 0.513386 0.864999
0.828472 0.524117 0.875481
0.878788 0.529219 0.880317
0.164692 0.585967 0.843411
0.207193 0.590399 0.847511
0.309903 0.600294 0.857086
0.417012 0.610545 0.867013
0.526832 0.621000 0.877136
0.638708 0.631598 0.887395
0.752280 0.642307 0.897759
0.864711 0.653106 0.908206
0.914181 0.658255 0.913000
0.198713 0.716375 0.876613
0.241596 0.720862 0.880676
0.345103 0.730822 0.890218
0.453000 0.741133 0.900110
0.563587 0.751641 0.910196
0.676203 0.762287 0.920418
0.790486 0.773038 0.930742
0.899899 0.783872 0.941147
0.948238 0.789038 0.945896
0.233485 0.848404 0.909991
0.276718 0.852916 0.914013
0.380957 0.862908 0.923516
0.489576 0.873247 0.933367
0.600863 0.883777 0.943412
0.714155 0.894439 0.953590
0.829058 0.905199 0.963869
0.933599 0.916037 0.974228
0.980517 0.921191 0.978927
0.256796 0.933633 0.931463
0.300327 0.937877 0.935437
0.405214 0.947271 0.944894
0.514471 0.956902 0.954698
0.626376 0.966612 0.964694
0.740262 0.976337 0.974823
0.853011 0.986039 0.985050
0.954708 0.995690 0.995356
1.000000 1.000000 1.000000
