library/cube/Green_Knight_004.cube
# CINEGRADE LAB — Premium Cinematic LUT
# Title: Green Knight
# Category: A24 Inspired
# Description: Artistic, unconventional, mood-driven looks inspired by A24 films
# Mood: Arthouse, unconventional, evocative
# Variant: 5
# Generated: 2026-05-21T16:12:46.407960
TITLE "Green Knight"
LUT_3D_SIZE 5
0.000000 0.000000 0.000000
0.136182 0.012824 0.013072
0.341122 0.031998 0.032542
0.555308 0.051896 0.052665
0.715990 0.066680 0.067526
0.045616 0.185607 0.047407
0.185343 0.199126 0.060576
0.395013 0.219015 0.080156
0.613647 0.239586 0.100379
0.777257 0.254949 0.115311
0.107885 0.433256 0.109987
0.250713 0.447391 0.123233
0.464485 0.467898 0.142897
0.686975 0.489039 0.163192
0.851958 0.504880 0.178170
0.174285 0.691553 0.174672
0.319746 0.706054 0.187957
0.536998 0.726921 0.207662
0.762748 0.748373 0.227986
0.923799 0.764447 0.242972
0.231767 0.909006 0.228641
0.379404 0.923560 0.241922
0.599539 0.943631 0.261621
0.827974 0.963685 0.281926
0.978874 0.978272 0.296877
0.004561 0.004736 0.147123
0.141127 0.017592 0.160382
0.346580 0.036803 0.180031
0.561249 0.056736 0.200322
0.722248 0.071548 0.215337
0.050407 0.190588 0.195117
0.190462 0.204124 0.208437
0.400569 0.224035 0.228159
0.619614 0.244626 0.248513
0.783494 0.260002 0.263564
0.112900 0.438454 0.258166
0.256006 0.452591 0.271527
0.470148 0.473103 0.291296
0.692986 0.494246 0.311685
0.857885 0.510085 0.326746
0.179489 0.696883 0.323197
0.325185 0.711370 0.336560
0.542749 0.732225 0.356334
0.768791 0.753663 0.376714
0.929189 0.769718 0.391746
0.237114 0.914361 0.377387
0.384948 0.928839 0.390710
0.605344 0.948608 0.410440
0.833641 0.968521 0.430766
0.983508 0.982966 0.445726
0.010219 0.010594 0.328880
0.147172 0.023486 0.342361
0.353137 0.042737 0.362220
0.568288 0.062709 0.382709
0.729607 0.077551 0.397907
0.056317 0.196698 0.377568
0.196702 0.210255 0.391066
0.407245 0.230190 0.410954
0.626701 0.250803 0.431461
0.790853 0.266195 0.446650
0.119053 0.444787 0.441168
0.262438 0.458927 0.454661
0.476950 0.479445 0.474552
0.700135 0.500592 0.495049
0.864867 0.516430 0.510204
0.185846 0.703351 0.506598
0.331777 0.717825 0.520050
0.549653 0.738669 0.539900
0.775986 0.760094 0.560344
0.935583 0.776131 0.575425
0.243626 0.920854 0.561036
0.391658 0.934995 0.574403
0.612315 0.954627 0.594165
0.840134 0.974384 0.614509
0.989077 0.988674 0.629475
0.016163 0.016731 0.518980
0.153498 0.029659 0.532684
0.359969 0.048950 0.552755
0.575595 0.068959 0.573441
0.737230 0.083831 0.588821
0.062515 0.203084 0.568365
0.203226 0.216662 0.582039
0.414200 0.236621 0.602092
0.634061 0.257256 0.622750
0.798481 0.272663 0.638075
0.125493 0.451391 0.632509
0.269154 0.465535 0.646133
0.484031 0.486059 0.666142
0.707559 0.507210 0.686743
0.872064 0.523046 0.701988
0.192492 0.710086 0.698328
0.338655 0.724547 0.711864
0.556838 0.745380 0.731785
0.783459 0.766791 0.752287
0.942155 0.782811 0.767411
0.250428 0.927611 0.752995
0.398655 0.941367 0.766401
0.619568 0.960855 0.786188
0.846807 0.980448 0.806543
0.994787 0.994573 0.821505
0.021719 0.022450 0.695841
0.159427 0.035411 0.709742
0.366393 0.054740 0.730001
0.582484 0.074785 0.750862
0.744428 0.089686 0.766403
0.068311 0.209042 0.745842
0.209340 0.222639 0.759672
0.420735 0.242620 0.779870
0.640992 0.263275 0.800660
0.805675 0.278696 0.816102
0.131519 0.457558 0.810464
0.275449 0.471704 0.824200
0.490684 0.492232 0.844309
0.714546 0.513386 0.864999
0.878788 0.529219 0.880317
0.198713 0.716375 0.876613
0.345103 0.730822 0.890218
0.563587 0.751641 0.910196
0.790486 0.773038 0.930742
0.948238 0.789038 0.945896
0.256796 0.933633 0.931463
0.405214 0.947271 0.944894
0.626376 0.966612 0.964694
0.853011 0.986039 0.985050
1.000000 1.000000 1.000000
