library/cube/Halation_Glow_002.cube
# CINEGRADE LAB — Premium Cinematic LUT
# Title: Halation Glow
# Category: CineStill 800T Emulation
# Description: Tungsten balance, halation glow, night film characteristics
# Mood: Nocturnal, glowing, cinematic
# Variant: 3
# Generated: 2026-05-21T16:12:54.363313
TITLE "Halation Glow"
LUT_3D_SIZE 9
0.072687 0.061309 0.047800
0.176372 0.064946 0.051186
0.284062 0.068721 0.054716
0.394181 0.072581 0.058338
0.506104 0.076503 0.062028
0.619493 0.080476 0.065775
0.734068 0.084491 0.069570
0.849559 0.088538 0.073403
0.882754 0.089721 0.074378
0.084259 0.166327 0.058431
0.188284 0.170025 0.061854
0.296329 0.173862 0.065423
0.406817 0.177783 0.069083
0.519129 0.181766 0.072812
0.632932 0.185801 0.076599
0.747758 0.189871 0.080428
0.863178 0.193962 0.084283
0.896266 0.195188 0.085280
0.096355 0.275538 0.069587
0.200746 0.279294 0.073048
0.309183 0.283189 0.076655
0.420093 0.287169 0.080355
0.532862 0.291213 0.084125
0.647162 0.295309 0.087955
0.762132 0.299428 0.091814
0.877111 0.303548 0.095679
0.909974 0.304810 0.096693
0.108890 0.387322 0.081095
0.213694 0.391134 0.084595
0.322586 0.395086 0.088243
0.433996 0.399125 0.091985
0.547314 0.403230 0.095799
0.662218 0.407389 0.099674
0.777176 0.411550 0.103558
0.891220 0.415679 0.107415
0.923703 0.416970 0.108441
0.121884 0.501028 0.092887
0.227171 0.504895 0.096428
0.336605 0.508906 0.100120
0.448616 0.513005 0.103907
0.562600 0.517173 0.107769
0.678240 0.521398 0.111695
0.792982 0.525592 0.115596
0.905469 0.529709 0.119424
0.937384 0.531023 0.120454
0.135387 0.616293 0.104927
0.241252 0.620218 0.108513
0.351338 0.624290 0.112252
0.464077 0.628454 0.116089
0.578869 0.632690 0.120004
0.695403 0.636987 0.123986
0.809672 0.641207 0.127895
0.919857 0.645286 0.131668
0.950978 0.646616 0.132696
0.149467 0.732889 0.117194
0.256027 0.736878 0.120829
0.366899 0.741016 0.124619
0.480515 0.745252 0.128512
0.596281 0.749563 0.132485
0.713891 0.753941 0.136529
0.827385 0.758177 0.140436
0.934395 0.762191 0.144124
0.964463 0.763531 0.145141
0.164198 0.850665 0.129674
0.271592 0.854723 0.133362
0.383407 0.858937 0.137210
0.498076 0.863252 0.141164
0.615006 0.867649 0.145204
0.733898 0.872117 0.149318
0.846264 0.876363 0.153211
0.949102 0.880281 0.156779
0.977821 0.881625 0.157775
0.177446 0.949052 0.140144
0.285815 0.953000 0.143871
0.398733 0.957096 0.147762
0.514628 0.961286 0.151762
0.632912 0.965549 0.155850
0.753291 0.969875 0.160015
0.864096 0.973858 0.163853
0.961614 0.977369 0.167233
0.988622 0.978416 0.168165
0.073620 0.062231 0.123040
0.177338 0.065868 0.126382
0.285061 0.069644 0.129871
0.395214 0.073504 0.133452
0.507174 0.077427 0.137103
0.620601 0.081401 0.140812
0.735203 0.085416 0.144570
0.850699 0.089463 0.148366
0.883887 0.090646 0.149305
0.085195 0.167264 0.133529
0.189255 0.170962 0.136913
0.297336 0.174799 0.140444
0.407862 0.178721 0.144067
0.520217 0.182705 0.147762
0.634065 0.186741 0.151515
0.748909 0.190811 0.155311
0.864303 0.194901 0.159133
0.897373 0.196127 0.160098
0.097304 0.276489 0.144556
0.201732 0.280245 0.147983
0.310211 0.284141 0.151557
0.421167 0.288122 0.155225
0.533986 0.292167 0.158965
0.648340 0.296264 0.162765
0.763316 0.300383 0.166595
0.878225 0.304500 0.170430
0.911056 0.305761 0.171415
0.109860 0.388287 0.155951
0.214707 0.392099 0.159421
0.323650 0.396052 0.163040
0.435114 0.400092 0.166755
0.548493 0.404198 0.170543
0.663464 0.408359 0.174394
0.778409 0.412519 0.178252
0.892325 0.416644 0.182081
0.924760 0.417934 0.183082
0.122884 0.502005 0.167644
0.228224 0.505873 0.171160
0.337718 0.509885 0.174828
0.449796 0.513987 0.178592
0.563853 0.518156 0.182433
0.679575 0.522384 0.186340
0.794281 0.526577 0.190218
0.906571 0.530687 0.194020
0.938416 0.531999 0.195029
0.136427 0.617283 0.179600
0.242356 0.621210 0.183165
0.352514 0.625284 0.186885
0.465333 0.629451 0.190704
0.580215 0.633690 0.194603
0.696848 0.637991 0.198570
0.811054 0.642208 0.202460
0.920959 0.646278 0.206208
0.951986 0.647605 0.207218
0.150557 0.733894 0.191798
0.257193 0.737884 0.195416
0.368152 0.742026 0.199192
0.481866 0.746265 0.203072
0.597739 0.750581 0.207034
0.715468 0.754963 0.211068
0.828865 0.759197 0.214959
0.935500 0.763199 0.218623
0.965445 0.764535 0.219625
0.165347 0.851684 0.204222
0.272832 0.855746 0.207899
0.384752 0.859963 0.211738
0.499536 0.864284 0.215684
0.616595 0.868686 0.219717
0.735629 0.873161 0.223826
0.847858 0.877403 0.227706
0.950215 0.881306 0.231251
0.978780 0.882646 0.232236
0.178655 0.950025 0.214645
0.287134 0.953973 0.218366
0.400176 0.958070 0.222251
0.516207 0.962261 0.226248
0.634642 0.966526 0.230334
0.755187 0.970854 0.234499
0.865812 0.974828 0.238326
0.962728 0.978314 0.241683
0.989546 0.979352 0.242606
0.074586 0.063185 0.201014
0.178336 0.066823 0.204312
0.286094 0.070599 0.207758
0.396282 0.074460 0.211298
0.508277 0.078383 0.214909
0.621743 0.082358 0.218580
0.736372 0.086374 0.222299
0.851870 0.090421 0.226058
0.885050 0.091604 0.226961
0.086165 0.168234 0.211358
0.190259 0.171932 0.214702
0.298377 0.175770 0.218195
0.408943 0.179692 0.221782
0.521340 0.183677 0.225441
0.635234 0.187714 0.229161
0.750097 0.191785 0.232923
0.865459 0.195873 0.236711
0.898511 0.197098 0.237643
0.098286 0.277473 0.222256
0.202754 0.281229 0.225647
0.311275 0.285126 0.229188
0.422278 0.289107 0.232823
0.535147 0.293153 0.236533
0.649558 0.297253 0.240304
0.764538 0.301371 0.244104
0.879370 0.305485 0.247907
0.912168 0.306745 0.248865
0.110865 0.389284 0.233535
0.215758 0.393097 0.236975
0.324750 0.397051 0.240565
0.436271 0.401092 0.244253
0.549711 0.405200 0.248015
0.664751 0.409363 0.251842
0.779682 0.413522 0.255674
0.893464 0.417642 0.259474
0.925847 0.418930 0.260450
0.123920 0.503015 0.245129
0.229314 0.506885 0.248619
0.338869 0.510898 0.252262
0.451015 0.515001 0.256005
0.565148 0.519174 0.259825
0.680954 0.523404 0.263711
0.795620 0.527596 0.267567
0.907706 0.531699 0.271342
0.939478 0.533008 0.272331
0.137505 0.618306 0.257000
0.243498 0.622235 0.260544
0.353730 0.626312 0.264245
0.466632 0.630481 0.268046
0.581604 0.634723 0.271929
0.698339 0.639028 0.275881
0.812477 0.643243 0.279752
0.922093 0.647304 0.283475
0.953023 0.648628 0.284468
0.151685 0.734931 0.269128
0.258399 0.738924 0.272730
0.369447 0.743069 0.276492
0.483259 0.747312 0.280359
0.599243 0.751632 0.284310
0.717093 0.756019 0.288335
0.830388 0.760250 0.292211
0.936639 0.764240 0.295850
0.966458 0.765573 0.296839
0.166534 0.852736 0.281498
0.274114 0.856802 0.285164
0.386140 0.861024 0.288993
0.501042 0.865349 0.292932
0.618232 0.869757 0.296959
0.737410 0.874238 0.301064
0.849499 0.878476 0.304932
0.951362 0.882364 0.308453
0.979769 0.883700 0.309427
0.179905 0.951030 0.291875
0.288495 0.954979 0.295589
0.401662 0.959077 0.299470
0.517833 0.963269 0.303463
0.636421 0.967535 0.307548
0.757134 0.971866 0.311715
0.867575 0.975830 0.315532
0.963876 0.979292 0.318864
0.990500 0.980320 0.319779
0.075571 0.064159 0.280572
0.179354 0.067797 0.283826
0.287146 0.071573 0.287229
0.397369 0.075435 0.290727
0.509401 0.079359 0.294298
0.622905 0.083335 0.297931
0.737561 0.087352 0.301613
0.853059 0.091398 0.305335
0.886230 0.092581 0.306201
0.087155 0.169222 0.290771
0.191284 0.172921 0.294076
0.299439 0.176759 0.297530
0.410045 0.180682 0.301080
0.522485 0.184668 0.304704
0.636426 0.188706 0.308390
0.751305 0.192777 0.312119
0.866634 0.196864 0.315873
0.899665 0.198088 0.316773
0.099290 0.278476 0.301539
0.203797 0.282233 0.304895
0.312361 0.286130 0.308402
0.423411 0.290112 0.312006
0.536333 0.294159 0.315685
0.650800 0.298260 0.319427
0.765783 0.302379 0.323198
0.880534 0.306490 0.326970
0.913297 0.307748 0.327899
0.111892 0.390300 0.312704
0.216830 0.394114 0.316113
0.325874 0.398069 0.319675
0.437452 0.402112 0.323335
0.550956 0.406221 0.327072
0.666065 0.410386 0.330875
0.780979 0.414545 0.334681
0.894620 0.418660 0.338453
0.926951 0.419946 0.339405
0.124980 0.504045 0.324198
0.230428 0.507915 0.327663
0.340045 0.511930 0.331283
0.452260 0.516036 0.335003
0.566470 0.520210 0.338802
0.682361 0.524444 0.342670
0.796987 0.528634 0.346504
0.908859 0.532730 0.350252
0.940557 0.534037 0.351220
0.138606 0.619349 0.335986
0.244666 0.623280 0.339510
0.354972 0.627359 0.343191
0.467958 0.631531 0.346976
0.583024 0.635776 0.350843
0.699861 0.640085 0.354781
0.813929 0.644298 0.358634
0.923248 0.648349 0.362331
0.954077 0.649670 0.363308
0.152837 0.735988 0.348045
0.259631 0.739984 0.351632
0.370769 0.744132 0.355380
0.484683 0.748379 0.359235
0.600778 0.752703 0.363176
0.718752 0.757095 0.367193
0.831942 0.761323 0.371053
0.937798 0.765300 0.374668
0.967488 0.766630 0.375644
0.167747 0.853809 0.360363
0.275422 0.857878 0.364018
0.387557 0.862104 0.367839
0.502580 0.866435 0.371771
0.619902 0.870848 0.375793
0.739226 0.875335 0.379895
0.851171 0.879570 0.383751
0.952529 0.883442 0.387249
0.980775 0.884775 0.388213
0.181181 0.952054 0.370695
0.289885 0.956003 0.374404
0.403179 0.960101 0.378281
0.519492 0.964295 0.382272
0.638236 0.968564 0.386357
0.759119 0.972897 0.390525
0.869371 0.976851 0.394332
0.965044 0.980288 0.397641
0.991470 0.981306 0.398549
0.076570 0.065146 0.361257
0.180386 0.068784 0.364467
0.288212 0.072562 0.367828
0.398470 0.076424 0.371285
0.510540 0.080349 0.374816
0.624084 0.084326 0.378410
0.738765 0.088343 0.382055
0.854260 0.092389 0.385740
0.887420 0.093571 0.386571
0.088159 0.170225 0.371312
0.192324 0.173924 0.374577
0.300517 0.177762 0.377994
0.411163 0.181686 0.381507
0.523647 0.185673 0.385096
0.637635 0.189712 0.388749
0.752531 0.193784 0.392444
0.867821 0.197869 0.396165
0.900830 0.199092 0.397033
0.100310 0.279492 0.381951
0.204856 0.283250 0.385273
0.313464 0.287147 0.388747
0.424562 0.291131 0.392319
0.537537 0.295179 0.395968
0.652062 0.299282 0.399681
0.767046 0.303400 0.403423
0.881710 0.307508 0.407164
0.914437 0.308765 0.408066
0.112935 0.391330 0.393003
0.217921 0.395144 0.396382
0.327017 0.399101 0.399916
0.438653 0.403145 0.403549
0.552221 0.407256 0.407261
0.667401 0.411423 0.411040
0.782296 0.415581 0.414821
0.895790 0.419691 0.418564
0.928066 0.420975 0.419493
0.126057 0.505088 0.404400
0.231561 0.508960 0.407839
0.341241 0.512976 0.411436
0.453527 0.517084 0.415134
0.567815 0.521261 0.418913
0.683793 0.525497 0.422763
0.798375 0.529686 0.426575
0.910026 0.533774 0.430297
0.941647 0.535079 0.431245
0.139726 0.620406 0.416105
0.245853 0.624339 0.419609
0.356236 0.628420 0.423272
0.469307 0.632595 0.427040
0.584468 0.636844 0.430892
0.701410 0.641156 0.434818
0.815404 0.645367 0.438652
0.924416 0.649408 0.442325
0.955143 0.650727 0.443285
0.154009 0.737059 0.428098
0.260884 0.741058 0.431670
0.372115 0.745209 0.435405
0.486131 0.749460 0.439249
0.602340 0.753788 0.443180
0.720439 0.758186 0.447189
0.833521 0.762411 0.451034
0.938971 0.766375 0.454626
0.968529 0.767702 0.455589
0.168981 0.854895 0.440365
0.276753 0.858968 0.444011
0.388998 0.863199 0.447824
0.504143 0.867535 0.451749
0.621601 0.871954 0.455767
0.741073 0.876448 0.459867
0.852869 0.880679 0.463711
0.953711 0.884535 0.467186
0.981792 0.885864 0.468141
0.182479 0.953090 0.450656
0.291297 0.957040 0.454359
0.404722 0.961139 0.458233
0.521178 0.965335 0.462223
0.640081 0.969605 0.466309
0.761138 0.973941 0.470479
0.871195 0.977885 0.474277
0.966227 0.981296 0.477563
0.992452 0.982304 0.478465
0.077579 0.066144 0.442818
0.181429 0.069782 0.445985
0.289289 0.073560 0.449304
0.399583 0.077423 0.452720
0.511691 0.081349 0.456212
0.625275 0.085328 0.459768
0.739982 0.089345 0.463376
0.855470 0.093391 0.467024
0.888619 0.094572 0.467820
0.089176 0.171237 0.452730
0.193375 0.174937 0.455957
0.301607 0.178776 0.459336
0.412295 0.182700 0.462814
0.524823 0.186689 0.466368
0.638860 0.190729 0.469988
0.753770 0.194801 0.473651
0.869017 0.198884 0.477338
0.902004 0.200106 0.478175
0.101342 0.280519 0.463242
0.205928 0.284277 0.466530
0.314582 0.288176 0.469971
0.425728 0.292160 0.473513
0.538757 0.296210 0.477132
0.653342 0.300314 0.480818
0.768324 0.304432 0.484530
0.882897 0.308537 0.488241
0.915586 0.309792 0.489116
0.113993 0.392370 0.474183
0.219025 0.396186 0.477533
0.328175 0.400143 0.481039
0.439870 0.404189 0.484646
0.553504 0.408302 0.488334
0.668757 0.412472 0.492090
0.783631 0.416628 0.495846
0.896970 0.420733 0.499561
0.929189 0.422015 0.500467
0.127148 0.506141 0.485484
0.232710 0.510015 0.488899
0.342454 0.514033 0.492473
0.454811 0.518143 0.496150
0.569180 0.522323 0.499910
0.685247 0.526562 0.503742
0.799781 0.530749 0.507533
0.911204 0.534830 0.511229
0.942746 0.536133 0.512158
0.140861 0.621473 0.497110
0.247057 0.625408 0.500594
0.357518 0.629492 0.504239
0.470676 0.633670 0.507992
0.585933 0.637922 0.511830
0.702983 0.642239 0.515743
0.816899 0.646448 0.519560
0.925595 0.650478 0.523208
0.956216 0.651794 0.524153
0.155198 0.738140 0.509038
0.262155 0.742142 0.512596
0.373479 0.746298 0.516319
0.487600 0.750552 0.520152
0.603925 0.754885 0.524074
0.722153 0.759288 0.528076
0.835121 0.763511 0.531908
0.940155 0.767461 0.535476
0.969579 0.768785 0.536427
0.170232 0.855993 0.521257
0.278104 0.860070 0.524894
0.390460 0.864306 0.528700
0.505730 0.868646 0.532620
0.623325 0.873072 0.536635
0.742948 0.877572 0.540733
0.854592 0.881800 0.544567
0.954905 0.885639 0.548019
0.982817 0.886964 0.548966
0.183794 0.954136 0.531508
0.292730 0.958086 0.535207
0.406287 0.962187 0.539079
0.522889 0.966384 0.543069
0.641953 0.970657 0.547156
0.763186 0.974996 0.551330
0.873045 0.978929 0.555120
0.967422 0.982315 0.558383
0.993442 0.983312 0.559279
0.078598 0.067150 0.525096
0.182480 0.070789 0.528220
0.290375 0.074568 0.531497
0.400706 0.078431 0.534873
0.512852 0.082359 0.538327
0.626477 0.086338 0.541846
0.741208 0.090356 0.545417
0.856687 0.094402 0.549029
0.889824 0.095582 0.549790
0.090202 0.172259 0.534867
0.194437 0.175959 0.538056
0.302708 0.179799 0.541398
0.413438 0.183724 0.544841
0.526011 0.187713 0.548361
0.640098 0.191755 0.551949
0.755021 0.195827 0.555579
0.870221 0.199908 0.559234
0.903184 0.201129 0.560040
0.102385 0.281554 0.545254
0.207012 0.285313 0.548508
0.315711 0.289213 0.551918
0.426907 0.293198 0.555429
0.539991 0.297250 0.559019
0.654637 0.301356 0.562678
0.769616 0.305473 0.566362
0.884091 0.309574 0.570044
0.916740 0.310828 0.570891
0.115061 0.393420 0.556085
0.220142 0.397236 0.559407
0.329346 0.401195 0.562886
0.441102 0.405242 0.566468
0.554803 0.409357 0.570131
0.670130 0.413529 0.573866
0.784980 0.417685 0.577598
0.898159 0.421784 0.581286
0.930319 0.423064 0.582168
0.128252 0.507204 0.567293
0.233872 0.511079 0.570685
0.343682 0.515099 0.574236
0.456113 0.519211 0.577893
0.570563 0.523393 0.581635
0.686720 0.527636 0.585450
0.801205 0.531822 0.589221
0.912391 0.535895 0.592891
0.943850 0.537195 0.593802
0.142010 0.622549 0.578841
0.248275 0.626486 0.582307
0.358816 0.630573 0.585936
0.472063 0.634754 0.589673
0.587419 0.639010 0.593497
0.704578 0.643331 0.597399
0.818413 0.647538 0.601199
0.926783 0.651557 0.604824
0.957296 0.652871 0.605754
0.156401 0.739231 0.590708
0.263443 0.743236 0.594253
0.374862 0.747395 0.597964
0.489090 0.751654 0.601787
0.605533 0.755992 0.605702
0.723890 0.760400 0.609697
0.836742 0.764620 0.613516
0.941349 0.768557 0.617062
0.970635 0.769877 0.618001
0.171498 0.857100 0.602881
0.279471 0.861181 0.606510
0.391941 0.865422 0.610310
0.507338 0.869768 0.614226
0.625073 0.874199 0.618238
0.744850 0.878707 0.622335
0.856336 0.882931 0.626159
0.956108 0.886752 0.629590
0.983849 0.888074 0.630529
0.185126 0.955191 0.613095
0.294181 0.959141 0.616791
0.407872 0.963243 0.620662
0.524624 0.967442 0.624652
0.643850 0.971717 0.628742
0.765262 0.976059 0.632920
0.874917 0.979982 0.636703
0.968628 0.983341 0.639943
0.994438 0.984328 0.640834
0.079624 0.068163 0.607981
0.183540 0.071803 0.611062
0.291470 0.075583 0.614298
0.401837 0.079447 0.617635
0.514023 0.083375 0.621050
0.627690 0.087356 0.624533
0.742444 0.091375 0.628069
0.857910 0.095419 0.631645
0.891034 0.096600 0.632371
0.091236 0.173287 0.617613
0.195508 0.176988 0.620763
0.303818 0.180828 0.624070
0.414591 0.184755 0.627478
0.527211 0.188745 0.630965
0.641348 0.192788 0.634521
0.756283 0.196860 0.638120
0.871431 0.200940 0.641742
0.904368 0.202160 0.642519
0.103437 0.282597 0.627877
0.208106 0.286357 0.631098
0.316851 0.290257 0.634476
0.428099 0.294244 0.637957
0.541238 0.298297 0.641519
0.655946 0.302405 0.645152
0.770921 0.306522 0.648809
0.885292 0.310619 0.652461
0.917899 0.311872 0.653282
0.116141 0.394476 0.638600
0.221271 0.398293 0.641894
0.330530 0.402254 0.645347
0.442347 0.406303 0.648904
0.556117 0.410420 0.652545
0.671520 0.414594 0.656258
0.786344 0.418749 0.659966
0.899354 0.422842 0.663627
0.931453 0.424121 0.664488
0.129368 0.508274 0.649717
0.235047 0.512150 0.653086
0.344923 0.516173 0.656616
0.457429 0.520287 0.660254
0.571962 0.524472 0.663977
0.688212 0.528718 0.667776
0.802644 0.532903 0.671528
0.913584 0.536967 0.675173
0.944960 0.538265 0.676065
0.143171 0.623633 0.661190
0.249508 0.627573 0.664638
0.360130 0.631662 0.668251
0.473467 0.635846 0.671974
0.588923 0.640106 0.675786
0.706193 0.644431 0.679677
0.819945 0.648636 0.683461
0.927980 0.652645 0.687062
0.958381 0.653955 0.687978
0.157617 0.740330 0.672998
0.264745 0.744338 0.676530
0.376262 0.748501 0.680230
0.490598 0.752764 0.684045
0.607161 0.757107 0.687952
0.725651 0.761521 0.691943
0.838383 0.765737 0.695748
0.942552 0.769660 0.699272
0.971695 0.770977 0.700201
0.172779 0.858215 0.685128
0.280855 0.862300 0.688750
0.393441 0.866546 0.692544
0.508966 0.870898 0.696457
0.626843 0.875336 0.700467
0.746777 0.879850 0.704565
0.858101 0.884070 0.708380
0.957320 0.887875 0.711789
0.984886 0.889192 0.712721
0.186473 0.956252 0.695307
0.295650 0.960203 0.699001
0.409477 0.964306 0.702872
0.526379 0.968507 0.706864
0.645772 0.972784 0.710956
0.767365 0.977129 0.715140
0.876812 0.981042 0.718916
0.969842 0.984374 0.722135
0.995439 0.985351 0.723022
0.080494 0.069021 0.677981
0.184444 0.072662 0.681028
0.292410 0.076442 0.684232
0.402815 0.080307 0.687537
0.515040 0.084237 0.690922
0.628750 0.088218 0.694375
0.743526 0.092238 0.697882
0.858977 0.096282 0.701430
0.892086 0.097462 0.702129
0.092117 0.174160 0.687501
0.196426 0.177861 0.690622
0.304775 0.181703 0.693900
0.415592 0.185630 0.697280
0.528259 0.189622 0.700741
0.642448 0.193667 0.704272
0.757393 0.197739 0.707846
0.872485 0.201817 0.711442
0.905395 0.203036 0.712195
0.104336 0.283485 0.697667
0.209048 0.287245 0.700862
0.317840 0.291147 0.704216
0.429139 0.295135 0.707674
0.542336 0.299190 0.711214
0.657108 0.303299 0.714826
0.772076 0.307416 0.718461
0.886337 0.311510 0.722089
0.918901 0.312761 0.722890
0.117068 0.395378 0.708306
0.222249 0.399196 0.711578
0.331565 0.403158 0.715010
0.443445 0.407209 0.718549
0.557284 0.411328 0.722172
0.672765 0.415505 0.725869
0.787560 0.419659 0.729559
0.900395 0.423746 0.733197
0.932430 0.425023 0.734041
0.130333 0.509189 0.719351
0.236072 0.513067 0.722702
0.346017 0.517092 0.726217
0.458599 0.521209 0.729840
0.573217 0.525397 0.733551
0.689561 0.529647 0.737339
0.803938 0.533829 0.741075
0.914624 0.537885 0.744699
0.945912 0.539181 0.745577
0.144183 0.624563 0.730766
0.250593 0.628505 0.734201
0.361297 0.632597 0.737803
0.474726 0.636785 0.741516
0.590285 0.641049 0.745320
0.707668 0.645378 0.749204
0.821332 0.649581 0.752976
0.929022 0.653578 0.756557
0.959310 0.654886 0.757461
0.158685 0.741275 0.742530
0.265901 0.745286 0.746054
0.377517 0.749453 0.749748
0.491963 0.753720 0.753557
0.608648 0.758069 0.757461
0.727273 0.762488 0.761449
0.839881 0.766702 0.765245
0.943601 0.770611 0.768749
0.972600 0.771924 0.769670
0.173913 0.859176 0.754631
0.282093 0.863266 0.758248
0.394797 0.867517 0.762041
0.510454 0.871875 0.765953
0.628476 0.876319 0.769965
0.748567 0.880840 0.774065
0.859725 0.885057 0.777873
0.958380 0.888844 0.781262
0.985767 0.890157 0.782188
0.187674 0.957158 0.764786
0.296974 0.961110 0.768480
0.410940 0.965214 0.772352
0.527996 0.969417 0.776348
0.647557 0.973697 0.780446
0.769335 0.978045 0.784637
0.878568 0.981947 0.788408
0.970904 0.985252 0.791606
0.996284 0.986218 0.792489
