library/cube/Halation_Glow_002.cube
# CINEGRADE LAB — Premium Cinematic LUT
# Title: Halation Glow
# Category: CineStill 800T Emulation
# Description: Tungsten balance, halation glow, night film characteristics
# Mood: Nocturnal, glowing, cinematic
# Variant: 3
# Generated: 2026-05-21T16:12:54.363313
TITLE "Halation Glow"
LUT_3D_SIZE 33
0.072687 0.061309 0.047800
0.098040 0.062199 0.048626
0.123834 0.063103 0.049468
0.149966 0.064020 0.050322
0.176372 0.064946 0.051186
0.203011 0.065880 0.052058
0.229854 0.066821 0.052938
0.256877 0.067768 0.053824
0.284062 0.068721 0.054716
0.311396 0.069679 0.055614
0.338867 0.070642 0.056518
0.366464 0.071609 0.057425
0.394181 0.072581 0.058338
0.422009 0.073556 0.059255
0.449942 0.074535 0.060175
0.477976 0.075517 0.061100
0.506104 0.076503 0.062028
0.534324 0.077492 0.062960
0.562631 0.078484 0.063895
0.591022 0.079478 0.064834
0.619493 0.080476 0.065775
0.648043 0.081476 0.066720
0.676668 0.082479 0.067668
0.705337 0.083484 0.068618
0.734068 0.084491 0.069570
0.762858 0.085500 0.070525
0.791705 0.086510 0.071482
0.820607 0.087523 0.072441
0.849559 0.088538 0.073403
0.878560 0.089554 0.074366
0.882417 0.089695 0.074455
0.882586 0.089708 0.074416
0.882754 0.089721 0.074378
0.075514 0.086974 0.050388
0.100888 0.087868 0.051216
0.126703 0.088776 0.052060
0.152856 0.089697 0.052916
0.179283 0.090626 0.053782
0.205944 0.091564 0.054657
0.232808 0.092509 0.055539
0.259853 0.093461 0.056428
0.287060 0.094417 0.057323
0.314416 0.095379 0.058223
0.341908 0.096346 0.059129
0.369528 0.097317 0.060039
0.397267 0.098292 0.060954
0.425118 0.099271 0.061873
0.453074 0.100254 0.062796
0.481131 0.101240 0.063723
0.509283 0.102230 0.064653
0.537526 0.103223 0.065588
0.565857 0.104218 0.066525
0.594273 0.105217 0.067466
0.622769 0.106219 0.068411
0.651344 0.107223 0.069358
0.679995 0.108230 0.070308
0.708674 0.109238 0.071260
0.737414 0.110248 0.072214
0.766210 0.111260 0.073171
0.795061 0.112274 0.074129
0.823964 0.113289 0.075090
0.852915 0.114307 0.076053
0.881911 0.115326 0.077019
0.885764 0.115470 0.077109
0.885929 0.115486 0.077071
0.886092 0.115502 0.077034
0.078392 0.113096 0.053029
0.103786 0.113993 0.053860
0.129622 0.114905 0.054706
0.155796 0.115830 0.055565
0.182245 0.116763 0.056433
0.208928 0.117705 0.057310
0.235813 0.118654 0.058194
0.262880 0.119609 0.059086
0.290109 0.120570 0.059983
0.317487 0.121535 0.060885
0.345003 0.122506 0.061793
0.372645 0.123481 0.062706
0.400407 0.124460 0.063623
0.428281 0.125443 0.064545
0.456261 0.126430 0.065470
0.484342 0.127420 0.066400
0.512518 0.128413 0.067333
0.540786 0.129410 0.068269
0.569143 0.130409 0.069210
0.597583 0.131412 0.070153
0.626106 0.132417 0.071100
0.654707 0.133425 0.072050
0.683385 0.134436 0.073002
0.712072 0.135447 0.073956
0.740816 0.136460 0.074912
0.769615 0.137475 0.075870
0.798466 0.138492 0.076830
0.827365 0.139511 0.077793
0.856310 0.140531 0.078757
0.885297 0.141553 0.079724
0.889144 0.141700 0.079815
0.889305 0.141718 0.079779
0.889464 0.141737 0.079744
0.081308 0.139568 0.055712
0.106723 0.140469 0.056545
0.132581 0.141385 0.057394
0.158776 0.142313 0.058255
0.185247 0.143251 0.059126
0.211951 0.144196 0.060005
0.238859 0.145149 0.060892
0.265948 0.146108 0.061786
0.293200 0.147072 0.062685
0.320601 0.148042 0.063590
0.348140 0.149016 0.064500
0.375806 0.149995 0.065416
0.403592 0.150978 0.066335
0.431490 0.151965 0.067259
0.459495 0.152955 0.068187
0.487600 0.153949 0.069119
0.515802 0.154946 0.070054
0.544096 0.155947 0.070994
0.572478 0.156950 0.071936
0.600945 0.157957 0.072882
0.629495 0.158966 0.073831
0.658124 0.159978 0.074784
0.686829 0.160993 0.075739
0.715520 0.162007 0.076695
0.744265 0.163023 0.077652
0.773062 0.164041 0.078612
0.801908 0.165060 0.079574
0.830799 0.166081 0.080537
0.859733 0.167104 0.081503
0.888705 0.168128 0.082470
0.892547 0.168278 0.082563
0.892703 0.168299 0.082529
0.892857 0.168320 0.082494
0.084259 0.166327 0.058431
0.109695 0.167232 0.059267
0.135574 0.168152 0.060118
0.161791 0.169084 0.060981
0.188284 0.170025 0.061854
0.215011 0.170975 0.062736
0.241942 0.171931 0.063625
0.269054 0.172894 0.064521
0.296329 0.173862 0.065423
0.323754 0.174835 0.066330
0.351316 0.175813 0.067243
0.379006 0.176796 0.068161
0.406817 0.177783 0.069083
0.434740 0.178773 0.070009
0.462770 0.179767 0.070939
0.490901 0.180765 0.071874
0.519129 0.181766 0.072812
0.547450 0.182770 0.073754
0.575859 0.183778 0.074699
0.604355 0.184788 0.075647
0.632932 0.185801 0.076599
0.661590 0.186817 0.077554
0.690326 0.187835 0.078512
0.719017 0.188852 0.079469
0.747758 0.189871 0.080428
0.776548 0.190892 0.081389
0.805384 0.191914 0.082352
0.834261 0.192937 0.083317
0.863178 0.193962 0.084283
0.892129 0.194988 0.085252
0.895964 0.195141 0.085346
0.896116 0.195165 0.085313
0.896266 0.195188 0.085280
0.087241 0.193331 0.061181
0.112698 0.194240 0.062019
0.138599 0.195164 0.062872
0.164839 0.196099 0.063738
0.191354 0.197044 0.064613
0.218104 0.197997 0.065498
0.245058 0.198957 0.066389
0.272193 0.199924 0.067287
0.299492 0.200896 0.068192
0.326941 0.201873 0.069102
0.354528 0.202855 0.070017
0.382244 0.203841 0.070937
0.410080 0.204831 0.071861
0.438029 0.205825 0.072790
0.466085 0.206823 0.073723
0.494244 0.207825 0.074660
0.522499 0.208830 0.075601
0.550848 0.209838 0.076545
0.579286 0.210849 0.077493
0.607810 0.211863 0.078444
0.636418 0.212880 0.079398
0.665106 0.213900 0.080356
0.693872 0.214922 0.081316
0.722559 0.215942 0.082275
0.751291 0.216963 0.083235
0.780069 0.217986 0.084197
0.808889 0.219011 0.085161
0.837747 0.220036 0.086127
0.866640 0.221063 0.087094
0.895565 0.222091 0.088063
0.899392 0.222246 0.088159
0.899539 0.222272 0.088127
0.899685 0.222299 0.088095
0.090251 0.220549 0.063959
0.115731 0.221461 0.064799
0.141654 0.222389 0.065654
0.167916 0.223328 0.066522
0.194455 0.224276 0.067400
0.221228 0.225233 0.068287
0.248206 0.226197 0.069181
0.275365 0.227167 0.070081
0.302689 0.228143 0.070988
0.330163 0.229123 0.071901
0.357776 0.230109 0.072818
0.385518 0.231099 0.073741
0.413380 0.232093 0.074668
0.441356 0.233091 0.075599
0.469440 0.234093 0.076535
0.497627 0.235098 0.077474
0.525911 0.236107 0.078417
0.554289 0.237119 0.079364
0.582757 0.238134 0.080314
0.611312 0.239152 0.081268
0.639951 0.240172 0.082225
0.668671 0.241196 0.083185
0.697470 0.242222 0.084149
0.726146 0.243245 0.085108
0.754865 0.244268 0.086070
0.783625 0.245293 0.087033
0.812423 0.246319 0.087998
0.841255 0.247347 0.088964
0.870118 0.248376 0.089932
0.899008 0.249405 0.090901
0.902826 0.249562 0.090998
0.902969 0.249591 0.090968
0.903110 0.249621 0.090938
0.093290 0.247958 0.066761
0.118791 0.248873 0.067603
0.144737 0.249804 0.068462
0.171023 0.250747 0.069332
0.197585 0.251699 0.070212
0.224383 0.252660 0.071101
0.251385 0.253627 0.071998
0.278570 0.254601 0.072901
0.305919 0.255580 0.073810
0.333420 0.256564 0.074725
0.361059 0.257554 0.075645
0.388828 0.258547 0.076570
0.416718 0.259545 0.077500
0.444722 0.260547 0.078433
0.472835 0.261552 0.079371
0.501051 0.262561 0.080313
0.529365 0.263574 0.081259
0.557774 0.264589 0.082209
0.586273 0.265608 0.083162
0.614860 0.266630 0.084118
0.643532 0.267655 0.085078
0.672285 0.268682 0.086041
0.701118 0.269713 0.087007
0.729780 0.270737 0.087968
0.758478 0.271763 0.088930
0.787214 0.272789 0.089894
0.815984 0.273818 0.090859
0.844783 0.274847 0.091826
0.873609 0.275877 0.092794
0.902457 0.276908 0.093763
0.906266 0.277067 0.093862
0.906404 0.277099 0.093833
0.906541 0.277131 0.093804
0.096355 0.275538 0.069587
0.121880 0.276457 0.070432
0.147849 0.277392 0.071292
0.174159 0.278338 0.072165
0.200746 0.279294 0.073048
0.227568 0.280258 0.073939
0.254596 0.281229 0.074838
0.281807 0.282206 0.075744
0.309183 0.283189 0.076655
0.336710 0.284177 0.077573
0.364377 0.285170 0.078495
0.392175 0.286167 0.079423
0.420093 0.287169 0.080355
0.448127 0.288175 0.081291
0.476270 0.289184 0.082232
0.504517 0.290197 0.083177
0.532862 0.291213 0.084125
0.561303 0.292232 0.085077
0.589836 0.293255 0.086033
0.618456 0.294281 0.086992
0.647162 0.295309 0.087955
0.675951 0.296341 0.088920
0.704820 0.297375 0.089889
0.733460 0.298401 0.090851
0.762132 0.299428 0.091814
0.790837 0.300457 0.092778
0.819571 0.301487 0.093744
0.848330 0.302517 0.094711
0.877111 0.303548 0.095679
0.905909 0.304580 0.096648
0.909707 0.304742 0.096747
0.909841 0.304776 0.096720
0.909974 0.304810 0.096693
0.099448 0.303276 0.072434
0.124996 0.304199 0.073281
0.150990 0.305137 0.074144
0.177324 0.306087 0.075020
0.203936 0.307046 0.075905
0.230785 0.308014 0.076799
0.257839 0.308988 0.077700
0.285077 0.309969 0.078608
0.312481 0.310956 0.079522
0.340036 0.311947 0.080442
0.367732 0.312944 0.081367
0.395559 0.313945 0.082297
0.423508 0.314950 0.083232
0.451572 0.315959 0.084171
0.479747 0.316972 0.085115
0.508026 0.317989 0.086062
0.536404 0.319009 0.087013
0.564879 0.320032 0.087968
0.593446 0.321059 0.088926
0.622102 0.322088 0.089888
0.650844 0.323121 0.090854
0.679670 0.324156 0.091822
0.708577 0.325194 0.092794
0.737189 0.326222 0.093756
0.765827 0.327251 0.094719
0.794494 0.328281 0.095684
0.823185 0.329312 0.096650
0.851896 0.330343 0.097617
0.880624 0.331375 0.098584
0.909364 0.332408 0.099553
0.913150 0.332572 0.099654
0.913280 0.332608 0.099628
0.913408 0.332645 0.099602
0.102568 0.331159 0.075302
0.128140 0.332086 0.076152
0.154159 0.333027 0.077017
0.180519 0.333980 0.077895
0.207157 0.334943 0.078782
0.234032 0.335914 0.079679
0.261114 0.336892 0.080582
0.288380 0.337877 0.081493
0.315813 0.338867 0.082410
0.343398 0.339862 0.083332
0.371124 0.340863 0.084260
0.398981 0.341867 0.085193
0.426962 0.342876 0.086130
0.455059 0.343889 0.087072
0.483266 0.344906 0.088018
0.511579 0.345926 0.088968
0.539992 0.346950 0.089922
0.568502 0.347977 0.090880
0.597106 0.349008 0.091841
0.625799 0.350041 0.092806
0.654579 0.351078 0.093774
0.683444 0.352117 0.094745
0.712391 0.353159 0.095720
0.740968 0.354189 0.096682
0.769566 0.355219 0.097646
0.798186 0.356250 0.098610
0.826826 0.357281 0.099576
0.855481 0.358313 0.100542
0.884147 0.359346 0.101510
0.912819 0.360378 0.102478
0.916593 0.360545 0.102579
0.916718 0.360584 0.102555
0.916841 0.360623 0.102530
0.105715 0.359178 0.078189
0.131313 0.360107 0.079041
0.157357 0.361052 0.079909
0.183744 0.362009 0.080789
0.210409 0.362975 0.081679
0.237313 0.363950 0.082578
0.264423 0.364932 0.083484
0.291719 0.365920 0.084398
0.319181 0.366914 0.085317
0.346797 0.367913 0.086242
0.374554 0.368917 0.087173
0.402444 0.369925 0.088108
0.430458 0.370938 0.089048
0.458588 0.371954 0.089992
0.486831 0.372975 0.090941
0.515179 0.373999 0.091894
0.543628 0.375027 0.092851
0.572176 0.376058 0.093811
0.600817 0.377092 0.094776
0.629549 0.378129 0.095743
0.658369 0.379170 0.096714
0.687275 0.380213 0.097689
0.716265 0.381260 0.098667
0.744800 0.382290 0.099629
0.773348 0.383321 0.100592
0.801914 0.384353 0.101556
0.830495 0.385385 0.102521
0.859084 0.386417 0.103487
0.887679 0.387450 0.104454
0.916274 0.388482 0.105420
0.920034 0.388651 0.105523
0.920154 0.388693 0.105500
0.920273 0.388735 0.105477
0.108890 0.387322 0.081095
0.134514 0.388255 0.081949
0.160585 0.389204 0.082819
0.186999 0.390164 0.083702
0.213694 0.391134 0.084595
0.240626 0.392112 0.085496
0.267766 0.393097 0.086405
0.295092 0.394089 0.087321
0.322586 0.395086 0.088243
0.350234 0.396089 0.089171
0.378025 0.397097 0.090104
0.405948 0.398109 0.091042
0.433996 0.399125 0.091985
0.462163 0.400146 0.092932
0.490441 0.401170 0.093884
0.518826 0.402198 0.094839
0.547314 0.403230 0.095799
0.575901 0.404265 0.096762
0.604582 0.405303 0.097729
0.633355 0.406344 0.098700
0.662218 0.407389 0.099674
0.691167 0.408436 0.100652
0.720201 0.409487 0.101633
0.748685 0.410518 0.102595
0.777176 0.411550 0.103558
0.805679 0.412582 0.104521
0.834191 0.413614 0.105485
0.862706 0.414646 0.106450
0.891220 0.415679 0.107415
0.919728 0.416711 0.108380
0.923472 0.416882 0.108484
0.923588 0.416926 0.108462
0.923703 0.416970 0.108441
0.112094 0.415586 0.084018
0.137745 0.416522 0.084875
0.163844 0.417474 0.085747
0.190287 0.418438 0.086633
0.217011 0.419411 0.087528
0.243973 0.420393 0.088432
0.271145 0.421382 0.089344
0.298503 0.422377 0.090262
0.326030 0.423378 0.091187
0.353711 0.424385 0.092117
0.381536 0.425396 0.093053
0.409495 0.426412 0.093994
0.437580 0.427432 0.094939
0.465783 0.428456 0.095890
0.494100 0.429484 0.096844
0.522524 0.430516 0.097803
0.551052 0.431552 0.098765
0.579680 0.432591 0.099732
0.608403 0.433633 0.100702
0.637220 0.434678 0.101675
0.666126 0.435727 0.102653
0.695121 0.436779 0.103633
0.724201 0.437833 0.104617
0.752627 0.438865 0.105579
0.781052 0.439897 0.106541
0.809483 0.440929 0.107504
0.837916 0.441961 0.108467
0.866346 0.442993 0.109430
0.894769 0.444025 0.110394
0.923180 0.445057 0.111357
0.926908 0.445229 0.111462
0.927019 0.445276 0.111441
0.927130 0.445323 0.111421
0.115327 0.443962 0.086958
0.141006 0.444901 0.087817
0.167134 0.445857 0.088693
0.193607 0.446824 0.089580
0.220362 0.447801 0.090478
0.247356 0.448786 0.091385
0.274560 0.449779 0.092299
0.301952 0.450778 0.093220
0.329513 0.451782 0.094148
0.357230 0.452792 0.095081
0.385091 0.453807 0.096020
0.413087 0.454827 0.096963
0.441209 0.455851 0.097912
0.469452 0.456879 0.098865
0.497809 0.457911 0.099822
0.526274 0.458947 0.100784
0.554844 0.459987 0.101749
0.583515 0.461029 0.102719
0.612283 0.462076 0.103692
0.641145 0.463125 0.104669
0.670098 0.464178 0.105649
0.699140 0.465234 0.106633
0.728269 0.466293 0.107621
0.756628 0.467325 0.108581
0.784976 0.468357 0.109542
0.813326 0.469389 0.110504
0.841670 0.470420 0.111465
0.870006 0.471452 0.112427
0.898327 0.472483 0.113388
0.926630 0.473513 0.114349
0.930339 0.473687 0.114455
0.930447 0.473737 0.114436
0.930552 0.473786 0.114417
0.118590 0.472444 0.089914
0.144298 0.473387 0.090776
0.170457 0.474346 0.091654
0.196961 0.475317 0.092545
0.223748 0.476297 0.093445
0.250776 0.477286 0.094355
0.278014 0.478282 0.095272
0.305440 0.479285 0.096195
0.333038 0.480293 0.097126
0.360791 0.481307 0.098062
0.388690 0.482326 0.099003
0.416725 0.483349 0.099950
0.444888 0.484377 0.100901
0.473171 0.485409 0.101857
0.501570 0.486445 0.102818
0.530079 0.487485 0.103782
0.558693 0.488528 0.104751
0.587409 0.489576 0.105723
0.616223 0.490626 0.106700
0.645133 0.491680 0.107680
0.674135 0.492737 0.108664
0.703227 0.493797 0.109651
0.732408 0.494860 0.110641
0.760690 0.495892 0.111601
0.788953 0.496923 0.112561
0.817209 0.497955 0.113520
0.845455 0.498985 0.114480
0.873685 0.500016 0.115439
0.901894 0.501045 0.116398
0.930077 0.502074 0.117357
0.933766 0.502251 0.117464
0.933869 0.502303 0.117446
0.933971 0.502354 0.117428
0.121884 0.501028 0.092887
0.147622 0.501974 0.093751
0.173813 0.502937 0.094632
0.200350 0.503911 0.095525
0.227171 0.504895 0.096428
0.254233 0.505887 0.097340
0.281507 0.506887 0.098260
0.308970 0.507893 0.099187
0.336605 0.508906 0.100120
0.364398 0.509923 0.101059
0.392336 0.510946 0.102003
0.420412 0.511973 0.102953
0.448616 0.513005 0.103907
0.476943 0.514041 0.104866
0.505386 0.515081 0.105830
0.533940 0.516125 0.106797
0.562600 0.517173 0.107769
0.591364 0.518224 0.108745
0.620227 0.519278 0.109725
0.649187 0.520337 0.110708
0.678240 0.521398 0.111695
0.707385 0.522462 0.112686
0.736620 0.523530 0.113680
0.764815 0.524562 0.114638
0.792982 0.525592 0.115596
0.821136 0.526622 0.116553
0.849272 0.527652 0.117510
0.877385 0.528681 0.118467
0.905469 0.529709 0.119424
0.933520 0.530736 0.120379
0.937189 0.530914 0.120487
0.937287 0.530968 0.120470
0.937384 0.531023 0.120454
0.125209 0.529708 0.095875
0.150980 0.530658 0.096742
0.177204 0.531624 0.097625
0.203775 0.532602 0.098521
0.230631 0.533590 0.099427
0.257730 0.534586 0.100342
0.285041 0.535589 0.101264
0.312543 0.536599 0.102194
0.340217 0.537615 0.103130
0.368050 0.538637 0.104072
0.396031 0.539663 0.105019
0.424149 0.540695 0.105972
0.452398 0.541730 0.106929
0.480769 0.542770 0.107891
0.509258 0.543815 0.108858
0.537860 0.544863 0.109829
0.566569 0.545915 0.110804
0.595383 0.546970 0.111783
0.624297 0.548029 0.112766
0.653310 0.549091 0.113753
0.682417 0.550157 0.114743
0.711617 0.551226 0.115737
0.740908 0.552298 0.116735
0.769006 0.553329 0.117691
0.797066 0.554359 0.118647
0.825106 0.555387 0.119602
0.853121 0.556415 0.120557
0.881105 0.557442 0.121511
0.909053 0.558468 0.122464
0.936960 0.559493 0.123416
0.940605 0.559673 0.123524
0.940699 0.559730 0.123509
0.940792 0.559787 0.123494
0.128568 0.558481 0.098878
0.154372 0.559435 0.099748
0.180630 0.560405 0.100634
0.207238 0.561386 0.101532
0.234130 0.562378 0.102441
0.261267 0.563377 0.103359
0.288618 0.564385 0.104284
0.316160 0.565398 0.105217
0.343876 0.566418 0.106156
0.371751 0.567444 0.107100
0.399775 0.568474 0.108051
0.427939 0.569509 0.109007
0.456233 0.570549 0.109967
0.484652 0.571594 0.110933
0.513190 0.572642 0.111902
0.541841 0.573694 0.112877
0.570602 0.574750 0.113855
0.599468 0.575810 0.114837
0.628436 0.576873 0.115824
0.657504 0.577940 0.116814
0.686668 0.579011 0.117808
0.715926 0.580084 0.118805
0.745276 0.581161 0.119807
0.773266 0.582191 0.120761
0.801208 0.583219 0.121714
0.829122 0.584246 0.122666
0.857004 0.585272 0.123618
0.884846 0.586296 0.124568
0.912645 0.587320 0.125518
0.940395 0.588342 0.126466
0.944016 0.588524 0.126575
0.944106 0.588583 0.126561
0.944194 0.588642 0.126548
0.131960 0.587344 0.101895
0.157799 0.588301 0.102768
0.184094 0.589274 0.103657
0.210739 0.590260 0.104558
0.237670 0.591255 0.105470
0.264847 0.592258 0.106390
0.292239 0.593269 0.107319
0.319823 0.594287 0.108254
0.347582 0.595311 0.109196
0.375502 0.596340 0.110144
0.403572 0.597375 0.111098
0.431783 0.598414 0.112057
0.460126 0.599458 0.113021
0.488594 0.600507 0.113989
0.517183 0.601559 0.114962
0.545886 0.602616 0.115940
0.574701 0.603676 0.116922
0.603622 0.604741 0.117908
0.632647 0.605809 0.118897
0.661772 0.606880 0.119891
0.690995 0.607955 0.120889
0.720314 0.609033 0.121890
0.749727 0.610115 0.122895
0.777598 0.611143 0.123847
0.805410 0.612169 0.124797
0.833186 0.613194 0.125746
0.860921 0.614218 0.126694
0.888610 0.615240 0.127641
0.916246 0.616260 0.128586
0.943826 0.617279 0.129530
0.947420 0.617463 0.129639
0.947506 0.617524 0.129627
0.947589 0.617586 0.129615
0.135387 0.616293 0.104927
0.161263 0.617253 0.105803
0.187596 0.618230 0.106694
0.214280 0.619219 0.107599
0.241252 0.620218 0.108513
0.268470 0.621226 0.109437
0.295905 0.622240 0.110368
0.323533 0.623262 0.111307
0.351338 0.624290 0.112252
0.379305 0.625323 0.113203
0.407424 0.626362 0.114160
0.435683 0.627406 0.115122
0.464077 0.628454 0.116089
0.492598 0.629507 0.117061
0.521240 0.630564 0.118038
0.549998 0.631625 0.119019
0.578869 0.632690 0.120004
0.607847 0.633759 0.120993
0.636931 0.634831 0.121987
0.666117 0.635907 0.122984
0.695403 0.636987 0.123986
0.724785 0.638070 0.124991
0.754263 0.639157 0.125999
0.782003 0.640183 0.126948
0.809672 0.641207 0.127895
0.837298 0.642229 0.128840
0.864874 0.643250 0.129784
0.892396 0.644269 0.130727
0.919857 0.645286 0.131668
0.947252 0.646301 0.132607
0.950818 0.646486 0.132717
0.950899 0.646551 0.132706
0.950978 0.646616 0.132696
0.138851 0.645324 0.107973
0.164765 0.646288 0.108852
0.191137 0.647269 0.109746
0.217862 0.648262 0.110653
0.244877 0.649265 0.111571
0.272139 0.650276 0.112498
0.299619 0.651295 0.113432
0.327294 0.652321 0.114374
0.355146 0.653353 0.115322
0.383162 0.654390 0.116277
0.411331 0.655433 0.117237
0.439643 0.656481 0.118202
0.468089 0.657534 0.119173
0.496665 0.658591 0.120148
0.525363 0.659652 0.121128
0.554178 0.660718 0.122113
0.583108 0.661788 0.123102
0.612147 0.662861 0.124095
0.641293 0.663938 0.125092
0.670542 0.665019 0.126093
0.699893 0.666104 0.127098
0.729342 0.667192 0.128107
0.758889 0.668284 0.129120
0.786485 0.669308 0.130065
0.813999 0.670329 0.131008
0.841461 0.671348 0.131949
0.868865 0.672366 0.132889
0.896206 0.673381 0.133827
0.923477 0.674394 0.134763
0.950673 0.675405 0.135696
0.954209 0.675592 0.135807
0.954286 0.675660 0.135798
0.954360 0.675727 0.135789
0.142351 0.674435 0.111033
0.168305 0.675404 0.111915
0.194719 0.676388 0.112812
0.221488 0.677385 0.113722
0.248547 0.678392 0.114643
0.275855 0.679407 0.115573
0.303382 0.680430 0.116511
0.331105 0.681460 0.117456
0.359008 0.682496 0.118407
0.387075 0.683538 0.119365
0.415297 0.684585 0.120328
0.443662 0.685638 0.121297
0.472165 0.686695 0.122271
0.500797 0.687756 0.123250
0.529554 0.688823 0.124234
0.558430 0.689893 0.125222
0.587421 0.690967 0.126215
0.616524 0.692046 0.127212
0.645734 0.693128 0.128213
0.675050 0.694214 0.129218
0.704469 0.695303 0.130227
0.733988 0.696397 0.131239
0.763606 0.697493 0.132256
0.791047 0.698515 0.133198
0.818392 0.699533 0.134136
0.845677 0.700549 0.135073
0.872894 0.701562 0.136007
0.900039 0.702574 0.136940
0.927106 0.703583 0.137870
0.954088 0.704589 0.138798
0.957593 0.704778 0.138909
0.957665 0.704848 0.138901
0.957735 0.704918 0.138894
0.145889 0.703625 0.114107
0.171886 0.704597 0.114991
0.198344 0.705585 0.115892
0.225157 0.706586 0.116805
0.252263 0.707597 0.117729
0.279619 0.708616 0.118662
0.307195 0.709643 0.119603
0.334970 0.710678 0.120551
0.362925 0.711718 0.121506
0.391046 0.712764 0.122467
0.419323 0.713816 0.123434
0.447745 0.714873 0.124407
0.476306 0.715935 0.125384
0.504998 0.717001 0.126367
0.533816 0.718072 0.127354
0.562755 0.719147 0.128346
0.591811 0.720226 0.129343
0.620980 0.721310 0.130343
0.650259 0.722397 0.131348
0.679644 0.723488 0.132357
0.709134 0.724583 0.133370
0.738726 0.725681 0.134387
0.768419 0.726784 0.135408
0.795691 0.727802 0.136345
0.822853 0.728816 0.137279
0.849946 0.729828 0.138211
0.876963 0.730838 0.139140
0.903898 0.731845 0.140067
0.930745 0.732849 0.140991
0.957498 0.733850 0.141912
0.960969 0.734041 0.142024
0.961037 0.734114 0.142018
0.961103 0.734187 0.142011
0.149467 0.732889 0.117194
0.175508 0.733865 0.118081
0.202011 0.734858 0.118985
0.228872 0.735863 0.119902
0.256027 0.736878 0.120829
0.283433 0.737901 0.121765
0.311061 0.738933 0.122709
0.338889 0.739971 0.123661
0.366899 0.741016 0.124619
0.395077 0.742067 0.125584
0.423411 0.743124 0.126555
0.451893 0.744185 0.127531
0.480515 0.745252 0.128512
0.509270 0.746323 0.129498
0.538152 0.747399 0.130489
0.567157 0.748479 0.131485
0.596281 0.749563 0.132485
0.625519 0.750651 0.133490
0.654868 0.751744 0.134499
0.684326 0.752840 0.135512
0.713891 0.753941 0.136529
0.743559 0.755044 0.137551
0.773330 0.756152 0.138576
0.800419 0.757167 0.139508
0.827385 0.758177 0.140436
0.854272 0.759185 0.141362
0.881073 0.760190 0.142286
0.907783 0.761192 0.143207
0.934395 0.762191 0.144124
0.960903 0.763187 0.145039
0.964338 0.763379 0.145151
0.964401 0.763455 0.145146
0.964463 0.763531 0.145141
0.153086 0.762227 0.120294
0.179173 0.763208 0.121185
0.205724 0.764204 0.122092
0.232634 0.765213 0.123011
0.259840 0.766232 0.123942
0.287299 0.767261 0.124882
0.314982 0.768297 0.125829
0.342865 0.769340 0.126785
0.370932 0.770389 0.127747
0.399169 0.771445 0.128715
0.427564 0.772506 0.129689
0.456109 0.773572 0.130669
0.484794 0.774643 0.131654
0.513615 0.775720 0.132644
0.542564 0.776800 0.133639
0.571638 0.777886 0.134639
0.600832 0.778975 0.135643
0.630142 0.780069 0.136652
0.659566 0.781167 0.137665
0.689100 0.782269 0.138682
0.718743 0.783374 0.139704
0.748491 0.784484 0.140729
0.778343 0.785597 0.141759
0.805235 0.786608 0.142686
0.831990 0.787614 0.143609
0.858655 0.788617 0.144528
0.885225 0.789617 0.145445
0.911694 0.790614 0.146359
0.938055 0.791607 0.147270
0.964301 0.792596 0.148177
0.967698 0.792791 0.148289
0.967757 0.792869 0.148285
0.967814 0.792948 0.148282
0.156747 0.791637 0.123408
0.182882 0.792622 0.124301
0.209483 0.793622 0.125212
0.236445 0.794636 0.126135
0.263704 0.795659 0.127069
0.291218 0.796692 0.128012
0.318958 0.797733 0.128963
0.346900 0.798780 0.129922
0.375027 0.799834 0.130888
0.403325 0.800895 0.131859
0.431784 0.801961 0.132837
0.460393 0.803032 0.133821
0.489146 0.804108 0.134810
0.518035 0.805190 0.135804
0.547055 0.806276 0.136803
0.576200 0.807366 0.137807
0.605468 0.808461 0.138815
0.634854 0.809560 0.139828
0.664355 0.810664 0.140846
