library/cube/Halation_Glow_002.cube
# CINEGRADE LAB — Premium Cinematic LUT
# Title: Halation Glow
# Category: CineStill 800T Emulation
# Description: Tungsten balance, halation glow, night film characteristics
# Mood: Nocturnal, glowing, cinematic
# Variant: 3
# Generated: 2026-05-21T16:12:54.363313
TITLE "Halation Glow"
LUT_3D_SIZE 5
0.072687 0.061309 0.047800
0.284062 0.068721 0.054716
0.506104 0.076503 0.062028
0.734068 0.084491 0.069570
0.882754 0.089721 0.074378
0.096355 0.275538 0.069587
0.309183 0.283189 0.076655
0.532862 0.291213 0.084125
0.762132 0.299428 0.091814
0.909974 0.304810 0.096693
0.121884 0.501028 0.092887
0.336605 0.508906 0.100120
0.562600 0.517173 0.107769
0.792982 0.525592 0.115596
0.937384 0.531023 0.120454
0.149467 0.732889 0.117194
0.366899 0.741016 0.124619
0.596281 0.749563 0.132485
0.827385 0.758177 0.140436
0.964463 0.763531 0.145141
0.177446 0.949052 0.140144
0.398733 0.957096 0.147762
0.632912 0.965549 0.155850
0.864096 0.973858 0.163853
0.988622 0.978416 0.168165
0.074586 0.063185 0.201014
0.286094 0.070599 0.207758
0.508277 0.078383 0.214909
0.736372 0.086374 0.222299
0.885050 0.091604 0.226961
0.098286 0.277473 0.222256
0.311275 0.285126 0.229188
0.535147 0.293153 0.236533
0.764538 0.301371 0.244104
0.912168 0.306745 0.248865
0.123920 0.503015 0.245129
0.338869 0.510898 0.252262
0.565148 0.519174 0.259825
0.795620 0.527596 0.267567
0.939478 0.533008 0.272331
0.151685 0.734931 0.269128
0.369447 0.743069 0.276492
0.599243 0.751632 0.284310
0.830388 0.760250 0.292211
0.966458 0.765573 0.296839
0.179905 0.951030 0.291875
0.401662 0.959077 0.299470
0.636421 0.967535 0.307548
0.867575 0.975830 0.315532
0.990500 0.980320 0.319779
0.076570 0.065146 0.361257
0.288212 0.072562 0.367828
0.510540 0.080349 0.374816
0.738765 0.088343 0.382055
0.887420 0.093571 0.386571
0.100310 0.279492 0.381951
0.313464 0.287147 0.388747
0.537537 0.295179 0.395968
0.767046 0.303400 0.403423
0.914437 0.308765 0.408066
0.126057 0.505088 0.404400
0.341241 0.512976 0.411436
0.567815 0.521261 0.418913
0.798375 0.529686 0.426575
0.941647 0.535079 0.431245
0.154009 0.737059 0.428098
0.372115 0.745209 0.435405
0.602340 0.753788 0.443180
0.833521 0.762411 0.451034
0.968529 0.767702 0.455589
0.182479 0.953090 0.450656
0.404722 0.961139 0.458233
0.640081 0.969605 0.466309
0.871195 0.977885 0.474277
0.992452 0.982304 0.478465
0.078598 0.067150 0.525096
0.290375 0.074568 0.531497
0.512852 0.082359 0.538327
0.741208 0.090356 0.545417
0.889824 0.095582 0.549790
0.102385 0.281554 0.545254
0.315711 0.289213 0.551918
0.539991 0.297250 0.559019
0.769616 0.305473 0.566362
0.916740 0.310828 0.570891
0.128252 0.507204 0.567293
0.343682 0.515099 0.574236
0.570563 0.523393 0.581635
0.801205 0.531822 0.589221
0.943850 0.537195 0.593802
0.156401 0.739231 0.590708
0.374862 0.747395 0.597964
0.605533 0.755992 0.605702
0.836742 0.764620 0.613516
0.970635 0.769877 0.618001
0.185126 0.955191 0.613095
0.407872 0.963243 0.620662
0.643850 0.971717 0.628742
0.874917 0.979982 0.636703
0.994438 0.984328 0.640834
0.080494 0.069021 0.677981
0.292410 0.076442 0.684232
0.515040 0.084237 0.690922
0.743526 0.092238 0.697882
0.892086 0.097462 0.702129
0.104336 0.283485 0.697667
0.317840 0.291147 0.704216
0.542336 0.299190 0.711214
0.772076 0.307416 0.718461
0.918901 0.312761 0.722890
0.130333 0.509189 0.719351
0.346017 0.517092 0.726217
0.573217 0.525397 0.733551
0.803938 0.533829 0.741075
0.945912 0.539181 0.745577
0.158685 0.741275 0.742530
0.377517 0.749453 0.749748
0.608648 0.758069 0.757461
0.839881 0.766702 0.765245
0.972600 0.771924 0.769670
0.187674 0.957158 0.764786
0.410940 0.965214 0.772352
0.647557 0.973697 0.780446
0.878568 0.981947 0.788408
0.996284 0.986218 0.792489
