library/cube/Haute_Glow_003.cube
# CINEGRADE LAB — Premium Cinematic LUT
# Title: Haute Glow
# Category: Hyperreal Fashion
# Description: Punchy, saturated, with flawless skin rendering for fashion editorials
# Mood: Bold, vibrant, high-impact
# Variant: 4
# Generated: 2026-05-21T16:12:21.127545
TITLE "Haute Glow"
LUT_3D_SIZE 9
0.000000 0.000000 0.000000
0.025492 0.000000 0.000000
0.211220 0.000000 0.000000
0.396949 0.000000 0.000000
0.582677 0.000000 0.000000
0.768405 0.000000 0.000000
0.954134 0.000000 0.000000
1.000000 0.000000 0.000000
1.000000 0.000000 0.000000
0.000000 0.023183 0.000000
0.022207 0.022207 0.000000
0.246129 0.025393 0.000000
0.448109 0.018135 0.000000
0.650088 0.010878 0.000000
0.852068 0.003620 0.000000
0.950848 0.000000 0.000000
1.000000 0.000000 0.000000
1.000000 0.000000 0.000000
0.000000 0.192090 0.000000
0.000000 0.191114 0.000000
0.183998 0.183998 0.000000
0.422077 0.190420 0.000000
0.624057 0.183163 0.000000
0.826037 0.175905 0.000000
1.000000 0.168647 0.000000
1.000000 0.161389 0.000000
1.000000 0.160393 0.000000
0.000000 0.360997 0.000000
0.000000 0.360020 0.000000
0.160061 0.352905 0.000000
0.345790 0.345790 0.000000
0.531518 0.338674 0.000000
0.800005 0.348190 0.000000
1.000000 0.340932 0.000000
1.000000 0.333674 0.000000
1.000000 0.332678 0.000000
0.000000 0.529904 0.000000
0.000000 0.528927 0.000000
0.136124 0.521812 0.000000
0.321853 0.514696 0.000000
0.507581 0.507581 0.000000
0.693309 0.500466 0.000000
0.975953 0.513217 0.000000
1.000000 0.505959 0.000000
1.000000 0.504963 0.000000
0.000000 0.698811 0.000000
0.000000 0.697834 0.000000
0.112188 0.690719 0.000000
0.297916 0.683603 0.000000
0.483644 0.676488 0.000000
0.669372 0.669372 0.000000
0.855101 0.662257 0.000000
1.000000 0.678244 0.000000
1.000000 0.677248 0.000000
0.000000 0.867718 0.000000
0.000000 0.866741 0.000000
0.088251 0.859626 0.000000
0.273979 0.852510 0.000000
0.459707 0.845395 0.000000
0.645436 0.838279 0.000000
0.831164 0.831164 0.000000
1.000000 0.824048 0.000000
1.000000 0.823072 0.000000
0.000000 1.000000 0.000000
0.000000 1.000000 0.000000
0.064314 1.000000 0.000000
0.250042 1.000000 0.000000
0.435770 1.000000 0.000000
0.621499 1.000000 0.000000
0.807227 1.000000 0.000000
0.992955 0.992955 0.000000
1.000000 0.991979 0.000000
0.000000 1.000000 0.000000
0.000000 1.000000 0.000000
0.061028 1.000000 0.000000
0.246757 1.000000 0.000000
0.432485 1.000000 0.000000
0.618213 1.000000 0.000000
0.803942 1.000000 0.000000
0.989670 1.000000 0.000000
1.000000 1.000000 0.000000
0.000000 0.000000 0.026137
0.025160 0.000000 0.025160
0.210889 0.000000 0.018045
0.396617 0.000000 0.010930
0.582345 0.000000 0.003814
0.768074 0.000000 0.000000
0.953802 0.000000 0.000000
1.000000 0.000000 0.000000
1.000000 0.000000 0.000000
0.000000 0.022852 0.022852
0.021875 0.021875 0.021875
0.207603 0.014760 0.014760
0.393332 0.007644 0.007644
0.579060 0.000529 0.000529
0.764788 0.000000 0.000000
0.950516 0.000000 0.000000
1.000000 0.000000 0.000000
1.000000 0.000000 0.000000
0.000000 0.191759 0.000000
0.000000 0.190782 0.000000
0.183666 0.183666 0.000000
0.421717 0.190082 0.000000
0.623696 0.182824 0.000000
0.825676 0.175566 0.000000
1.000000 0.168309 0.000000
1.000000 0.148089 0.000000
1.000000 0.147113 0.000000
0.000000 0.360665 0.000000
0.000000 0.359689 0.000000
0.159730 0.352573 0.000000
0.345458 0.345458 0.000000
0.597665 0.355109 0.000000
0.799644 0.347852 0.000000
1.000000 0.340594 0.000000
1.000000 0.333336 0.000000
1.000000 0.332340 0.000000
0.000000 0.529572 0.000000
0.000000 0.528596 0.000000
0.135793 0.521480 0.000000
0.321521 0.514365 0.000000
0.507249 0.507249 0.000000
0.692978 0.500134 0.000000
0.975593 0.512879 0.000000
1.000000 0.505621 0.000000
1.000000 0.504625 0.000000
0.000000 0.698479 0.000000
0.000000 0.697503 0.000000
0.111856 0.690387 0.000000
0.297584 0.683272 0.000000
0.483312 0.676156 0.000000
0.669041 0.669041 0.000000
0.854769 0.661925 0.000000
1.000000 0.677906 0.000000
1.000000 0.676910 0.000000
0.000000 0.867386 0.000000
0.000000 0.866409 0.000000
0.087919 0.859294 0.000000
0.273647 0.852179 0.000000
0.459376 0.845063 0.000000
0.645104 0.837948 0.000000
0.830832 0.830832 0.000000
1.000000 0.823717 0.000000
1.000000 0.849195 0.000000
0.000000 1.000000 0.000000
0.000000 1.000000 0.000000
0.063982 1.000000 0.000000
0.249710 1.000000 0.000000
0.435439 1.000000 0.000000
0.621167 1.000000 0.000000
0.806895 0.999739 0.000000
0.992624 0.992624 0.000000
1.000000 0.991647 0.000000
0.000000 1.000000 0.000000
0.000000 1.000000 0.000000
0.060697 1.000000 0.000000
0.246425 1.000000 0.000000
0.432153 1.000000 0.000000
0.617882 1.000000 0.000000
0.803610 1.000000 0.000000
0.989338 1.000000 0.000000
1.000000 1.000000 0.000000
0.000000 0.000000 0.216564
0.022744 0.000000 0.215588
0.208472 0.000000 0.208472
0.394201 0.000000 0.201357
0.579929 0.000000 0.194241
0.765657 0.000000 0.187126
0.951385 0.000000 0.180010
1.000000 0.000000 0.172895
1.000000 0.000000 0.171918
0.000000 0.020435 0.213279
0.019459 0.019459 0.212302
0.205187 0.012343 0.205187
0.390915 0.005228 0.198071
0.576643 0.000000 0.190956
0.762372 0.000000 0.183840
0.948100 0.000000 0.176725
1.000000 0.000000 0.169610
1.000000 0.000000 0.168633
0.000000 0.189342 0.189342
0.000000 0.188365 0.188365
0.181250 0.181250 0.181250
0.366978 0.174135 0.174135
0.552707 0.167019 0.167019
0.738435 0.159904 0.159904
0.924163 0.152788 0.152788
1.000000 0.145673 0.145673
1.000000 0.144696 0.144696
0.000000 0.358249 0.165405
0.000000 0.357272 0.164429
0.157313 0.350157 0.157313
0.343041 0.343041 0.150198
0.595037 0.352645 0.143082
0.797017 0.345387 0.135967
0.998996 0.338129 0.128851
1.000000 0.330871 0.121736
1.000000 0.313603 0.120759
0.000000 0.527156 0.141468
0.000000 0.526179 0.140492
0.133376 0.519064 0.133376
0.319105 0.511948 0.126261
0.504833 0.504833 0.119145
0.770985 0.517672 0.112030
0.972965 0.510414 0.104914
1.000000 0.503156 0.097799
1.000000 0.502160 0.096822
0.000000 0.696063 0.117532
0.000000 0.695086 0.116555
0.109439 0.687971 0.109439
0.295168 0.680855 0.102324
0.480896 0.673740 0.095209
0.666624 0.666624 0.088093
0.852353 0.659509 0.080978
1.000000 0.675441 0.073862
1.000000 0.674445 0.072886
0.000000 0.864970 0.093595
0.000000 0.863993 0.092618
0.085503 0.856878 0.085503
0.271231 0.849762 0.078387
0.456959 0.842647 0.071272
0.642687 0.835531 0.064156
0.828416 0.828416 0.057041
1.000000 0.821300 0.049925
1.000000 0.846730 0.048949
0.000000 1.000000 0.069658
0.000000 1.000000 0.068681
0.061566 1.000000 0.061566
0.247294 1.000000 0.054450
0.433022 1.000000 0.047335
0.618751 1.000000 0.040219
0.804479 0.997323 0.033104
0.990207 0.990207 0.025988
1.000000 0.989231 0.025012
0.000000 1.000000 0.066372
0.000000 1.000000 0.065396
0.058280 1.000000 0.058280
0.244009 1.000000 0.051165
0.429737 1.000000 0.044049
0.615465 1.000000 0.036934
0.801193 1.000000 0.029818
0.986922 1.000000 0.022703
1.000000 1.000000 0.021726
0.000000 0.000000 0.406992
0.020328 0.000000 0.406015
0.206056 0.000000 0.398900
0.391784 0.000000 0.391784
0.577512 0.000000 0.384669
0.763241 0.000000 0.377553
0.948969 0.000000 0.370438
1.000000 0.000000 0.363322
1.000000 0.000000 0.362346
0.000000 0.018019 0.403706
0.017042 0.017042 0.402730
0.202770 0.009927 0.395614
0.388499 0.002811 0.388499
0.574227 0.000000 0.381383
0.759955 0.000000 0.374268
0.945684 0.000000 0.367152
1.000000 0.000000 0.360037
1.000000 0.000000 0.359060
0.000000 0.186926 0.379769
0.000000 0.185949 0.378793
0.178834 0.178834 0.371677
0.364562 0.171718 0.364562
0.550290 0.164603 0.357446
0.736018 0.157487 0.350331
0.921747 0.150372 0.343215
1.000000 0.143256 0.336100
1.000000 0.142280 0.335123
0.000000 0.355833 0.355833
0.000000 0.354856 0.354856
0.154897 0.347740 0.347740
0.340625 0.340625 0.340625
0.526353 0.333510 0.333510
0.712082 0.326394 0.326394
0.897810 0.319279 0.319279
1.000000 0.312163 0.312163
1.000000 0.311187 0.311187
0.000000 0.524739 0.331896
0.000000 0.523763 0.330919
0.130960 0.516647 0.323804
0.316688 0.509532 0.316688
0.502416 0.502416 0.309573
0.768357 0.515207 0.302457
0.970337 0.507949 0.295342
1.000000 0.500691 0.288226
1.000000 0.499695 0.287250
0.000000 0.693646 0.307959
0.000000 0.692670 0.306982
0.107023 0.685554 0.299867
0.292751 0.678439 0.292751
0.478480 0.671323 0.285636
0.664208 0.664208 0.278520
0.944306 0.680234 0.271405
1.000000 0.672977 0.264289
1.000000 0.671980 0.263313
0.000000 0.862553 0.284022
0.000000 0.861577 0.283045
0.083086 0.854461 0.275930
0.268814 0.847346 0.268814
0.454543 0.840230 0.261699
0.640271 0.833115 0.254584
0.825999 0.825999 0.247468
1.000000 0.818884 0.240353
1.000000 0.844265 0.239376
0.000000 1.000000 0.260085
0.000000 1.000000 0.259109
0.059149 1.000000 0.251993
0.244878 1.000000 0.244878
0.430606 1.000000 0.237762
0.616334 1.000000 0.230647
0.802062 0.994906 0.223531
0.987791 0.987791 0.216416
1.000000 0.986814 0.215439
0.000000 1.000000 0.256800
0.000000 1.000000 0.255823
0.055864 1.000000 0.248708
0.241592 1.000000 0.241592
0.427320 1.000000 0.234477
0.613049 1.000000 0.227361
0.798777 1.000000 0.220246
0.984505 1.000000 0.213130
1.000000 1.000000 0.212154
0.000000 0.000000 0.597419
0.017911 0.000000 0.596442
0.203639 0.000000 0.589327
0.389368 0.000000 0.582211
0.575096 0.000000 0.575096
0.760824 0.000000 0.567981
0.946553 0.000000 0.560865
1.000000 0.000000 0.553750
1.000000 0.000000 0.552773
0.000000 0.015602 0.594134
0.014626 0.014626 0.593157
0.200354 0.007510 0.586041
0.386082 0.000395 0.578926
0.571811 0.000000 0.571811
0.757539 0.000000 0.564695
0.943267 0.000000 0.557580
1.000000 0.000000 0.550464
1.000000 0.000000 0.549488
0.000000 0.184509 0.570197
0.000000 0.183533 0.569220
0.176417 0.176417 0.562105
0.362145 0.169302 0.554989
0.547874 0.162186 0.547874
0.733602 0.155071 0.540758
0.919330 0.147955 0.533643
1.000000 0.140840 0.526527
1.000000 0.139863 0.525551
0.000000 0.353416 0.546260
0.000000 0.352439 0.545283
0.152480 0.345324 0.538168
0.338209 0.338209 0.531052
0.523937 0.331093 0.523937
0.709665 0.323978 0.516821
0.895393 0.316862 0.509706
1.000000 0.309747 0.502590
1.000000 0.308770 0.501614
0.000000 0.522323 0.522323
0.000000 0.521346 0.521346
0.128543 0.514231 0.514231
0.314272 0.507115 0.507115
0.500000 0.500000 0.500000
0.685728 0.492885 0.492885
0.871457 0.485769 0.485769
1.000000 0.478654 0.478654
1.000000 0.477677 0.477677
0.000000 0.691230 0.498386
0.000000 0.690253 0.497410
0.104607 0.683138 0.490294
0.290335 0.676022 0.483179
0.476063 0.668907 0.476063
0.661791 0.661791 0.468948
0.941678 0.677770 0.461832
1.000000 0.670512 0.454717
1.000000 0.669516 0.453740
0.000000 0.860137 0.474449
0.000000 0.859160 0.473473
0.080670 0.852045 0.466357
0.266398 0.844929 0.459242
0.452126 0.837814 0.452126
0.637855 0.830698 0.445011
0.823583 0.823583 0.437895
1.000000 0.842797 0.430780
1.000000 0.841801 0.429803
0.000000 1.000000 0.450512
0.000000 1.000000 0.449536
0.056733 1.000000 0.442420
0.242461 1.000000 0.435305
0.428189 1.000000 0.428189
0.613918 0.999605 0.421074
0.799646 0.992490 0.413959
0.985374 0.985374 0.406843
1.000000 0.984398 0.405866
0.000000 1.000000 0.447227
0.000000 1.000000 0.446250
0.053447 1.000000 0.439135
0.239176 1.000000 0.432019
0.424904 1.000000 0.424904
0.610632 1.000000 0.417789
0.796361 1.000000 0.410673
0.982089 1.000000 0.403558
1.000000 1.000000 0.402581
0.000000 0.000000 0.787846
0.015495 0.000000 0.786870
0.201223 0.000000 0.779754
0.386951 0.000000 0.772639
0.572680 0.000000 0.765523
0.758408 0.000000 0.758408
0.944136 0.000000 0.751292
1.000000 0.000000 0.744177
1.000000 0.000000 0.743200
0.000000 0.013186 0.784561
0.012209 0.012209 0.783584
0.197938 0.005094 0.776469
0.383666 0.000000 0.769353
0.569394 0.000000 0.762238
0.755122 0.000000 0.755122
0.940851 0.000000 0.748007
1.000000 0.000000 0.740891
1.000000 0.000000 0.739915
0.000000 0.182093 0.760624
0.000000 0.181116 0.759647
0.174001 0.174001 0.752532
0.359729 0.166885 0.745416
0.545457 0.159770 0.738301
0.731186 0.152654 0.731186
0.916914 0.145539 0.724070
1.000000 0.138423 0.716955
1.000000 0.137447 0.715978
0.000000 0.351000 0.736687
0.000000 0.350023 0.735711
0.150064 0.342908 0.728595
0.335792 0.335792 0.721480
0.521520 0.328677 0.714364
0.707249 0.321561 0.707249
0.892977 0.314446 0.700133
1.000000 0.307330 0.693018
1.000000 0.306354 0.692041
0.000000 0.519907 0.712750
0.000000 0.518930 0.711774
0.126127 0.511814 0.704658
0.311855 0.504699 0.697543
0.497584 0.497584 0.690427
0.683312 0.490468 0.683312
0.869040 0.483353 0.676196
1.000000 0.476237 0.669081
1.000000 0.475261 0.668104
0.000000 0.688813 0.688813
0.000000 0.687837 0.687837
0.102190 0.680721 0.680721
0.287918 0.673606 0.673606
0.473647 0.666490 0.666490
0.659375 0.659375 0.659375
0.845103 0.652260 0.652260
1.000000 0.645144 0.645144
1.000000 0.644167 0.644167
0.000000 0.857720 0.664877
0.000000 0.856744 0.663900
0.078253 0.849628 0.656785
0.263982 0.842513 0.649669
0.449710 0.835397 0.642554
0.635438 0.828282 0.635438
0.821166 0.821166 0.628323
1.000000 0.840332 0.621207
1.000000 0.839336 0.620231
0.000000 1.000000 0.640940
0.000000 1.000000 0.639963
0.054316 1.000000 0.632848
0.240045 1.000000 0.625732
0.425773 1.000000 0.618617
0.611501 0.997189 0.611501
0.797230 0.990073 0.604386
0.982958 0.982958 0.597270
1.000000 1.000000 0.596294
0.000000 1.000000 0.637654
0.000000 1.000000 0.636678
0.051031 1.000000 0.629562
0.236759 1.000000 0.622447
0.422488 1.000000 0.615331
0.608216 1.000000 0.608216
0.793944 1.000000 0.601100
0.979672 1.000000 0.593985
1.000000 1.000000 0.593008
0.000000 0.000000 0.978274
0.013078 0.000000 0.977297
0.198807 0.000000 0.970182
0.384535 0.000000 0.963066
0.570263 0.000000 0.955951
0.755991 0.000000 0.948835
0.941720 0.000000 0.941720
1.000000 0.000000 0.934604
1.000000 0.000000 0.933628
0.000000 0.010769 0.974988
0.009793 0.009793 0.974012
0.195521 0.002677 0.966896
0.381249 0.000000 0.959781
0.566978 0.000000 0.952665
0.752706 0.000000 0.945550
0.938434 0.000000 0.938434
1.000000 0.000000 0.931319
1.000000 0.000000 0.930342
0.000000 0.179676 0.951051
0.000000 0.178700 0.950075
0.171584 0.171584 0.942959
0.357313 0.164469 0.935844
0.543041 0.157353 0.928728
0.728769 0.150238 0.921613
0.914497 0.143122 0.914497
1.000000 0.136007 0.907382
1.000000 0.135030 0.906405
0.000000 0.348583 0.927114
0.000000 0.347607 0.926138
0.147647 0.340491 0.919022
0.333376 0.333376 0.911907
0.519104 0.326260 0.904791
0.704832 0.319145 0.897676
0.890561 0.312029 0.890561
1.000000 0.304914 0.883445
1.000000 0.303937 0.882468
0.000000 0.517490 0.903178
0.000000 0.516513 0.902201
0.123711 0.509398 0.895086
0.309439 0.502283 0.887970
0.495167 0.495167 0.880855
0.680895 0.488052 0.873739
0.866624 0.480936 0.866624
1.000000 0.473821 0.859508
1.000000 0.472844 0.858532
0.000000 0.686397 0.879241
0.000000 0.685420 0.878264
0.099774 0.678305 0.871149
0.285502 0.671189 0.864033
0.471230 0.664074 0.856918
0.656959 0.656959 0.849802
0.842687 0.649843 0.842687
1.000000 0.642728 0.835571
1.000000 0.641751 0.834595
0.000000 0.855304 0.855304
0.000000 0.854327 0.854327
0.075837 0.847212 0.847212
0.261565 0.840096 0.840096
0.447293 0.832981 0.832981
0.633022 0.825865 0.825865
0.818750 0.818750 0.818750
1.000000 0.811635 0.811635
1.000000 0.810658 0.810658
0.000000 1.000000 0.831367
0.000000 1.000000 0.830390
0.051900 1.000000 0.823275
0.237628 1.000000 0.816160
0.423357 1.000000 0.809044
0.609085 0.994772 0.801929
0.794813 0.987657 0.794813
0.980541 0.980541 0.787698
1.000000 1.000000 0.786721
0.000000 1.000000 0.828082
0.000000 1.000000 0.827105
0.048615 1.000000 0.819990
0.234343 1.000000 0.812874
0.420071 1.000000 0.805759
0.605799 1.000000 0.798643
0.791528 1.000000 0.791528
0.977256 1.000000 0.784412
1.000000 1.000000 0.783436
0.000000 0.000000 1.000000
0.010662 0.000000 1.000000
0.196390 0.000000 1.000000
0.382118 0.000000 1.000000
0.567847 0.000000 1.000000
0.753575 0.000000 1.000000
0.939303 0.000000 1.000000
1.000000 0.000000 1.000000
1.000000 0.000000 1.000000
0.000000 0.008353 1.000000
0.007376 0.007376 1.000000
0.193105 0.000261 1.000000
0.378833 0.000000 1.000000
0.564561 0.000000 1.000000
0.750290 0.000000 1.000000
0.936018 0.000000 1.000000
1.000000 0.000000 1.000000
1.000000 0.000000 1.000000
0.000000 0.177260 1.000000
0.000000 0.176283 1.000000
0.169168 0.169168 1.000000
0.354896 0.162052 1.000000
0.540624 0.154937 1.000000
0.726353 0.147821 1.000000
0.912081 0.140706 1.000000
1.000000 0.133591 1.000000
1.000000 0.132614 1.000000
0.000000 0.346167 1.000000
0.000000 0.345190 1.000000
0.145231 0.338075 1.000000
0.330959 0.330959 1.000000
0.516688 0.323844 1.000000
0.702416 0.316728 1.000000
0.888144 0.309613 1.000000
1.000000 0.302497 1.000000
1.000000 0.301521 1.000000
0.000000 0.515074 1.000000
0.000000 0.514097 1.000000
0.121294 0.506982 1.000000
0.307022 0.499866 1.000000
0.492751 0.492751 1.000000
0.678479 0.485635 1.000000
0.864207 0.478520 1.000000
1.000000 0.471404 1.000000
1.000000 0.470428 1.000000
0.000000 0.683981 1.000000
0.000000 0.683004 1.000000
0.097357 0.675888 1.000000
0.283086 0.668773 1.000000
0.468814 0.661658 1.000000
0.654542 0.654542 1.000000
0.840270 0.647427 1.000000
1.000000 0.640311 1.000000
1.000000 0.639335 1.000000
0.000000 0.852887 1.000000
0.000000 0.851911 1.000000
0.073420 0.844795 1.000000
0.259149 0.837680 1.000000
0.444877 0.830564 1.000000
0.630605 0.823449 1.000000
0.816334 0.816334 1.000000
1.000000 0.809218 1.000000
1.000000 0.808241 1.000000
0.000000 1.000000 1.000000
0.000000 1.000000 1.000000
0.049484 1.000000 1.000000
0.235212 1.000000 1.000000
0.420940 0.999471 0.999471
0.606668 0.992356 0.992356
0.792397 0.985240 0.985240
0.978125 0.978125 0.978125
1.000000 0.977148 0.977148
0.000000 1.000000 1.000000
0.000000 1.000000 1.000000
0.046198 1.000000 1.000000
0.231926 1.000000 1.000000
0.417655 1.000000 0.996186
0.603383 1.000000 0.989070
0.789111 1.000000 0.981955
0.974840 1.000000 0.974840
1.000000 1.000000 0.973863
0.000000 0.000000 1.000000
0.010330 0.000000 1.000000
0.196058 0.000000 1.000000
0.381787 0.000000 1.000000
0.567515 0.000000 1.000000
0.753243 0.000000 1.000000
0.938972 0.000000 1.000000
1.000000 0.000000 1.000000
1.000000 0.000000 1.000000
0.000000 0.008021 1.000000
0.007045 0.007045 1.000000
0.192773 0.000000 1.000000
0.378501 0.000000 1.000000
0.564230 0.000000 1.000000
0.749958 0.000000 1.000000
0.935686 0.000000 1.000000
1.000000 0.000000 1.000000
1.000000 0.000000 1.000000
0.000000 0.176928 1.000000
0.000000 0.175952 1.000000
0.168836 0.168836 1.000000
0.354564 0.161721 1.000000
0.540293 0.154605 1.000000
0.726021 0.147490 1.000000
0.911749 0.140374 1.000000
1.000000 0.133259 1.000000
1.000000 0.132282 1.000000
0.000000 0.345835 1.000000
0.000000 0.344858 1.000000
0.144899 0.337743 1.000000
0.330628 0.330628 1.000000
0.516356 0.323512 1.000000
0.702084 0.316397 1.000000
0.887812 0.309281 1.000000
1.000000 0.302166 1.000000
1.000000 0.301189 1.000000
0.000000 0.514742 1.000000
0.000000 0.513765 1.000000
0.120962 0.506650 1.000000
0.306691 0.499534 1.000000
0.492419 0.492419 1.000000
0.678147 0.485304 1.000000
0.863876 0.478188 1.000000
1.000000 0.471073 1.000000
1.000000 0.470096 1.000000
0.000000 0.683649 1.000000
0.000000 0.682672 1.000000
0.097026 0.675557 1.000000
0.282754 0.668441 1.000000
0.468482 0.661326 1.000000
0.654210 0.654210 1.000000
0.839939 0.647095 1.000000
1.000000 0.639980 1.000000
1.000000 0.639003 1.000000
0.000000 0.852556 1.000000
0.000000 0.851579 1.000000
0.073089 0.844464 1.000000
0.258817 0.837348 1.000000
0.444545 0.830233 1.000000
0.630274 0.823117 1.000000
0.816002 0.816002 1.000000
1.000000 0.808886 1.000000
1.000000 0.807910 1.000000
0.000000 1.000000 1.000000
0.000000 1.000000 1.000000
0.049152 1.000000 1.000000
0.234880 1.000000 1.000000
0.420608 0.999140 1.000000
0.606337 0.992024 1.000000
0.792065 0.984909 1.000000
0.977793 0.977793 1.000000
1.000000 0.976817 1.000000
0.000000 1.000000 1.000000
0.000000 1.000000 1.000000
0.045866 1.000000 1.000000
0.231595 1.000000 1.000000
0.417323 1.000000 1.000000
0.603051 1.000000 1.000000
0.788780 1.000000 1.000000
0.974508 1.000000 1.000000
1.000000 1.000000 1.000000
