library/cube/Haute_Glow_003.cube
# CINEGRADE LAB — Premium Cinematic LUT
# Title: Haute Glow
# Category: Hyperreal Fashion
# Description: Punchy, saturated, with flawless skin rendering for fashion editorials
# Mood: Bold, vibrant, high-impact
# Variant: 4
# Generated: 2026-05-21T16:12:21.127545
TITLE "Haute Glow"
LUT_3D_SIZE 5
0.000000 0.000000 0.000000
0.211220 0.000000 0.000000
0.582677 0.000000 0.000000
0.954134 0.000000 0.000000
1.000000 0.000000 0.000000
0.000000 0.192090 0.000000
0.183998 0.183998 0.000000
0.624057 0.183163 0.000000
1.000000 0.168647 0.000000
1.000000 0.160393 0.000000
0.000000 0.529904 0.000000
0.136124 0.521812 0.000000
0.507581 0.507581 0.000000
0.975953 0.513217 0.000000
1.000000 0.504963 0.000000
0.000000 0.867718 0.000000
0.088251 0.859626 0.000000
0.459707 0.845395 0.000000
0.831164 0.831164 0.000000
1.000000 0.823072 0.000000
0.000000 1.000000 0.000000
0.061028 1.000000 0.000000
0.432485 1.000000 0.000000
0.803942 1.000000 0.000000
1.000000 1.000000 0.000000
0.000000 0.000000 0.216564
0.208472 0.000000 0.208472
0.579929 0.000000 0.194241
0.951385 0.000000 0.180010
1.000000 0.000000 0.171918
0.000000 0.189342 0.189342
0.181250 0.181250 0.181250
0.552707 0.167019 0.167019
0.924163 0.152788 0.152788
1.000000 0.144696 0.144696
0.000000 0.527156 0.141468
0.133376 0.519064 0.133376
0.504833 0.504833 0.119145
0.972965 0.510414 0.104914
1.000000 0.502160 0.096822
0.000000 0.864970 0.093595
0.085503 0.856878 0.085503
0.456959 0.842647 0.071272
0.828416 0.828416 0.057041
1.000000 0.846730 0.048949
0.000000 1.000000 0.066372
0.058280 1.000000 0.058280
0.429737 1.000000 0.044049
0.801193 1.000000 0.029818
1.000000 1.000000 0.021726
0.000000 0.000000 0.597419
0.203639 0.000000 0.589327
0.575096 0.000000 0.575096
0.946553 0.000000 0.560865
1.000000 0.000000 0.552773
0.000000 0.184509 0.570197
0.176417 0.176417 0.562105
0.547874 0.162186 0.547874
0.919330 0.147955 0.533643
1.000000 0.139863 0.525551
0.000000 0.522323 0.522323
0.128543 0.514231 0.514231
0.500000 0.500000 0.500000
0.871457 0.485769 0.485769
1.000000 0.477677 0.477677
0.000000 0.860137 0.474449
0.080670 0.852045 0.466357
0.452126 0.837814 0.452126
0.823583 0.823583 0.437895
1.000000 0.841801 0.429803
0.000000 1.000000 0.447227
0.053447 1.000000 0.439135
0.424904 1.000000 0.424904
0.796361 1.000000 0.410673
1.000000 1.000000 0.402581
0.000000 0.000000 0.978274
0.198807 0.000000 0.970182
0.570263 0.000000 0.955951
0.941720 0.000000 0.941720
1.000000 0.000000 0.933628
0.000000 0.179676 0.951051
0.171584 0.171584 0.942959
0.543041 0.157353 0.928728
0.914497 0.143122 0.914497
1.000000 0.135030 0.906405
0.000000 0.517490 0.903178
0.123711 0.509398 0.895086
0.495167 0.495167 0.880855
0.866624 0.480936 0.866624
1.000000 0.472844 0.858532
0.000000 0.855304 0.855304
0.075837 0.847212 0.847212
0.447293 0.832981 0.832981
0.818750 0.818750 0.818750
1.000000 0.810658 0.810658
0.000000 1.000000 0.828082
0.048615 1.000000 0.819990
0.420071 1.000000 0.805759
0.791528 1.000000 0.791528
1.000000 1.000000 0.783436
0.000000 0.000000 1.000000
0.196058 0.000000 1.000000
0.567515 0.000000 1.000000
0.938972 0.000000 1.000000
1.000000 0.000000 1.000000
0.000000 0.176928 1.000000
0.168836 0.168836 1.000000
0.540293 0.154605 1.000000
0.911749 0.140374 1.000000
1.000000 0.132282 1.000000
0.000000 0.514742 1.000000
0.120962 0.506650 1.000000
0.492419 0.492419 1.000000
0.863876 0.478188 1.000000
1.000000 0.470096 1.000000
0.000000 0.852556 1.000000
0.073089 0.844464 1.000000
0.444545 0.830233 1.000000
0.816002 0.816002 1.000000
1.000000 0.807910 1.000000
0.000000 1.000000 1.000000
0.045866 1.000000 1.000000
0.417323 1.000000 1.000000
0.788780 1.000000 1.000000
1.000000 1.000000 1.000000
