library/cube/Haute_Glow_003.cube
# CINEGRADE LAB — Premium Cinematic LUT
# Title: Haute Glow
# Category: Hyperreal Fashion
# Description: Punchy, saturated, with flawless skin rendering for fashion editorials
# Mood: Bold, vibrant, high-impact
# Variant: 4
# Generated: 2026-05-21T16:12:21.127545
TITLE "Haute Glow"
LUT_3D_SIZE 33
0.000000 0.000000 0.000000
0.000000 0.000000 0.000000
0.000000 0.000000 0.000000
0.000000 0.000000 0.000000
0.025492 0.000000 0.000000
0.071924 0.000000 0.000000
0.118356 0.000000 0.000000
0.164788 0.000000 0.000000
0.211220 0.000000 0.000000
0.257652 0.000000 0.000000
0.304085 0.000000 0.000000
0.350517 0.000000 0.000000
0.396949 0.000000 0.000000
0.443381 0.000000 0.000000
0.489813 0.000000 0.000000
0.536245 0.000000 0.000000
0.582677 0.000000 0.000000
0.629109 0.000000 0.000000
0.675541 0.000000 0.000000
0.721973 0.000000 0.000000
0.768405 0.000000 0.000000
0.814837 0.000000 0.000000
0.861269 0.000000 0.000000
0.907702 0.000000 0.000000
0.954134 0.000000 0.000000
1.000000 0.000000 0.000000
1.000000 0.000000 0.000000
1.000000 0.000000 0.000000
1.000000 0.000000 0.000000
1.000000 0.000000 0.000000
1.000000 0.000000 0.000000
1.000000 0.000000 0.000000
1.000000 0.000000 0.000000
0.000000 0.000000 0.000000
0.000000 0.000000 0.000000
0.020000 0.010000 0.000000
0.020000 0.010000 0.000000
0.047723 0.009004 0.000000
0.098218 0.007189 0.000000
0.118356 0.000000 0.000000
0.164788 0.000000 0.000000
0.211220 0.000000 0.000000
0.257652 0.000000 0.000000
0.304085 0.000000 0.000000
0.350517 0.000000 0.000000
0.396949 0.000000 0.000000
0.443381 0.000000 0.000000
0.489813 0.000000 0.000000
0.536245 0.000000 0.000000
0.582677 0.000000 0.000000
0.629109 0.000000 0.000000
0.675541 0.000000 0.000000
0.721973 0.000000 0.000000
0.768405 0.000000 0.000000
0.814837 0.000000 0.000000
0.861269 0.000000 0.000000
0.907702 0.000000 0.000000
0.954134 0.000000 0.000000
1.000000 0.000000 0.000000
1.000000 0.000000 0.000000
1.000000 0.000000 0.000000
1.000000 0.000000 0.000000
1.000000 0.000000 0.000000
1.000000 0.000000 0.000000
1.000000 0.000000 0.000000
1.000000 0.000000 0.000000
0.000000 0.000000 0.000000
0.000000 0.000000 0.000000
0.000000 0.000000 0.000000
0.020000 0.010000 0.000000
0.047723 0.009004 0.000000
0.098218 0.007189 0.000000
0.148712 0.005375 0.000000
0.199207 0.003561 0.000000
0.249702 0.001746 0.000000
0.300197 0.000000 0.000000
0.350692 0.000000 0.000000
0.401187 0.000000 0.000000
0.396949 0.000000 0.000000
0.443381 0.000000 0.000000
0.489813 0.000000 0.000000
0.536245 0.000000 0.000000
0.582677 0.000000 0.000000
0.629109 0.000000 0.000000
0.675541 0.000000 0.000000
0.721973 0.000000 0.000000
0.768405 0.000000 0.000000
0.814837 0.000000 0.000000
0.861269 0.000000 0.000000
0.907702 0.000000 0.000000
0.954134 0.000000 0.000000
1.000000 0.000000 0.000000
1.000000 0.000000 0.000000
1.000000 0.000000 0.000000
1.000000 0.000000 0.000000
1.000000 0.000000 0.000000
1.000000 0.000000 0.000000
1.000000 0.000000 0.000000
1.000000 0.000000 0.000000
0.000000 0.000000 0.000000
0.000000 0.000000 0.000000
0.000000 0.000000 0.000000
0.000000 0.000000 0.000000
0.025492 0.000000 0.000000
0.098218 0.007189 0.000000
0.148712 0.005375 0.000000
0.199207 0.003561 0.000000
0.249702 0.001746 0.000000
0.300197 0.000000 0.000000
0.350692 0.000000 0.000000
0.401187 0.000000 0.000000
0.451682 0.000000 0.000000
0.502177 0.000000 0.000000
0.552671 0.000000 0.000000
0.603166 0.000000 0.000000
0.653661 0.000000 0.000000
0.629109 0.000000 0.000000
0.675541 0.000000 0.000000
0.721973 0.000000 0.000000
0.768405 0.000000 0.000000
0.814837 0.000000 0.000000
0.861269 0.000000 0.000000
0.907702 0.000000 0.000000
0.954134 0.000000 0.000000
1.000000 0.000000 0.000000
1.000000 0.000000 0.000000
1.000000 0.000000 0.000000
1.000000 0.000000 0.000000
1.000000 0.000000 0.000000
1.000000 0.000000 0.000000
1.000000 0.000000 0.000000
1.000000 0.000000 0.000000
0.000000 0.023183 0.000000
0.000000 0.023183 0.000000
0.000000 0.023183 0.000000
0.000000 0.023183 0.000000
0.022207 0.022207 0.000000
0.068639 0.020428 0.000000
0.145140 0.029022 0.000000
0.195634 0.027207 0.000000
0.246129 0.025393 0.000000
0.296624 0.023579 0.000000
0.347119 0.021764 0.000000
0.397614 0.019950 0.000000
0.448109 0.018135 0.000000
0.498604 0.016321 0.000000
0.549099 0.014506 0.000000
0.599593 0.012692 0.000000
0.650088 0.010878 0.000000
0.700583 0.009063 0.000000
0.751078 0.007249 0.000000
0.801573 0.005434 0.000000
0.852068 0.003620 0.000000
0.902563 0.001805 0.000000
0.953058 0.000000 0.000000
0.904416 0.000000 0.000000
0.950848 0.000000 0.000000
0.997280 0.000000 0.000000
1.000000 0.000000 0.000000
1.000000 0.000000 0.000000
1.000000 0.000000 0.000000
1.000000 0.000000 0.000000
1.000000 0.000000 0.000000
1.000000 0.000000 0.000000
1.000000 0.000000 0.000000
0.000000 0.065410 0.000000
0.000000 0.065410 0.000000
0.000000 0.065410 0.000000
0.000000 0.065410 0.000000
0.016222 0.064433 0.000000
0.062655 0.062655 0.000000
0.109087 0.060876 0.000000
0.189127 0.070279 0.000000
0.239621 0.068464 0.000000
0.290116 0.066650 0.000000
0.340611 0.064835 0.000000
0.391106 0.063021 0.000000
0.441601 0.061207 0.000000
0.492096 0.059392 0.000000
0.542591 0.057578 0.000000
0.593086 0.055763 0.000000
0.643580 0.053949 0.000000
0.694075 0.052134 0.000000
0.744570 0.050320 0.000000
0.795065 0.048505 0.000000
0.845560 0.046691 0.000000
0.896055 0.044877 0.000000
0.946550 0.043062 0.000000
0.997045 0.041248 0.000000
1.000000 0.039433 0.000000
1.000000 0.037619 0.000000
1.000000 0.035804 0.000000
1.000000 0.033990 0.000000
1.000000 0.021741 0.000000
1.000000 0.020764 0.000000
1.000000 0.020764 0.000000
1.000000 0.020764 0.000000
1.000000 0.020764 0.000000
0.000000 0.107637 0.000000
0.000000 0.107637 0.000000
0.000000 0.107637 0.000000
0.000000 0.107637 0.000000
0.010238 0.106660 0.000000
0.056670 0.104881 0.000000
0.103102 0.103102 0.000000
0.149534 0.101324 0.000000
0.195967 0.099545 0.000000
0.283608 0.109721 0.000000
0.334103 0.107907 0.000000
0.384598 0.106092 0.000000
0.435093 0.104278 0.000000
0.485588 0.102463 0.000000
0.536083 0.100649 0.000000
0.586578 0.098834 0.000000
0.637073 0.097020 0.000000
0.687568 0.095206 0.000000
0.738062 0.093391 0.000000
0.788557 0.091577 0.000000
0.839052 0.089762 0.000000
0.889547 0.087948 0.000000
0.940042 0.086133 0.000000
0.990537 0.084319 0.000000
1.000000 0.082504 0.000000
1.000000 0.080690 0.000000
1.000000 0.078876 0.000000
1.000000 0.077061 0.000000
1.000000 0.075247 0.000000
1.000000 0.074251 0.000000
1.000000 0.074251 0.000000
1.000000 0.074251 0.000000
1.000000 0.074251 0.000000
0.000000 0.149863 0.000000
0.000000 0.149863 0.000000
0.000000 0.149863 0.000000
0.000000 0.149863 0.000000
0.004254 0.148887 0.000000
0.050686 0.147108 0.000000
0.097118 0.145329 0.000000
0.143550 0.143550 0.000000
0.189982 0.141771 0.000000
0.236414 0.139993 0.000000
0.327596 0.150978 0.000000
0.378090 0.149163 0.000000
0.428585 0.147349 0.000000
0.479080 0.145535 0.000000
0.529575 0.143720 0.000000
0.580070 0.141906 0.000000
0.630565 0.140091 0.000000
0.681060 0.138277 0.000000
0.731555 0.136462 0.000000
0.782049 0.134648 0.000000
0.832544 0.132834 0.000000
0.883039 0.131019 0.000000
0.933534 0.129205 0.000000
0.984029 0.127390 0.000000
1.000000 0.125576 0.000000
1.000000 0.123761 0.000000
1.000000 0.121947 0.000000
1.000000 0.120132 0.000000
1.000000 0.118318 0.000000
1.000000 0.117322 0.000000
1.000000 0.117322 0.000000
1.000000 0.117322 0.000000
1.000000 0.117322 0.000000
0.000000 0.192090 0.000000
0.000000 0.192090 0.000000
0.000000 0.192090 0.000000
0.000000 0.192090 0.000000
0.000000 0.191114 0.000000
0.044702 0.189335 0.000000
0.091134 0.187556 0.000000
0.137566 0.185777 0.000000
0.183998 0.183998 0.000000
0.230430 0.182219 0.000000
0.276862 0.180440 0.000000
0.323294 0.178662 0.000000
0.422077 0.190420 0.000000
0.472572 0.188606 0.000000
0.523067 0.186791 0.000000
0.573562 0.184977 0.000000
0.624057 0.183163 0.000000
0.674552 0.181348 0.000000
0.725047 0.179534 0.000000
0.775542 0.177719 0.000000
0.826037 0.175905 0.000000
0.876531 0.174090 0.000000
0.927026 0.172276 0.000000
0.977521 0.170461 0.000000
1.000000 0.168647 0.000000
1.000000 0.166833 0.000000
1.000000 0.165018 0.000000
1.000000 0.163204 0.000000
1.000000 0.161389 0.000000
1.000000 0.160393 0.000000
1.000000 0.160393 0.000000
1.000000 0.160393 0.000000
1.000000 0.160393 0.000000
0.000000 0.234317 0.000000
0.000000 0.234317 0.000000
0.000000 0.234317 0.000000
0.000000 0.234317 0.000000
0.000000 0.233340 0.000000
0.038718 0.231561 0.000000
0.085150 0.229783 0.000000
0.131582 0.228004 0.000000
0.178014 0.226225 0.000000
0.224446 0.224446 0.000000
0.270878 0.222667 0.000000
0.317310 0.220888 0.000000
0.363742 0.219109 0.000000
0.466065 0.231677 0.000000
0.516559 0.229863 0.000000
0.567054 0.228048 0.000000
0.617549 0.226234 0.000000
0.668044 0.224419 0.000000
0.718539 0.222605 0.000000
0.769034 0.220790 0.000000
0.819529 0.218976 0.000000
0.870024 0.217162 0.000000
0.920518 0.215347 0.000000
0.971013 0.213533 0.000000
1.000000 0.211718 0.000000
1.000000 0.209904 0.000000
1.000000 0.208089 0.000000
1.000000 0.206275 0.000000
1.000000 0.204461 0.000000
1.000000 0.203464 0.000000
1.000000 0.203464 0.000000
1.000000 0.203464 0.000000
1.000000 0.203464 0.000000
0.000000 0.276544 0.000000
0.000000 0.276544 0.000000
0.000000 0.276544 0.000000
0.000000 0.276544 0.000000
0.000000 0.275567 0.000000
0.032733 0.273788 0.000000
0.079166 0.272009 0.000000
0.125598 0.270230 0.000000
0.172030 0.268452 0.000000
0.218462 0.266673 0.000000
0.264894 0.264894 0.000000
0.311326 0.263115 0.000000
0.357758 0.261336 0.000000
0.404190 0.259557 0.000000
0.510052 0.272934 0.000000
0.560546 0.271120 0.000000
0.611041 0.269305 0.000000
0.661536 0.267491 0.000000
0.712031 0.265676 0.000000
0.762526 0.263862 0.000000
0.813021 0.262047 0.000000
0.863516 0.260233 0.000000
0.914011 0.258418 0.000000
0.964505 0.256604 0.000000
1.000000 0.254790 0.000000
1.000000 0.252975 0.000000
1.000000 0.251161 0.000000
1.000000 0.249346 0.000000
1.000000 0.247532 0.000000
1.000000 0.246536 0.000000
1.000000 0.246536 0.000000
1.000000 0.246536 0.000000
1.000000 0.246536 0.000000
0.000000 0.318770 0.000000
0.000000 0.318770 0.000000
0.000000 0.318770 0.000000
0.000000 0.318770 0.000000
0.000000 0.317794 0.000000
0.026749 0.316015 0.000000
0.073181 0.314236 0.000000
0.119613 0.312457 0.000000
0.166045 0.310678 0.000000
0.212478 0.308899 0.000000
0.258910 0.307121 0.000000
0.305342 0.305342 0.000000
0.351774 0.303563 0.000000
0.398206 0.301784 0.000000
0.444638 0.300005 0.000000
0.491070 0.298226 0.000000
0.604533 0.312376 0.000000
0.655028 0.310562 0.000000
0.705523 0.308747 0.000000
0.756018 0.306933 0.000000
0.806513 0.305119 0.000000
0.857008 0.303304 0.000000
0.907503 0.301490 0.000000
0.957998 0.299675 0.000000
1.000000 0.297861 0.000000
1.000000 0.296046 0.000000
1.000000 0.294232 0.000000
1.000000 0.292417 0.000000
1.000000 0.290603 0.000000
1.000000 0.289607 0.000000
1.000000 0.289607 0.000000
1.000000 0.289607 0.000000
1.000000 0.289607 0.000000
0.000000 0.360997 0.000000
0.000000 0.360997 0.000000
0.000000 0.360997 0.000000
0.000000 0.360997 0.000000
0.000000 0.360020 0.000000
0.020765 0.358242 0.000000
0.067197 0.356463 0.000000
0.113629 0.354684 0.000000
0.160061 0.352905 0.000000
0.206493 0.351126 0.000000
0.252925 0.349347 0.000000
0.299357 0.347568 0.000000
0.345790 0.345790 0.000000
0.392222 0.344011 0.000000
0.438654 0.342232 0.000000
0.485086 0.340453 0.000000
0.531518 0.338674 0.000000
0.648521 0.353633 0.000000
0.699015 0.351819 0.000000
0.749510 0.350004 0.000000
0.800005 0.348190 0.000000
0.850500 0.346375 0.000000
0.900995 0.344561 0.000000
0.951490 0.342746 0.000000
1.000000 0.340932 0.000000
1.000000 0.339118 0.000000
1.000000 0.337303 0.000000
1.000000 0.335489 0.000000
1.000000 0.333674 0.000000
1.000000 0.332678 0.000000
1.000000 0.332678 0.000000
1.000000 0.332678 0.000000
1.000000 0.332678 0.000000
0.000000 0.403224 0.000000
0.000000 0.403224 0.000000
0.000000 0.403224 0.000000
0.000000 0.403224 0.000000
0.000000 0.402247 0.000000
0.014781 0.400468 0.000000
0.061213 0.398689 0.000000
0.107645 0.396911 0.000000
0.154077 0.395132 0.000000
0.200509 0.393353 0.000000
0.246941 0.391574 0.000000
0.293373 0.389795 0.000000
0.339805 0.388016 0.000000
0.386237 0.386237 0.000000
0.432669 0.384459 0.000000
0.479102 0.382680 0.000000
0.525534 0.380901 0.000000
0.571966 0.379122 0.000000
0.618398 0.377343 0.000000
0.743002 0.393076 0.000000
0.793497 0.391261 0.000000
0.843992 0.389447 0.000000
0.894487 0.387632 0.000000
0.944982 0.385818 0.000000
0.995477 0.384003 0.000000
1.000000 0.382189 0.000000
1.000000 0.380374 0.000000
1.000000 0.378560 0.000000
1.000000 0.376746 0.000000
1.000000 0.375749 0.000000
1.000000 0.375749 0.000000
1.000000 0.375749 0.000000
1.000000 0.375749 0.000000
0.000000 0.445451 0.000000
0.000000 0.445451 0.000000
0.000000 0.445451 0.000000
0.000000 0.445451 0.000000
0.000000 0.444474 0.000000
0.008797 0.442695 0.000000
0.055229 0.440916 0.000000
0.101661 0.439137 0.000000
0.148093 0.437358 0.000000
0.194525 0.435580 0.000000
0.240957 0.433801 0.000000
0.287389 0.432022 0.000000
0.333821 0.430243 0.000000
0.380253 0.428464 0.000000
0.426685 0.426685 0.000000
0.473117 0.424906 0.000000
0.519549 0.423128 0.000000
0.565981 0.421349 0.000000
0.612414 0.419570 0.000000
0.658846 0.417791 0.000000
0.786990 0.434332 0.000000
0.837484 0.432518 0.000000
0.887979 0.430703 0.000000
0.938474 0.428889 0.000000
0.988969 0.427075 0.000000
1.000000 0.425260 0.000000
1.000000 0.423446 0.000000
1.000000 0.421631 0.000000
1.000000 0.419817 0.000000
1.000000 0.418821 0.000000
1.000000 0.418821 0.000000
1.000000 0.418821 0.000000
1.000000 0.418821 0.000000
0.000000 0.487677 0.000000
0.000000 0.487677 0.000000
0.000000 0.487677 0.000000
0.000000 0.487677 0.000000
0.000000 0.486701 0.000000
0.002812 0.484922 0.000000
0.049244 0.483143 0.000000
0.095677 0.481364 0.000000
0.142109 0.479585 0.000000
0.188541 0.477806 0.000000
0.234973 0.476027 0.000000
0.281405 0.474249 0.000000
0.327837 0.472470 0.000000
0.374269 0.470691 0.000000
0.420701 0.468912 0.000000
0.467133 0.467133 0.000000
0.513565 0.465354 0.000000
0.559997 0.463575 0.000000
0.606429 0.461797 0.000000
0.652861 0.460018 0.000000
0.699294 0.458239 0.000000
0.830977 0.475589 0.000000
0.881471 0.473775 0.000000
0.931966 0.471960 0.000000
0.982461 0.470146 0.000000
1.000000 0.468331 0.000000
1.000000 0.466517 0.000000
1.000000 0.464703 0.000000
1.000000 0.462888 0.000000
1.000000 0.461892 0.000000
1.000000 0.461892 0.000000
1.000000 0.461892 0.000000
1.000000 0.461892 0.000000
0.000000 0.529904 0.000000
0.000000 0.529904 0.000000
0.000000 0.529904 0.000000
0.000000 0.529904 0.000000
0.000000 0.528927 0.000000
0.000000 0.527149 0.000000
0.043260 0.525370 0.000000
0.089692 0.523591 0.000000
0.136124 0.521812 0.000000
0.182556 0.520033 0.000000
0.228989 0.518254 0.000000
0.275421 0.516475 0.000000
0.321853 0.514696 0.000000
0.368285 0.512918 0.000000
0.414717 0.511139 0.000000
0.461149 0.509360 0.000000
0.507581 0.507581 0.000000
0.554013 0.505802 0.000000
0.600445 0.504023 0.000000
0.646877 0.502244 0.000000
0.693309 0.500466 0.000000
0.739741 0.498687 0.000000
0.786173 0.496908 0.000000
0.925458 0.515032 0.000000
0.975953 0.513217 0.000000
1.000000 0.511403 0.000000
1.000000 0.509588 0.000000
1.000000 0.507774 0.000000
1.000000 0.505959 0.000000
1.000000 0.504963 0.000000
1.000000 0.504963 0.000000
1.000000 0.504963 0.000000
1.000000 0.504963 0.000000
0.000000 0.572131 0.000000
0.000000 0.572131 0.000000
0.000000 0.572131 0.000000
0.000000 0.572131 0.000000
0.000000 0.571154 0.000000
0.000000 0.569375 0.000000
0.037276 0.567596 0.000000
0.083708 0.565818 0.000000
0.130140 0.564039 0.000000
0.176572 0.562260 0.000000
0.223004 0.560481 0.000000
0.269436 0.558702 0.000000
0.315868 0.556923 0.000000
0.362301 0.555144 0.000000
0.408733 0.553365 0.000000
0.455165 0.551587 0.000000
0.501597 0.549808 0.000000
0.548029 0.548029 0.000000
0.594461 0.546250 0.000000
0.640893 0.544471 0.000000
0.687325 0.542692 0.000000
0.733757 0.540913 0.000000
0.780189 0.539135 0.000000
0.826621 0.537356 0.000000
0.969446 0.556288 0.000000
1.000000 0.554474 0.000000
1.000000 0.552659 0.000000
1.000000 0.550845 0.000000
1.000000 0.549031 0.000000
1.000000 0.548034 0.000000
1.000000 0.548034 0.000000
1.000000 0.548034 0.000000
1.000000 0.548034 0.000000
0.000000 0.614357 0.000000
0.000000 0.614357 0.000000
0.000000 0.614357 0.000000
0.000000 0.614357 0.000000
0.000000 0.613381 0.000000
0.000000 0.611602 0.000000
0.031292 0.609823 0.000000
0.077724 0.608044 0.000000
0.124156 0.606265 0.000000
0.170588 0.604486 0.000000
0.217020 0.602708 0.000000
0.263452 0.600929 0.000000
0.309884 0.599150 0.000000
0.356316 0.597371 0.000000
0.402748 0.595592 0.000000
0.449181 0.593813 0.000000
0.495613 0.592034 0.000000
0.542045 0.590256 0.000000
0.588477 0.588477 0.000000
0.634909 0.586698 0.000000
0.681341 0.584919 0.000000
0.727773 0.583140 0.000000
0.774205 0.581361 0.000000
0.820637 0.579582 0.000000
0.867069 0.577804 0.000000
1.000000 0.597545 0.000000
1.000000 0.595731 0.000000
1.000000 0.593916 0.000000
1.000000 0.592102 0.000000
1.000000 0.591106 0.000000
1.000000 0.591106 0.000000
1.000000 0.591106 0.000000
1.000000 0.591106 0.000000
0.000000 0.656584 0.000000
0.000000 0.656584 0.000000
0.000000 0.656584 0.000000
0.000000 0.656584 0.000000
0.000000 0.655608 0.000000
0.000000 0.653829 0.000000
0.025308 0.652050 0.000000
0.071740 0.650271 0.000000
0.118172 0.648492 0.000000
0.164604 0.646713 0.000000
0.211036 0.644934 0.000000
0.257468 0.643155 0.000000
0.303900 0.641377 0.000000
0.350332 0.639598 0.000000
0.396764 0.637819 0.000000
0.443196 0.636040 0.000000
0.489628 0.634261 0.000000
0.536060 0.632482 0.000000
0.582493 0.630703 0.000000
0.628925 0.628925 0.000000
0.675357 0.627146 0.000000
0.721789 0.625367 0.000000
0.768221 0.623588 0.000000
0.814653 0.621809 0.000000
0.861085 0.620030 0.000000
0.907517 0.618251 0.000000
0.953949 0.616473 0.000000
1.000000 0.636988 0.000000
1.000000 0.635173 0.000000
1.000000 0.634177 0.000000
1.000000 0.634177 0.000000
1.000000 0.634177 0.000000
1.000000 0.634177 0.000000
0.000000 0.698811 0.000000
0.000000 0.698811 0.000000
0.000000 0.698811 0.000000
0.000000 0.698811 0.000000
0.000000 0.697834 0.000000
0.000000 0.696055 0.000000
0.019323 0.694277 0.000000
0.065755 0.692498 0.000000
0.112188 0.690719 0.000000
0.158620 0.688940 0.000000
0.205052 0.687161 0.000000
0.251484 0.685382 0.000000
0.297916 0.683603 0.000000
0.344348 0.681824 0.000000
0.390780 0.680046 0.000000
0.437212 0.678267 0.000000
0.483644 0.676488 0.000000
0.530076 0.674709 0.000000
0.576508 0.672930 0.000000
0.622940 0.671151 0.000000
0.669372 0.669372 0.000000
0.715805 0.667594 0.000000
0.762237 0.665815 0.000000
0.808669 0.664036 0.000000
0.855101 0.662257 0.000000
0.901533 0.660478 0.000000
0.947965 0.658699 0.000000
0.994397 0.656920 0.000000
1.000000 0.678244 0.000000
1.000000 0.677248 0.000000
1.000000 0.677248 0.000000
1.000000 0.677248 0.000000
1.000000 0.677248 0.000000
0.000000 0.741038 0.000000
0.000000 0.741038 0.000000
0.000000 0.741038 0.000000
0.000000 0.741038 0.000000
0.000000 0.740061 0.000000
0.000000 0.738282 0.000000
0.013339 0.736503 0.000000
0.059771 0.734724 0.000000
0.106203 0.732946 0.000000
0.152635 0.731167 0.000000
0.199067 0.729388 0.000000
0.245500 0.727609 0.000000
0.291932 0.725830 0.000000
0.338364 0.724051 0.000000
0.384796 0.722272 0.000000
0.431228 0.720493 0.000000
0.477660 0.718715 0.000000
0.524092 0.716936 0.000000
0.570524 0.715157 0.000000
0.616956 0.713378 0.000000
0.663388 0.711599 0.000000
0.709820 0.709820 0.000000
0.756252 0.708041 0.000000
0.802684 0.706263 0.000000
0.849117 0.704484 0.000000
0.895549 0.702705 0.000000
0.941981 0.700926 0.000000
0.988413 0.699147 0.000000
1.000000 0.697368 0.000000
1.000000 0.696392 0.000000
1.000000 0.720319 0.000000
1.000000 0.720319 0.000000
1.000000 0.720319 0.000000
0.000000 0.783264 0.000000
0.000000 0.783264 0.000000
0.000000 0.783264 0.000000
0.000000 0.783264 0.000000
0.000000 0.782288 0.000000
0.000000 0.780509 0.000000
0.007355 0.778730 0.000000
0.053787 0.776951 0.000000
0.100219 0.775172 0.000000
0.146651 0.773393 0.000000
0.193083 0.771615 0.000000
0.239515 0.769836 0.000000
0.285947 0.768057 0.000000
0.332380 0.766278 0.000000
0.378812 0.764499 0.000000
0.425244 0.762720 0.000000
0.471676 0.760941 0.000000
0.518108 0.759162 0.000000
0.564540 0.757384 0.000000
0.610972 0.755605 0.000000
0.657404 0.753826 0.000000
0.703836 0.752047 0.000000
0.750268 0.750268 0.000000
0.796700 0.748489 0.000000
0.843132 0.746710 0.000000
0.889564 0.744932 0.000000
0.935996 0.743153 0.000000
0.982429 0.741374 0.000000
1.000000 0.739595 0.000000
1.000000 0.738618 0.000000
1.000000 0.738618 0.000000
1.000000 0.763391 0.000000
1.000000 0.763391 0.000000
0.000000 0.825491 0.000000
0.000000 0.825491 0.000000
0.000000 0.825491 0.000000
0.000000 0.825491 0.000000
0.000000 0.824514 0.000000
0.000000 0.822736 0.000000
0.001371 0.820957 0.000000
0.047803 0.819178 0.000000
0.094235 0.817399 0.000000
0.140667 0.815620 0.000000
0.187099 0.813841 0.000000
0.233531 0.812062 0.000000
0.279963 0.810284 0.000000
0.326395 0.808505 0.000000
0.372827 0.806726 0.000000
0.419259 0.804947 0.000000
0.465692 0.803168 0.000000
0.512124 0.801389 0.000000
0.558556 0.799610 0.000000
0.604988 0.797831 0.000000
0.651420 0.796053 0.000000
0.697852 0.794274 0.000000
0.744284 0.792495 0.000000
0.790716 0.790716 0.000000
0.837148 0.788937 0.000000
0.883580 0.787158 0.000000
0.930012 0.785379 0.000000
0.976444 0.783601 0.000000
1.000000 0.781822 0.000000
1.000000 0.780845 0.000000
1.000000 0.780845 0.000000
1.000000 0.780845 0.000000
1.000000 0.806462 0.000000
0.000000 0.867718 0.000000
0.000000 0.867718 0.000000
0.000000 0.867718 0.000000
0.000000 0.867718 0.000000
0.000000 0.866741 0.000000
0.000000 0.864962 0.000000
0.000000 0.863183 0.000000
0.041819 0.861405 0.000000
0.088251 0.859626 0.000000
0.134683 0.857847 0.000000
0.181115 0.856068 0.000000
0.227547 0.854289 0.000000
0.273979 0.852510 0.000000
0.320411 0.850731 0.000000
0.366843 0.848953 0.000000
0.413275 0.847174 0.000000
0.459707 0.845395 0.000000
0.506139 0.843616 0.000000
0.552571 0.841837 0.000000
0.599004 0.840058 0.000000
0.645436 0.838279 0.000000
0.691868 0.836500 0.000000
0.738300 0.834722 0.000000
0.784732 0.832943 0.000000
0.831164 0.831164 0.000000
0.877596 0.829385 0.000000
0.924028 0.827606 0.000000
0.970460 0.825827 0.000000
1.000000 0.824048 0.000000
1.000000 0.823072 0.000000
1.000000 0.823072 0.000000
1.000000 0.823072 0.000000
1.000000 0.823072 0.000000
0.000000 0.909945 0.000000
0.000000 0.909945 0.000000
0.000000 0.909945 0.000000
0.000000 0.909945 0.000000
0.000000 0.908968 0.000000
0.000000 0.907189 0.000000
0.000000 0.905410 0.000000
0.035834 0.903631 0.000000
0.082267 0.901852 0.000000
0.128699 0.900074 0.000000
0.175131 0.898295 0.000000
0.221563 0.896516 0.000000
0.267995 0.894737 0.000000
0.314427 0.892958 0.000000
0.360859 0.891179 0.000000
0.407291 0.889400 0.000000
0.453723 0.887622 0.000000
0.500155 0.885843 0.000000
0.546587 0.884064 0.000000
0.593019 0.882285 0.000000
0.639451 0.880506 0.000000
0.685883 0.878727 0.000000
0.732316 0.876948 0.000000
0.778748 0.875169 0.000000
0.825180 0.873391 0.000000
0.871612 0.871612 0.000000
0.918044 0.869833 0.000000
0.964476 0.868054 0.000000
1.000000 0.866275 0.000000
1.000000 0.865299 0.000000
1.000000 0.865299 0.000000
1.000000 0.865299 0.000000
1.000000 0.865299 0.000000
0.000000 0.952171 0.000000
0.000000 0.952171 0.000000
0.000000 0.952171 0.000000
0.000000 0.952171 0.000000
0.000000 0.951195 0.000000
0.000000 0.949416 0.000000
0.000000 0.947637 0.000000
0.029850 0.945858 0.000000
0.076282 0.944079 0.000000
0.122714 0.942300 0.000000
0.169146 0.940521 0.000000
0.215579 0.938743 0.000000
0.262011 0.936964 0.000000
0.308443 0.935185 0.000000
0.354875 0.933406 0.000000
0.401307 0.931627 0.000000
0.447739 0.929848 0.000000
0.494171 0.928069 0.000000
0.540603 0.926291 0.000000
