library/cube/HDR_Luxe_001.cube
# CINEGRADE LAB — Premium Cinematic LUT
# Title: HDR Luxe
# Category: High Dynamic Luxury
# Description: HDR-like with detailed shadows and highlights for luxury imagery
# Mood: Premium, detailed, luminous
# Variant: 2
# Generated: 2026-05-21T16:12:34.223381
TITLE "HDR Luxe"
LUT_3D_SIZE 5
0.073587 0.073587 0.073587
0.321473 0.064592 0.064579
0.569879 0.056175 0.056123
0.818702 0.048339 0.048220
1.000000 0.041085 0.040872
0.045903 0.302378 0.045481
0.295588 0.295249 0.038335
0.545566 0.288682 0.031745
0.795731 0.282678 0.025713
1.000000 0.277239 0.020238
0.025383 0.536995 0.023655
0.276494 0.531597 0.018384
0.527664 0.526742 0.013670
0.778787 0.522428 0.009515
1.000000 0.518658 0.005919
0.012096 0.776715 0.008141
0.264243 0.772902 0.004748
0.516210 0.769608 0.001913
0.767891 0.766834 0.000000
1.000000 0.764577 0.000000
0.006057 1.000000 0.000000
0.258834 1.000000 0.000000
0.511188 1.000000 0.000000
0.763012 1.000000 0.000000
1.000000 1.000000 0.000000
0.070471 0.070468 0.327340
0.318554 0.061669 0.318506
0.567136 0.053449 0.310209
0.816111 0.045810 0.302450
1.000000 0.038755 0.295231
0.043504 0.299894 0.299760
0.293352 0.292956 0.292737
0.543467 0.286580 0.286256
0.793746 0.280768 0.280316
1.000000 0.275520 0.274918
0.023712 0.535101 0.278288
0.274947 0.529887 0.273087
0.526215 0.525216 0.268430
0.777413 0.521087 0.264315
1.000000 0.517500 0.260744
0.011157 0.775362 0.262952
0.263387 0.771725 0.259578
0.515412 0.768608 0.256746
0.767126 0.766009 0.254457
1.000000 0.763929 0.252709
0.005849 1.000000 0.253758
0.258666 1.000000 0.252206
0.511036 1.000000 0.251195
0.762851 1.000000 0.250724
1.000000 1.000000 0.250790
0.067426 0.067415 0.581152
0.315704 0.058812 0.572481
0.564457 0.050790 0.564333
0.813581 0.043349 0.556708
1.000000 0.036492 0.549607
0.041179 0.297475 0.554062
0.291184 0.290727 0.547152
0.541433 0.284543 0.540768
0.791823 0.278922 0.534910
1.000000 0.273866 0.529579
0.022116 0.533270 0.532908
0.273469 0.528240 0.527768
0.524832 0.523753 0.523156
0.776100 0.519808 0.519072
1.000000 0.516406 0.515514
0.010293 0.774068 0.517715
0.262600 0.770608 0.514350
0.514679 0.767667 0.511511
0.766423 0.765245 0.509198
1.000000 0.763340 0.507411
0.005715 1.000000 0.508487
0.258568 1.000000 0.506891
0.510949 1.000000 0.505819
0.762750 1.000000 0.505270
1.000000 1.000000 0.505244
0.064453 0.064428 0.835016
0.312922 0.056022 0.826499
0.561843 0.048197 0.818488
0.811112 0.040955 0.810986
1.000000 0.034296 0.803993
0.038928 0.295120 0.808381
0.289086 0.288564 0.801574
0.539465 0.282571 0.795276
0.789961 0.277142 0.789490
1.000000 0.272277 0.784215
0.020593 0.531501 0.787510
0.272061 0.526655 0.782421
0.523514 0.522352 0.777844
0.774849 0.518592 0.773778
1.000000 0.515374 0.770224
0.009502 0.772835 0.772425
0.261884 0.769551 0.769057
0.514012 0.766786 0.766200
0.765781 0.764540 0.763854
1.000000 0.762810 0.762017
0.005654 1.000000 0.763126
0.258539 1.000000 0.761475
0.510927 1.000000 0.760332
0.762710 1.000000 0.759696
1.000000 1.000000 0.759566
0.061552 0.061509 1.000000
0.310209 0.053300 1.000000
0.559294 0.045672 1.000000
0.808704 0.038628 1.000000
1.000000 0.032168 1.000000
0.036749 0.292831 1.000000
0.287057 0.286466 1.000000
0.537562 0.280664 1.000000
0.788161 0.275426 1.000000
1.000000 0.270754 1.000000
0.019145 0.529795 1.000000
0.270722 0.525133 1.000000
0.522263 0.521014 1.000000
0.773660 0.517438 1.000000
1.000000 0.514404 1.000000
0.008785 0.771662 1.000000
0.261237 0.768554 1.000000
0.513411 0.765965 1.000000
0.765200 0.763894 1.000000
1.000000 0.762340 1.000000
0.005666 1.000000 1.000000
0.258579 1.000000 1.000000
0.510970 1.000000 1.000000
0.762730 1.000000 1.000000
1.000000 1.000000 1.000000
