library/cube/HDR_Luxe_001.cube
# CINEGRADE LAB — Premium Cinematic LUT
# Title: HDR Luxe
# Category: High Dynamic Luxury
# Description: HDR-like with detailed shadows and highlights for luxury imagery
# Mood: Premium, detailed, luminous
# Variant: 2
# Generated: 2026-05-21T16:12:34.223381
TITLE "HDR Luxe"
LUT_3D_SIZE 9
0.073587 0.073587 0.073587
0.197459 0.069018 0.069014
0.321473 0.064592 0.064579
0.445617 0.060311 0.060282
0.569879 0.056175 0.056123
0.694245 0.052184 0.052102
0.818702 0.048339 0.048220
0.943238 0.044639 0.044477
1.000000 0.041085 0.040872
0.058856 0.187210 0.058752
0.183214 0.183116 0.054643
0.307687 0.179164 0.050673
0.432262 0.175355 0.046841
0.556925 0.171689 0.043148
0.681665 0.168166 0.039594
0.806466 0.164787 0.036179
0.931318 0.161550 0.032903
1.000000 0.158457 0.029767
0.045903 0.302378 0.045481
0.170703 0.298743 0.041838
0.295588 0.295249 0.038335
0.420547 0.291895 0.034971
0.545566 0.288682 0.031745
0.670632 0.285610 0.028660
0.795731 0.282678 0.025713
0.920851 0.279888 0.022906
1.000000 0.277239 0.020238
0.034741 0.419003 0.033780
0.159936 0.415811 0.030606
0.285188 0.412757 0.027571
0.410484 0.409841 0.024675
0.535810 0.407064 0.021918
0.661154 0.404424 0.019302
0.786503 0.401923 0.016824
0.911843 0.399561 0.014486
1.000000 0.397337 0.012288
0.025383 0.536995 0.023655
0.150925 0.534229 0.020950
0.276494 0.531597 0.018384
0.402079 0.529102 0.015957
0.527664 0.526742 0.013670
0.653238 0.524517 0.011523
0.778787 0.522428 0.009515
0.904297 0.520475 0.007647
1.000000 0.518658 0.005919
0.017833 0.656264 0.015108
0.143673 0.653904 0.012872
0.269512 0.651677 0.010776
0.395336 0.649583 0.008819
0.521131 0.647622 0.007002
0.646885 0.645793 0.005324
0.772584 0.644098 0.003786
0.898214 0.642534 0.002387
1.000000 0.641104 0.001128
0.012096 0.776715 0.008141
0.138185 0.774743 0.006375
0.264243 0.772902 0.004748
0.390256 0.771190 0.003261
0.516210 0.769608 0.001913
0.642093 0.768156 0.000705
0.767891 0.766834 0.000000
0.893590 0.765641 0.000000
1.000000 0.764577 0.000000
0.008171 0.898252 0.002754
0.134459 0.896649 0.001457
0.260685 0.895174 0.000299
0.386836 0.893825 0.000000
0.512898 0.892602 0.000000
0.638858 0.891506 0.000000
0.764703 0.890537 0.000000
0.890419 0.889694 0.000000
1.000000 0.888977 0.000000
0.006057 1.000000 0.000000
0.132491 1.000000 0.000000
0.258834 1.000000 0.000000
0.385070 1.000000 0.000000
0.511188 1.000000 0.000000
0.637173 1.000000 0.000000
0.763012 1.000000 0.000000
0.888690 1.000000 0.000000
1.000000 1.000000 0.000000
0.072020 0.072019 0.200456
0.195943 0.067498 0.195928
0.320005 0.063122 0.191536
0.444195 0.058890 0.187280
0.568499 0.054804 0.183161
0.692905 0.050862 0.179178
0.817399 0.047066 0.175332
0.941969 0.043416 0.171622
1.000000 0.039912 0.168049
0.057467 0.185804 0.185765
0.181872 0.181758 0.181695
0.306389 0.177855 0.177762
0.431005 0.174094 0.173965
0.555706 0.170477 0.170305
0.680480 0.167002 0.166783
0.805314 0.163671 0.163397
0.930195 0.160484 0.160148
1.000000 0.157440 0.157037
0.044694 0.301128 0.172617
0.169536 0.297541 0.169007
0.294461 0.294094 0.165534
0.419456 0.290788 0.162198
0.544508 0.287623 0.159000
0.669604 0.284599 0.155939
0.794731 0.281715 0.153015
0.919875 0.278972 0.150229
1.000000 0.276371 0.147580
0.033715 0.417903 0.161018
0.158947 0.414758 0.157870
0.284233 0.411751 0.154858
0.409560 0.408882 0.151985
0.534915 0.406152 0.149249
0.660284 0.403560 0.146650
0.785655 0.401106 0.144189
0.911015 0.398790 0.141866
1.000000 0.396613 0.139680
0.024538 0.536040 0.150973
0.150113 0.533320 0.148287
0.275712 0.530735 0.145738
0.401322 0.528285 0.143327
0.526932 0.525971 0.141054
0.652526 0.523793 0.138918
0.778092 0.521750 0.136920
0.903617 0.519843 0.135060
1.000000 0.518071 0.133338
0.017171 0.655448 0.142484
0.143039 0.653133 0.140260
0.268902 0.650951 0.138175
0.394747 0.648902 0.136227
0.520561 0.646986 0.134417
0.646330 0.645203 0.132745
0.772041 0.643552 0.131210
0.897681 0.642034 0.129812
1.000000 0.640648 0.128553
0.011617 0.776031 0.135552
0.137729 0.774103 0.133792
0.263806 0.772306 0.132170
0.389835 0.770638 0.130685
0.515803 0.769101 0.129338
0.641696 0.767692 0.128128
0.767501 0.766414 0.127056
0.893204 0.765265 0.126121
1.000000 0.764246 0.125323
0.007876 0.897693 0.130179
0.134181 0.896134 0.128882
0.260421 0.894701 0.127722
0.386583 0.893395 0.126700
0.512653 0.892216 0.125815
0.638618 0.891163 0.125067
0.764465 0.890237 0.124456
0.890179 0.889436 0.123982
1.000000 0.888762 0.123646
0.005944 1.000000 0.126361
0.132390 1.000000 0.125526
0.258741 1.000000 0.124829
0.384984 1.000000 0.124268
0.511104 1.000000 0.123844
0.637089 1.000000 0.123557
0.762924 1.000000 0.123407
0.888596 1.000000 0.123393
1.000000 1.000000 0.123515
0.070471 0.070468 0.327340
0.194444 0.065996 0.322856
0.318554 0.061669 0.318506
0.442789 0.057486 0.314290
0.567136 0.053449 0.310209
0.691581 0.049557 0.306262
0.816111 0.045810 0.302450
0.940715 0.042210 0.298773
1.000000 0.038755 0.295231
0.056097 0.184414 0.312789
0.180548 0.180417 0.308757
0.305108 0.176562 0.304859
0.429764 0.172850 0.301096
0.554503 0.169281 0.297468
0.679312 0.165855 0.293975
0.804178 0.162573 0.290617
0.929088 0.159434 0.287395
1.000000 0.156439 0.284308
0.043504 0.299894 0.299760
0.168388 0.296355 0.296181
0.293352 0.292956 0.292737
0.418382 0.289698 0.289429
0.543467 0.286580 0.286256
0.668593 0.283603 0.283218
0.793746 0.280768 0.280316
0.918914 0.278073 0.277549
1.000000 0.275520 0.274918
0.032706 0.416820 0.288258
0.157975 0.413722 0.285134
0.283295 0.410761 0.282145
0.408653 0.407940 0.279293
0.534036 0.405256 0.276575
0.659430 0.402711 0.273994
0.784823 0.400304 0.271548
0.910201 0.398035 0.269237
1.000000 0.395905 0.267063
0.023712 0.535101 0.278288
0.149319 0.532427 0.275620
0.274947 0.529887 0.273087
0.400583 0.527484 0.270691
0.526215 0.525216 0.268430
0.651829 0.523084 0.266305
0.777413 0.521087 0.264315
0.902951 0.519226 0.262462
1.000000 0.517500 0.260744
0.016528 0.654647 0.269852
0.142423 0.652377 0.267641
0.268310 0.650240 0.265565
0.394176 0.648237 0.263625
0.520008 0.646365 0.261820
0.645792 0.644627 0.260152
0.771514 0.643021 0.258619
0.897163 0.641548 0.257221
1.000000 0.640208 0.255960
0.011157 0.775362 0.262952
0.137291 0.773478 0.261197
0.263387 0.771725 0.259578
0.389432 0.770101 0.258094
0.515412 0.768608 0.256746
0.641315 0.767244 0.255534
0.767126 0.766009 0.254457
0.892833 0.764904 0.253515
1.000000 0.763929 0.252709
0.007599 0.897150 0.257588
0.133920 0.895633 0.256289
0.260174 0.894243 0.255126
0.386346 0.892981 0.254098
0.512424 0.891844 0.253206
0.638394 0.890834 0.252449
0.764241 0.889951 0.251826
0.889954 0.889193 0.251339
1.000000 0.888561 0.250987
0.005849 1.000000 0.253758
0.132307 1.000000 0.252914
0.258666 1.000000 0.252206
0.384914 1.000000 0.251633
0.511036 1.000000 0.251195
0.637020 1.000000 0.250892
0.762851 1.000000 0.250724
0.888516 1.000000 0.250690
1.000000 1.000000 0.250790
0.068939 0.068933 0.454239
0.192963 0.064510 0.449798
0.317121 0.060232 0.445488
0.441400 0.056099 0.441311
0.565788 0.052111 0.437267
0.690272 0.048268 0.433355
0.814839 0.044571 0.429576
0.939475 0.041020 0.425930
1.000000 0.037615 0.422417
0.054744 0.183040 0.439823
0.179241 0.179091 0.435827
0.303844 0.175285 0.431964
0.428540 0.171622 0.428233
0.553316 0.168101 0.424636
0.678159 0.164724 0.421171
0.803056 0.161491 0.417840
0.927994 0.158400 0.414643
1.000000 0.155454 0.411578
0.042333 0.298676 0.426908
0.167257 0.295185 0.423359
0.292259 0.291834 0.419943
0.417325 0.288623 0.416661
0.542442 0.285553 0.413512
0.667597 0.282625 0.410496
0.792777 0.279837 0.407614
0.917969 0.277190 0.404866
1.000000 0.274685 0.402251
0.031717 0.415752 0.415499
0.157022 0.412701 0.412398
0.282375 0.409788 0.409431
0.407763 0.407013 0.406598
0.533173 0.404376 0.403898
0.658592 0.401878 0.401332
0.784006 0.399518 0.398900
0.909403 0.397296 0.396601
1.000000 0.395213 0.394437
0.022905 0.534178 0.405600
0.148543 0.531549 0.402949
0.274199 0.529056 0.400431
0.399861 0.526698 0.398048
0.525515 0.524477 0.395798
0.651149 0.522390 0.393682
0.776748 0.520440 0.391699
0.902301 0.518625 0.389851
1.000000 0.516945 0.388136
0.015904 0.653861 0.397213
0.141825 0.651637 0.395012
0.267735 0.649545 0.392944
0.393622 0.647586 0.391011
0.519471 0.645760 0.389211
0.645269 0.644067 0.387545
0.771003 0.642506 0.386012
0.896660 0.641078 0.384614
1.000000 0.639783 0.383348
0.010716 0.774707 0.390340
0.136871 0.772868 0.388589
0.262985 0.771159 0.386971
0.389045 0.769580 0.385488
0.515038 0.768130 0.384138
0.640949 0.766810 0.382921
0.766767 0.765620 0.381838
0.892477 0.764558 0.380888
1.000000 0.763627 0.380071
0.007340 0.896620 0.384981
0.133678 0.895147 0.383679
0.259944 0.893800 0.382511
0.386127 0.892580 0.381476
0.512212 0.891487 0.380575
0.638185 0.890520 0.379807
0.764033 0.889679 0.379172
0.889744 0.888964 0.378670
1.000000 0.888375 0.378301
0.005773 1.000000 0.381133
0.132241 1.000000 0.380280
0.258608 1.000000 0.379561
0.384861 1.000000 0.378974
0.510985 1.000000 0.378521
0.636967 1.000000 0.378200
0.762793 1.000000 0.378012
0.888450 1.000000 0.377956
1.000000 1.000000 0.378033
0.067426 0.067415 0.581152
0.191499 0.063041 0.576751
0.315704 0.058812 0.572481
0.440028 0.054728 0.568342
0.564457 0.050790 0.564333
0.688979 0.046996 0.560455
0.813581 0.043349 0.556708
0.938250 0.039847 0.553091
1.000000 0.036492 0.549607
0.053410 0.181683 0.566867
0.177953 0.177783 0.562906
0.302598 0.174025 0.559075
0.427333 0.170410 0.555376
0.552146 0.166938 0.551808
0.677023 0.163610 0.548371
0.801950 0.160425 0.545065
0.926916 0.157384 0.541891
1.000000 0.154486 0.538848
0.041179 0.297475 0.554062
0.166144 0.294031 0.550541
0.291184 0.290727 0.547152
0.416284 0.287565 0.543894
0.541433 0.284543 0.540768
0.666617 0.281662 0.537773
0.791823 0.278922 0.534910
0.917038 0.276323 0.532178
1.000000 0.273866 0.529579
0.030745 0.414700 0.542741
0.156086 0.411696 0.539662
0.281472 0.408830 0.536715
0.406890 0.406102 0.533900
0.532327 0.403512 0.531216
0.657770 0.401061 0.528665
0.783205 0.398748 0.526245
0.908620 0.396573 0.523957
1.000000 0.394538 0.521800
0.022116 0.533270 0.532908
0.147784 0.530687 0.530272
0.273469 0.528240 0.527768
0.399156 0.525929 0.525397
0.524832 0.523753 0.523156
0.650484 0.521713 0.521048
0.776100 0.519808 0.519072
0.901665 0.518039 0.517227
1.000000 0.516406 0.515514
0.015298 0.653091 0.524566
0.141245 0.650911 0.522374
0.267178 0.648865 0.520313
0.393084 0.646951 0.518385
0.518950 0.645170 0.516588
0.644762 0.643522 0.514923
0.770507 0.642006 0.513390
0.896171 0.640624 0.511988
1.000000 0.639373 0.510718
0.010293 0.774068 0.517715
0.136468 0.772273 0.515967
0.262600 0.770608 0.514350
0.388675 0.769073 0.512864
0.514679 0.767667 0.511511
0.640600 0.766391 0.510289
0.766423 0.765245 0.509198
0.892135 0.764228 0.508239
1.000000 0.763340 0.507411
0.007100 0.896106 0.512356
0.133453 0.894675 0.511051
0.259732 0.893372 0.509876
0.385924 0.892195 0.508834
0.512015 0.891144 0.507922
0.637992 0.890220 0.507142
0.763841 0.889422 0.506493
0.889548 0.888750 0.505975
1.000000 0.888204 0.505588
0.005715 1.000000 0.508487
0.132193 1.000000 0.507623
0.258568 1.000000 0.506891
0.384824 1.000000 0.506289
0.510949 1.000000 0.505819
0.636929 1.000000 0.505479
0.762750 1.000000 0.505270
0.888399 1.000000 0.505192
1.000000 1.000000 0.505244
0.065930 0.065913 0.708077
0.190053 0.061589 0.703717
0.314305 0.057409 0.699485
0.438672 0.053374 0.695382
0.563142 0.049485 0.691407
0.687702 0.045741 0.687561
0.812339 0.042143 0.683845
0.937040 0.038691 0.680257
1.000000 0.035385 0.676799
0.052094 0.180343 0.693920
0.176681 0.176491 0.689992
0.301369 0.172781 0.686193
0.426143 0.169215 0.682523
0.550992 0.165792 0.678983
0.675902 0.162512 0.675572
0.800860 0.159376 0.672290
0.925853 0.156384 0.669138
1.000000 0.153535 0.666116
0.040044 0.296289 0.681220
0.165049 0.292893 0.677726
0.290126 0.289638 0.674362
0.415261 0.286523 0.671128
0.540441 0.283549 0.668023
0.665653 0.280716 0.665047
0.790884 0.278024 0.662202
0.916121 0.275473 0.659486
1.000000 0.273063 0.656900
0.029792 0.413665 0.669982
0.155168 0.410707 0.666925
0.280586 0.407888 0.663996
0.406034 0.405207 0.661198
0.531497 0.402664 0.658530
0.656963 0.400260 0.655991
0.782419 0.397994 0.653582
0.907851 0.395867 0.651303
1.000000 0.393878 0.649154
0.021345 0.532378 0.660212
0.147044 0.529841 0.657590
0.272756 0.527440 0.655099
0.398467 0.525175 0.652737
0.524165 0.523045 0.650505
0.649836 0.521051 0.648403
0.775467 0.519192 0.646431
0.901044 0.517469 0.644589
1.000000 0.515882 0.642877
0.014710 0.652336 0.651910
0.140683 0.650202 0.649725
0.266638 0.648200 0.647671
0.392564 0.646332 0.645746
0.518446 0.644596 0.643951
0.644271 0.642992 0.642286
0.770026 0.641522 0.640750
0.895698 0.640184 0.639345
1.000000 0.638978 0.638069
0.009888 0.773444 0.645077
0.136084 0.771693 0.643330
0.262233 0.770072 0.641712
0.388322 0.768581 0.640224
0.514338 0.767219 0.638865
0.640266 0.765987 0.637636
0.766094 0.764885 0.636537
0.891808 0.763912 0.635567
1.000000 0.763067 0.634726
0.006878 0.895606 0.639714
0.133246 0.894219 0.638403
0.259538 0.892958 0.637221
0.385738 0.891824 0.636169
0.511835 0.890816 0.635246
0.637815 0.889935 0.634452
0.763663 0.889180 0.633788
0.889367 0.888551 0.633252
1.000000 0.888047 0.632846
0.005675 1.000000 0.635818
0.132164 1.000000 0.634942
0.258545 1.000000 0.634195
0.384805 1.000000 0.633578
0.510930 1.000000 0.633089
0.636907 1.000000 0.632730
0.762723 1.000000 0.632499
0.888362 1.000000 0.632396
1.000000 1.000000 0.632422
0.064453 0.064428 0.835016
0.188625 0.060153 0.830694
0.312922 0.056022 0.826499
0.437333 0.052037 0.822430
0.561843 0.048197 0.818488
0.686441 0.044503 0.814674
0.811112 0.040955 0.810986
0.935845 0.037552 0.807426
1.000000 0.034296 0.803993
0.050797 0.179019 0.820980
0.175428 0.175215 0.817085
0.300157 0.171554 0.813316
0.424970 0.168037 0.809675
0.549854 0.164662 0.806161
0.674796 0.161431 0.802775
0.799784 0.158344 0.799516
0.924804 0.155400 0.796385
1.000000 0.152600 0.793381
0.038928 0.295120 0.808381
0.163972 0.291772 0.804914
0.289086 0.288564 0.801574
0.414254 0.285497 0.798361
0.539465 0.282571 0.795276
0.664705 0.279786 0.792319
0.789961 0.277142 0.789490
0.915220 0.274639 0.786788
1.000000 0.272277 0.784215
0.028857 0.412645 0.797223
0.154268 0.409734 0.794185
0.279718 0.406962 0.791274
0.405194 0.404328 0.788492
0.530684 0.401832 0.785837
0.656173 0.399475 0.783310
0.781649 0.397256 0.780910
0.907098 0.395176 0.778639
1.000000 0.393234 0.776496
0.020593 0.531501 0.787510
0.146322 0.529010 0.784902
0.272061 0.526655 0.782421
0.397796 0.524436 0.780069
0.523514 0.522352 0.777844
0.649203 0.520404 0.775747
0.774849 0.518592 0.773778
0.900438 0.516915 0.771937
1.000000 0.515374 0.770224
0.014141 0.651596 0.779244
0.140138 0.649507 0.777066
0.266116 0.647551 0.775016
0.392060 0.645727 0.773093
0.517958 0.644036 0.771299
0.643796 0.642478 0.769632
0.769561 0.641053 0.768093
0.895239 0.639760 0.766682
1.000000 0.638599 0.765399
0.009502 0.772835 0.772425
0.135718 0.771128 0.770677
0.261884 0.769551 0.769057
0.387986 0.768104 0.767565
0.514012 0.766786 0.766200
0.639948 0.765598 0.764963
0.765781 0.764540 0.763854
0.891496 0.763610 0.762872
1.000000 0.762810 0.762017
0.006675 0.895120 0.767053
0.133057 0.893776 0.765735
0.259360 0.892559 0.764545
0.385569 0.891468 0.763482
0.511672 0.890503 0.762546
0.637653 0.889665 0.761738
0.763501 0.888952 0.761056
0.889200 0.888366 0.760502
1.000000 0.887905 0.760075
0.005654 1.000000 0.763126
0.132152 1.000000 0.762237
0.258539 1.000000 0.761475
0.384802 1.000000 0.760840
0.510927 1.000000 0.760332
0.636901 1.000000 0.759950
0.762710 1.000000 0.759696
0.888340 1.000000 0.759568
1.000000 1.000000 0.759566
0.062993 0.062960 0.961966
0.187214 0.058734 0.957681
0.311557 0.054653 0.953522
0.436010 0.050717 0.949487
0.560560 0.046926 0.945576
0.685195 0.043282 0.941792
0.809901 0.039783 0.938132
0.934665 0.036430 0.934598
1.000000 0.033223 0.931189
0.049517 0.177711 0.948049
0.174192 0.173956 0.944184
0.298962 0.170344 0.940445
0.423813 0.166875 0.936831
0.548732 0.163549 0.933342
0.673707 0.160367 0.929979
0.798724 0.157328 0.926741
0.923770 0.154433 0.923629
1.000000 0.151682 0.920643
0.037829 0.293967 0.935546
0.162913 0.290667 0.932103
0.288062 0.287507 0.928786
0.413264 0.284487 0.925594
0.538505 0.281609 0.922528
0.663773 0.278872 0.919588
0.789053 0.276276 0.916773
0.914334 0.273821 0.914085
1.000000 0.271507 0.911522
0.027941 0.411641 0.924463
0.153386 0.408777 0.921443
0.278867 0.406052 0.918548
0.404372 0.403465 0.915780
0.529887 0.401016 0.913137
0.655398 0.398706 0.910620
0.780893 0.396534 0.908230
0.906359 0.394501 0.905965
1.000000 0.392606 0.903826
0.019860 0.530640 0.914803
0.145618 0.528195 0.912206
0.271383 0.525886 0.909735
0.397141 0.523713 0.907390
0.522880 0.521676 0.905171
0.648587 0.519774 0.903078
0.774246 0.518007 0.901111
0.899847 0.516376 0.899270
1.000000 0.514881 0.897555
0.013591 0.650872 0.906568
0.139612 0.648828 0.904395
0.265611 0.646916 0.902348
0.391574 0.645138 0.900427
0.517487 0.643492 0.898631
0.643337 0.641979 0.896962
0.769111 0.640599 0.895418
0.894795 0.639351 0.894000
1.000000 0.638235 0.892708
0.009135 0.772241 0.899758
0.135369 0.770578 0.898009
0.261551 0.769045 0.896385
0.387667 0.767642 0.894888
0.513703 0.766368 0.893516
0.639646 0.765224 0.892269
0.765483 0.764210 0.891148
0.891199 0.763324 0.890153
1.000000 0.762568 0.889283
0.006490 0.894650 0.894374
0.132886 0.893349 0.893047
0.259200 0.892174 0.891846
0.385417 0.891126 0.890771
0.511524 0.890204 0.889821
0.637507 0.889408 0.888997
0.763353 0.888739 0.888297
0.889049 0.888195 0.887723
1.000000 0.887776 0.887273
0.005651 1.000000 0.890411
0.132157 1.000000 0.889507
0.258550 1.000000 0.888728
0.384816 1.000000 0.888074
0.510940 1.000000 0.887545
0.636910 1.000000 0.887141
0.762712 1.000000 0.886861
0.888332 1.000000 0.886706
1.000000 1.000000 0.886675
0.061552 0.061509 1.000000
0.185821 0.057332 1.000000
0.310209 0.053300 1.000000
0.434704 0.049413 1.000000
0.559294 0.045672 1.000000
0.683965 0.042077 1.000000
0.808704 0.038628 1.000000
0.933499 0.035325 1.000000
1.000000 0.032168 1.000000
0.048256 0.176420 1.000000
0.172974 0.172713 1.000000
0.297785 0.169149 1.000000
0.422673 0.165729 1.000000
0.547627 0.162452 1.000000
0.672634 0.159319 1.000000
0.797679 0.156329 1.000000
0.922752 0.153483 1.000000
1.000000 0.150780 1.000000
0.036749 0.292831 1.000000
0.161872 0.289578 1.000000
0.287057 0.286466 1.000000
0.412291 0.283494 1.000000
0.537562 0.280664 1.000000
0.662857 0.277974 1.000000
0.788161 0.275426 1.000000
0.913462 0.273019 1.000000
1.000000 0.270754 1.000000
0.027043 0.410653 1.000000
0.152522 0.407836 1.000000
0.278034 0.405158 1.000000
0.403567 0.402618 1.000000
0.529106 0.400216 1.000000
0.654640 0.397953 1.000000
0.780154 0.395828 1.000000
0.905635 0.393842 1.000000
1.000000 0.391994 1.000000
0.019145 0.529795 1.000000
0.144931 0.527396 1.000000
0.270722 0.525133 1.000000
0.396504 0.523006 1.000000
0.522263 0.521014 1.000000
0.647986 0.519158 1.000000
0.773660 0.517438 1.000000
0.899271 0.515853 1.000000
1.000000 0.514404 1.000000
0.013058 0.650163 1.000000
0.139104 0.648164 1.000000
0.265123 0.646298 1.000000
0.391104 0.644564 1.000000
0.517032 0.642964 1.000000
0.642894 0.641496 1.000000
0.768676 0.640160 1.000000
0.894366 0.638957 1.000000
1.000000 0.637886 1.000000
0.008785 0.771662 1.000000
0.135039 0.770043 1.000000
0.261237 0.768554 1.000000
0.387365 0.767195 1.000000
0.513411 0.765965 1.000000
0.639360 0.764865 1.000000
0.765200 0.763894 1.000000
0.890916 0.763053 1.000000
1.000000 0.762340 1.000000
0.006323 0.894194 1.000000
0.132733 0.892935 1.000000
0.259058 0.891804 1.000000
0.385282 0.890799 1.000000
0.511393 0.889920 1.000000
0.637377 0.889167 1.000000
0.763221 0.888540 1.000000
0.888911 0.888039 1.000000
1.000000 0.887663 1.000000
0.005666 1.000000 1.000000
0.132181 1.000000 1.000000
0.258579 1.000000 1.000000
0.384846 1.000000 1.000000
0.510970 1.000000 1.000000
0.636935 1.000000 1.000000
0.762730 1.000000 1.000000
0.888339 1.000000 1.000000
1.000000 1.000000 1.000000
