library/cube/HDR_Luxe_001.cube
# CINEGRADE LAB — Premium Cinematic LUT
# Title: HDR Luxe
# Category: High Dynamic Luxury
# Description: HDR-like with detailed shadows and highlights for luxury imagery
# Mood: Premium, detailed, luminous
# Variant: 2
# Generated: 2026-05-21T16:12:34.223381
TITLE "HDR Luxe"
LUT_3D_SIZE 33
0.073587 0.073587 0.073587
0.104541 0.072432 0.072431
0.135504 0.071285 0.071284
0.166477 0.070147 0.070145
0.197459 0.069018 0.069014
0.228449 0.067898 0.067893
0.259449 0.066787 0.066779
0.290457 0.065685 0.065675
0.321473 0.064592 0.064579
0.352497 0.063508 0.063492
0.383530 0.062434 0.062413
0.414570 0.061368 0.061343
0.445617 0.060311 0.060282
0.476672 0.059264 0.059229
0.507734 0.058225 0.058185
0.538803 0.057196 0.057150
0.569879 0.056175 0.056123
0.600961 0.055164 0.055105
0.632049 0.054162 0.054095
0.663144 0.053169 0.053094
0.694245 0.052184 0.052102
0.725351 0.051210 0.051119
0.756463 0.050244 0.050144
0.787580 0.049287 0.049178
0.818702 0.048339 0.048220
0.849829 0.047401 0.047271
0.880961 0.046471 0.046331
0.912097 0.045551 0.045399
0.943238 0.044639 0.044477
0.974383 0.043737 0.043562
1.000000 0.042844 0.042657
1.000000 0.041960 0.041760
1.000000 0.041085 0.040872
0.069739 0.101844 0.069732
0.100725 0.100718 0.068605
0.131719 0.099601 0.067486
0.162723 0.098493 0.066376
0.193736 0.097394 0.065275
0.224757 0.096304 0.064182
0.255786 0.095223 0.063098
0.286824 0.094152 0.062023
0.317869 0.093089 0.060956
0.348922 0.092035 0.059898
0.379983 0.090990 0.058848
0.411050 0.089954 0.057807
0.442125 0.088927 0.056775
0.473207 0.087909 0.055751
0.504295 0.086901 0.054736
0.535390 0.085901 0.053730
0.566492 0.084910 0.052732
0.597599 0.083929 0.051743
0.628712 0.082956 0.050763
0.659831 0.081993 0.049791
0.690955 0.081038 0.048828
0.722085 0.080093 0.047874
0.753219 0.079156 0.046928
0.784359 0.078229 0.045991
0.815503 0.077311 0.045062
0.846652 0.076401 0.044143
0.877805 0.075501 0.043232
0.908962 0.074610 0.042329
0.940122 0.073728 0.041436
0.971287 0.072855 0.040551
1.000000 0.071992 0.039675
1.000000 0.071137 0.038807
1.000000 0.070291 0.037948
0.066000 0.130200 0.065974
0.097018 0.129104 0.064876
0.128044 0.128017 0.063787
0.159078 0.126939 0.062706
0.190121 0.125870 0.061633
0.221171 0.124810 0.060570
0.252230 0.123759 0.059514
0.283296 0.122717 0.058468
0.314370 0.121684 0.057430
0.345451 0.120660 0.056401
0.376539 0.119644 0.055381
0.407634 0.118638 0.054369
0.438735 0.117641 0.053366
0.469843 0.116653 0.052371
0.500957 0.115673 0.051385
0.532077 0.114703 0.050408
0.563203 0.113742 0.049439
0.594335 0.112790 0.048479
0.625472 0.111847 0.047528
0.656615 0.110912 0.046586
0.687762 0.109987 0.045652
0.718914 0.109071 0.044727
0.750071 0.108164 0.043810
0.781232 0.107266 0.042902
0.812397 0.106377 0.042003
0.843567 0.105497 0.041113
0.874740 0.104626 0.040231
0.905917 0.103764 0.039358
0.937097 0.102911 0.038493
0.968280 0.102067 0.037638
0.999467 0.101232 0.036791
1.000000 0.100406 0.035952
1.000000 0.099589 0.035123
0.062372 0.158656 0.062314
0.093421 0.157590 0.061245
0.124477 0.156533 0.060184
0.155541 0.155484 0.059132
0.186613 0.154445 0.058089
0.217693 0.153414 0.057055
0.248780 0.152393 0.056029
0.279875 0.151380 0.055011
0.310976 0.150376 0.054003
0.342084 0.149381 0.053002
0.373199 0.148396 0.052011
0.404320 0.147419 0.051028
0.435447 0.146451 0.050054
0.466581 0.145492 0.049089
0.497720 0.144542 0.048132
0.528865 0.143601 0.047184
0.560015 0.142669 0.046245
0.591170 0.141746 0.045314
0.622330 0.140832 0.044392
0.653495 0.139926 0.043479
0.684665 0.139030 0.042574
0.715839 0.138143 0.041678
0.747017 0.137265 0.040791
0.778199 0.136396 0.039912
0.809385 0.135536 0.039042
0.840575 0.134685 0.038181
0.871767 0.133842 0.037328
0.902963 0.133009 0.036484
0.934162 0.132185 0.035649
0.965364 0.131370 0.034823
0.996568 0.130564 0.034005
1.000000 0.129767 0.033196
1.000000 0.128979 0.032396
0.058856 0.187210 0.058752
0.089934 0.186173 0.057712
0.121020 0.185145 0.056680
0.152113 0.184126 0.055657
0.183214 0.183116 0.054643
0.214322 0.182115 0.053637
0.245437 0.181122 0.052641
0.276559 0.180139 0.051652
0.307687 0.179164 0.050673
0.338822 0.178199 0.049702
0.369963 0.177242 0.048740
0.401109 0.176294 0.047786
0.432262 0.175355 0.046841
0.463420 0.174426 0.045905
0.494583 0.173505 0.044977
0.525752 0.172593 0.044058
0.556925 0.171689 0.043148
0.588104 0.170795 0.042247
0.619286 0.169910 0.041354
0.650473 0.169034 0.040470
0.681665 0.168166 0.039594
0.712860 0.167308 0.038728
0.744058 0.166459 0.037869
0.775261 0.165618 0.037020
0.806466 0.164787 0.036179
0.837675 0.163964 0.035347
0.868887 0.163150 0.034524
0.900101 0.162346 0.033709
0.931318 0.161550 0.032903
0.962537 0.160763 0.032106
0.993759 0.159986 0.031318
1.000000 0.159217 0.030538
1.000000 0.158457 0.029767
0.055450 0.215861 0.055287
0.086558 0.214853 0.054276
0.117672 0.213854 0.053273
0.148794 0.212864 0.052280
0.179923 0.211883 0.051295
0.211059 0.210911 0.050318
0.242201 0.209947 0.049351
0.273349 0.208993 0.048391
0.304504 0.208047 0.047441
0.335664 0.207111 0.046499
0.366830 0.206183 0.045566
0.398002 0.205264 0.044642
0.429179 0.204354 0.043726
0.460361 0.203453 0.042819
0.491548 0.202560 0.041921
0.522740 0.201677 0.041031
0.553936 0.200802 0.040150
0.585136 0.199937 0.039278
0.616341 0.199080 0.038414
0.647549 0.198233 0.037559
0.678761 0.197394 0.036713
0.709976 0.196564 0.035875
0.741195 0.195743 0.035047
0.772417 0.194931 0.034226
0.803642 0.194128 0.033415
0.834869 0.193333 0.032612
0.866099 0.192548 0.031818
0.897331 0.191772 0.031033
0.928565 0.191004 0.030256
0.959801 0.190246 0.029488
0.991038 0.189496 0.028729
1.000000 0.188756 0.027979
1.000000 0.188024 0.027237
0.052156 0.244606 0.051920
0.083292 0.243627 0.050938
0.114435 0.242657 0.049965
0.145585 0.241696 0.049000
0.176741 0.240744 0.048044
0.207903 0.239801 0.047097
0.239072 0.238866 0.046159
0.270246 0.237940 0.045229
0.301426 0.237023 0.044307
0.332612 0.236115 0.043395
0.363802 0.235216 0.042491
0.394998 0.234326 0.041596
0.426199 0.233444 0.040709
0.457404 0.232571 0.039831
0.488614 0.231708 0.038962
0.519828 0.230853 0.038102
0.551046 0.230007 0.037250
0.582268 0.229169 0.036407
0.613493 0.228341 0.035573
0.644722 0.227522 0.034747
0.675954 0.226711 0.033930
0.707189 0.225909 0.033122
0.738427 0.225117 0.032322
0.769668 0.224333 0.031531
0.800911 0.223558 0.030749
0.832156 0.222791 0.029976
0.863403 0.222034 0.029211
0.894652 0.221286 0.028455
0.925903 0.220546 0.027707
0.957154 0.219816 0.026969
0.988408 0.219094 0.026239
1.000000 0.218381 0.025518
1.000000 0.217678 0.024805
0.048973 0.273446 0.048651
0.080137 0.272496 0.047699
0.111308 0.271554 0.046754
0.142485 0.270622 0.045819
0.173667 0.269698 0.044892
0.204856 0.268783 0.043974
0.236050 0.267877 0.043065
0.267250 0.266979 0.042164
0.298454 0.266091 0.041272
0.329664 0.265211 0.040389
0.360879 0.264340 0.039514
0.392098 0.263478 0.038648
0.423322 0.262625 0.037791
0.454549 0.261781 0.036942
0.485781 0.260945 0.036102
0.517017 0.260118 0.035271
0.548256 0.259300 0.034449
0.579498 0.258491 0.033635
0.610744 0.257691 0.032830
0.641993 0.256899 0.032033
0.673244 0.256117 0.031246
0.704498 0.255343 0.030467
0.735755 0.254578 0.029696
0.767013 0.253822 0.028935
0.798274 0.253075 0.028182
0.829536 0.252337 0.027438
0.860800 0.251607 0.026702
0.892065 0.250887 0.025975
0.923331 0.250175 0.025257
0.954598 0.249472 0.024548
0.985866 0.248778 0.023847
1.000000 0.248093 0.023156
1.000000 0.247416 0.022472
0.045903 0.302378 0.045481
0.077094 0.301456 0.044557
0.108291 0.300543 0.043642
0.139494 0.299639 0.042736
0.170703 0.298743 0.041838
0.201916 0.297856 0.040949
0.233136 0.296979 0.040069
0.264360 0.296109 0.039198
0.295588 0.295249 0.038335
0.326822 0.294397 0.037481
0.358060 0.293555 0.036635
0.389301 0.292721 0.035799
0.420547 0.291895 0.034971
0.451797 0.291079 0.034151
0.483050 0.290271 0.033341
0.514306 0.289472 0.032539
0.545566 0.288682 0.031745
0.576829 0.287901 0.030961
0.608094 0.287128 0.030185
0.639362 0.286365 0.029418
0.670632 0.285610 0.028660
0.701904 0.284864 0.027910
0.733178 0.284127 0.027169
0.764454 0.283398 0.026437
0.795731 0.282678 0.025713
0.827010 0.281968 0.024998
0.858289 0.281266 0.024292
0.889570 0.280572 0.023595
0.920851 0.279888 0.022906
0.952133 0.279212 0.022226
0.983415 0.278546 0.021555
1.000000 0.277888 0.020892
1.000000 0.277239 0.020238
0.042944 0.331401 0.042408
0.074162 0.330507 0.041514
0.105385 0.329622 0.040628
0.136613 0.328746 0.039751
0.167847 0.327879 0.038883
0.199086 0.327020 0.038023
0.230329 0.326170 0.037172
0.261577 0.325329 0.036330
0.292829 0.324496 0.035496
0.324085 0.323672 0.034671
0.355345 0.322857 0.033855
0.386609 0.322051 0.033048
0.417876 0.321253 0.032249
0.449147 0.320465 0.031459
0.480421 0.319685 0.030677
0.511697 0.318913 0.029905
0.542976 0.318151 0.029141
0.574258 0.317397 0.028386
0.605542 0.316652 0.027639
0.636828 0.315916 0.026901
0.668116 0.315189 0.026172
0.699406 0.314470 0.025452
0.730697 0.313760 0.024740
0.761989 0.313059 0.024037
0.793282 0.312366 0.023343
0.824577 0.311683 0.022657
0.855871 0.311008 0.021980
0.887167 0.310342 0.021312
0.918462 0.309685 0.020653
0.949757 0.309036 0.020002
0.981053 0.308396 0.019360
1.000000 0.307766 0.018727
1.000000 0.307143 0.018103
0.040097 0.360514 0.039434
0.071341 0.359648 0.038569
0.102589 0.358791 0.037712
0.133843 0.357942 0.036864
0.165101 0.357103 0.036025
0.196363 0.356271 0.035195
0.227630 0.355449 0.034373
0.258901 0.354636 0.033560
0.290175 0.353831 0.032756
0.321454 0.353034 0.031960
0.352736 0.352247 0.031173
0.384021 0.351468 0.030395
0.415309 0.350698 0.029626
0.446600 0.349937 0.028865
0.477893 0.349184 0.028113
0.509189 0.348440 0.027369
0.540487 0.347705 0.026635
0.571787 0.346979 0.025909
0.603089 0.346261 0.025192
0.634393 0.345552 0.024483
0.665698 0.344851 0.023783
0.697004 0.344160 0.023092
0.728312 0.343477 0.022410
0.759620 0.342803 0.021736
0.790928 0.342138 0.021071
0.822237 0.341481 0.020415
0.853546 0.340833 0.019768
0.884855 0.340194 0.019129
0.916164 0.339563 0.018499
0.947473 0.338942 0.017877
0.978780 0.338329 0.017265
1.000000 0.337725 0.016661
1.000000 0.337129 0.016066
0.037363 0.389715 0.036558
0.068632 0.388876 0.035722
0.099905 0.388047 0.034895
0.131182 0.387226 0.034076
0.162464 0.386414 0.033266
0.193749 0.385610 0.032465
0.225039 0.384815 0.031673
0.256332 0.384029 0.030889
0.287629 0.383251 0.030114
0.318928 0.382483 0.029348
0.350231 0.381722 0.028590
0.381536 0.380971 0.027841
0.412844 0.380228 0.027101
0.444155 0.379494 0.026369
0.475468 0.378768 0.025647
0.506782 0.378051 0.024933
0.538099 0.377343 0.024227
0.569416 0.376644 0.023531
0.600736 0.375953 0.022843
0.632056 0.375271 0.022164
0.663378 0.374597 0.021493
0.694700 0.373932 0.020831
0.726022 0.373276 0.020178
0.757345 0.372629 0.019534
0.788668 0.371990 0.018898
0.819991 0.371360 0.018272
0.851314 0.370739 0.017653
0.882636 0.370127 0.017044
0.913958 0.369523 0.016443
0.945278 0.368927 0.015851
0.976598 0.368341 0.015268
1.000000 0.367763 0.014693
1.000000 0.367194 0.014128
0.034741 0.419003 0.033780
0.066034 0.418192 0.032974
0.097331 0.417389 0.032176
0.128632 0.416596 0.031386
0.159936 0.415811 0.030606
0.191244 0.415034 0.029834
0.222556 0.414267 0.029071
0.253871 0.413507 0.028316
0.285188 0.412757 0.027571
0.316508 0.412015 0.026834
0.347831 0.411282 0.026105
0.379157 0.410557 0.025386
0.410484 0.409841 0.024675
0.441813 0.409134 0.023973
0.473144 0.408435 0.023279
0.504477 0.407745 0.022594
0.535810 0.407064 0.021918
0.567145 0.406391 0.021251
0.598481 0.405727 0.020593
0.629817 0.405071 0.019943
0.661154 0.404424 0.019302
0.692492 0.403786 0.018669
0.723829 0.403157 0.018045
0.755166 0.402536 0.017430
0.786503 0.401923 0.016824
0.817839 0.401320 0.016227
0.849175 0.400725 0.015638
0.880509 0.400139 0.015058
0.911843 0.399561 0.014486
0.943175 0.398992 0.013924
0.974505 0.398432 0.013370
1.000000 0.397880 0.012825
1.000000 0.397337 0.012288
0.032233 0.448376 0.031101
0.063549 0.447592 0.030324
0.094869 0.446817 0.029555
0.126192 0.446050 0.028795
0.157519 0.445292 0.028044
0.188848 0.444543 0.027301
0.220181 0.443802 0.026567
0.251517 0.443069 0.025842
0.282854 0.442346 0.025126
0.314195 0.441631 0.024418
0.345537 0.440924 0.023719
0.376881 0.440226 0.023029
0.408227 0.439537 0.022347
0.439574 0.438856 0.021675
0.470923 0.438184 0.021010
0.502272 0.437520 0.020355
0.533623 0.436865 0.019708
0.564974 0.436219 0.019070
0.596325 0.435581 0.018441
0.627677 0.434952 0.017821
0.659029 0.434331 0.017209
0.690380 0.433719 0.016606
0.721732 0.433116 0.016011
0.753082 0.432521 0.015426
0.784432 0.431935 0.014849
0.815781 0.431358 0.014281
0.847129 0.430789 0.013721
0.878475 0.430229 0.013170
0.909819 0.429677 0.012628
0.941162 0.429134 0.012095
0.972503 0.428599 0.011571
1.000000 0.428073 0.011055
1.000000 0.427556 0.010548
0.029836 0.477834 0.028521
0.061175 0.477077 0.027773
0.092517 0.476328 0.027033
0.123863 0.475588 0.026302
0.155211 0.474857 0.025580
0.186561 0.474134 0.024867
0.217915 0.473419 0.024163
0.249270 0.472714 0.023467
0.280628 0.472016 0.022780
0.311987 0.471328 0.022101
0.343348 0.470647 0.021432
0.374710 0.469976 0.020771
0.406074 0.469313 0.020119
0.437438 0.468658 0.019475
0.468804 0.468012 0.018840
0.500169 0.467375 0.018214
0.531536 0.466746 0.017597
0.562902 0.466126 0.016988
0.594269 0.465514 0.016388
0.625635 0.464911 0.015797
0.657001 0.464317 0.015215
0.688366 0.463731 0.014641
0.719730 0.463153 0.014076
0.751094 0.462585 0.013520
0.782456 0.462024 0.012972
0.813816 0.461473 0.012433
0.845175 0.460929 0.011903
0.876532 0.460395 0.011382
0.907887 0.459869 0.010869
0.939240 0.459351 0.010365
0.970590 0.458843 0.009870
1.000000 0.458342 0.009384
1.000000 0.457850 0.008906
0.027553 0.507374 0.026039
0.058914 0.506643 0.025320
0.090278 0.505921 0.024610
0.121644 0.505208 0.023908
0.153013 0.504503 0.023216
0.184384 0.503806 0.022532
0.215757 0.503118 0.021857
0.247131 0.502438 0.021190
0.278508 0.501767 0.020532
0.309885 0.501105 0.019883
0.341264 0.500451 0.019243
0.372644 0.499805 0.018611
0.404024 0.499168 0.017988
0.435405 0.498540 0.017374
0.466787 0.497920 0.016769
0.498168 0.497309 0.016172
0.529550 0.496706 0.015584
0.560931 0.496111 0.015005
0.592312 0.495525 0.014434
0.623692 0.494948 0.013872
0.655071 0.494379 0.013319
0.686449 0.493819 0.012775
0.717825 0.493267 0.012239
0.749201 0.492724 0.011712
0.780574 0.492189 0.011194
0.811946 0.491663 0.010685
0.843315 0.491145 0.010184
0.874682 0.490636 0.009692
0.906046 0.490135 0.009209
0.937408 0.489643 0.008734
0.968767 0.489160 0.008268
1.000000 0.488685 0.007811
1.000000 0.488218 0.007363
0.025383 0.536995 0.023655
0.056765 0.536291 0.022966
0.088149 0.535595 0.022285
0.119536 0.534907 0.021613
0.150925 0.534229 0.020950
0.182315 0.533558 0.020295
0.213707 0.532896 0.019649
0.245100 0.532242 0.019012
0.276494 0.531597 0.018384
0.307890 0.530961 0.017764
0.339286 0.530333 0.017153
0.370682 0.529713 0.016551
0.402079 0.529102 0.015957
0.433475 0.528499 0.015372
0.464872 0.527905 0.014796
0.496269 0.527319 0.014229
0.527664 0.526742 0.013670
0.559059 0.526173 0.013120
0.590454 0.525612 0.012579
0.621847 0.525061 0.012046
0.653238 0.524517 0.011523
0.684628 0.523982 0.011008
0.716016 0.523456 0.010501
0.747403 0.522938 0.010004
0.778787 0.522428 0.009515
0.810169 0.521927 0.009035
0.841548 0.521435 0.008564
0.872924 0.520951 0.008101
0.904297 0.520475 0.007647
0.935667 0.520008 0.007202
0.967034 0.519549 0.006765
0.998397 0.519099 0.006338
1.000000 0.518658 0.005919
0.023325 0.566696 0.021370
0.054728 0.566018 0.020710
0.086133 0.565348 0.020059
0.117539 0.564686 0.019416
0.148947 0.564033 0.018782
0.180356 0.563388 0.018157
0.211766 0.562752 0.017540
0.243177 0.562124 0.016933
0.274588 0.561505 0.016333
0.306000 0.560894 0.015743
0.337413 0.560291 0.015161
0.368825 0.559697 0.014589
0.400237 0.559111 0.014024
0.431649 0.558534 0.013469
0.463060 0.557965 0.012922
0.494470 0.557405 0.012384
0.525880 0.556853 0.011855
0.557288 0.556309 0.011334
0.588695 0.555774 0.010822
0.620100 0.555247 0.010319
0.651503 0.554729 0.009825
0.682905 0.554219 0.009339
0.714304 0.553718 0.008862
0.745700 0.553225 0.008394
0.777094 0.552740 0.007935
0.808485 0.552264 0.007484
0.839873 0.551796 0.007042
0.871258 0.551337 0.006609
0.902639 0.550886 0.006184
0.934017 0.550444 0.005768
0.965391 0.550010 0.005361
0.996760 0.549585 0.004963
1.000000 0.549167 0.004573
0.021381 0.596476 0.019184
0.052804 0.595823 0.018553
0.084228 0.595179 0.017931
0.115653 0.594543 0.017318
0.147079 0.593915 0.016713
0.178506 0.593296 0.016117
0.209933 0.592685 0.015530
0.241361 0.592082 0.014952
0.272789 0.591488 0.014382
0.304217 0.590903 0.013821
0.335645 0.590325 0.013269
0.367072 0.589756 0.012725
0.398499 0.589196 0.012190
0.429925 0.588644 0.011664
0.461350 0.588100 0.011147
0.492774 0.587564 0.010638
0.524196 0.587037 0.010138
0.555617 0.586519 0.009647
0.587035 0.586009 0.009165
0.618452 0.585507 0.008691
0.649866 0.585013 0.008226
0.681278 0.584528 0.007770
0.712687 0.584052 0.007322
0.744093 0.583583 0.006883
0.775496 0.583123 0.006453
0.806896 0.582672 0.006032
0.838292 0.582229 0.005619
0.869684 0.581794 0.005215
0.901073 0.581368 0.004820
0.932457 0.580950 0.004433
0.963837 0.580540 0.004055
0.995212 0.580139 0.003686
1.000000 0.579746 0.003326
0.019550 0.626332 0.017097
0.050992 0.625705 0.016495
0.082434 0.625086 0.015903
0.113877 0.624475 0.015319
0.145321 0.623872 0.014743
0.176765 0.623278 0.014177
0.208209 0.622693 0.013619
0.239653 0.622115 0.013070
0.271097 0.621546 0.012529
0.302540 0.620986 0.011998
0.333983 0.620433 0.011475
0.365425 0.619889 0.010961
0.396866 0.619353 0.010455
0.428305 0.618826 0.009958
0.459743 0.618307 0.009470
0.491179 0.617797 0.008991
0.522613 0.617294 0.008521
0.554045 0.616800 0.008059
0.585475 0.616315 0.007606
0.616902 0.615837 0.007161
0.648327 0.615369 0.006726
0.679748 0.614908 0.006299
0.711166 0.614456 0.005880
0.742581 0.614012 0.005471
0.773993 0.613576 0.005070
0.805400 0.613149 0.004678
0.836804 0.612730 0.004295
0.868203 0.612320 0.003920
0.899598 0.611918 0.003554
0.930988 0.611524 0.003197
0.962373 0.611138 0.002849
0.993754 0.610761 0.002509
1.000000 0.610392 0.002178
0.017833 0.656264 0.015108
0.049292 0.655661 0.014536
0.080752 0.655067 0.013973
0.112213 0.654482 0.013418
0.143673 0.653904 0.012872
0.175134 0.653335 0.012335
0.206594 0.652774 0.011806
0.238053 0.652222 0.011287
0.269512 0.651677 0.010776
0.300970 0.651141 0.010273
0.332427 0.650614 0.009780
0.363882 0.650094 0.009295
0.395336 0.649583 0.008819
0.426788 0.649080 0.008351
0.458238 0.648586 0.007893
0.489686 0.648100 0.007443
0.521131 0.647622 0.007002
0.552574 0.647152 0.006569
0.584014 0.646691 0.006145
0.615451 0.646238 0.005730
0.646885 0.645793 0.005324
0.678315 0.645357 0.004926
0.709742 0.644929 0.004537
0.741165 0.644509 0.004157
0.772584 0.644098 0.003786
0.803998 0.643694 0.003423
0.835408 0.643299 0.003069
0.866813 0.642913 0.002724
0.898214 0.642534 0.002387
0.929609 0.642164 0.002060
0.960999 0.641803 0.001740
0.992384 0.641449 0.001430
1.000000 0.641104 0.001128
0.016228 0.686269 0.013218
0.047705 0.685692 0.012676
0.079183 0.685123 0.012142
0.110659 0.684561 0.011616
0.142136 0.684009 0.011100
0.173612 0.683464 0.010592
0.205087 0.682928 0.010093
0.236561 0.682400 0.009602
0.268034 0.681880 0.009121
0.299506 0.681368 0.008648
0.330976 0.680865 0.008183
0.362444 0.680370 0.007728
0.393910 0.679883 0.007281
0.425374 0.679405 0.006843
0.456835 0.678934 0.006414
0.488294 0.678472 0.005993
0.519750 0.678019 0.005581
0.551203 0.677573 0.005178
0.582652 0.677136 0.004784
0.614098 0.676707 0.004398
0.645541 0.676286 0.004021
0.676979 0.675873 0.003653
0.708413 0.675469 0.003293
0.739843 0.675073 0.002942
0.771269 0.674685 0.002600
0.802690 0.674306 0.002267
0.834105 0.673935 0.001942
0.865516 0.673572 0.001626
0.896921 0.673217 0.001319
0.928321 0.672870 0.001021
0.959715 0.672532 0.000731
0.991103 0.672202 0.000450
1.000000 0.671880 0.000177
0.014737 0.716347 0.011427
0.046231 0.715794 0.010914
0.077724 0.715249 0.010409
0.109217 0.714713 0.009913
0.140709 0.714184 0.009426
0.172199 0.713664 0.008947
0.203689 0.713152 0.008478
0.235177 0.712648 0.008017
0.266663 0.712152 0.007564
0.298148 0.711665 0.007121
0.329630 0.711186 0.006686
0.361110 0.710715 0.006260
0.392588 0.710252 0.005842
0.424063 0.709797 0.005434
0.455535 0.709351 0.005034
0.487004 0.708913 0.004642
0.518469 0.708483 0.004260
0.549931 0.708061 0.003886
0.581389 0.707648 0.003521
0.612844 0.707242 0.003165
0.644294 0.706845 0.002817
0.675740 0.706456 0.002478
0.707181 0.706075 0.002148
0.738617 0.705703 0.001826
0.770049 0.705338 0.001514
0.801475 0.704982 0.001209
0.832895 0.704634 0.000914
0.864311 0.704295 0.000627
0.895720 0.703963 0.000350
0.927123 0.703640 0.000080
0.958520 0.703324 0.000000
0.989911 0.703017 0.000000
1.000000 0.702719 0.000000
0.013360 0.746496 0.009735
0.044869 0.745967 0.009251
0.076378 0.745447 0.008775
0.107886 0.744934 0.008309
0.139392 0.744430 0.007851
0.170896 0.743933 0.007402
0.202399 0.743445 0.006961
0.233901 0.742965 0.006530
0.265400 0.742494 0.006107
0.296896 0.742030 0.005692
0.328390 0.741575 0.005287
0.359881 0.741127 0.004890
0.391370 0.740688 0.004502
0.422855 0.740257 0.004123
0.454337 0.739834 0.003752
0.485815 0.739420 0.003390
0.517289 0.739013 0.003037
0.548760 0.738615 0.002693
0.580226 0.738225 0.002357
0.611688 0.737843 0.002030
0.643145 0.737469 0.001711
0.674597 0.737103 0.001402
0.706044 0.736746 0.001101
0.737486 0.736396 0.000809
0.768923 0.736055 0.000525
0.800353 0.735722 0.000251
0.831778 0.735397 0.000000
0.863197 0.735080 0.000000
0.894609 0.734771 0.000000
0.926015 0.734471 0.000000
0.957415 0.734179 0.000000
0.988807 0.733894 0.000000
1.000000 0.733618 0.000000
0.012096 0.776715 0.008141
0.043620 0.776210 0.007686
0.075143 0.775713 0.007240
0.106665 0.775224 0.006803
0.138185 0.774743 0.006375
0.169703 0.774271 0.005955
0.201219 0.773806 0.005544
0.232732 0.773350 0.005141
0.264243 0.772902 0.004748
0.295751 0.772462 0.004363
0.327256 0.772030 0.003987
0.358757 0.771606 0.003619
0.390256 0.771190 0.003261
0.421750 0.770782 0.002911
0.453241 0.770383 0.002569
0.484728 0.769991 0.002237
0.516210 0.769608 0.001913
0.547688 0.769233 0.001598
0.579161 0.768866 0.001291
0.610630 0.768507 0.000994
0.642093 0.768156 0.000705
0.673551 0.767813 0.000424
0.705003 0.767479 0.000153
0.736450 0.767152 0.000000
0.767891 0.766834 0.000000
0.799325 0.766523 0.000000
0.830754 0.766221 0.000000
0.862175 0.765927 0.000000
0.893590 0.765641 0.000000
0.924998 0.765363 0.000000
0.956398 0.765093 0.000000
0.987792 0.764831 0.000000
1.000000 0.764577 0.000000
0.010945 0.807001 0.006646
0.042483 0.806520 0.006221
0.074020 0.806046 0.005804
0.105556 0.805581 0.005396
0.137088 0.805124 0.004997
0.168619 0.804674 0.004607
0.200146 0.804233 0.004225
0.231671 0.803800 0.003852
0.263193 0.803375 0.003488
0.294711 0.802958 0.003132
0.326226 0.802550 0.002785
0.357738 0.802149 0.002447
0.389245 0.801756 0.002118
0.420748 0.801372 0.001797
0.452247 0.800995 0.001485
0.483742 0.800627 0.001182
0.515232 0.800266 0.000887
0.546716 0.799914 0.000601
0.578196 0.799569 0.000324
0.609670 0.799233 0.000056
0.641139 0.798905 0.000000
0.672601 0.798585 0.000000
0.704058 0.798273 0.000000
0.735509 0.797969 0.000000
0.766953 0.797673 0.000000
0.798391 0.797385 0.000000
0.829821 0.797105 0.000000
0.861245 0.796833 0.000000
0.892661 0.796569 0.000000
0.924070 0.796313 0.000000
0.955471 0.796066 0.000000
0.986865 0.795826 0.000000
1.000000 0.795594 0.000000
0.009907 0.837354 0.005250
0.041459 0.836895 0.004854
0.073009 0.836445 0.004467
0.104557 0.836003 0.004088
0.136102 0.835569 0.003718
0.167644 0.835143 0.003357
0.199183 0.834725 0.003005
0.230718 0.834315 0.002661
0.262250 0.833913 0.002326
0.293778 0.833519 0.002000
0.325303 0.833133 0.001682
0.356823 0.832755 0.001374
0.388338 0.832385 0.001074
0.419850 0.832023 0.000782
0.451356 0.831669 0.000500
0.482857 0.831323 0.000226
0.514353 0.830985 0.000000
0.545844 0.830656 0.000000
0.577329 0.830334 0.000000
0.608808 0.830020 0.000000
