library/cube/Hereditary_Mood_000.cube
# CINEGRADE LAB — Premium Cinematic LUT
# Title: Hereditary Mood
# Category: A24 Inspired
# Description: Artistic, unconventional, mood-driven looks inspired by A24 films
# Mood: Arthouse, unconventional, evocative
# Variant: 1
# Generated: 2026-05-21T16:12:44.746370
TITLE "Hereditary Mood"
LUT_3D_SIZE 9
0.000000 0.000000 0.000000
0.065192 0.003827 0.003905
0.165602 0.009701 0.009888
0.269950 0.015782 0.016068
0.377028 0.022000 0.022373
0.486300 0.028324 0.028771
0.597453 0.034736 0.035245
0.710275 0.041224 0.041783
0.791346 0.045853 0.046424
0.014090 0.086600 0.014796
0.080160 0.090593 0.018718
0.181835 0.096640 0.024720
0.287427 0.102891 0.030920
0.395717 0.109274 0.037243
0.506163 0.115759 0.043659
0.618447 0.122326 0.050150
0.732358 0.128966 0.056703
0.814132 0.133733 0.061356
0.033210 0.202603 0.034496
0.100110 0.206779 0.038434
0.202968 0.213015 0.044456
0.309728 0.219449 0.050674
0.419153 0.226010 0.057015
0.530698 0.232667 0.063448
0.644042 0.239401 0.069955
0.758974 0.246201 0.076523
0.841061 0.251116 0.081187
0.053350 0.323133 0.054843
0.121017 0.327465 0.058794
0.224971 0.333860 0.064833
0.332810 0.340449 0.071066
0.443286 0.347160 0.077422
0.555847 0.353960 0.083868
0.670172 0.360833 0.090388
0.786046 0.367766 0.096967
0.867917 0.372801 0.101640
0.074286 0.446828 0.075616
0.142663 0.451287 0.079578
0.247631 0.457811 0.085629
0.356467 0.464525 0.091875
0.467913 0.471355 0.098242
0.581412 0.478269 0.104698
0.696641 0.485251 0.111227
0.813385 0.492287 0.117815
0.894299 0.497412 0.122492
0.095902 0.572988 0.096709
0.164936 0.577543 0.100679
0.270839 0.584167 0.106739
0.380596 0.590974 0.112993
0.492937 0.597893 0.119368
0.607301 0.604891 0.125831
0.723363 0.611951 0.132365
0.840000 0.619059 0.138958
0.919891 0.624247 0.143637
0.118121 0.701145 0.118054
0.187761 0.705766 0.122029
0.294527 0.712458 0.128095
0.405132 0.719329 0.134354
0.518297 0.726306 0.140733
0.633457 0.733357 0.147199
0.750284 0.740464 0.153735
0.865757 0.747615 0.160329
0.944403 0.752834 0.165006
0.140882 0.830939 0.139604
0.211081 0.835597 0.143580
0.318641 0.842327 0.149649
0.430027 0.849230 0.155909
0.543949 0.856235 0.162288
0.659840 0.863309 0.168754
0.777368 0.870433 0.175288
0.890548 0.877596 0.181879
0.967559 0.882819 0.186552
0.159989 0.937090 0.157191
0.230695 0.941527 0.161165
0.338978 0.947911 0.167232
0.451073 0.954405 0.173489
0.565681 0.960934 0.179865
0.682231 0.967462 0.186326
0.800392 0.973967 0.192854
0.910370 0.980433 0.199439
0.985373 0.985012 0.204103
0.001464 0.001522 0.077865
0.066748 0.005353 0.081820
0.167291 0.011234 0.087852
0.271769 0.017321 0.094079
0.378973 0.023546 0.100431
0.488369 0.029875 0.106874
0.599640 0.036293 0.113392
0.712576 0.042787 0.119971
0.793721 0.047420 0.124653
0.015593 0.088180 0.092824
0.081749 0.092176 0.096791
0.183546 0.098228 0.102838
0.289259 0.104484 0.109080
0.397666 0.110872 0.115445
0.508226 0.117360 0.121901
0.620620 0.123932 0.128431
0.734637 0.130576 0.135022
0.816465 0.135346 0.139710
0.034756 0.204247 0.112672
0.101734 0.208425 0.116651
0.204706 0.214663 0.122712
0.311577 0.221100 0.128968
0.421111 0.227663 0.135346
0.532760 0.234323 0.141815
0.646206 0.241060 0.148355
0.761235 0.247862 0.154956
0.843333 0.252778 0.159651
0.054936 0.324832 0.133151
0.122676 0.329163 0.137139
0.226735 0.335560 0.143212
0.334677 0.342149 0.149478
0.445252 0.348860 0.155866
0.557910 0.355662 0.162344
0.672328 0.362535 0.168892
0.788292 0.369468 0.175500
0.870115 0.374502 0.180198
0.075910 0.448571 0.154041
0.144354 0.453028 0.158034
0.249418 0.459552 0.164115
0.358349 0.466264 0.170389
0.469888 0.473092 0.176784
0.583476 0.480006 0.183267
0.698791 0.486986 0.189820
0.815617 0.494020 0.196431
0.896403 0.499143 0.201129
0.097561 0.574765 0.175234
0.166657 0.579317 0.179231
0.272649 0.585938 0.185316
0.382493 0.592742 0.191594
0.494919 0.599658 0.197992
0.609366 0.606653 0.204476
0.725507 0.613709 0.211030
0.842096 0.620814 0.217641
0.921880 0.625997 0.222337
0.119812 0.702946 0.196664
0.189510 0.707562 0.200661
0.296358 0.714249 0.206748
0.407043 0.721115 0.213026
0.520287 0.728087 0.219422
0.635522 0.735133 0.225905
0.752422 0.742236 0.232456
0.867755 0.749381 0.239064
0.946256 0.754595 0.243753
0.142604 0.832753 0.218282
0.212856 0.837405 0.222276
0.320492 0.844128 0.228360
0.431952 0.851025 0.234635
0.545946 0.858023 0.241028
0.661905 0.865090 0.247505
0.779499 0.872208 0.254050
0.892428 0.879364 0.260650
0.969255 0.884579 0.265330
0.161737 0.938825 0.235922
0.232492 0.943242 0.239909
0.340844 0.949604 0.245987
0.453006 0.956073 0.252254
0.567680 0.962576 0.258638
0.684294 0.969077 0.265106
0.802514 0.975553 0.271640
0.912121 0.981990 0.278229
0.986900 0.986540 0.282896
0.003243 0.003367 0.172224
0.068619 0.007204 0.176239
0.169295 0.013092 0.182329
0.273903 0.019186 0.188613
0.381234 0.025417 0.195019
0.490753 0.031753 0.201515
0.602142 0.038177 0.208084
0.715193 0.044676 0.214714
0.796412 0.049315 0.219443
0.017415 0.090085 0.187377
0.083656 0.094085 0.191397
0.185576 0.100143 0.197497
0.291410 0.106403 0.203790
0.399934 0.112796 0.210204
0.510607 0.119289 0.216708
0.623111 0.125866 0.223283
0.737233 0.132514 0.229918
0.819108 0.137287 0.234648
0.036624 0.206217 0.207400
0.103681 0.210397 0.211427
0.206766 0.216639 0.217535
0.313748 0.223078 0.223836
0.423391 0.229645 0.230258
0.535145 0.236307 0.236768
0.648693 0.243046 0.243349
0.763819 0.249851 0.249988
0.845919 0.254768 0.254719
0.056846 0.326857 0.228035
0.124660 0.331189 0.232065
0.228823 0.337587 0.238179
0.336868 0.344177 0.244486
0.447544 0.350889 0.250911
0.560299 0.357692 0.257425
0.674810 0.364566 0.264008
0.790864 0.371500 0.270648
0.872625 0.376533 0.275377
0.077861 0.450642 0.249062
0.146373 0.455097 0.253093
0.251533 0.461620 0.259209
0.360559 0.468331 0.265517
0.472190 0.475159 0.271943
0.585868 0.482072 0.278457
0.701269 0.489050 0.285038
0.818178 0.496084 0.291677
0.898815 0.501205 0.296400
0.099550 0.576871 0.270374
0.168708 0.581419 0.274402
0.274789 0.588037 0.280517
0.384721 0.594839 0.286823
0.497232 0.601752 0.293247
0.611761 0.608744 0.299756
0.727981 0.615797 0.306333
0.844500 0.622899 0.312965
0.924172 0.628079 0.317681
0.121836 0.705075 0.291903
0.191591 0.709687 0.295925
0.298521 0.716370 0.302036
0.409287 0.723231 0.308337
0.522609 0.730199 0.314754
0.637920 0.737240 0.321256
0.754892 0.744337 0.327824
0.870054 0.751478 0.334447
0.948406 0.756686 0.339151
0.144661 0.834897 0.313601
0.214966 0.839542 0.317615
0.322677 0.846259 0.323717
0.434211 0.853150 0.330009
0.548276 0.860142 0.336416
0.664305 0.867202 0.342907
0.781965 0.874313 0.349464
0.894602 0.881463 0.356073
0.971239 0.886670 0.360762
0.163822 0.940873 0.331301
0.234625 0.945269 0.335302
0.343046 0.951606 0.341393
0.455276 0.958050 0.347671
0.570016 0.964525 0.354064
0.686692 0.970997 0.360540
0.804973 0.977443 0.367081
0.914157 0.983848 0.373673
0.988707 0.988368 0.378343
0.005106 0.005297 0.270835
0.070574 0.009140 0.274910
0.171381 0.015034 0.281060
0.276119 0.021135 0.287401
0.383577 0.027373 0.293864
0.493217 0.033715 0.300414
0.604725 0.040145 0.307036
0.717889 0.046651 0.313716
0.799182 0.051295 0.318494
0.019321 0.092074 0.286186
0.085648 0.096079 0.290261
0.187689 0.102141 0.296414
0.293643 0.108407 0.302759
0.402285 0.114805 0.309223
0.513071 0.121303 0.315775
0.625684 0.127884 0.322397
0.739911 0.134537 0.329077
0.821828 0.139313 0.333851
0.038576 0.208271 0.306388
0.105713 0.212454 0.310464
0.208910 0.218698 0.316620
0.316004 0.225141 0.322967
0.425754 0.231711 0.329433
0.537613 0.238376 0.335985
0.651261 0.245118 0.342607
0.766484 0.251925 0.349285
0.848580 0.256844 0.354054
0.058843 0.328966 0.327183
0.126729 0.333299 0.331256
0.230997 0.339698 0.337412
0.339144 0.346290 0.343758
0.449919 0.353003 0.350222
0.562770 0.359806 0.356772
0.677375 0.366681 0.363390
0.793518 0.373615 0.370063
0.875207 0.378649 0.374824
0.079898 0.452796 0.348349
0.148478 0.457250 0.352417
0.253734 0.463772 0.358569
0.362855 0.470483 0.364911
0.474577 0.477310 0.371370
0.588344 0.484221 0.377914
0.703831 0.491199 0.384524
0.820761 0.498231 0.391190
0.901297 0.503350 0.395939
0.101626 0.579060 0.369780
0.170846 0.583605 0.373840
0.277016 0.590221 0.379985
0.387034 0.597020 0.386319
0.499630 0.603930 0.392769
0.614240 0.610919 0.399303
0.730539 0.617969 0.405903
0.846975 0.625068 0.412557
0.926532 0.630244 0.417291
0.123948 0.707288 0.391409
0.193760 0.711895 0.395457
0.300771 0.718573 0.401592
0.411618 0.725430 0.407915
0.525017 0.732393 0.414352
0.640403 0.739430 0.420873
0.757447 0.746523 0.427459
0.872423 0.753658 0.434097
0.950620 0.758861 0.438814
0.146805 0.837124 0.413187
0.217163 0.841762 0.417220
0.324949 0.848473 0.423341
0.436556 0.855358 0.429649
0.550693 0.862343 0.436071
0.666790 0.869397 0.442575
0.784516 0.876501 0.449142
0.896841 0.883644 0.455761
0.973284 0.888844 0.460457
0.165994 0.942995 0.430947
0.236847 0.947369 0.434962
0.345336 0.953681 0.441065
0.457634 0.960098 0.447353
0.572439 0.966545 0.453755
0.689177 0.972987 0.460238
0.807518 0.979402 0.466784
0.916255 0.985774 0.473379
0.990571 0.990264 0.478051
0.007026 0.007284 0.372279
0.072586 0.011133 0.376415
0.173524 0.017034 0.382625
0.278391 0.023142 0.389025
0.385974 0.029386 0.395543
0.495736 0.035735 0.402149
0.607361 0.042171 0.408823
0.720638 0.048683 0.415555
0.802004 0.053332 0.420381
0.021286 0.094120 0.387829
0.087697 0.098130 0.391960
0.189860 0.104197 0.398167
0.295933 0.110468 0.404564
0.404691 0.116870 0.411079
0.515589 0.123374 0.417679
0.628310 0.129960 0.424348
0.742642 0.136616 0.431073
0.824597 0.141397 0.435889
0.040588 0.210382 0.408212
0.107802 0.214567 0.412337
0.211112 0.220815 0.418541
0.318315 0.227261 0.424934
0.428173 0.233833 0.431444
0.540136 0.240501 0.438039
0.653884 0.247246 0.444702
0.769203 0.254056 0.451419
0.851288 0.258976 0.456224
0.060898 0.331132 0.429166
0.128857 0.335465 0.433283
0.233228 0.341865 0.439481
0.341476 0.348458 0.445867
0.452351 0.355172 0.452369
0.565298 0.361976 0.458956
0.679995 0.368852 0.465608
0.796226 0.375787 0.472315
0.877834 0.380820 0.477106
0.081995 0.455006 0.450472
0.150641 0.459458 0.454577
0.255993 0.465980 0.460766
0.365207 0.472690 0.467141
0.477021 0.479516 0.473632
0.590876 0.486427 0.480207
0.706448 0.493403 0.486846
0.823367 0.500434 0.493538
0.903822 0.505551 0.498312
0.103761 0.581304 0.472023
0.173043 0.585846 0.476113
0.279300 0.592459 0.482288
0.389405 0.599255 0.488650
0.502085 0.606163 0.495127
0.616776 0.613149 0.501685
0.733153 0.620196 0.508307
0.849494 0.627292 0.514981
0.928932 0.632464 0.519735
0.126119 0.709556 0.493750
0.195988 0.714158 0.497823
0.303080 0.720832 0.503982
0.414006 0.727684 0.510326
0.527482 0.734643 0.516784
0.642942 0.741675 0.523323
0.760058 0.748762 0.529925
0.874832 0.755893 0.536577
0.952871 0.761090 0.541307
0.149009 0.839405 0.515606
0.219420 0.844037 0.519659
0.327280 0.850741 0.525797
0.438960 0.857620 0.532121
0.553168 0.864598 0.538557
0.669333 0.871646 0.545072
0.787124 0.878744 0.551650
0.899118 0.885879 0.558278
0.975363 0.891072 0.562980
0.168227 0.945163 0.533424
0.239127 0.949514 0.537452
0.347685 0.955800 0.543566
0.460049 0.962190 0.549864
0.574919 0.968609 0.556274
0.691719 0.975021 0.562763
0.810119 0.981404 0.569313
0.918388 0.987743 0.575911
0.992465 0.992201 0.580583
0.008992 0.009314 0.475877
0.074643 0.013169 0.480075
0.175711 0.019077 0.486344
0.280705 0.025192 0.492803
0.388413 0.031443 0.499378
0.498296 0.037798 0.506038
0.610037 0.044241 0.512765
0.723426 0.050759 0.519547
0.804865 0.055412 0.524423
0.023296 0.096210 0.491627
0.089791 0.100223 0.495813
0.192074 0.106296 0.502074
0.298266 0.112572 0.508523
0.407139 0.118980 0.515088
0.518149 0.125488 0.521738
0.630978 0.132078 0.528453
0.745413 0.138740 0.535223
0.827401 0.143523 0.540082
0.042644 0.212535 0.512190
0.109937 0.216723 0.516364
0.213358 0.222974 0.522616
0.320670 0.229423 0.529055
0.430634 0.235998 0.535609
0.542700 0.242669 0.542247
0.656548 0.249417 0.548949
0.771963 0.256229 0.555705
0.854029 0.261151 0.560547
0.062999 0.333339 0.533304
0.131029 0.337673 0.537464
0.235503 0.344074 0.543703
0.343853 0.350669 0.550129
0.454826 0.357384 0.556669
0.567867 0.364189 0.563291
0.682656 0.371065 0.569978
0.798976 0.378001 0.576717
0.880493 0.383034 0.581538
0.084137 0.457258 0.554748
0.152850 0.461709 0.558890
0.258296 0.468230 0.565114
0.367604 0.474939 0.571523
0.479508 0.481764 0.578046
0.593450 0.488674 0.584650
0.709106 0.495649 0.591317
0.826007 0.502678 0.598035
0.906376 0.507793 0.602833
0.105941 0.583589 0.576416
0.175285 0.588128 0.580538
0.281629 0.594739 0.586742
0.391820 0.601532 0.593131
0.504583 0.608437 0.599633
0.619355 0.615421 0.606215
0.735810 0.622465 0.612859
0.852043 0.629557 0.619553
0.931357 0.634725 0.624324
0.128335 0.711865 0.598241
0.198261 0.716461 0.602338
0.305433 0.723131 0.608520
0.416438 0.729979 0.614885
0.529991 0.736933 0.621362
0.645525 0.743960 0.627919
0.762712 0.751043 0.634536
0.877269 0.758169 0.641202
0.955145 0.763360 0.645944
0.151259 0.841726 0.620173
0.221721 0.846351 0.624244
0.329655 0.853050 0.630399
0.441408 0.859922 0.636737
0.555686 0.866894 0.643186
0.671918 0.873935 0.649713
0.789774 0.881026 0.656300
0.901420 0.888155 0.662935
0.977462 0.893341 0.667643
0.170505 0.947363 0.638045
0.241453 0.951692 0.642085
0.350079 0.957952 0.648210
0.462509 0.964313 0.654517
0.577443 0.970702 0.660934
0.694305 0.977084 0.667427
0.812763 0.983435 0.673980
0.920543 0.989739 0.680580
0.994377 0.994165 0.685251
0.010995 0.011381 0.581226
0.076736 0.015242 0.585485
0.177933 0.021156 0.591815
0.283055 0.027278 0.598331
0.390887 0.033535 0.604962
0.500889 0.039897 0.611677
0.612746 0.046346 0.618456
0.726246 0.052870 0.625289
0.807757 0.057529 0.630213
0.025343 0.098335 0.597175
0.091923 0.102353 0.601417
0.194325 0.108431 0.607731
0.300634 0.114712 0.614232
0.409621 0.121124 0.620847
0.520742 0.127637 0.627544
0.633678 0.134233 0.634306
0.748216 0.140898 0.641119
0.830234 0.145685 0.646021
0.044739 0.214723 0.617917
0.112109 0.218913 0.622140
0.215640 0.225168 0.628439
0.323061 0.231620 0.634924
0.433131 0.238199 0.641521
0.545299 0.244872 0.648201
0.659245 0.251622 0.654943
0.774755 0.258437 0.661737
0.856797 0.263361 0.666614
0.065138 0.335582 0.639189
0.133239 0.339916 0.643391
0.237815 0.346319 0.649671
0.346265 0.352914 0.656136
0.457335 0.359630 0.662714
0.570472 0.366436 0.669372
0.685351 0.373313 0.676092
0.801758 0.380249 0.682862
0.883175 0.385282 0.687713
0.086316 0.459543 0.660770
0.155095 0.463993 0.664949
0.260636 0.470514 0.671207
0.370036 0.477222 0.677649
0.482030 0.484047 0.684202
0.596059 0.490955 0.690836
0.711799 0.497929 0.697530
0.828671 0.504957 0.704273
0.908951 0.510070 0.709095
0.108159 0.585908 0.682554
0.177564 0.590444 0.686705
0.283995 0.597052 0.692938
0.394271 0.603843 0.699354
0.507117 0.610745 0.705880
0.621969 0.617725 0.712485
0.738500 0.624766 0.719149
0.854615 0.631856 0.725863
0.933802 0.637020 0.730651
0.130589 0.714206 0.704472
0.200571 0.718798 0.708594
0.307823 0.725463 0.714797
0.418906 0.732307 0.721183
0.532535 0.739256 0.727679
0.648143 0.746278 0.734251
0.765400 0.753356 0.740883
0.879725 0.760477 0.747562
0.957434 0.765663 0.752315
0.153547 0.844080 0.726478
0.224061 0.848699 0.730566
0.332068 0.855391 0.736737
0.443892 0.862256 0.743089
0.558240 0.869222 0.749550
0.674539 0.876257 0.756087
0.792459 0.883341 0.762683
0.903739 0.890463 0.769324
0.979574 0.895641 0.774037
0.172821 0.949588 0.744402
0.243817 0.953893 0.748453
0.352509 0.960126 0.754587
0.465006 0.966460 0.760902
0.580002 0.972819 0.767324
0.696925 0.979168 0.773822
0.815442 0.985486 0.780377
0.922712 0.991756 0.786976
0.996298 0.996150 0.791646
0.013031 0.013478 0.688056
0.078862 0.017345 0.692376
0.180187 0.023266 0.698765
0.285435 0.029394 0.705339
0.393390 0.035658 0.712026
0.503511 0.042027 0.718794
0.615483 0.048482 0.725626
0.729093 0.055012 0.732508
0.810676 0.059676 0.737480
0.027423 0.100490 0.704203
0.094086 0.104512 0.708499
0.196606 0.110596 0.714866
0.303032 0.116882 0.721418
0.412134 0.123299 0.728083
0.523364 0.129817 0.734828
0.636407 0.136417 0.741635
0.751047 0.143087 0.748492
0.833088 0.147877 0.753435
0.046866 0.216942 0.725122
0.114312 0.221134 0.729393
0.217953 0.227392 0.735739
0.325482 0.233847 0.742268
0.435657 0.240429 0.748909
0.547927 0.247105 0.755630
0.661971 0.253858 0.762411
0.777575 0.260675 0.769242
0.859585 0.265600 0.774155
0.067309 0.337853 0.746550
0.135481 0.342188 0.750794
0.240158 0.348592 0.757115
0.348707 0.355188 0.763618
0.459875 0.361906 0.770232
0.573105 0.368712 0.776925
0.688074 0.375590 0.783678
0.804568 0.382527 0.790479
0.885876 0.387559 0.795359
0.088529 0.461858 0.768266
0.157373 0.466306 0.772480
0.263007 0.472826 0.778772
0.372499 0.479534 0.785246
0.484582 0.486357 0.791830
0.598698 0.493264 0.798491
0.714521 0.500237 0.805212
0.831355 0.507264 0.811980
0.911542 0.512374 0.816824
0.110410 0.588255 0.790162
0.179875 0.592787 0.794343
0.286392 0.599393 0.800603
0.396753 0.606181 0.807045
0.509681 0.613080 0.813595
0.624612 0.620058 0.820221
0.741219 0.627096 0.826906
0.857203 0.634182 0.833638
0.936259 0.639342 0.838442
0.132875 0.716575 0.812173
0.202913 0.721162 0.816317
0.310244 0.727823 0.822542
0.421405 0.734662 0.828947
0.535110 0.741606 0.835460
0.650790 0.748624 0.842048
0.768117 0.755697 0.848693
0.882196 0.762812 0.855384
0.959734 0.767992 0.860146
0.155866 0.846461 0.834248
0.226432 0.851073 0.838353
0.334511 0.857759 0.844539
0.446407 0.864618 0.850904
0.560824 0.871577 0.857376
0.677189 0.878605 0.863922
0.795173 0.885682 0.870525
0.906069 0.892797 0.877171
0.981692 0.897968 0.881887
0.175169 0.951832 0.852221
0.246212 0.956114 0.856282
0.354971 0.962319 0.862425
0.467533 0.968623 0.868746
0.582592 0.974952 0.875173
0.699575 0.981269 0.881673
0.818149 0.987553 0.888229
0.924890 0.993788 0.894827
0.998224 0.998149 0.899494
0.014934 0.015435 0.787663
0.080854 0.019308 0.792038
0.182305 0.025236 0.798481
0.287678 0.031370 0.805108
0.395755 0.037641 0.811845
0.505993 0.044015 0.818662
0.618079 0.050476 0.825541
0.731798 0.057012 0.832469
0.813451 0.061680 0.837484
0.029369 0.102504 0.803990
0.096114 0.106530 0.808335
0.198751 0.112619 0.814751
0.305293 0.118909 0.821349
0.414506 0.125332 0.828058
0.525846 0.131854 0.834846
0.638993 0.138458 0.841694
0.753734 0.145132 0.848591
0.835796 0.149926 0.853571
0.048857 0.219017 0.825069
0.116379 0.223212 0.829384
0.220128 0.229472 0.835772
0.327764 0.235930 0.842342
0.438042 0.242515 0.849021
0.550412 0.249194 0.855779
0.664553 0.255949 0.862595
0.780250 0.262768 0.869460
0.862224 0.267695 0.874404
0.069342 0.339980 0.846638
0.137584 0.344316 0.850920
0.242361 0.350720 0.857277
0.351009 0.357318 0.863815
0.462272 0.364036 0.870461
0.575594 0.370843 0.877185
0.690653 0.377721 0.883967
0.807233 0.384658 0.890795
0.888426 0.389690 0.895701
0.090601 0.464027 0.868474
0.159510 0.468474 0.872720
0.265236 0.474993 0.879042
0.374819 0.481700 0.885545
0.486990 0.488522 0.892156
0.601191 0.495428 0.898842
0.717096 0.502399 0.905586
0.833891 0.509424 0.912375
0.913980 0.514532 0.917238
0.112520 0.590455 0.890472
0.182044 0.594985 0.894678
0.288646 0.601587 0.900963
0.399091 0.608373 0.907427
0.512100 0.615269 0.913997
0.627109 0.622243 0.920643
0.743792 0.629278 0.927345
0.859643 0.636361 0.934092
0.938563 0.641517 0.938910
0.135020 0.718797 0.912563
0.205112 0.723379 0.916727
0.312521 0.730035 0.922970
0.423759 0.736869 0.929391
0.537538 0.743809 0.935919
0.653290 0.750821 0.942520
0.770685 0.757889 0.949177
0.884517 0.764999 0.955877
0.961881 0.770174 0.960647
0.158043 0.848693 0.934698
0.228658 0.853298 0.938817
0.336810 0.859978 0.945015
0.448776 0.866830 0.951391
0.563261 0.873783 0.957872
0.679692 0.880804 0.964425
0.797738 0.887875 0.971033
0.908251 0.894983 0.977683
0.983659 0.900146 0.982400
0.177373 0.953927 0.952711
0.248462 0.958185 0.956781
0.357287 0.964363 0.962930
0.469912 0.970638 0.969255
0.585034 0.976936 0.975685
0.702077 0.983222 0.982187
0.820707 0.989473 0.988741
0.926921 0.995673 0.995337
1.000000 1.000000 1.000000
