library/cube/Hereditary_Mood_000.cube
# CINEGRADE LAB — Premium Cinematic LUT
# Title: Hereditary Mood
# Category: A24 Inspired
# Description: Artistic, unconventional, mood-driven looks inspired by A24 films
# Mood: Arthouse, unconventional, evocative
# Variant: 1
# Generated: 2026-05-21T16:12:44.746370
TITLE "Hereditary Mood"
LUT_3D_SIZE 33
0.000000 0.000000 0.000000
0.000000 0.000000 0.000000
0.017702 0.001040 0.001062
0.041079 0.002413 0.002463
0.065192 0.003827 0.003905
0.089793 0.005268 0.005374
0.114768 0.006730 0.006864
0.140052 0.008208 0.008369
0.165602 0.009701 0.009888
0.191388 0.011206 0.011418
0.217386 0.012721 0.012959
0.243578 0.014247 0.014509
0.269950 0.015782 0.016068
0.296490 0.017325 0.017634
0.323188 0.018876 0.019207
0.350037 0.020435 0.020787
0.377028 0.022000 0.022373
0.404155 0.023572 0.023965
0.431412 0.025150 0.025562
0.458796 0.026734 0.027164
0.486300 0.028324 0.028771
0.513921 0.029919 0.030383
0.541656 0.031520 0.032000
0.569501 0.033126 0.033621
0.597453 0.034736 0.035245
0.625509 0.036351 0.036874
0.653666 0.037971 0.038507
0.681922 0.039595 0.040143
0.710275 0.041224 0.041783
0.738722 0.042857 0.043426
0.767262 0.044494 0.045073
0.790703 0.045834 0.046418
0.791346 0.045853 0.046424
0.000900 0.005564 0.000953
0.000901 0.005567 0.000954
0.018663 0.006611 0.002016
0.042117 0.007988 0.003418
0.066308 0.009407 0.004861
0.090988 0.010853 0.006331
0.116042 0.012319 0.007821
0.141405 0.013802 0.009328
0.167034 0.015300 0.010847
0.192898 0.016809 0.012379
0.218974 0.018329 0.013921
0.245243 0.019860 0.015472
0.271692 0.021399 0.017031
0.298309 0.022947 0.018598
0.325083 0.024503 0.020172
0.352007 0.026065 0.021752
0.379073 0.027635 0.023339
0.406274 0.029212 0.024932
0.433605 0.030794 0.026530
0.461061 0.032383 0.028133
0.488638 0.033977 0.029741
0.516331 0.035576 0.031354
0.544137 0.037181 0.032971
0.572052 0.038791 0.034592
0.600073 0.040405 0.036218
0.628198 0.042025 0.037848
0.656423 0.043649 0.039481
0.684747 0.045277 0.041118
0.713167 0.046910 0.042758
0.741680 0.048547 0.044402
0.770286 0.050188 0.046050
0.793778 0.051531 0.047395
0.794410 0.051553 0.047401
0.005100 0.031467 0.005386
0.005106 0.031481 0.005387
0.022929 0.032538 0.006451
0.046461 0.033928 0.007854
0.070733 0.035360 0.009299
0.095493 0.036819 0.010770
0.120627 0.038299 0.012262
0.146071 0.039795 0.013770
0.171780 0.041305 0.015291
0.197724 0.042827 0.016823
0.223879 0.044360 0.018367
0.250228 0.045903 0.019919
0.276756 0.047455 0.021479
0.303450 0.049015 0.023048
0.330302 0.050583 0.024623
0.357303 0.052159 0.026205
0.384445 0.053741 0.027793
0.411721 0.055329 0.029387
0.439128 0.056924 0.030986
0.466658 0.058524 0.032590
0.494308 0.060130 0.034200
0.522074 0.061742 0.035814
0.549953 0.063358 0.037432
0.577939 0.064979 0.039055
0.606032 0.066606 0.040681
0.634227 0.068237 0.042312
0.662522 0.069872 0.043946
0.690915 0.071512 0.045585
0.719403 0.073156 0.047226
0.747984 0.074804 0.048871
0.776656 0.076456 0.050520
0.800201 0.077810 0.051866
0.800826 0.077840 0.051872
0.009529 0.058678 0.010035
0.009539 0.058703 0.010036
0.027422 0.059773 0.011101
0.051032 0.061176 0.012506
0.075382 0.062621 0.013952
0.100221 0.064093 0.015425
0.125435 0.065585 0.016917
0.150958 0.067094 0.018426
0.176746 0.068617 0.019949
0.202768 0.070152 0.021483
0.229002 0.071698 0.023027
0.255428 0.073254 0.024581
0.282033 0.074818 0.026143
0.308804 0.076391 0.027713
0.335732 0.077971 0.029289
0.362808 0.079559 0.030872
0.390025 0.081153 0.032462
0.417376 0.082754 0.034057
0.444856 0.084360 0.035657
0.472460 0.085973 0.037263
0.500182 0.087591 0.038873
0.528020 0.089214 0.040488
0.555969 0.090842 0.042108
0.584027 0.092475 0.043732
0.612189 0.094113 0.045359
0.640453 0.095755 0.046991
0.668817 0.097402 0.048627
0.697277 0.099053 0.050266
0.725833 0.100708 0.051909
0.754480 0.102367 0.053555
0.783218 0.104030 0.055204
0.806815 0.105395 0.056552
0.807432 0.105434 0.056558
0.014090 0.086600 0.014796
0.014105 0.086637 0.014798
0.032048 0.087719 0.015865
0.055733 0.089135 0.017270
0.080160 0.090593 0.018718
0.105077 0.092078 0.020192
0.130369 0.093583 0.021686
0.155969 0.095105 0.023197
0.181835 0.096640 0.024720
0.207934 0.098188 0.026256
0.234244 0.099746 0.027801
0.260747 0.101314 0.029356
0.287427 0.102891 0.030920
0.314274 0.104476 0.032490
0.341277 0.106068 0.034068
0.368427 0.107668 0.035653
0.395717 0.109274 0.037243
0.423141 0.110887 0.038839
0.450694 0.112505 0.040441
0.478369 0.114129 0.042048
0.506163 0.115759 0.043659
0.534071 0.117393 0.045275
0.562090 0.119033 0.046896
0.590217 0.120677 0.048521
0.618447 0.122326 0.050150
0.646779 0.123980 0.051783
0.675210 0.125638 0.053419
0.703737 0.127300 0.055060
0.732358 0.128966 0.056703
0.761071 0.130636 0.058351
0.789874 0.132309 0.060001
0.813521 0.133685 0.061349
0.814132 0.133733 0.061356
0.018752 0.115039 0.019638
0.018772 0.115086 0.019640
0.036773 0.116181 0.020708
0.060533 0.117610 0.022115
0.085036 0.119080 0.023563
0.110029 0.120578 0.025039
0.135397 0.122095 0.026535
0.161073 0.123629 0.028046
0.187015 0.125177 0.029571
0.213190 0.126737 0.031108
0.239575 0.128307 0.032655
0.266153 0.129887 0.034211
0.292908 0.131476 0.035775
0.319828 0.133073 0.037347
0.346904 0.134677 0.038926
0.374127 0.136288 0.040512
0.401490 0.137906 0.042104
0.428985 0.139530 0.043701
0.456609 0.141160 0.045304
0.484354 0.142795 0.046912
0.512218 0.144436 0.048524
0.540195 0.146082 0.050142
0.568283 0.147733 0.051763
0.596477 0.149388 0.053389
0.624775 0.151048 0.055019
0.653174 0.152712 0.056653
0.681671 0.154381 0.058291
0.710263 0.156053 0.059932
0.738949 0.157730 0.061577
0.767726 0.159410 0.063225
0.796592 0.161094 0.064876
0.820245 0.162480 0.066225
0.820842 0.162536 0.066233
0.023499 0.143892 0.024541
0.023524 0.143950 0.024545
0.041582 0.145056 0.025613
0.065415 0.146497 0.027022
0.089992 0.147980 0.028471
0.115060 0.149489 0.029948
0.140503 0.151019 0.031445
0.166254 0.152565 0.032958
0.192270 0.154124 0.034484
0.218519 0.155696 0.036022
0.244979 0.157278 0.037570
0.271629 0.158870 0.039127
0.298457 0.160470 0.040693
0.325450 0.162078 0.042266
0.352598 0.163694 0.043846
0.379893 0.165317 0.045433
0.407326 0.166946 0.047026
0.434892 0.168581 0.048624
0.462585 0.170222 0.050228
0.490399 0.171868 0.051837
0.518332 0.173520 0.053451
0.546377 0.175176 0.055069
0.574532 0.176838 0.056692
0.602793 0.178504 0.058319
0.631157 0.180174 0.059950
0.659621 0.181849 0.061585
0.688182 0.183528 0.063223
0.716839 0.185210 0.064865
0.745588 0.186897 0.066511
0.774428 0.188588 0.068160
0.803356 0.190282 0.069812
0.826987 0.191677 0.071162
0.827573 0.191741 0.071170
0.028321 0.173095 0.029497
0.028350 0.173163 0.029501
0.046464 0.174281 0.030570
0.070369 0.175733 0.031980
0.095019 0.177228 0.033431
0.120160 0.178749 0.034909
0.145676 0.180290 0.036407
0.171501 0.181847 0.037921
0.197590 0.183418 0.039448
0.223912 0.185001 0.040987
0.250444 0.186595 0.042536
0.277167 0.188198 0.044095
0.304066 0.189809 0.045661
0.331130 0.191428 0.047236
0.358349 0.193055 0.048817
0.385713 0.194688 0.050405
0.413216 0.196328 0.051999
0.440851 0.197974 0.053598
0.468612 0.199626 0.055203
0.496495 0.201283 0.056813
0.524494 0.202945 0.058428
0.552606 0.204612 0.060047
0.580826 0.206283 0.061671
0.609153 0.207959 0.063299
0.637581 0.209640 0.064931
0.666109 0.211325 0.066567
0.694734 0.213013 0.068206
0.723454 0.214706 0.069849
0.752265 0.216403 0.071496
0.781166 0.218103 0.073146
0.810155 0.219806 0.074799
0.833741 0.221210 0.076149
0.834316 0.221282 0.076157
0.033210 0.202603 0.034496
0.033244 0.202681 0.034500
0.051413 0.203810 0.035571
0.075388 0.205274 0.036982
0.100110 0.206779 0.038434
0.125322 0.208312 0.039913
0.150911 0.209864 0.041412
0.176808 0.211433 0.042927
0.202968 0.213015 0.044456
0.229362 0.214609 0.045996
0.255965 0.216213 0.047546
0.282758 0.217827 0.049106
0.309728 0.219449 0.050674
0.336861 0.221079 0.052249
0.364149 0.222716 0.053831
0.391582 0.224360 0.055420
0.419153 0.226010 0.057015
0.446855 0.227666 0.058615
0.474684 0.229327 0.060221
0.502633 0.230994 0.061832
0.530698 0.232667 0.063448
0.558875 0.234343 0.065068
0.587160 0.236025 0.066693
0.615550 0.237711 0.068322
0.644042 0.239401 0.069955
0.672633 0.241095 0.071591
0.701321 0.242794 0.073232
0.730101 0.244496 0.074876
0.758974 0.246201 0.076523
0.787936 0.247911 0.078174
0.816966 0.249623 0.079828
0.840498 0.251036 0.081179
0.841061 0.251116 0.081187
0.038161 0.232384 0.039534
0.038200 0.232471 0.039539
0.056423 0.233611 0.040611
0.080467 0.235086 0.042022
0.105258 0.236602 0.043476
0.130542 0.238145 0.044956
0.156201 0.239708 0.046456
0.182168 0.241288 0.047972
0.208399 0.242880 0.049502
0.234863 0.244485 0.051043
0.261535 0.246099 0.052595
0.288398 0.247723 0.054155
0.315436 0.249356 0.055724
0.342638 0.250996 0.057300
0.369994 0.252643 0.058884
0.397494 0.254297 0.060473
0.425132 0.255957 0.062069
0.452901 0.257623 0.063671
0.480795 0.259294 0.065277
0.508809 0.260971 0.066889
0.536938 0.262652 0.068506
0.565179 0.264339 0.070127
0.593528 0.266030 0.071753
0.621981 0.267725 0.073382
0.650535 0.269424 0.075016
0.679188 0.271128 0.076654
0.707936 0.272835 0.078295
0.736777 0.274546 0.079940
0.765710 0.276261 0.081588
0.794730 0.277979 0.083239
0.823723 0.279700 0.084894
0.847250 0.281121 0.086246
0.847800 0.281208 0.086254
0.043171 0.262413 0.044607
0.043213 0.262509 0.044612
0.061489 0.263658 0.045685
0.085601 0.265144 0.047097
0.110461 0.266670 0.048552
0.135814 0.268224 0.050033
0.161542 0.269797 0.051534
0.187579 0.271387 0.053052
0.213879 0.272989 0.054582
0.240411 0.274604 0.056124
0.267152 0.276229 0.057677
0.294082 0.277862 0.059238
0.321188 0.279504 0.060808
0.348457 0.281154 0.062385
0.375879 0.282811 0.063970
0.403446 0.284474 0.065560
0.431149 0.286144 0.067157
0.458983 0.287819 0.068760
0.486941 0.289500 0.070367
0.515019 0.291186 0.071980
0.543212 0.292877 0.073597
0.571516 0.294572 0.075220
0.599927 0.296272 0.076846
0.628441 0.297976 0.078476
0.657056 0.299684 0.080111
0.685769 0.301396 0.081749
0.714577 0.303112 0.083391
0.743478 0.304831 0.085037
0.772469 0.306554 0.086685
0.801548 0.308281 0.088338
0.830474 0.310010 0.089993
0.853990 0.311439 0.091346
0.854527 0.311532 0.091354
0.048234 0.292668 0.049710
0.048281 0.292773 0.049716
0.066609 0.293932 0.050790
0.090787 0.295427 0.052204
0.115715 0.296964 0.053659
0.141135 0.298527 0.055141
0.166932 0.300110 0.056643
0.193036 0.301709 0.058162
0.219404 0.303322 0.059693
0.246003 0.304946 0.061237
0.272811 0.306580 0.062790
0.299808 0.308223 0.064352
0.326980 0.309875 0.065923
0.354315 0.311534 0.067501
0.381802 0.313200 0.069086
0.409434 0.314872 0.070678
0.437201 0.316551 0.072276
0.465099 0.318235 0.073879
0.493120 0.319924 0.075487
0.521261 0.321619 0.077101
0.549515 0.323318 0.078719
0.577881 0.325022 0.080342
0.606353 0.326730 0.081969
0.634928 0.328443 0.083600
0.663603 0.330159 0.085236
0.692375 0.331880 0.086875
0.721241 0.333604 0.088517
0.750200 0.335331 0.090163
0.779248 0.337062 0.091813
0.808384 0.338796 0.093466
0.837211 0.340534 0.095122
0.860711 0.341970 0.096475
0.861234 0.342069 0.096483
0.053350 0.323133 0.054843
0.053401 0.323246 0.054849
0.071780 0.324414 0.055924
0.096023 0.325919 0.057338
0.121017 0.327465 0.058794
0.146504 0.329038 0.060278
0.172367 0.330630 0.061781
0.198537 0.332239 0.063300
0.224971 0.333860 0.064833
0.251637 0.335493 0.066377
0.278510 0.337137 0.067931
0.305573 0.338789 0.069494
0.332810 0.340449 0.071066
0.360209 0.342117 0.072645
0.387761 0.343791 0.074231
0.415455 0.345473 0.075823
0.443286 0.347160 0.077422
0.471246 0.348852 0.079026
0.499329 0.350550 0.080635
0.527531 0.352253 0.082249
0.555847 0.353960 0.083868
0.584272 0.355672 0.085492
0.612804 0.357389 0.087120
0.641438 0.359109 0.088752
0.670172 0.360833 0.090388
0.699002 0.362561 0.092027
0.727926 0.364293 0.093671
0.756941 0.366028 0.095317
0.786046 0.367766 0.096967
0.815237 0.369508 0.098621
0.843931 0.371253 0.100277
0.867408 0.372696 0.101631
0.867917 0.372801 0.101640
0.058515 0.353794 0.060001
0.058570 0.353914 0.060008
0.076999 0.355091 0.061083
0.101306 0.356605 0.062499
0.126365 0.358160 0.063956
0.151917 0.359741 0.065440
0.177845 0.361343 0.066944
0.204081 0.362960 0.068464
0.230580 0.364590 0.069998
0.257310 0.366232 0.071542
0.284248 0.367884 0.073098
0.311375 0.369544 0.074662
0.338675 0.371213 0.076234
0.366138 0.372889 0.077814
0.393752 0.374572 0.079401
0.421509 0.376261 0.080994
0.449401 0.377956 0.082593
0.477422 0.379657 0.084198
0.505566 0.381362 0.085808
0.533828 0.383073 0.087423
0.562204 0.384788 0.089043
0.590688 0.386508 0.090667
0.619278 0.388232 0.092295
0.647970 0.389960 0.093928
0.676761 0.391691 0.095564
0.705648 0.393427 0.097205
0.734629 0.395165 0.098849
0.763700 0.396908 0.100496
0.792860 0.398653 0.102147
0.821993 0.400401 0.103801
0.850627 0.402153 0.105458
0.874076 0.403603 0.106812
0.874570 0.403713 0.106820
0.063727 0.384637 0.065184
0.063787 0.384764 0.065191
0.082264 0.385949 0.066267
0.106634 0.387472 0.067683
0.131756 0.389035 0.069141
0.157372 0.390626 0.070626
0.183364 0.392235 0.072131
0.209664 0.393861 0.073652
0.236227 0.395499 0.075186
0.263021 0.397149 0.076732
0.290022 0.398809 0.078288
0.317211 0.400478 0.079853
0.344574 0.402154 0.081426
0.372099 0.403838 0.083007
0.399774 0.405529 0.084594
0.427592 0.407226 0.086188
0.455545 0.408928 0.087788
0.483626 0.410636 0.089393
0.511829 0.412349 0.091004
0.540150 0.414067 0.092620
0.568584 0.415790 0.094240
0.597127 0.417516 0.095865
0.625774 0.419247 0.097494
0.654523 0.420982 0.099127
0.683371 0.422721 0.100764
0.712313 0.424463 0.102405
0.741349 0.426208 0.104050
0.770475 0.427957 0.105698
0.799688 0.429709 0.107349
0.828697 0.431464 0.109003
0.857296 0.433222 0.110661
0.880709 0.434678 0.112015
0.881188 0.434793 0.112024
0.068984 0.415652 0.070389
0.069049 0.415786 0.070397
0.087574 0.416979 0.071473
0.112005 0.418509 0.072890
0.137189 0.420081 0.074349
0.162868 0.421679 0.075835
0.188923 0.423297 0.077341
0.215286 0.424930 0.078862
0.241911 0.426576 0.080397
0.268767 0.428234 0.081944
0.295830 0.429901 0.083501
0.323081 0.431577 0.085066
0.350505 0.433261 0.086640
0.378090 0.434953 0.088221
0.405826 0.436650 0.089810
0.433704 0.438354 0.091404
0.461716 0.440064 0.093005
0.489856 0.441779 0.094611
0.518118 0.443499 0.096222
0.546496 0.445224 0.097838
0.574988 0.446953 0.099459
0.603587 0.448687 0.101085
0.632291 0.450424 0.102714
0.661095 0.452165 0.104348
0.689998 0.453910 0.105986
0.718995 0.455659 0.107627
0.748084 0.457411 0.109272
0.777264 0.459166 0.110920
0.806530 0.460924 0.112572
0.835374 0.462685 0.114227
0.863931 0.464448 0.115885
0.887303 0.465910 0.117240
0.887766 0.466029 0.117248
0.074286 0.446828 0.075616
0.074354 0.446969 0.075624
0.092927 0.448169 0.076701
0.117418 0.449707 0.078119
0.142663 0.451287 0.079578
0.168403 0.452892 0.081065
0.194520 0.454517 0.082571
0.220944 0.456158 0.084094
0.247631 0.457811 0.085629
0.274548 0.459476 0.087176
0.301671 0.461151 0.088734
0.328983 0.462834 0.090300
0.356467 0.464525 0.091875
0.384111 0.466223 0.093456
0.411906 0.467928 0.095045
0.439842 0.469638 0.096640
0.467913 0.471355 0.098242
0.496110 0.473076 0.099848
0.524429 0.474803 0.101460
0.552865 0.476534 0.103077
0.581412 0.478269 0.104698
0.610067 0.480009 0.106324
0.638826 0.481753 0.107954
0.667685 0.483500 0.109589
0.696641 0.485251 0.111227
0.725692 0.487005 0.112869
0.754834 0.488763 0.114514
0.784066 0.490523 0.116163
0.813385 0.492287 0.117815
0.842022 0.494053 0.119470
0.870528 0.495823 0.121128
0.893853 0.497289 0.122484
0.894299 0.497412 0.122492
0.079630 0.478158 0.080862
0.079702 0.478305 0.080870
0.098321 0.479512 0.081948
0.122871 0.481057 0.083366
0.148176 0.482643 0.084827
0.173977 0.484256 0.086314
0.200153 0.485888 0.087821
0.226638 0.487535 0.089344
0.253385 0.489196 0.090880
0.280361 0.490867 0.092428
0.307544 0.492548 0.093986
0.334915 0.494238 0.095553
0.362458 0.495936 0.097128
0.390161 0.497640 0.098711
0.418013 0.499351 0.100300
0.446007 0.501068 0.101896
0.474134 0.502790 0.103497
0.502388 0.504518 0.105105
0.530763 0.506251 0.106717
0.559254 0.507988 0.108334
0.587856 0.509729 0.109956
0.616566 0.511474 0.111583
0.645379 0.513223 0.113213
0.674291 0.514976 0.114848
0.703300 0.516733 0.116486
0.732404 0.518492 0.118129
0.761598 0.520255 0.119774
0.790881 0.522021 0.121424
0.820206 0.523790 0.123076
0.848634 0.525561 0.124732
0.877083 0.527336 0.126390
0.900354 0.528807 0.127745
0.900783 0.528933 0.127754
0.085014 0.509633 0.086127
0.085091 0.509785 0.086135
0.103755 0.510999 0.087214
0.128363 0.512550 0.088633
0.153727 0.514143 0.090094
0.179586 0.515762 0.091582
0.205822 0.517401 0.093089
0.232366 0.519055 0.094613
0.259171 0.520721 0.096150
0.286207 0.522399 0.097698
0.313448 0.524086 0.099257
0.340876 0.525782 0.100824
0.368477 0.527486 0.102400
0.396237 0.529196 0.103983
0.424146 0.530913 0.105573
0.452196 0.532635 0.107169
0.480379 0.534364 0.108771
0.508689 0.536097 0.110379
0.537119 0.537835 0.111992
0.565664 0.539577 0.113609
0.594320 0.541324 0.115232
0.623083 0.543075 0.116859
0.651948 0.544829 0.118490
0.680913 0.546587 0.120125
0.709974 0.548348 0.121763
0.739129 0.550113 0.123406
0.768374 0.551880 0.125052
0.797707 0.553651 0.126701
0.826841 0.555424 0.128354
0.855208 0.557200 0.130010
0.883590 0.558979 0.131669
0.906802 0.560454 0.133024
0.907212 0.560584 0.133033
0.090439 0.541245 0.091409
0.090519 0.541402 0.091418
0.109228 0.542622 0.092497
0.133892 0.544180 0.093917
0.159314 0.545779 0.095378
0.185231 0.547404 0.096866
0.211525 0.549048 0.098375
0.238126 0.550708 0.099899
0.264990 0.552381 0.101436
0.292083 0.554064 0.102985
0.319381 0.555757 0.104544
0.346866 0.557458 0.106112
0.374523 0.559167 0.107688
0.402339 0.560883 0.109272
0.430304 0.562605 0.110862
0.458409 0.564333 0.112459
0.486647 0.566067 0.114062
0.515011 0.567805 0.115670
0.543494 0.569548 0.117283
0.572093 0.571295 0.118901
0.600802 0.573047 0.120524
0.629617 0.574802 0.122151
0.658534 0.576561 0.123782
0.687550 0.578324 0.125417
0.716662 0.580090 0.127057
0.745867 0.581859 0.128699
0.775162 0.583631 0.130346
0.804544 0.585406 0.131995
0.833440 0.587183 0.133648
0.861738 0.588963 0.135305
0.890047 0.590746 0.136964
0.913192 0.592225 0.138319
0.913583 0.592358 0.138327
0.095902 0.572988 0.096709
0.095986 0.573150 0.096717
0.114738 0.574375 0.097796
0.139458 0.575939 0.099217
0.164936 0.577543 0.100679
0.190910 0.579174 0.102168
0.217261 0.580824 0.103677
0.243919 0.582489 0.105201
0.270839 0.584167 0.106739
0.297988 0.585856 0.108289
0.325343 0.587554 0.109848
0.352884 0.589260 0.111417
0.380596 0.590974 0.112993
0.408467 0.592695 0.114577
0.436486 0.594422 0.116168
0.464645 0.596155 0.117765
0.492937 0.597893 0.119368
0.521353 0.599636 0.120976
0.549890 0.601383 0.122590
0.578540 0.603135 0.124208
0.607301 0.604891 0.125831
0.636167 0.606651 0.127459
0.665135 0.608414 0.129090
0.694201 0.610181 0.130726
0.723363 0.611951 0.132365
0.752617 0.613724 0.134008
0.781960 0.615499 0.135655
0.811391 0.617278 0.137305
0.840000 0.619059 0.138958
0.868221 0.620843 0.140614
0.896448 0.622629 0.142273
0.919519 0.624112 0.143629
0.919891 0.624247 0.143637
0.101403 0.604856 0.102023
0.101491 0.605021 0.102032
0.120285 0.606251 0.103112
0.145060 0.607820 0.104532
0.170593 0.609430 0.105995
0.196623 0.611066 0.107484
0.223029 0.612721 0.108994
0.249743 0.614391 0.110519
0.276718 0.616074 0.112057
0.303923 0.617767 0.113607
0.331332 0.619470 0.115167
0.358927 0.621181 0.116736
0.386694 0.622900 0.118313
0.414618 0.624625 0.119897
0.442691 0.626356 0.121488
0.470903 0.628093 0.123085
0.499247 0.629836 0.124689
0.527716 0.631583 0.126297
0.556304 0.633334 0.127911
0.585005 0.635090 0.129530
0.613817 0.636850 0.131153
0.642733 0.638613 0.132781
0.671751 0.640380 0.134413
0.700866 0.642151 0.136049
0.730076 0.643924 0.137688
0.759378 0.645701 0.139331
0.788769 0.647480 0.140978
0.818247 0.649262 0.142628
0.846515 0.651046 0.144281
0.874651 0.652833 0.145938
0.902788 0.654623 0.147597
0.925779 0.656108 0.148953
0.926131 0.656244 0.148960
0.106940 0.636841 0.107353
0.107032 0.637010 0.107362
0.125868 0.638245 0.108442
0.150696 0.639819 0.109863
0.176284 0.641433 0.111326
0.202368 0.643073 0.112816
0.228829 0.644733 0.114325
0.255597 0.646408 0.115851
0.282626 0.648095 0.117390
0.309885 0.649793 0.118940
0.337348 0.651500 0.120500
0.364997 0.653215 0.122069
0.392816 0.654938 0.123647
0.420794 0.656667 0.125231
0.448919 0.658402 0.126823
0.477183 0.660143 0.128420
0.505578 0.661889 0.130024
0.534097 0.663640 0.131633
0.562736 0.665395 0.133247
0.591488 0.667154 0.134866
0.620348 0.668918 0.136489
0.649314 0.670684 0.138117
0.678380 0.672455 0.139749
0.707543 0.674228 0.141385
0.736801 0.676005 0.143025
0.766150 0.677784 0.144668
0.795588 0.679566 0.146315
0.824941 0.681351 0.147965
0.852983 0.683138 0.149618
0.881025 0.684928 0.151274
0.909065 0.686720 0.152934
0.931969 0.688207 0.154289
0.932299 0.688345 0.154297
0.112513 0.668939 0.112697
0.112609 0.669112 0.112705
0.131486 0.670350 0.113786
0.156366 0.671928 0.115207
0.182006 0.673547 0.116671
0.208144 0.675191 0.118161
0.234659 0.676855 0.119671
0.261480 0.678534 0.121197
0.288563 0.680225 0.122736
0.315874 0.681926 0.124286
0.343390 0.683637 0.125847
0.371091 0.685356 0.127416
0.398962 0.687082 0.128994
0.426991 0.688815 0.130579
0.455168 0.690554 0.132170
0.483482 0.692298 0.133768
0.511928 0.694048 0.135372
0.540497 0.695802 0.136981
0.569185 0.697560 0.138595
0.597986 0.699322 0.140214
0.626895 0.701088 0.141838
0.655909 0.702858 0.143466
0.685022 0.704631 0.145098
0.714233 0.706407 0.146734
0.743537 0.708186 0.148374
0.772933 0.709968 0.150017
0.802416 0.711753 0.151664
0.831453 0.713540 0.153314
0.859398 0.715330 0.154968
0.887339 0.717122 0.156624
0.915272 0.718916 0.158283
0.938082 0.720405 0.159639
0.938391 0.720544 0.159646
0.118121 0.701145 0.118054
0.118220 0.701320 0.118063
0.137137 0.702562 0.119143
0.162068 0.704144 0.120565
0.187761 0.705766 0.122029
0.213951 0.707414 0.123519
0.240518 0.709081 0.125030
0.267392 0.710763 0.126556
0.294527 0.712458 0.128095
0.321890 0.714163 0.129646
0.349457 0.715877 0.131207
0.377210 0.717599 0.132776
0.405132 0.719329 0.134354
0.433211 0.721065 0.135939
0.461438 0.722806 0.137531
0.489802 0.724553 0.139129
0.518297 0.726306 0.140733
0.546915 0.728062 0.142342
0.575651 0.729823 0.143956
0.604500 0.731588 0.145575
0.633457 0.733357 0.147199
0.662517 0.735129 0.148827
0.691678 0.736904 0.150459
0.720934 0.738683 0.152095
0.750284 0.740464 0.153735
0.779725 0.742248 0.155379
0.809252 0.744035 0.157025
0.837916 0.745824 0.158675
0.865757 0.747615 0.160329
0.893588 0.749409 0.161985
0.921407 0.751204 0.163644
0.944116 0.752695 0.165000
0.944403 0.752834 0.165006
0.123762 0.733452 0.123424
0.123865 0.733629 0.123432
0.142821 0.734875 0.124513
0.167803 0.736460 0.125935
0.193547 0.738085 0.127399
0.219788 0.739737 0.128890
0.246406 0.741407 0.130401
0.273331 0.743092 0.131927
0.300517 0.744790 0.133467
0.327931 0.746498 0.135018
0.355549 0.748214 0.136578
0.383352 0.749939 0.138148
0.411324 0.751671 0.139726
0.439453 0.753410 0.141311
0.467728 0.755154 0.142903
0.496141 0.756904 0.144501
0.524684 0.758658 0.146105
0.553350 0.760417 0.147715
0.582134 0.762180 0.149329
0.611030 0.763947 0.150948
0.640033 0.765718 0.152572
0.669139 0.767492 0.154200
0.698345 0.769269 0.155832
0.727647 0.771049 0.157468
0.757041 0.772832 0.159108
0.786526 0.774618 0.160751
0.816097 0.776406 0.162398
0.844328 0.778196 0.164048
0.872055 0.779989 0.165701
0.899769 0.781784 0.167357
0.927465 0.783581 0.169016
0.950066 0.785072 0.170372
0.950329 0.785212 0.170378
0.129437 0.765856 0.128806
0.129543 0.766036 0.128814
0.148538 0.767284 0.129895
0.173568 0.768872 0.131318
0.199362 0.770500 0.132782
0.225654 0.772154 0.134273
0.252322 0.773827 0.135783
0.279297 0.775515 0.137310
0.306533 0.777215 0.138850
0.333997 0.778925 0.140401
0.361665 0.780644 0.141962
0.389516 0.782371 0.143532
0.417537 0.784106 0.145110
0.445715 0.785846 0.146695
0.474038 0.787592 0.148287
0.502499 0.789344 0.149885
0.531089 0.791100 0.151489
0.559802 0.792861 0.153098
0.588632 0.794626 0.154713
