library/cube/Hereditary_Mood_000.cube
# CINEGRADE LAB — Premium Cinematic LUT
# Title: Hereditary Mood
# Category: A24 Inspired
# Description: Artistic, unconventional, mood-driven looks inspired by A24 films
# Mood: Arthouse, unconventional, evocative
# Variant: 1
# Generated: 2026-05-21T16:12:44.746370
TITLE "Hereditary Mood"
LUT_3D_SIZE 5
0.000000 0.000000 0.000000
0.165602 0.009701 0.009888
0.377028 0.022000 0.022373
0.597453 0.034736 0.035245
0.791346 0.045853 0.046424
0.033210 0.202603 0.034496
0.202968 0.213015 0.044456
0.419153 0.226010 0.057015
0.644042 0.239401 0.069955
0.841061 0.251116 0.081187
0.074286 0.446828 0.075616
0.247631 0.457811 0.085629
0.467913 0.471355 0.098242
0.696641 0.485251 0.111227
0.894299 0.497412 0.122492
0.118121 0.701145 0.118054
0.294527 0.712458 0.128095
0.518297 0.726306 0.140733
0.750284 0.740464 0.153735
0.944403 0.752834 0.165006
0.159989 0.937090 0.157191
0.338978 0.947911 0.167232
0.565681 0.960934 0.179865
0.800392 0.973967 0.192854
0.985373 0.985012 0.204103
0.003243 0.003367 0.172224
0.169295 0.013092 0.182329
0.381234 0.025417 0.195019
0.602142 0.038177 0.208084
0.796412 0.049315 0.219443
0.036624 0.206217 0.207400
0.206766 0.216639 0.217535
0.423391 0.229645 0.230258
0.648693 0.243046 0.243349
0.845919 0.254768 0.254719
0.077861 0.450642 0.249062
0.251533 0.461620 0.259209
0.472190 0.475159 0.271943
0.701269 0.489050 0.285038
0.898815 0.501205 0.296400
0.121836 0.705075 0.291903
0.298521 0.716370 0.302036
0.522609 0.730199 0.314754
0.754892 0.744337 0.327824
0.948406 0.756686 0.339151
0.163822 0.940873 0.331301
0.343046 0.951606 0.341393
0.570016 0.964525 0.354064
0.804973 0.977443 0.367081
0.988707 0.988368 0.378343
0.007026 0.007284 0.372279
0.173524 0.017034 0.382625
0.385974 0.029386 0.395543
0.607361 0.042171 0.408823
0.802004 0.053332 0.420381
0.040588 0.210382 0.408212
0.211112 0.220815 0.418541
0.428173 0.233833 0.431444
0.653884 0.247246 0.444702
0.851288 0.258976 0.456224
0.081995 0.455006 0.450472
0.255993 0.465980 0.460766
0.477021 0.479516 0.473632
0.706448 0.493403 0.486846
0.903822 0.505551 0.498312
0.126119 0.709556 0.493750
0.303080 0.720832 0.503982
0.527482 0.734643 0.516784
0.760058 0.748762 0.529925
0.952871 0.761090 0.541307
0.168227 0.945163 0.533424
0.347685 0.955800 0.543566
0.574919 0.968609 0.556274
0.810119 0.981404 0.569313
0.992465 0.992201 0.580583
0.010995 0.011381 0.581226
0.177933 0.021156 0.591815
0.390887 0.033535 0.604962
0.612746 0.046346 0.618456
0.807757 0.057529 0.630213
0.044739 0.214723 0.617917
0.215640 0.225168 0.628439
0.433131 0.238199 0.641521
0.659245 0.251622 0.654943
0.856797 0.263361 0.666614
0.086316 0.459543 0.660770
0.260636 0.470514 0.671207
0.482030 0.484047 0.684202
0.711799 0.497929 0.697530
0.908951 0.510070 0.709095
0.130589 0.714206 0.704472
0.307823 0.725463 0.714797
0.532535 0.739256 0.727679
0.765400 0.753356 0.740883
0.957434 0.765663 0.752315
0.172821 0.949588 0.744402
0.352509 0.960126 0.754587
0.580002 0.972819 0.767324
0.815442 0.985486 0.780377
0.996298 0.996150 0.791646
0.014934 0.015435 0.787663
0.182305 0.025236 0.798481
0.395755 0.037641 0.811845
0.618079 0.050476 0.825541
0.813451 0.061680 0.837484
0.048857 0.219017 0.825069
0.220128 0.229472 0.835772
0.438042 0.242515 0.849021
0.664553 0.255949 0.862595
0.862224 0.267695 0.874404
0.090601 0.464027 0.868474
0.265236 0.474993 0.879042
0.486990 0.488522 0.892156
0.717096 0.502399 0.905586
0.913980 0.514532 0.917238
0.135020 0.718797 0.912563
0.312521 0.730035 0.922970
0.537538 0.743809 0.935919
0.770685 0.757889 0.949177
0.961881 0.770174 0.960647
0.177373 0.953927 0.952711
0.357287 0.964363 0.962930
0.585034 0.976936 0.975685
0.820707 0.989473 0.988741
1.000000 1.000000 1.000000
