library/cube/Highlight_Queen_004.cube
# CINEGRADE LAB — Premium Cinematic LUT
# Title: Highlight Queen
# Category: High Dynamic Luxury
# Description: HDR-like with detailed shadows and highlights for luxury imagery
# Mood: Premium, detailed, luminous
# Variant: 5
# Generated: 2026-05-21T16:12:35.294116
TITLE "Highlight Queen"
LUT_3D_SIZE 5
0.080000 0.080000 0.080000
0.331694 0.069187 0.069170
0.584013 0.059073 0.059005
0.836829 0.049661 0.049508
1.000000 0.040955 0.040679
0.046748 0.308749 0.046216
0.300611 0.300189 0.037631
0.554813 0.292309 0.029716
0.809224 0.285110 0.022474
1.000000 0.278593 0.015905
0.022193 0.544514 0.020005
0.277759 0.538040 0.013681
0.533372 0.532222 0.008030
0.788899 0.527059 0.003054
1.000000 0.522553 0.000000
0.006436 0.786393 0.001410
0.263216 0.781823 0.000000
0.519744 0.777880 0.000000
0.775885 0.774563 0.000000
1.000000 0.771871 0.000000
0.000000 1.000000 0.000000
0.256982 1.000000 0.000000
0.513907 1.000000 0.000000
0.770136 1.000000 0.000000
1.000000 1.000000 0.000000
0.076253 0.076250 0.338747
0.328186 0.065674 0.328126
0.580716 0.055798 0.318152
0.833714 0.046625 0.308827
1.000000 0.038158 0.300151
0.043872 0.305766 0.305593
0.297928 0.297437 0.297154
0.552295 0.289788 0.289368
0.806841 0.282820 0.282235
1.000000 0.276536 0.275755
0.020202 0.542242 0.279800
0.275913 0.535991 0.273559
0.531641 0.530395 0.267972
0.787254 0.525455 0.263041
1.000000 0.521171 0.258764
0.005335 0.784770 0.261408
0.262210 0.780414 0.257370
0.518803 0.776684 0.253986
0.774977 0.773579 0.251255
1.000000 0.771099 0.249178
0.000000 1.000000 0.250423
0.256812 1.000000 0.248583
0.513747 1.000000 0.247394
0.769956 1.000000 0.246855
1.000000 1.000000 0.246963
0.072593 0.072580 0.597563
0.324761 0.062241 0.587139
0.577498 0.052604 0.577343
0.830673 0.043671 0.568177
1.000000 0.035444 0.559642
0.041085 0.302861 0.564996
0.295330 0.294763 0.556692
0.549856 0.287345 0.549020
0.804532 0.280609 0.541983
1.000000 0.274557 0.535580
0.018301 0.540045 0.539578
0.274152 0.534017 0.533407
0.529991 0.528644 0.527871
0.785683 0.523927 0.522971
1.000000 0.519866 0.518706
0.004325 0.783221 0.521345
0.261289 0.779077 0.517311
0.517940 0.775559 0.513913
0.774142 0.772667 0.511148
1.000000 0.770398 0.509017
0.000000 1.000000 0.510299
0.256726 1.000000 0.508398
0.513666 1.000000 0.507128
0.769848 1.000000 0.506488
1.000000 1.000000 0.506476
0.069020 0.068990 0.856443
0.321419 0.058890 0.846203
0.574357 0.049491 0.836572
0.827705 0.040798 0.827552
1.000000 0.032811 0.819144
0.038387 0.300035 0.824420
0.292816 0.292167 0.816236
0.547496 0.284981 0.808666
0.802297 0.278477 0.801712
1.000000 0.272657 0.795373
0.016490 0.537925 0.799332
0.272476 0.532119 0.793218
0.528420 0.526969 0.787720
0.784187 0.522474 0.782838
1.000000 0.518635 0.778572
0.003405 0.781743 0.781213
0.260453 0.777812 0.777172
0.517157 0.774507 0.773746
0.773381 0.771827 0.770934
1.000000 0.769769 0.768736
0.000000 1.000000 0.770063
0.256723 1.000000 0.768088
0.513663 1.000000 0.766724
0.769812 1.000000 0.765970
1.000000 1.000000 0.765824
0.065535 0.065481 1.000000
0.318160 0.055619 1.000000
0.571295 0.046460 1.000000
0.824811 0.038006 1.000000
1.000000 0.030260 1.000000
0.035778 0.297286 1.000000
0.290386 0.289650 1.000000
0.545216 0.282696 1.000000
0.800137 0.276424 1.000000
1.000000 0.270836 1.000000
0.014768 0.535879 1.000000
0.270885 0.530296 1.000000
0.526928 0.525369 1.000000
0.782765 0.521097 1.000000
1.000000 0.517481 1.000000
0.002574 0.780338 1.000000
0.259701 0.776619 1.000000
0.516453 0.773527 1.000000
0.772695 0.771058 1.000000
1.000000 0.769212 1.000000
0.000000 1.000000 1.000000
0.256805 1.000000 1.000000
0.513738 1.000000 1.000000
0.769849 1.000000 1.000000
1.000000 1.000000 1.000000
