library/cube/Highlight_Queen_004.cube
# CINEGRADE LAB — Premium Cinematic LUT
# Title: Highlight Queen
# Category: High Dynamic Luxury
# Description: HDR-like with detailed shadows and highlights for luxury imagery
# Mood: Premium, detailed, luminous
# Variant: 5
# Generated: 2026-05-21T16:12:35.294116
TITLE "Highlight Queen"
LUT_3D_SIZE 9
0.080000 0.080000 0.080000
0.205761 0.074506 0.074502
0.331694 0.069187 0.069170
0.457783 0.064042 0.064005
0.584013 0.059073 0.059005
0.710367 0.054279 0.054173
0.836829 0.049661 0.049508
0.963382 0.045220 0.045009
1.000000 0.040955 0.040679
0.062296 0.193443 0.062165
0.188645 0.188524 0.057227
0.315131 0.183776 0.052455
0.441738 0.179202 0.047851
0.568450 0.174800 0.043413
0.695249 0.170571 0.039144
0.822121 0.166516 0.035041
0.949049 0.162634 0.031107
1.000000 0.158926 0.027341
0.046748 0.308749 0.046216
0.173629 0.304384 0.041839
0.300611 0.300189 0.037631
0.427678 0.296164 0.033590
0.554813 0.292309 0.029716
0.682001 0.288624 0.026011
0.809224 0.285110 0.022474
0.936467 0.281766 0.019105
1.000000 0.278593 0.015905
0.033375 0.425809 0.032160
0.160730 0.421979 0.028348
0.288149 0.418315 0.024704
0.415617 0.414818 0.021228
0.543117 0.411488 0.017921
0.670633 0.408325 0.014782
0.798148 0.405330 0.011811
0.925645 0.402502 0.009009
1.000000 0.399842 0.006375
0.022193 0.544514 0.020005
0.149962 0.541195 0.016758
0.277759 0.538040 0.013681
0.405568 0.535049 0.010771
0.533372 0.532222 0.008030
0.661155 0.529559 0.005458
0.788899 0.527059 0.003054
0.916589 0.524724 0.000819
1.000000 0.522553 0.000000
0.013211 0.664747 0.009754
0.141334 0.661918 0.007074
0.269447 0.659249 0.004563
0.397535 0.656741 0.002221
0.525581 0.654393 0.000047
0.653568 0.652205 0.000000
0.781479 0.650178 0.000000
0.909298 0.648311 0.000000
1.000000 0.646604 0.000000
0.006436 0.786393 0.001410
0.134849 0.784029 0.000000
0.263216 0.781823 0.000000
0.391520 0.779773 0.000000
0.519744 0.777880 0.000000
0.647872 0.776144 0.000000
0.775885 0.774563 0.000000
0.903768 0.773139 0.000000
1.000000 0.771871 0.000000
0.001866 0.909329 0.000000
0.130507 0.907407 0.000000
0.259063 0.905639 0.000000
0.387519 0.904022 0.000000
0.515856 0.902559 0.000000
0.644059 0.901248 0.000000
0.772109 0.900089 0.000000
0.899990 0.899082 0.000000
1.000000 0.898226 0.000000
0.000000 1.000000 0.000000
0.128302 1.000000 0.000000
0.256982 1.000000 0.000000
0.385523 1.000000 0.000000
0.513907 1.000000 0.000000
0.642117 1.000000 0.000000
0.770136 1.000000 0.000000
0.897948 1.000000 0.000000
1.000000 1.000000 0.000000
0.078116 0.078115 0.209364
0.203938 0.072680 0.203921
0.329930 0.067420 0.198641
0.456074 0.062335 0.193525
0.582355 0.057425 0.188573
0.708756 0.052691 0.183785
0.835262 0.048133 0.179163
0.961856 0.043751 0.174705
1.000000 0.039546 0.170412
0.060628 0.191753 0.191703
0.187034 0.186892 0.186811
0.313572 0.182204 0.182083
0.440228 0.177688 0.177521
0.566985 0.173344 0.173123
0.693827 0.169174 0.168890
0.820737 0.165178 0.164823
0.947699 0.161355 0.160921
1.000000 0.157706 0.157185
0.045299 0.307247 0.175901
0.172230 0.302940 0.171563
0.299259 0.298803 0.167390
0.426369 0.294836 0.163383
0.553544 0.291038 0.159542
0.680767 0.287411 0.155866
0.808023 0.283955 0.152356
0.935294 0.280669 0.149011
1.000000 0.277555 0.145833
0.032147 0.424490 0.161966
0.159546 0.420716 0.158184
0.287006 0.417108 0.154569
0.414511 0.413668 0.151119
0.542045 0.410395 0.147835
0.669590 0.407289 0.144717
0.797131 0.404351 0.141765
0.924651 0.401580 0.138979
1.000000 0.398976 0.136360
0.021186 0.543368 0.149904
0.148994 0.540105 0.146681
0.276826 0.537006 0.143623
0.404665 0.534071 0.140732
0.532497 0.531299 0.138006
0.660303 0.528691 0.135447
0.788067 0.526248 0.133054
0.915773 0.523968 0.130827
1.000000 0.521853 0.128766
0.012427 0.663769 0.139720
0.140582 0.660994 0.137055
0.268724 0.658380 0.134557
0.396836 0.655926 0.132224
0.524903 0.653632 0.130058
0.652907 0.651499 0.128057
0.780832 0.649526 0.126223
0.908660 0.647713 0.124555
1.000000 0.646061 0.123053
0.005874 0.785572 0.131416
0.134314 0.783262 0.129310
0.262703 0.781109 0.127370
0.391025 0.779113 0.125597
0.519263 0.777273 0.123989
0.647401 0.775589 0.122547
0.775422 0.774062 0.121271
0.903308 0.772691 0.120160
1.000000 0.771476 0.119215
0.001527 0.908659 0.124992
0.130187 0.906790 0.123445
0.258760 0.905073 0.122063
0.387227 0.903508 0.120847
0.515572 0.902097 0.119797
0.643778 0.900837 0.118912
0.771828 0.899730 0.118192
0.899705 0.898774 0.117638
1.000000 0.897970 0.117249
0.000000 1.000000 0.120446
0.128197 1.000000 0.119455
0.256887 1.000000 0.118631
0.385432 1.000000 0.117971
0.513817 1.000000 0.117477
0.642025 1.000000 0.117148
0.770037 1.000000 0.116983
0.897837 1.000000 0.116983
1.000000 1.000000 0.117147
0.076253 0.076250 0.338747
0.202137 0.070874 0.333356
0.328186 0.065674 0.328126
0.454385 0.060648 0.323058
0.580716 0.055798 0.318152
0.707165 0.051124 0.313408
0.833714 0.046625 0.308827
0.960348 0.042304 0.304407
1.000000 0.038158 0.300151
0.058982 0.190083 0.321253
0.185443 0.185281 0.316406
0.312034 0.180651 0.311721
0.438739 0.176193 0.307199
0.565540 0.171909 0.302839
0.692423 0.167798 0.298642
0.819371 0.163860 0.294608
0.946367 0.160096 0.290737
1.000000 0.156506 0.287029
0.043872 0.305766 0.305593
0.170853 0.301516 0.301292
0.297928 0.297437 0.297154
0.425081 0.293527 0.293180
0.552295 0.289788 0.289368
0.679554 0.286219 0.285720
0.806841 0.282820 0.282235
0.934140 0.279592 0.278913
1.000000 0.276536 0.275755
0.030941 0.423189 0.291773
0.158384 0.419472 0.288021
0.285884 0.415921 0.284432
0.413426 0.412538 0.281006
0.540992 0.409322 0.277744
0.668567 0.406273 0.274646
0.796133 0.403391 0.271711
0.923674 0.400677 0.268940
1.000000 0.398130 0.266333
0.020202 0.542242 0.279800
0.148047 0.539034 0.276598
0.275913 0.535991 0.273559
0.403783 0.533111 0.270684
0.531641 0.530395 0.267972
0.659470 0.527843 0.265425
0.787254 0.525455 0.263041
0.914975 0.523231 0.260821
1.000000 0.521171 0.258764
0.011666 0.662808 0.269678
0.139852 0.660088 0.267026
0.268021 0.657528 0.264538
0.396158 0.655129 0.262213
0.524245 0.652890 0.260053
0.652266 0.650811 0.258056
0.780203 0.648893 0.256223
0.908040 0.647134 0.254553
1.000000 0.645536 0.253047
0.005335 0.784770 0.261408
0.133800 0.782514 0.259307
0.262210 0.780414 0.257370
0.390550 0.778470 0.255596
0.518803 0.776684 0.253986
0.646950 0.775053 0.252539
0.774977 0.773579 0.251255
0.902865 0.772261 0.250135
1.000000 0.771099 0.249178
0.001211 0.908007 0.254991
0.129890 0.906189 0.253440
0.258477 0.904524 0.252053
0.386955 0.903012 0.250828
0.515307 0.901652 0.249768
0.643516 0.900444 0.248870
0.771566 0.899388 0.248135
0.899438 0.898484 0.247562
1.000000 0.897732 0.247152
0.000000 1.000000 0.250423
0.128115 1.000000 0.249422
0.256812 1.000000 0.248583
0.385362 1.000000 0.247907
0.513747 1.000000 0.247394
0.641951 1.000000 0.247043
0.769956 1.000000 0.246855
0.897744 1.000000 0.246828
1.000000 1.000000 0.246963
0.074412 0.074405 0.468147
0.200357 0.069089 0.462807
0.326463 0.063947 0.457626
0.452716 0.058981 0.452605
0.579097 0.054191 0.447743
0.705592 0.049576 0.443040
0.832184 0.045138 0.438498
0.958857 0.040876 0.434116
1.000000 0.036791 0.429895
0.057359 0.188433 0.450816
0.183875 0.183689 0.446012
0.310517 0.179117 0.441368
0.437269 0.174719 0.436884
0.564115 0.170493 0.432561
0.691039 0.166441 0.428398
0.818024 0.162562 0.424395
0.945053 0.158858 0.420553
1.000000 0.155327 0.416872
0.042468 0.304304 0.435292
0.169498 0.300112 0.431026
0.296619 0.296090 0.426922
0.423813 0.292238 0.422978
0.551065 0.288556 0.419194
0.678359 0.285045 0.415572
0.805677 0.281705 0.412111
0.933003 0.278535 0.408810
1.000000 0.275536 0.405671
0.029757 0.421908 0.421582
0.157243 0.418247 0.417857
0.284783 0.414753 0.414293
0.412361 0.411427 0.410890
0.539960 0.408267 0.407649
0.667563 0.405275 0.404568
0.795154 0.402451 0.401649
0.922716 0.399793 0.398891
1.000000 0.397304 0.396295
0.019240 0.541134 0.409692
0.147123 0.537982 0.406509
0.275022 0.534994 0.403487
0.402922 0.532170 0.400627
0.530806 0.529510 0.397927
0.658657 0.527014 0.395390
0.786459 0.524682 0.393013
0.914195 0.522513 0.390798
1.000000 0.520509 0.388744
0.010926 0.661866 0.399625
0.139143 0.659201 0.396985
0.267340 0.656695 0.394506
0.395501 0.654350 0.392188
0.523607 0.652166 0.390032
0.651644 0.650142 0.388036
0.779593 0.648277 0.386202
0.907438 0.646574 0.384529
1.000000 0.645030 0.383018
0.004819 0.783986 0.391384
0.133308 0.781783 0.389287
0.261739 0.779736 0.387350
0.390096 0.777846 0.385575
0.518361 0.776112 0.383960
0.646518 0.774535 0.382507
0.774550 0.773114 0.381215
0.902440 0.771849 0.380083
1.000000 0.770740 0.379112
0.000917 0.907373 0.384968
0.129614 0.905607 0.383413
0.258215 0.903994 0.382018
0.386703 0.902533 0.380784
0.515062 0.901225 0.379711
0.643274 0.900069 0.378798
0.771322 0.899064 0.378046
0.899189 0.898212 0.377454
1.000000 0.897510 0.377022
0.000000 1.000000 0.380375
0.128054 1.000000 0.379360
0.256758 1.000000 0.378506
0.385312 1.000000 0.377812
0.513697 1.000000 0.377278
0.641896 1.000000 0.376904
0.769893 1.000000 0.376690
0.897669 1.000000 0.376635
1.000000 1.000000 0.376740
0.072593 0.072580 0.597563
0.198598 0.067323 0.592273
0.324761 0.062241 0.587139
0.451066 0.057335 0.582163
0.577498 0.052604 0.577343
0.704038 0.048049 0.572681
0.830673 0.043671 0.568177
0.957385 0.039469 0.563830
1.000000 0.035444 0.559642
0.055757 0.186802 0.580390
0.182328 0.182117 0.575628
0.309021 0.177604 0.571023
0.435820 0.173264 0.566576
0.562710 0.169098 0.562287
0.689674 0.165104 0.558156
0.816695 0.161285 0.554184
0.943757 0.157639 0.550369
1.000000 0.154167 0.546714
0.041085 0.302861 0.564996
0.168164 0.298727 0.560765
0.295330 0.294763 0.556692
0.422566 0.290969 0.552777
0.549856 0.287345 0.549020
0.677183 0.283892 0.545422
0.804532 0.280609 0.541983
0.931885 0.277498 0.538702
1.000000 0.274557 0.535580
0.028596 0.420646 0.551391
0.156125 0.417042 0.547692
0.283704 0.413605 0.544151
0.411317 0.410335 0.540770
0.538947 0.407232 0.537547
0.666578 0.404297 0.534483
0.794193 0.401529 0.531578
0.921776 0.398929 0.528831
1.000000 0.396496 0.526244
0.018301 0.540045 0.539578
0.146220 0.536949 0.536413
0.274152 0.534017 0.533407
0.402081 0.531248 0.530559
0.529991 0.528644 0.527871
0.657863 0.526203 0.525341
0.785683 0.523927 0.522971
0.913433 0.521814 0.520759
1.000000 0.519866 0.518706
0.010210 0.660943 0.529562
0.138457 0.658332 0.526932
0.266681 0.655881 0.524460
0.394864 0.653591 0.522147
0.522989 0.651460 0.519993
0.651041 0.649491 0.517998
0.779001 0.647681 0.516162
0.906854 0.646031 0.514484
1.000000 0.644542 0.512965
0.004325 0.783221 0.521345
0.132838 0.781070 0.519248
0.261289 0.779077 0.517311
0.389662 0.777240 0.515533
0.517940 0.775559 0.513913
0.646106 0.774035 0.512451
0.774142 0.772667 0.511148
0.902032 0.771455 0.510004
1.000000 0.770398 0.509017
0.000645 0.906756 0.514924
0.129360 0.905042 0.513362
0.257974 0.903480 0.511959
0.386472 0.902072 0.510713
0.514836 0.900815 0.509626
0.643050 0.899710 0.508697
0.771096 0.898758 0.507926
0.898957 0.897957 0.507313
1.000000 0.897307 0.506857
0.000000 1.000000 0.510299
0.128014 1.000000 0.509270
0.256726 1.000000 0.508398
0.385282 1.000000 0.507684
0.513666 1.000000 0.507128
0.641860 1.000000 0.506730
0.769848 1.000000 0.506488
0.897611 1.000000 0.506404
1.000000 1.000000 0.506476
0.070796 0.070775 0.726995
0.196861 0.065578 0.721753
0.323080 0.060555 0.716665
0.449437 0.055708 0.711732
0.575917 0.051037 0.706953
0.702504 0.046542 0.702330
0.829180 0.042224 0.697862
0.955930 0.038082 0.693549
1.000000 0.034117 0.689392
0.054177 0.185192 0.709974
0.180802 0.180565 0.705252
0.307545 0.176111 0.700685
0.434392 0.171830 0.696274
0.561325 0.167722 0.692018
0.688328 0.163788 0.687917
0.815384 0.160027 0.683973
0.942479 0.156440 0.680185
1.000000 0.153028 0.676552
0.039725 0.301438 0.694706
0.166852 0.297361 0.690507
0.294062 0.293455 0.686463
0.421339 0.289719 0.682576
0.548666 0.286153 0.678844
0.676027 0.282758 0.675269
0.803405 0.279533 0.671850
0.930784 0.276480 0.668587
1.000000 0.273597 0.665481
0.027456 0.419404 0.681199
0.155028 0.415856 0.677525
0.282645 0.412476 0.674006
0.410293 0.409263 0.670644
0.537954 0.406217 0.667438
0.665612 0.403338 0.664389
0.793251 0.400628 0.661496
0.920853 0.398084 0.658759
1.000000 0.395708 0.656179
0.017384 0.538976 0.669459
0.145339 0.535935 0.666310
0.273304 0.533058 0.663317
0.401261 0.530346 0.660481
0.529195 0.527797 0.657802
0.657089 0.525412 0.655279
0.784926 0.523191 0.652913
0.912688 0.521134 0.650703
1.000000 0.519241 0.648649
0.009516 0.660038 0.659488
0.137793 0.657482 0.656865
0.266042 0.655085 0.654399
0.394247 0.652849 0.652090
0.522391 0.650773 0.649937
0.650457 0.648858 0.647940
0.778428 0.647103 0.646100
0.906287 0.645507 0.644416
1.000000 0.644072 0.642888
0.003854 0.782473 0.651288
0.132390 0.780376 0.649192
0.260861 0.778435 0.647252
0.389249 0.776652 0.645469
0.517539 0.775024 0.643841
0.645712 0.773553 0.642370
0.773753 0.772238 0.641055
0.901643 0.771079 0.639896
1.000000 0.770075 0.638892
0.000396 0.906157 0.644858
0.129127 0.904494 0.643288
0.257755 0.902985 0.641873
0.386261 0.901628 0.640615
0.514631 0.900423 0.639512
0.642846 0.899370 0.638565
0.770889 0.898469 0.637774
0.898743 0.897719 0.637137
1.000000 0.897120 0.636656
0.000000 1.000000 0.640195
0.127997 1.000000 0.639149
0.256714 1.000000 0.638259
0.385273 1.000000 0.637524
0.513655 1.000000 0.636944
0.641843 1.000000 0.636519
0.769821 1.000000 0.636249
0.897570 1.000000 0.636133
1.000000 1.000000 0.636171
0.069020 0.068990 0.856443
0.195144 0.063852 0.851247
0.321419 0.058890 0.846203
0.447829 0.054102 0.841311
0.574357 0.049491 0.836572
0.700988 0.045056 0.831985
0.827705 0.040798 0.827552
0.954492 0.036716 0.823271
1.000000 0.032811 0.819144
0.052620 0.183601 0.839568
0.179298 0.179033 0.834884
0.306091 0.174638 0.830353
0.432983 0.170415 0.825976
0.559959 0.166366 0.821751
0.687000 0.162491 0.817680
0.814092 0.158790 0.813762
0.941218 0.155262 0.809998
1.000000 0.151908 0.806388
0.038387 0.300035 0.824420
0.165562 0.296016 0.820251
0.292816 0.292167 0.816236
0.420133 0.288489 0.812374
0.547496 0.284981 0.808666
0.674890 0.281644 0.805112
0.802297 0.278477 0.801712
0.929701 0.275482 0.798465
1.000000 0.272657 0.795373
0.026340 0.418180 0.811006
0.153952 0.414689 0.807354
0.281608 0.411366 0.803856
0.409290 0.408209 0.800512
0.536981 0.405221 0.797321
0.664666 0.402399 0.794285
0.792327 0.399745 0.791403
0.919949 0.397258 0.788675
1.000000 0.394939 0.786101
0.016490 0.537925 0.799332
0.144480 0.534940 0.796198
0.272476 0.532119 0.793218
0.400461 0.529462 0.790392
0.528420 0.526969 0.787720
0.656334 0.524639 0.785202
0.784187 0.522474 0.782838
0.911962 0.520473 0.780628
1.000000 0.518635 0.778572
0.008844 0.659152 0.789401
0.137150 0.656650 0.786785
0.265425 0.654308 0.784323
0.393651 0.652126 0.782015
0.521813 0.650105 0.779862
0.649892 0.648244 0.777862
0.777873 0.646543 0.776016
0.905739 0.645002 0.774324
1.000000 0.643621 0.772785
0.003405 0.781743 0.781213
0.131963 0.779699 0.779116
0.260453 0.777812 0.777172
0.388857 0.776081 0.775382
0.517157 0.774507 0.773746
0.645338 0.773089 0.772263
0.773381 0.771827 0.770934
0.901271 0.770720 0.769758
1.000000 0.769769 0.768736
0.000170 0.905575 0.774768
0.128917 0.903965 0.773188
0.257556 0.902507 0.771761
0.386071 0.901202 0.770488
0.514445 0.900048 0.769368
0.642660 0.899047 0.768402
0.770700 0.898197 0.767588
0.898546 0.897499 0.766927
1.000000 0.896951 0.766418
0.000000 1.000000 0.770063
0.128001 1.000000 0.768999
0.256723 1.000000 0.768088
0.385283 1.000000 0.767329
0.513663 1.000000 0.766724
0.641845 1.000000 0.766271
0.769812 1.000000 0.765970
0.897547 1.000000 0.765821
1.000000 1.000000 0.765824
0.067267 0.067226 0.985904
0.193449 0.062147 0.980753
0.319779 0.057244 0.975751
0.446240 0.052517 0.970900
0.572816 0.047965 0.966198
0.699491 0.043590 0.961647
0.826249 0.039392 0.957246
0.953073 0.035370 0.952997
1.000000 0.031525 0.948898
0.051084 0.182031 0.969170
0.177815 0.177521 0.964524
0.304657 0.173184 0.960027
0.431595 0.169021 0.955682
0.558613 0.165031 0.951487
0.685693 0.161215 0.947443
0.812819 0.157572 0.943551
0.939976 0.154104 0.939809
1.000000 0.150809 0.936219
0.037072 0.298651 0.954137
0.164293 0.294690 0.949997
0.291591 0.290899 0.946009
0.418947 0.287278 0.942171
0.546346 0.283828 0.938485
0.673772 0.280549 0.934950
0.801208 0.277441 0.931567
0.928637 0.274503 0.928335
1.000000 0.271737 0.925255
0.025246 0.416976 0.940812
0.152899 0.413542 0.937180
0.280592 0.410275 0.933701
0.408307 0.407176 0.930373
0.536028 0.404244 0.927196
0.663739 0.401479 0.924171
0.791423 0.398882 0.921298
0.919062 0.396452 0.918576
1.000000 0.394190 0.916007
0.015618 0.536893 0.929199
0.143643 0.533963 0.926077
0.271670 0.531198 0.923108
0.399682 0.528597 0.920290
0.527664 0.526159 0.917623
0.655597 0.523886 0.915109
0.783466 0.521776 0.912746
0.911254 0.519830 0.910534
1.000000 0.518048 0.908474
0.008195 0.658284 0.919301
0.136529 0.655836 0.916690
0.264828 0.653549 0.914231
0.393076 0.651422 0.911923
0.521254 0.649455 0.909767
0.649347 0.647648 0.907762
0.777337 0.646002 0.905909
0.905208 0.644515 0.904207
1.000000 0.643188 0.902656
0.002978 0.781031 0.911120
0.131559 0.779041 0.909019
0.260067 0.777207 0.907070
0.388484 0.775529 0.905272
0.516795 0.774008 0.903625
0.644982 0.772643 0.902129
0.773029 0.771433 0.900785
0.900917 0.770380 0.899591
1.000000 0.769482 0.898548
0.000000 0.905011 0.904655
0.128728 0.903452 0.903063
0.257379 0.902047 0.901622
0.385901 0.900793 0.900333
0.514279 0.899691 0.899194
0.642494 0.898741 0.898206
0.770529 0.897943 0.897368
0.898368 0.897296 0.896681
1.000000 0.896800 0.896143
0.000000 1.000000 0.899900
0.128026 1.000000 0.898817
0.256754 1.000000 0.897883
0.385314 1.000000 0.897100
0.513690 1.000000 0.896468
0.641865 1.000000 0.895985
0.769821 1.000000 0.895652
0.897542 1.000000 0.895468
1.000000 1.000000 0.895434
0.065535 0.065481 1.000000
0.191776 0.060462 1.000000
0.318160 0.055619 1.000000
0.444671 0.050951 1.000000
0.571295 0.046460 1.000000
0.698013 0.042144 1.000000
0.824811 0.038006 1.000000
0.951671 0.034044 1.000000
1.000000 0.030260 1.000000
0.049571 0.180480 1.000000
0.176354 0.176029 1.000000
0.303245 0.171751 1.000000
0.430228 0.167646 1.000000
0.557286 0.163715 1.000000
0.684404 0.159958 1.000000
0.811564 0.156375 1.000000
0.938751 0.152965 1.000000
1.000000 0.149730 1.000000
0.035778 0.297286 1.000000
0.163046 0.293383 1.000000
0.290386 0.289650 1.000000
0.417782 0.286088 1.000000
0.545216 0.282696 1.000000
0.672674 0.279474 1.000000
0.800137 0.276424 1.000000
0.927590 0.273545 1.000000
1.000000 0.270836 1.000000
0.024174 0.415791 1.000000
0.151868 0.412414 1.000000
0.279597 0.409204 1.000000
0.407345 0.406161 1.000000
0.535095 0.403286 1.000000
0.662831 0.400578 1.000000
0.790536 0.398038 1.000000
0.918194 0.395665 1.000000
1.000000 0.393460 1.000000
0.014768 0.535879 1.000000
0.142827 0.533006 1.000000
0.270885 0.530296 1.000000
0.398924 0.527750 1.000000
0.526928 0.525369 1.000000
0.654881 0.523151 1.000000
0.782765 0.521097 1.000000
0.910564 0.519207 1.000000
1.000000 0.517481 1.000000
0.007568 0.657435 1.000000
0.135930 0.655042 1.000000
0.264253 0.652809 1.000000
0.392521 0.650736 1.000000
0.520716 0.648824 1.000000
0.648821 0.647071 1.000000
0.776820 0.645479 1.000000
0.904696 0.644046 1.000000
1.000000 0.642774 1.000000
0.002574 0.780338 1.000000
0.131176 0.778400 1.000000
0.259701 0.776619 1.000000
0.388133 0.774995 1.000000
0.516453 0.773527 1.000000
0.644646 0.772215 1.000000
0.772695 0.771058 1.000000
0.900581 0.770057 1.000000
1.000000 0.769212 1.000000
0.000000 0.904465 1.000000
0.128560 0.902958 1.000000
0.257222 0.901604 1.000000
0.385752 0.900402 1.000000
0.514132 0.899352 1.000000
0.642346 0.898453 1.000000
0.770376 0.897706 1.000000
0.898206 0.897110 1.000000
1.000000 0.896665 1.000000
0.000000 1.000000 1.000000
0.128073 1.000000 1.000000
0.256805 1.000000 1.000000
0.385365 1.000000 1.000000
0.513738 1.000000 1.000000
0.641905 1.000000 1.000000
0.769849 1.000000 1.000000
0.897553 1.000000 1.000000
1.000000 1.000000 1.000000
