library/cube/Highlight_Queen_004.cube
# CINEGRADE LAB — Premium Cinematic LUT
# Title: Highlight Queen
# Category: High Dynamic Luxury
# Description: HDR-like with detailed shadows and highlights for luxury imagery
# Mood: Premium, detailed, luminous
# Variant: 5
# Generated: 2026-05-21T16:12:35.294116
TITLE "Highlight Queen"
LUT_3D_SIZE 33
0.080000 0.080000 0.080000
0.111423 0.078610 0.078610
0.142858 0.077231 0.077230
0.174304 0.075863 0.075861
0.205761 0.074506 0.074502
0.237229 0.073160 0.073154
0.268707 0.071825 0.071815
0.300195 0.070500 0.070488
0.331694 0.069187 0.069170
0.363202 0.067884 0.067863
0.394720 0.066593 0.066567
0.426247 0.065312 0.065280
0.457783 0.064042 0.064005
0.489328 0.062784 0.062739
0.520882 0.061536 0.061484
0.552443 0.060299 0.060240
0.584013 0.059073 0.059005
0.615590 0.057858 0.057782
0.647175 0.056654 0.056568
0.678768 0.055461 0.055365
0.710367 0.054279 0.054173
0.741973 0.053108 0.052991
0.773585 0.051948 0.051819
0.805204 0.050799 0.050658
0.836829 0.049661 0.049508
0.868459 0.048534 0.048367
0.900095 0.047419 0.047238
0.931736 0.046314 0.046118
0.963382 0.045220 0.045009
0.995033 0.044137 0.043911
1.000000 0.043065 0.042823
1.000000 0.042004 0.041746
1.000000 0.040955 0.040679
0.075373 0.108180 0.075365
0.106835 0.106827 0.074010
0.138308 0.105484 0.072665
0.169792 0.104153 0.071331
0.201286 0.102832 0.070007
0.232791 0.101522 0.068693
0.264305 0.100223 0.067390
0.295829 0.098935 0.066097
0.327363 0.097658 0.064815
0.358906 0.096391 0.063543
0.390457 0.095136 0.062281
0.422018 0.093891 0.061030
0.453587 0.092657 0.059789
0.485164 0.091435 0.058559
0.516749 0.090223 0.057339
0.548342 0.089022 0.056129
0.579942 0.087832 0.054930
0.611550 0.086653 0.053741
0.643164 0.085485 0.052563
0.674786 0.084327 0.051395
0.706413 0.083181 0.050238
0.738047 0.082046 0.049091
0.769687 0.080922 0.047955
0.801332 0.079808 0.046829
0.832983 0.078706 0.045713
0.864639 0.077614 0.044608
0.896300 0.076534 0.043514
0.927966 0.075464 0.042430
0.959636 0.074406 0.041356
0.991310 0.073359 0.040293
1.000000 0.072322 0.039240
1.000000 0.071297 0.038198
1.000000 0.070282 0.037166
0.070880 0.136482 0.070848
0.102380 0.135165 0.069527
0.133891 0.133858 0.068218
0.165411 0.132563 0.066918
0.196942 0.131278 0.065629
0.228482 0.130004 0.064350
0.260032 0.128741 0.063082
0.291591 0.127489 0.061824
0.323158 0.126247 0.060577
0.354735 0.125017 0.059340
0.386320 0.123797 0.058113
0.417913 0.122588 0.056897
0.449514 0.121390 0.055691
0.481122 0.120203 0.054496
0.512738 0.119027 0.053311
0.544361 0.117861 0.052137
0.575991 0.116707 0.050973
0.607628 0.115563 0.049819
0.639271 0.114431 0.048676
0.670920 0.113309 0.047544
0.702576 0.112198 0.046422
0.734236 0.111098 0.045310
0.765902 0.110009 0.044209
0.797574 0.108931 0.043118
0.829250 0.107864 0.042037
0.860930 0.106808 0.040968
0.892615 0.105763 0.039908
0.924305 0.104728 0.038859
0.955998 0.103705 0.037821
0.987694 0.102693 0.036793
1.000000 0.101691 0.035776
1.000000 0.100701 0.034769
1.000000 0.099721 0.033772
0.066521 0.164903 0.066448
0.098058 0.163622 0.065162
0.129605 0.162351 0.063887
0.161162 0.161091 0.062623
0.192728 0.159842 0.061369
0.224303 0.158604 0.060125
0.255887 0.157377 0.058892
0.287480 0.156160 0.057669
0.319081 0.154954 0.056457
0.350690 0.153759 0.055255
0.382307 0.152575 0.054064
0.413932 0.151401 0.052883
0.445564 0.150239 0.051712
0.477203 0.149087 0.050552
0.508849 0.147946 0.049402
0.540502 0.146816 0.048263
0.572160 0.145697 0.047134
0.603825 0.144589 0.046016
0.635496 0.143491 0.044908
0.667172 0.142405 0.043810
0.698854 0.141329 0.042723
0.730541 0.140264 0.041647
0.762232 0.139210 0.040581
0.793929 0.138167 0.039525
0.825629 0.137135 0.038480
0.857334 0.136113 0.037446
0.889042 0.135103 0.036421
0.920754 0.134103 0.035408
0.952469 0.133115 0.034405
0.984187 0.132137 0.033412
1.000000 0.131170 0.032430
1.000000 0.130214 0.031458
1.000000 0.129269 0.030497
0.062296 0.193443 0.062165
0.093870 0.192197 0.060915
0.125452 0.190962 0.059675
0.157044 0.189737 0.058446
0.188645 0.188524 0.057227
0.220254 0.187321 0.056018
0.251872 0.186129 0.054820
0.283498 0.184947 0.053632
0.315131 0.183776 0.052455
0.346772 0.182617 0.051288
0.378420 0.181468 0.050132
0.410076 0.180329 0.048986
0.441738 0.179202 0.047851
0.473407 0.178085 0.046726
0.505082 0.176979 0.045611
0.536763 0.175884 0.044507
0.568450 0.174800 0.043413
0.600142 0.173727 0.042330
0.631839 0.172664 0.041257
0.663542 0.171612 0.040195
0.695249 0.170571 0.039144
0.726961 0.169541 0.038102
0.758677 0.168522 0.037071
0.790398 0.167513 0.036051
0.822121 0.166516 0.035041
0.853849 0.165529 0.034042
0.885579 0.164553 0.033053
0.917313 0.163588 0.032075
0.949049 0.162634 0.031107
0.980788 0.161690 0.030150
1.000000 0.160758 0.029203
1.000000 0.159836 0.028267
1.000000 0.158926 0.027341
0.058206 0.222099 0.058001
0.089815 0.220888 0.056786
0.121433 0.219688 0.055581
0.153059 0.218499 0.054386
0.184693 0.217320 0.053203
0.216336 0.216152 0.052029
0.247986 0.214995 0.050866
0.279644 0.213849 0.049714
0.311309 0.212713 0.048571
0.342981 0.211588 0.047440
0.374660 0.210474 0.046319
0.406345 0.209370 0.045208
0.438036 0.208278 0.044108
0.469734 0.207196 0.043018
0.501437 0.206125 0.041938
0.533145 0.205064 0.040870
0.564859 0.204014 0.039811
0.596578 0.202976 0.038763
0.628301 0.201947 0.037726
0.660029 0.200930 0.036699
0.691761 0.199924 0.035682
0.723497 0.198928 0.034676
0.755237 0.197943 0.033681
0.786980 0.196969 0.032696
0.818727 0.196006 0.031721
0.850476 0.195053 0.030757
0.882228 0.194111 0.029804
0.913982 0.193180 0.028861
0.945739 0.192260 0.027928
0.977497 0.191351 0.027006
1.000000 0.190452 0.026095
1.000000 0.189565 0.025194
1.000000 0.188688 0.024303
0.054251 0.250870 0.053954
0.085895 0.249694 0.052774
0.117546 0.248529 0.051605
0.149206 0.247374 0.050445
0.180873 0.246230 0.049297
0.212548 0.245097 0.048158
0.244230 0.243975 0.047030
0.275919 0.242863 0.045913
0.307614 0.241762 0.044806
0.339316 0.240671 0.043710
0.371025 0.239592 0.042624
0.402739 0.238523 0.041548
0.434459 0.237464 0.040483
0.466184 0.236417 0.039428
0.497914 0.235380 0.038384
0.529649 0.234354 0.037351
0.561389 0.233339 0.036328
0.593134 0.232334 0.035315
0.624882 0.231340 0.034313
0.656635 0.230357 0.033321
0.688390 0.229384 0.032340
0.720150 0.228423 0.031369
0.751912 0.227472 0.030409
0.783678 0.226532 0.029459
0.815446 0.225602 0.028520
0.847216 0.224684 0.027591
0.878988 0.223776 0.026673
0.910763 0.222879 0.025766
0.942538 0.221992 0.024868
0.974316 0.221117 0.023982
1.000000 0.220252 0.023106
1.000000 0.219398 0.022240
1.000000 0.218555 0.021385
0.050432 0.279753 0.050026
0.082109 0.278612 0.048881
0.113794 0.277481 0.047746
0.145486 0.276361 0.046622
0.177185 0.275252 0.045509
0.208891 0.274153 0.044406
0.240604 0.273065 0.043313
0.272323 0.271988 0.042231
0.304048 0.270921 0.041159
0.335779 0.269865 0.040098
0.367516 0.268819 0.039047
0.399258 0.267785 0.038007
0.431006 0.266760 0.036977
0.462758 0.265747 0.035958
0.494514 0.264744 0.034949
0.526275 0.263752 0.033950
0.558041 0.262771 0.032963
0.589810 0.261800 0.031985
0.621582 0.260840 0.031018
0.653358 0.259891 0.030062
0.685137 0.258952 0.029116
0.716919 0.258024 0.028181
0.748703 0.257107 0.027256
0.780489 0.256200 0.026342
0.812278 0.255304 0.025438
0.844068 0.254419 0.024544
0.875860 0.253545 0.023662
0.907654 0.252681 0.022789
0.939448 0.251828 0.021927
0.971243 0.250986 0.021076
1.000000 0.250154 0.020235
1.000000 0.249334 0.019405
1.000000 0.248524 0.018585
0.046748 0.308749 0.046216
0.078458 0.307642 0.045106
0.110175 0.306545 0.044007
0.141898 0.305459 0.042918
0.173629 0.304384 0.041839
0.205365 0.303319 0.040772
0.237108 0.302265 0.039714
0.268857 0.301222 0.038667
0.300611 0.300189 0.037631
0.332370 0.299167 0.036605
0.364134 0.298155 0.035589
0.395904 0.297154 0.034584
0.427678 0.296164 0.033590
0.459456 0.295184 0.032606
0.491238 0.294215 0.031632
0.523024 0.293257 0.030669
0.554813 0.292309 0.029716
0.586606 0.291372 0.028774
0.618401 0.290445 0.027843
0.650200 0.289529 0.026922
0.682001 0.288624 0.026011
0.713804 0.287730 0.025111
0.745609 0.286846 0.024222
0.777416 0.285972 0.023343
0.809224 0.285110 0.022474
0.841034 0.284258 0.021616
0.872844 0.283417 0.020769
0.904655 0.282586 0.019932
0.936467 0.281766 0.019105
0.968279 0.280957 0.018290
1.000000 0.280158 0.017484
1.000000 0.279370 0.016689
1.000000 0.278593 0.015905
0.043200 0.337854 0.042524
0.074942 0.336781 0.041449
0.106690 0.335718 0.040385
0.138444 0.334666 0.039332
0.170205 0.333624 0.038289
0.201971 0.332594 0.037256
0.233743 0.331573 0.036234
0.265520 0.330563 0.035222
0.297302 0.329564 0.034221
0.329088 0.328576 0.033230
0.360880 0.327598 0.032250
0.392675 0.326630 0.031280
0.424474 0.325673 0.030321
0.456278 0.324727 0.029372
0.488084 0.323791 0.028434
0.519894 0.322866 0.027506
0.551707 0.321951 0.026589
0.583522 0.321048 0.025682
0.615340 0.320154 0.024786
0.647160 0.319271 0.023900
0.678982 0.318399 0.023025
0.710806 0.317538 0.022161
0.742631 0.316687 0.021307
0.774457 0.315847 0.020463
0.806284 0.315017 0.019630
0.838112 0.314198 0.018807
0.869940 0.313389 0.017995
0.901768 0.312592 0.017194
0.933596 0.311804 0.016403
0.965424 0.311028 0.015622
0.997251 0.310262 0.014852
1.000000 0.309506 0.014093
1.000000 0.308762 0.013344
0.039789 0.367067 0.038951
0.071561 0.366027 0.037911
0.103340 0.364998 0.036883
0.135124 0.363980 0.035864
0.166914 0.362972 0.034856
0.198708 0.361974 0.033859
0.230508 0.360987 0.032872
0.262313 0.360011 0.031896
0.294122 0.359045 0.030930
0.325935 0.358089 0.029974
0.357752 0.357144 0.029029
0.389572 0.356210 0.028095
0.421397 0.355286 0.027171
0.453224 0.354373 0.026258
0.485054 0.353470 0.025355
0.516887 0.352578 0.024462
0.548722 0.351697 0.023581
0.580559 0.350826 0.022709
0.612398 0.349965 0.021848
0.644239 0.349115 0.020998
0.676081 0.348276 0.020158
0.707924 0.347447 0.019329
0.739768 0.346629 0.018510
0.771613 0.345821 0.017702
0.803458 0.345024 0.016904
0.835303 0.344237 0.016117
0.867148 0.343461 0.015341
0.898992 0.342696 0.014574
0.930836 0.341941 0.013819
0.962678 0.341197 0.013074
0.994520 0.340463 0.012339
1.000000 0.339740 0.011615
1.000000 0.339027 0.010902
0.036514 0.396386 0.035496
0.068316 0.395380 0.034492
0.100124 0.394384 0.033498
0.131937 0.393398 0.032515
0.163755 0.392424 0.031543
0.195578 0.391459 0.030581
0.227405 0.390505 0.029629
0.259236 0.389562 0.028688
0.291071 0.388629 0.027757
0.322909 0.387706 0.026837
0.354751 0.386794 0.025928
0.386596 0.385893 0.025029
0.418444 0.385002 0.024140
0.450295 0.384121 0.023262
0.482147 0.383251 0.022395
0.514002 0.382392 0.021538
0.545859 0.381543 0.020691
0.577717 0.380704 0.019855
0.609576 0.379876 0.019030
0.641437 0.379059 0.018215
0.673298 0.378252 0.017410
0.705160 0.377455 0.016617
0.737022 0.376669 0.015833
0.768884 0.375894 0.015060
0.800746 0.375129 0.014298
0.832607 0.374374 0.013546
0.864468 0.373630 0.012805
0.896327 0.372897 0.012074
0.928185 0.372174 0.011354
0.960042 0.371462 0.010645
0.991897 0.370760 0.009945
1.000000 0.370069 0.009257
1.000000 0.369388 0.008579
0.033375 0.425809 0.032160
0.065207 0.424836 0.031191
0.097043 0.423873 0.030233
0.128884 0.422921 0.029285
0.160730 0.421979 0.028348
0.192579 0.421047 0.027421
0.224432 0.420126 0.026505
0.256289 0.419215 0.025599
0.288149 0.418315 0.024704
0.320012 0.417425 0.023819
0.351878 0.416545 0.022945
0.383747 0.415676 0.022081
0.415617 0.414818 0.021228
0.447490 0.413970 0.020386
0.479364 0.413132 0.019553
0.511240 0.412305 0.018732
0.543117 0.411488 0.017921
0.574995 0.410681 0.017120
0.606874 0.409886 0.016330
0.638754 0.409100 0.015551
0.670633 0.408325 0.014782
0.702513 0.407561 0.014023
0.734392 0.406807 0.013275
0.766270 0.406063 0.012538
0.798148 0.405330 0.011811
0.830024 0.404607 0.011095
0.861900 0.403895 0.010389
0.893773 0.403193 0.009694
0.925645 0.402502 0.009009
0.957515 0.401821 0.008335
0.989382 0.401151 0.007671
1.000000 0.400491 0.007018
1.000000 0.399842 0.006375
0.030374 0.455336 0.028943
0.062234 0.454395 0.028009
0.094098 0.453465 0.027086
0.125966 0.452545 0.026174
0.157838 0.451635 0.025272
0.189713 0.450736 0.024381
0.221591 0.449847 0.023500
0.253473 0.448969 0.022629
0.285357 0.448101 0.021770
0.317244 0.447243 0.020920
0.349133 0.446396 0.020081
0.381024 0.445559 0.019253
0.412916 0.444732 0.018435
0.444810 0.443916 0.017628
0.476705 0.443110 0.016831
0.508601 0.442315 0.016045
0.540498 0.441530 0.015269
0.572395 0.440756 0.014504
0.604292 0.439991 0.013750
0.636189 0.439238 0.013006
0.668086 0.438494 0.012272
0.699982 0.437762 0.011549
0.731878 0.437039 0.010836
0.763772 0.436327 0.010134
0.795664 0.435625 0.009443
0.827555 0.434934 0.008762
0.859444 0.434253 0.008092
0.891331 0.433583 0.007432
0.923216 0.432923 0.006783
0.955097 0.432273 0.006144
0.986976 0.431634 0.005516
1.000000 0.431005 0.004898
1.000000 0.430387 0.004291
0.027510 0.484963 0.025845
0.059397 0.484055 0.024946
0.091287 0.483157 0.024059
0.123181 0.482269 0.023182
0.155079 0.481391 0.022315
0.186979 0.480524 0.021459
0.218882 0.479667 0.020614
0.250787 0.478821 0.019779
0.282695 0.477985 0.018954
0.314604 0.477159 0.018140
0.346515 0.476343 0.017337
0.378427 0.475538 0.016544
0.410341 0.474743 0.015762
0.442255 0.473959 0.014990
0.474170 0.473185 0.014228
0.506085 0.472421 0.013478
0.538001 0.471668 0.012737
0.569916 0.470925 0.012008
0.601830 0.470192 0.011288
0.633744 0.469470 0.010580
0.665657 0.468758 0.009882
0.697569 0.468056 0.009194
0.729480 0.467365 0.008517
0.761388 0.466684 0.007850
0.793295 0.466013 0.007194
0.825199 0.465353 0.006549
0.857101 0.464703 0.005914
0.889000 0.464064 0.005289
0.920896 0.463435 0.004676
0.952789 0.462816 0.004072
0.984678 0.462208 0.003479
1.000000 0.461610 0.002897
1.000000 0.461022 0.002325
0.024783 0.514690 0.022865
0.056696 0.513813 0.022002
0.088612 0.512947 0.021150
0.120532 0.512091 0.020308
0.152454 0.511245 0.019477
0.184378 0.510410 0.018657
0.216304 0.509585 0.017847
0.248232 0.508770 0.017047
0.280162 0.507965 0.016258
0.312093 0.507171 0.015479
0.344025 0.506387 0.014711
0.375958 0.505613 0.013954
0.407891 0.504850 0.013207
0.439825 0.504097 0.012470
0.471759 0.503354 0.011744
0.503692 0.502621 0.011029
0.535625 0.501899 0.010324
0.567557 0.501187 0.009630
0.599489 0.500485 0.008946
0.631418 0.499794 0.008273
0.663347 0.499113 0.007610
0.695273 0.498442 0.006958
0.727198 0.497782 0.006316
0.759120 0.497132 0.005685
0.791040 0.496492 0.005065
0.822957 0.495863 0.004455
0.854870 0.495243 0.003855
0.886781 0.494634 0.003266
0.918687 0.494036 0.002688
0.950590 0.493448 0.002120
0.982489 0.492870 0.001562
1.000000 0.492302 0.001016
1.000000 0.491744 0.000479
0.022193 0.544514 0.020005
0.054132 0.543669 0.019177
0.086073 0.542834 0.018361
0.118016 0.542009 0.017554
0.149962 0.541195 0.016758
0.181909 0.540391 0.015973
0.213858 0.539597 0.015198
0.245808 0.538814 0.014434
0.277759 0.538040 0.013681
0.309711 0.537277 0.012938
0.341663 0.536524 0.012205
0.373615 0.535782 0.011483
0.405568 0.535049 0.010771
0.437520 0.534327 0.010070
0.469472 0.533615 0.009380
0.501422 0.532913 0.008700
0.533372 0.532222 0.008030
0.565320 0.531541 0.007372
0.597267 0.530870 0.006723
0.629212 0.530209 0.006085
0.661155 0.529559 0.005458
0.693095 0.528918 0.004841
0.725033 0.528289 0.004235
0.756968 0.527669 0.003639
0.788899 0.527059 0.003054
0.820827 0.526460 0.002480
0.852752 0.525871 0.001916
0.884673 0.525292 0.001362
0.916589 0.524724 0.000819
0.948501 0.524166 0.000287
0.980408 0.523618 0.000000
1.000000 0.523080 0.000000
1.000000 0.522553 0.000000
0.019741 0.574433 0.017263
0.051704 0.573620 0.016471
0.083669 0.572816 0.015690
0.115636 0.572022 0.014919
0.147604 0.571239 0.014159
0.179573 0.570466 0.013409
0.211544 0.569703 0.012670
0.243515 0.568951 0.011941
0.275486 0.568208 0.011223
0.307458 0.567476 0.010515
0.339429 0.566754 0.009818
0.371400 0.566042 0.009131
0.403371 0.565340 0.008455
0.435340 0.564648 0.007789
0.467309 0.563967 0.007134
0.499276 0.563296 0.006490
0.531241 0.562635 0.005856
0.563204 0.561984 0.005232
0.595166 0.561343 0.004619
0.627124 0.560713 0.004017
0.659081 0.560093 0.003425
0.691034 0.559483 0.002844
0.722984 0.558883 0.002273
0.754930 0.558293 0.001713
0.786873 0.557714 0.001163
0.818811 0.557144 0.000624
0.850746 0.556585 0.000095
0.882676 0.556036 0.000000
0.914601 0.555498 0.000000
0.946521 0.554969 0.000000
0.978436 0.554451 0.000000
1.000000 0.553943 0.000000
1.000000 0.553445 0.000000
0.017427 0.604447 0.014641
0.049413 0.603664 0.013884
0.081401 0.602891 0.013139
0.113390 0.602128 0.012403
0.145380 0.601376 0.011678
0.177370 0.600633 0.010964
0.209361 0.599901 0.010260
0.241352 0.599179 0.009566
0.273343 0.598467 0.008884
0.305333 0.597765 0.008211
0.337323 0.597073 0.007550
0.369312 0.596391 0.006898
0.401299 0.595720 0.006258
0.433285 0.595059 0.005628
0.465270 0.594407 0.005008
0.497252 0.593766 0.004399
0.529232 0.593135 0.003800
0.561210 0.592515 0.003212
0.593185 0.591904 0.002635
0.625156 0.591303 0.002068
0.657125 0.590713 0.001512
0.689090 0.590133 0.000966
0.721051 0.589563 0.000430
0.753008 0.589003 0.000000
0.784961 0.588453 0.000000
0.816909 0.587913 0.000000
0.848852 0.587383 0.000000
0.880790 0.586864 0.000000
0.912723 0.586355 0.000000
0.944650 0.585855 0.000000
0.976571 0.585366 0.000000
1.000000 0.584887 0.000000
1.000000 0.584419 0.000000
0.015250 0.634552 0.012138
0.047259 0.633799 0.011417
0.079269 0.633057 0.010706
0.111279 0.632325 0.010006
0.143290 0.631603 0.009317
0.175301 0.630890 0.008638
0.207311 0.630188 0.007969
0.239321 0.629496 0.007311
0.271330 0.628814 0.006664
0.303338 0.628143 0.006027
0.335345 0.627481 0.005401
0.367351 0.626829 0.004785
0.399354 0.626188 0.004180
0.431356 0.625556 0.003585
0.463355 0.624935 0.003001
0.495352 0.624323 0.002427
0.527346 0.623722 0.001864
0.559336 0.623131 0.001312
0.591324 0.622550 0.000770
0.623307 0.621979 0.000238
0.655287 0.621418 0.000000
0.687263 0.620867 0.000000
0.719235 0.620326 0.000000
0.751201 0.619796 0.000000
0.783163 0.619275 0.000000
0.815120 0.618764 0.000000
0.847071 0.618264 0.000000
0.879016 0.617773 0.000000
0.910956 0.617293 0.000000
0.942889 0.616823 0.000000
0.974816 0.616363 0.000000
1.000000 0.615912 0.000000
1.000000 0.615472 0.000000
0.013211 0.664747 0.009754
0.045242 0.664025 0.009068
0.077273 0.663313 0.008393
0.109303 0.662610 0.007729
0.141334 0.661918 0.007074
0.173364 0.661236 0.006431
0.205393 0.660564 0.005798
0.237421 0.659902 0.005175
0.269447 0.659249 0.004563
0.301472 0.658607 0.003962
0.333495 0.657975 0.003371
0.365516 0.657353 0.002791
0.397535 0.656741 0.002221
0.429551 0.656139 0.001662
0.461564 0.655547 0.001113
0.493574 0.654965 0.000575
0.525581 0.654393 0.000047
0.557584 0.653831 0.000000
0.589583 0.653279 0.000000
0.621578 0.652737 0.000000
0.653568 0.652205 0.000000
0.685554 0.651684 0.000000
0.717534 0.651172 0.000000
0.749510 0.650670 0.000000
0.781479 0.650178 0.000000
0.813443 0.649696 0.000000
0.845401 0.649225 0.000000
0.877353 0.648763 0.000000
0.909298 0.648311 0.000000
0.941237 0.647869 0.000000
0.973168 0.647438 0.000000
1.000000 0.647016 0.000000
1.000000 0.646604 0.000000
0.011311 0.695031 0.007489
0.043362 0.694338 0.006839
0.075412 0.693656 0.006199
0.107462 0.692983 0.005570
0.139512 0.692321 0.004951
0.171560 0.691668 0.004343
0.203606 0.691025 0.003746
0.235651 0.690392 0.003159
0.267694 0.689770 0.002582
0.299735 0.689157 0.002016
0.331774 0.688554 0.001461
0.363810 0.687961 0.000916
0.395842 0.687378 0.000382
0.427872 0.686805 0.000000
0.459898 0.686242 0.000000
0.491920 0.685689 0.000000
0.523939 0.685146 0.000000
0.555953 0.684613 0.000000
0.587962 0.684090 0.000000
0.619967 0.683577 0.000000
0.651967 0.683074 0.000000
0.683961 0.682581 0.000000
0.715950 0.682097 0.000000
0.747933 0.681624 0.000000
0.779910 0.681161 0.000000
0.811880 0.680707 0.000000
0.843844 0.680264 0.000000
0.875801 0.679830 0.000000
0.907751 0.679407 0.000000
0.939693 0.678993 0.000000
0.971628 0.678589 0.000000
1.000000 0.678196 0.000000
1.000000 0.677812 0.000000
0.009548 0.725401 0.005344
0.041618 0.724738 0.004729
0.073688 0.724085 0.004125
0.105756 0.723441 0.003531
0.137823 0.722808 0.002948
0.169889 0.722184 0.002375
0.201952 0.721571 0.001813
0.234013 0.720967 0.001261
0.266072 0.720373 0.000720
0.298127 0.719789 0.000190
0.330180 0.719215 0.000000
0.362230 0.718651 0.000000
0.394276 0.718097 0.000000
0.426318 0.717553 0.000000
0.458356 0.717019 0.000000
0.490390 0.716494 0.000000
0.522419 0.715980 0.000000
0.554443 0.715475 0.000000
0.586462 0.714981 0.000000
0.618476 0.714496 0.000000
0.650484 0.714021 0.000000
0.682486 0.713556 0.000000
0.714482 0.713101 0.000000
0.746472 0.712656 0.000000
0.778455 0.712220 0.000000
0.810430 0.711795 0.000000
0.842399 0.711379 0.000000
0.874360 0.710974 0.000000
0.906314 0.710578 0.000000
0.938259 0.710192 0.000000
0.970196 0.709816 0.000000
1.000000 0.709450 0.000000
1.000000 0.709094 0.000000
0.007923 0.755855 0.003317
0.040012 0.755221 0.002738
0.072100 0.754597 0.002169
0.104185 0.753983 0.001611
0.136269 0.753378 0.001063
0.168351 0.752783 0.000526
0.200430 0.752198 0.000000
0.232506 0.751623 0.000000
0.264579 0.751058 0.000000
0.296649 0.750503 0.000000
0.328715 0.749958 0.000000
0.360777 0.749422 0.000000
0.392835 0.748896 0.000000
0.424889 0.748380 0.000000
0.456938 0.747874 0.000000
0.488982 0.747378 0.000000
0.521020 0.746892 0.000000
0.553054 0.746415 0.000000
0.585082 0.745949 0.000000
0.617103 0.745492 0.000000
0.649119 0.745045 0.000000
0.681128 0.744608 0.000000
0.713130 0.744180 0.000000
0.745125 0.743763 0.000000
0.777113 0.743355 0.000000
0.809093 0.742957 0.000000
0.841066 0.742569 0.000000
0.873030 0.742191 0.000000
0.904986 0.741823 0.000000
0.936934 0.741464 0.000000
0.968872 0.741116 0.000000
1.000000 0.740777 0.000000
1.000000 0.740447 0.000000
0.006436 0.786393 0.001410
0.038542 0.785787 0.000866
0.070647 0.785191 0.000333
0.102749 0.784605 0.000000
0.134849 0.784029 0.000000
0.166946 0.783463 0.000000
0.199039 0.782907 0.000000
0.231130 0.782360 0.000000
0.263216 0.781823 0.000000
0.295299 0.781296 0.000000
0.327377 0.780779 0.000000
0.359451 0.780271 0.000000
0.391520 0.779773 0.000000
0.423584 0.779285 0.000000
0.455643 0.778807 0.000000
0.487697 0.778339 0.000000
0.519744 0.777880 0.000000
0.551786 0.777431 0.000000
0.583821 0.776992 0.000000
0.615850 0.776563 0.000000
0.647872 0.776144 0.000000
0.679886 0.775734 0.000000
0.711894 0.775334 0.000000
0.743893 0.774944 0.000000
0.775885 0.774563 0.000000
0.807869 0.774193 0.000000
0.839844 0.773832 0.000000
0.871811 0.773481 0.000000
0.903768 0.773139 0.000000
0.935717 0.772808 0.000000
0.967656 0.772486 0.000000
0.999585 0.772174 0.000000
1.000000 0.771871 0.000000
0.005087 0.817010 0.000000
0.037210 0.816433 0.000000
0.069331 0.815866 0.000000
0.101448 0.815308 0.000000
0.133563 0.814760 0.000000
0.165674 0.814222 0.000000
0.197781 0.813693 0.000000
0.229884 0.813174 0.000000
0.261983 0.812665 0.000000
0.294078 0.812166 0.000000
0.326167 0.811676 0.000000
0.358252 0.811196 0.000000
0.390331 0.810726 0.000000
0.422405 0.810266 0.000000
0.454473 0.809815 0.000000
0.486535 0.809374 0.000000
0.518590 0.808943 0.000000
0.550639 0.808522 0.000000
0.582680 0.808110 0.000000
0.614715 0.807708 0.000000
0.646742 0.807315 0.000000
0.678762 0.806933 0.000000
0.710773 0.806560 0.000000
0.742776 0.806196 0.000000
0.774771 0.805843 0.000000
0.806757 0.805499 0.000000
0.838734 0.805165 0.000000
0.870702 0.804840 0.000000
0.902660 0.804526 0.000000
0.934608 0.804220 0.000000
0.966546 0.803925 0.000000
0.998474 0.803639 0.000000
1.000000 0.803363 0.000000
0.003875 0.847707 0.000000
0.036014 0.847158 0.000000
0.068150 0.846618 0.000000
0.100282 0.846088 0.000000
0.132410 0.845568 0.000000
0.164535 0.845057 0.000000
0.196655 0.844556 0.000000
0.228770 0.844065 0.000000
0.260880 0.843583 0.000000
0.292986 0.843111 0.000000
0.325086 0.842649 0.000000
0.357180 0.842196 0.000000
0.389268 0.841754 0.000000
0.421350 0.841320 0.000000
0.453426 0.840897 0.000000
0.485495 0.840483 0.000000
0.517557 0.840079 0.000000
0.549612 0.839684 0.000000
0.581659 0.839299 0.000000
