library/cube/Kodachrome_Soul_000.cube
# CINEGRADE LAB — Premium Cinematic LUT
# Title: Kodachrome Soul
# Category: Analog Film
# Description: Film grain, muted colors, and vintage feel emulating classic film stocks
# Mood: Nostalgic, warm, organic
# Variant: 1
# Generated: 2026-05-21T16:12:13.953949
TITLE "Kodachrome Soul"
LUT_3D_SIZE 5
0.161593 0.146199 0.124063
0.335666 0.155672 0.132691
0.522264 0.165826 0.141940
0.716512 0.176396 0.151569
0.876019 0.185076 0.159475
0.194721 0.336034 0.153089
0.368793 0.345506 0.161718
0.555392 0.355660 0.170967
0.749640 0.366231 0.180595
0.909147 0.374910 0.188502
0.230233 0.539528 0.184204
0.404305 0.549000 0.192833
0.590903 0.559155 0.202082
0.785152 0.569725 0.211710
0.944658 0.578405 0.219617
0.267201 0.751366 0.216595
0.441273 0.760838 0.225223
0.627871 0.770992 0.234473
0.822120 0.781563 0.244101
0.981626 0.790243 0.252007
0.297557 0.925315 0.243192
0.471629 0.934788 0.251821
0.658227 0.944942 0.261070
0.852476 0.955512 0.270699
1.000000 0.964192 0.278605
0.164938 0.149416 0.270885
0.339010 0.158889 0.279513
0.525608 0.169043 0.288763
0.719857 0.179613 0.298391
0.879363 0.188293 0.306297
0.198066 0.339251 0.299911
0.372138 0.348723 0.308540
0.558736 0.358877 0.317789
0.752985 0.369447 0.327417
0.912491 0.378127 0.335324
0.233577 0.542745 0.331026
0.407649 0.552217 0.339655
0.594248 0.562371 0.348904
0.788496 0.572942 0.358532
0.948003 0.581622 0.366439
0.270545 0.754583 0.363417
0.444617 0.764055 0.372046
0.631215 0.774209 0.381295
0.825464 0.784780 0.390923
0.984970 0.793460 0.398830
0.300901 0.928532 0.390015
0.474973 0.938005 0.398643
0.661571 0.948159 0.407892
0.855820 0.958729 0.417521
1.000000 0.967409 0.425427
0.168523 0.152865 0.428272
0.342595 0.162337 0.436901
0.529193 0.172491 0.446150
0.723442 0.183062 0.455778
0.882948 0.191741 0.463685
0.201651 0.342699 0.457299
0.375723 0.352171 0.465927
0.562321 0.362325 0.475176
0.756570 0.372896 0.484805
0.916076 0.381576 0.492711
0.237162 0.546193 0.488414
0.411234 0.555666 0.497042
0.597832 0.565820 0.506291
0.792081 0.576390 0.515920
0.951587 0.585070 0.523826
0.274130 0.758031 0.520804
0.448202 0.767504 0.529433
0.634800 0.777658 0.538682
0.829049 0.788228 0.548311
0.988555 0.796908 0.556217
0.304486 0.931981 0.547402
0.478558 0.941453 0.556030
0.665156 0.951607 0.565280
0.859405 0.962177 0.574908
1.000000 0.970857 0.582814
0.172255 0.156454 0.592113
0.346327 0.165927 0.600741
0.532925 0.176081 0.609990
0.727174 0.186651 0.619619
0.886680 0.195331 0.627525
0.205383 0.346289 0.621139
0.379455 0.355761 0.629767
0.566053 0.365915 0.639017
0.760301 0.376486 0.648645
0.919808 0.385165 0.656551
0.240894 0.549783 0.652254
0.414966 0.559255 0.660882
0.601564 0.569410 0.670132
0.795813 0.579980 0.679760
0.955319 0.588660 0.687666
0.277862 0.761621 0.684645
0.451934 0.771093 0.693273
0.638532 0.781247 0.702522
0.832781 0.791818 0.712151
0.992287 0.800498 0.720057
0.308218 0.935570 0.711242
0.482290 0.945043 0.719871
0.668888 0.955197 0.729120
0.863137 0.965767 0.738748
1.000000 0.974447 0.746655
0.175319 0.159402 0.726649
0.349391 0.168875 0.735278
0.535989 0.179029 0.744527
0.730238 0.189599 0.754155
0.889744 0.198279 0.762062
0.208447 0.349236 0.755676
0.382519 0.358709 0.764304
0.569117 0.368863 0.773553
0.763366 0.379433 0.783182
0.922872 0.388113 0.791088
0.243959 0.552731 0.786791
0.418031 0.562203 0.795419
0.604629 0.572357 0.804668
0.798878 0.582928 0.814297
0.958384 0.591607 0.822203
0.280926 0.764569 0.819181
0.454998 0.774041 0.827810
0.641597 0.784195 0.837059
0.835845 0.794766 0.846687
0.995352 0.803445 0.854594
0.311282 0.938518 0.845779
0.485354 0.947991 0.854407
0.671952 0.958145 0.863656
0.866201 0.968715 0.873285
1.000000 0.977395 0.881191
