library/cube/Kodachrome_Soul_000.cube
# CINEGRADE LAB — Premium Cinematic LUT
# Title: Kodachrome Soul
# Category: Analog Film
# Description: Film grain, muted colors, and vintage feel emulating classic film stocks
# Mood: Nostalgic, warm, organic
# Variant: 1
# Generated: 2026-05-21T16:12:13.953949
TITLE "Kodachrome Soul"
LUT_3D_SIZE 33
0.161593 0.146199 0.124063
0.182287 0.147325 0.125089
0.203367 0.148473 0.126133
0.224779 0.149638 0.127195
0.246482 0.150819 0.128271
0.268446 0.152014 0.129359
0.290644 0.153222 0.130460
0.313056 0.154442 0.131571
0.335666 0.155672 0.132691
0.358458 0.156912 0.133821
0.381421 0.158162 0.134959
0.404544 0.159420 0.136105
0.427818 0.160686 0.137259
0.451233 0.161961 0.138420
0.474784 0.163242 0.139587
0.498463 0.164531 0.140761
0.522264 0.165826 0.141940
0.546182 0.167127 0.143126
0.570211 0.168435 0.144317
0.594349 0.169749 0.145514
0.618589 0.171068 0.146715
0.642929 0.172392 0.147922
0.667365 0.173722 0.149133
0.691894 0.175057 0.150349
0.716512 0.176396 0.151569
0.741218 0.177741 0.152793
0.766007 0.179090 0.154022
0.790878 0.180443 0.155255
0.815828 0.181801 0.156492
0.840855 0.183163 0.157732
0.865957 0.184529 0.158977
0.876019 0.185076 0.159475
0.876019 0.185076 0.159475
0.165532 0.168766 0.127513
0.186225 0.169892 0.128539
0.207305 0.171039 0.129584
0.228717 0.172205 0.130645
0.250421 0.173386 0.131721
0.272384 0.174581 0.132810
0.294582 0.175789 0.133910
0.316994 0.177008 0.135021
0.339604 0.178239 0.136142
0.362396 0.179479 0.137272
0.385359 0.180729 0.138410
0.408482 0.181987 0.139556
0.431756 0.183253 0.140710
0.455171 0.184527 0.141870
0.478722 0.185809 0.143038
0.502401 0.187098 0.144211
0.526202 0.188393 0.145391
0.550120 0.189694 0.146577
0.574150 0.191002 0.147768
0.598287 0.192315 0.148964
0.622527 0.193634 0.150166
0.646868 0.194959 0.151372
0.671304 0.196289 0.152583
0.695832 0.197623 0.153799
0.720451 0.198963 0.155019
0.745156 0.200307 0.156244
0.769945 0.201656 0.157473
0.794816 0.203010 0.158706
0.819766 0.204367 0.159942
0.844793 0.205729 0.161183
0.869895 0.207095 0.162427
0.879957 0.207643 0.162926
0.879957 0.207643 0.162926
0.169543 0.191755 0.131029
0.190236 0.192881 0.132054
0.211317 0.194028 0.133099
0.232729 0.195194 0.134160
0.254432 0.196375 0.135236
0.276396 0.197570 0.136325
0.298594 0.198778 0.137425
0.321006 0.199997 0.138536
0.343616 0.201228 0.139657
0.366408 0.202468 0.140787
0.389371 0.203718 0.141925
0.412494 0.204976 0.143071
0.435768 0.206242 0.144225
0.459183 0.207516 0.145385
0.482734 0.208798 0.146553
0.506413 0.210087 0.147726
0.530214 0.211382 0.148906
0.554131 0.212683 0.150092
0.578161 0.213991 0.151283
0.602299 0.215304 0.152479
0.626539 0.216623 0.153681
0.650879 0.217948 0.154887
0.675315 0.219278 0.156098
0.699844 0.220612 0.157314
0.724462 0.221952 0.158535
0.749167 0.223296 0.159759
0.773957 0.224645 0.160988
0.798828 0.225999 0.162221
0.823778 0.227357 0.163457
0.848805 0.228718 0.164698
0.873907 0.230084 0.165942
0.883969 0.230632 0.166441
0.883969 0.230632 0.166441
0.173618 0.215106 0.134599
0.194311 0.216232 0.135625
0.215392 0.217380 0.136670
0.236804 0.218545 0.137731
0.258507 0.219726 0.138807
0.280471 0.220921 0.139895
0.302669 0.222129 0.140996
0.325081 0.223348 0.142107
0.347690 0.224579 0.143227
0.370483 0.225819 0.144357
0.393446 0.227069 0.145495
0.416569 0.228327 0.146641
0.439843 0.229593 0.147795
0.463258 0.230868 0.148956
0.486809 0.232149 0.150123
0.510488 0.233438 0.151297
0.534289 0.234733 0.152477
0.558206 0.236034 0.153662
0.582236 0.237342 0.154853
0.606374 0.238655 0.156050
0.630614 0.239975 0.157251
0.654954 0.241299 0.158458
0.679390 0.242629 0.159669
0.703919 0.243964 0.160885
0.728537 0.245303 0.162105
0.753242 0.246648 0.163330
0.778032 0.247997 0.164558
0.802903 0.249350 0.165791
0.827853 0.250708 0.167028
0.852880 0.252070 0.168268
0.877982 0.253436 0.169513
0.888044 0.253983 0.170011
0.888044 0.253983 0.170011
0.177749 0.238775 0.138218
0.198442 0.239901 0.139244
0.219522 0.241048 0.140289
0.240934 0.242213 0.141350
0.262638 0.243394 0.142426
0.284601 0.244590 0.143514
0.306799 0.245798 0.144615
0.329211 0.247017 0.145726
0.351821 0.248247 0.146846
0.374613 0.249488 0.147976
0.397576 0.250737 0.149114
0.420699 0.251996 0.150261
0.443973 0.253262 0.151414
0.467389 0.254536 0.152575
0.490939 0.255818 0.153742
0.514618 0.257106 0.154916
0.538419 0.258402 0.156096
0.562337 0.259703 0.157281
0.586367 0.261011 0.158472
0.610504 0.262324 0.159669
0.634745 0.263643 0.160870
0.659085 0.264968 0.162077
0.683521 0.266298 0.163288
0.708049 0.267632 0.164504
0.732668 0.268972 0.165724
0.757373 0.270316 0.166949
0.782162 0.271665 0.168177
0.807033 0.273019 0.169410
0.831983 0.274376 0.170647
0.857010 0.275738 0.171887
0.882113 0.277104 0.173132
0.892174 0.277652 0.173630
0.892174 0.277652 0.173630
0.181929 0.262727 0.141880
0.202622 0.263853 0.142906
0.223702 0.265000 0.143951
0.245114 0.266165 0.145012
0.266818 0.267346 0.146088
0.288781 0.268542 0.147177
0.310979 0.269750 0.148277
0.333391 0.270969 0.149388
0.356001 0.272200 0.150509
0.378793 0.273440 0.151638
0.401756 0.274689 0.152777
0.424879 0.275948 0.153923
0.448153 0.277214 0.155076
0.471568 0.278488 0.156237
0.495119 0.279770 0.157404
0.518798 0.281058 0.158578
0.542599 0.282354 0.159758
0.566517 0.283655 0.160944
0.590547 0.284963 0.162135
0.614684 0.286276 0.163331
0.638925 0.287595 0.164533
0.663265 0.288920 0.165739
0.687701 0.290250 0.166950
0.712229 0.291584 0.168166
0.736848 0.292924 0.169386
0.761553 0.294268 0.170611
0.786342 0.295617 0.171840
0.811213 0.296971 0.173073
0.836163 0.298328 0.174309
0.861190 0.299690 0.175550
0.886292 0.301056 0.176794
0.896354 0.301604 0.177293
0.896354 0.301604 0.177293
0.186153 0.286935 0.145582
0.206846 0.288061 0.146608
0.227926 0.289208 0.147652
0.249339 0.290373 0.148714
0.271042 0.291554 0.149790
0.293005 0.292750 0.150878
0.315203 0.293958 0.151979
0.337616 0.295177 0.153089
0.360225 0.296408 0.154210
0.383018 0.297648 0.155340
0.405981 0.298897 0.156478
0.429104 0.300156 0.157624
0.452377 0.301422 0.158778
0.475793 0.302696 0.159939
0.499344 0.303978 0.161106
0.523022 0.305266 0.162280
0.546823 0.306562 0.163459
0.570741 0.307863 0.164645
0.594771 0.309171 0.165836
0.618908 0.310484 0.167033
0.643149 0.311803 0.168234
0.667489 0.313128 0.169441
0.691925 0.314458 0.170652
0.716454 0.315792 0.171868
0.741072 0.317132 0.173088
0.765777 0.318476 0.174312
0.790566 0.319825 0.175541
0.815437 0.321179 0.176774
0.840388 0.322536 0.178011
0.865415 0.323898 0.179251
0.890517 0.325264 0.180496
0.900578 0.325812 0.180994
0.900578 0.325812 0.180994
0.190419 0.311377 0.149319
0.211112 0.312503 0.150345
0.232192 0.313650 0.151390
0.253604 0.314815 0.152451
0.275307 0.315996 0.153527
0.297271 0.317191 0.154615
0.319469 0.318399 0.155716
0.341881 0.319619 0.156827
0.364491 0.320849 0.157947
0.387283 0.322090 0.159077
0.410246 0.323339 0.160215
0.433369 0.324597 0.161362
0.456643 0.325864 0.162515
0.480058 0.327138 0.163676
0.503609 0.328420 0.164843
0.527288 0.329708 0.166017
0.551089 0.331003 0.167197
0.575007 0.332305 0.168382
0.599036 0.333612 0.169573
0.623174 0.334926 0.170770
0.647414 0.336245 0.171971
0.671754 0.337570 0.173178
0.696190 0.338899 0.174389
0.720719 0.340234 0.175605
0.745337 0.341574 0.176825
0.770043 0.342918 0.178050
0.794832 0.344267 0.179278
0.819703 0.345620 0.180511
0.844653 0.346978 0.181748
0.869680 0.348340 0.182989
0.894782 0.349706 0.184233
0.904844 0.350253 0.184731
0.904844 0.350253 0.184731
0.194721 0.336034 0.153089
0.215414 0.337160 0.154115
0.236495 0.338307 0.155160
0.257907 0.339472 0.156221
0.279610 0.340653 0.157297
0.301574 0.341848 0.158386
0.323772 0.343056 0.159486
0.346184 0.344276 0.160597
0.368793 0.345506 0.161718
0.391586 0.346746 0.162847
0.414549 0.347996 0.163986
0.437672 0.349254 0.165132
0.460945 0.350521 0.166285
0.484361 0.351795 0.167446
0.507912 0.353076 0.168613
0.531590 0.354365 0.169787
0.555392 0.355660 0.170967
0.579309 0.356962 0.172152
0.603339 0.358269 0.173343
0.627477 0.359583 0.174540
0.651717 0.360902 0.175741
0.676057 0.362226 0.176948
0.700493 0.363556 0.178159
0.725022 0.364891 0.179375
0.749640 0.366231 0.180595
0.774345 0.367575 0.181820
0.799135 0.368924 0.183049
0.824006 0.370277 0.184281
0.848956 0.371635 0.185518
0.873983 0.372997 0.186759
0.899085 0.374363 0.188003
0.909147 0.374910 0.188502
0.909147 0.374910 0.188502
0.199059 0.360890 0.156890
0.219752 0.362016 0.157916
0.240832 0.363163 0.158960
0.262245 0.364328 0.160022
0.283948 0.365509 0.161098
0.305911 0.366705 0.162186
0.328109 0.367912 0.163287
0.350522 0.369132 0.164397
0.373131 0.370362 0.165518
0.395924 0.371603 0.166648
0.418887 0.372852 0.167786
0.442010 0.374111 0.168932
0.465283 0.375377 0.170086
0.488699 0.376651 0.171247
0.512249 0.377933 0.172414
0.535928 0.379221 0.173588
0.559729 0.380516 0.174767
0.583647 0.381818 0.175953
0.607677 0.383126 0.177144
0.631814 0.384439 0.178340
0.656055 0.385758 0.179542
0.680395 0.387083 0.180749
0.704831 0.388412 0.181960
0.729360 0.389747 0.183176
0.753978 0.391087 0.184396
0.778683 0.392431 0.185620
0.803472 0.393780 0.186849
0.828343 0.395134 0.188082
0.853293 0.396491 0.189319
0.878321 0.397853 0.190559
0.903423 0.399219 0.191804
0.913484 0.399767 0.192302
0.913484 0.399767 0.192302
0.203429 0.385932 0.160719
0.224122 0.387058 0.161745
0.245202 0.388206 0.162789
0.266615 0.389371 0.163851
0.288318 0.390552 0.164927
0.310281 0.391747 0.166015
0.332479 0.392955 0.167116
0.354892 0.394174 0.168227
0.377501 0.395405 0.169347
0.400294 0.396645 0.170477
0.423257 0.397895 0.171615
0.446380 0.399153 0.172761
0.469653 0.400419 0.173915
0.493069 0.401694 0.175076
0.516620 0.402975 0.176243
0.540298 0.404264 0.177417
0.564099 0.405559 0.178596
0.588017 0.406860 0.179782
0.612047 0.408168 0.180973
0.636184 0.409481 0.182170
0.660425 0.410801 0.183371
0.684765 0.412125 0.184578
0.709201 0.413455 0.185789
0.733730 0.414790 0.187005
0.758348 0.416129 0.188225
0.783053 0.417474 0.189450
0.807842 0.418823 0.190678
0.832713 0.420176 0.191911
0.857663 0.421534 0.193148
0.882691 0.422896 0.194388
0.907793 0.424262 0.195633
0.917854 0.424809 0.196131
0.917854 0.424809 0.196131
0.207830 0.411149 0.164575
0.228523 0.412275 0.165600
0.249603 0.413422 0.166645
0.271015 0.414587 0.167707
0.292719 0.415768 0.168782
0.314682 0.416964 0.169871
0.336880 0.418172 0.170971
0.359292 0.419391 0.172082
0.381902 0.420622 0.173203
0.404694 0.421862 0.174333
0.427657 0.423111 0.175471
0.450780 0.424370 0.176617
0.474054 0.425636 0.177771
0.497470 0.426910 0.178931
0.521020 0.428192 0.180099
0.544699 0.429480 0.181272
0.568500 0.430776 0.182452
0.592418 0.432077 0.183638
0.616448 0.433385 0.184829
0.640585 0.434698 0.186025
0.664826 0.436017 0.187227
0.689166 0.437342 0.188433
0.713602 0.438672 0.189645
0.738130 0.440006 0.190860
0.762749 0.441346 0.192081
0.787454 0.442690 0.193305
0.812243 0.444039 0.194534
0.837114 0.445393 0.195767
0.862064 0.446750 0.197004
0.887091 0.448112 0.198244
0.912193 0.449478 0.199488
0.922255 0.450026 0.199987
0.922255 0.450026 0.199987
0.212259 0.436530 0.168455
0.232952 0.437656 0.169481
0.254032 0.438803 0.170526
0.275444 0.439968 0.171587
0.297148 0.441149 0.172663
0.319111 0.442345 0.173752
0.341309 0.443552 0.174852
0.363721 0.444772 0.175963
0.386331 0.446002 0.177084
0.409124 0.447243 0.178214
0.432087 0.448492 0.179352
0.455210 0.449751 0.180498
0.478483 0.451017 0.181652
0.501899 0.452291 0.182812
0.525449 0.453573 0.183980
0.549128 0.454861 0.185153
0.572929 0.456156 0.186333
0.596847 0.457458 0.187519
0.620877 0.458766 0.188710
0.645014 0.460079 0.189906
0.669255 0.461398 0.191108
0.693595 0.462723 0.192314
0.718031 0.464052 0.193525
0.742560 0.465387 0.194741
0.767178 0.466727 0.195961
0.791883 0.468071 0.197186
0.816672 0.469420 0.198415
0.841543 0.470774 0.199648
0.866493 0.472131 0.200884
0.891520 0.473493 0.202125
0.916623 0.474859 0.203369
0.926684 0.475407 0.203868
0.926684 0.475407 0.203868
0.216715 0.462066 0.172360
0.237408 0.463192 0.173386
0.258488 0.464339 0.174431
0.279901 0.465504 0.175492
0.301604 0.466685 0.176568
0.323567 0.467880 0.177656
0.345765 0.469088 0.178757
0.368178 0.470308 0.179868
0.390787 0.471538 0.180988
0.413580 0.472779 0.182118
0.436543 0.474028 0.183256
0.459666 0.475287 0.184402
0.482939 0.476553 0.185556
0.506355 0.477827 0.186717
0.529906 0.479109 0.187884
0.553584 0.480397 0.189058
0.577385 0.481692 0.190238
0.601303 0.482994 0.191423
0.625333 0.484302 0.192614
0.649470 0.485615 0.193811
0.673711 0.486934 0.195012
0.698051 0.488259 0.196219
0.722487 0.489588 0.197430
0.747016 0.490923 0.198646
0.771634 0.492263 0.199866
0.796339 0.493607 0.201091
0.821128 0.494956 0.202319
0.845999 0.496310 0.203552
0.870950 0.497667 0.204789
0.895977 0.499029 0.206029
0.921079 0.500395 0.207274
0.931140 0.500943 0.207772
0.931140 0.500943 0.207772
0.221197 0.487749 0.176287
0.241890 0.488875 0.177313
0.262970 0.490022 0.178358
0.284383 0.491187 0.179419
0.306086 0.492368 0.180495
0.328049 0.493564 0.181583
0.350247 0.494771 0.182684
0.372660 0.495991 0.183795
0.395269 0.497221 0.184915
0.418062 0.498462 0.186045
0.441025 0.499711 0.187183
0.464148 0.500970 0.188330
0.487421 0.502236 0.189483
0.510837 0.503510 0.190644
0.534387 0.504792 0.191811
0.558066 0.506080 0.192985
0.581867 0.507375 0.194165
0.605785 0.508677 0.195350
0.629815 0.509985 0.196541
0.653952 0.511298 0.197738
0.678193 0.512617 0.198939
0.702533 0.513942 0.200146
0.726969 0.515271 0.201357
0.751498 0.516606 0.202573
0.776116 0.517946 0.203793
0.800821 0.519290 0.205018
0.825610 0.520639 0.206246
0.850481 0.521993 0.207479
0.875431 0.523350 0.208716
0.900459 0.524712 0.209956
0.925561 0.526078 0.211201
0.935622 0.526626 0.211699
0.935622 0.526626 0.211699
0.225703 0.513572 0.180235
0.246396 0.514698 0.181261
0.267477 0.515845 0.182306
0.288889 0.517010 0.183367
0.310592 0.518191 0.184443
0.332556 0.519386 0.185532
0.354754 0.520594 0.186632
0.377166 0.521814 0.187743
0.399776 0.523044 0.188864
0.422568 0.524285 0.189994
0.445531 0.525534 0.191132
0.468654 0.526792 0.192278
0.491928 0.528059 0.193432
0.515343 0.529333 0.194592
0.538894 0.530615 0.195760
0.562573 0.531903 0.196933
0.586374 0.533198 0.198113
0.610292 0.534500 0.199299
0.634321 0.535807 0.200490
0.658459 0.537121 0.201686
0.682699 0.538440 0.202888
0.707039 0.539765 0.204094
0.731475 0.541094 0.205305
0.756004 0.542429 0.206521
0.780622 0.543769 0.207741
0.805328 0.545113 0.208966
0.830117 0.546462 0.210195
0.854988 0.547815 0.211428
0.879938 0.549173 0.212664
0.904965 0.550535 0.213905
0.930067 0.551901 0.215149
0.940129 0.552449 0.215648
0.940129 0.552449 0.215648
0.230233 0.539528 0.184204
0.250926 0.540654 0.185230
0.272006 0.541801 0.186275
0.293419 0.542966 0.187336
0.315122 0.544147 0.188412
0.337085 0.545343 0.189501
0.359283 0.546551 0.190601
0.381696 0.547770 0.191712
0.404305 0.549000 0.192833
0.427098 0.550241 0.193962
0.450061 0.551490 0.195101
0.473184 0.552749 0.196247
0.496457 0.554015 0.197400
0.519873 0.555289 0.198561
0.543423 0.556571 0.199728
0.567102 0.557859 0.200902
0.590903 0.559155 0.202082
0.614821 0.560456 0.203267
0.638851 0.561764 0.204458
0.662988 0.563077 0.205655
0.687229 0.564396 0.206856
0.711569 0.565721 0.208063
0.736005 0.567051 0.209274
0.760534 0.568385 0.210490
0.785152 0.569725 0.211710
0.809857 0.571069 0.212935
0.834646 0.572418 0.214164
0.859517 0.573772 0.215396
0.884467 0.575129 0.216633
0.909495 0.576491 0.217874
0.934597 0.577857 0.219118
0.944658 0.578405 0.219617
0.944658 0.578405 0.219617
0.234785 0.565612 0.188193
0.255478 0.566738 0.189218
0.276558 0.567885 0.190263
0.297970 0.569050 0.191324
0.319674 0.570231 0.192400
0.341637 0.571426 0.193489
0.363835 0.572634 0.194589
0.386247 0.573854 0.195700
0.408857 0.575084 0.196821
0.431650 0.576324 0.197951
0.454613 0.577574 0.199089
0.477736 0.578832 0.200235
0.501009 0.580099 0.201389
0.524425 0.581373 0.202549
0.547975 0.582655 0.203717
0.571654 0.583943 0.204890
0.595455 0.585238 0.206070
0.619373 0.586540 0.207256
0.643403 0.587847 0.208447
0.667540 0.589161 0.209643
0.691781 0.590480 0.210845
0.716121 0.591804 0.212051
0.740557 0.593134 0.213262
0.765086 0.594469 0.214478
0.789704 0.595809 0.215699
0.814409 0.597153 0.216923
0.839198 0.598502 0.218152
0.864069 0.599855 0.219385
0.889019 0.601213 0.220621
0.914046 0.602575 0.221862
0.939149 0.603941 0.223106
0.949210 0.604488 0.223605
0.949210 0.604488 0.223605
0.239358 0.591817 0.192199
0.260051 0.592944 0.193225
0.281131 0.594091 0.194270
0.302544 0.595256 0.195331
0.324247 0.596437 0.196407
0.346210 0.597632 0.197496
0.368408 0.598840 0.198596
0.390821 0.600060 0.199707
0.413430 0.601290 0.200828
0.436223 0.602530 0.201958
0.459186 0.603780 0.203096
0.482309 0.605038 0.204242
0.505582 0.606305 0.205396
0.528998 0.607579 0.206556
0.552548 0.608860 0.207724
0.576227 0.610149 0.208897
0.600028 0.611444 0.210077
0.623946 0.612745 0.211263
0.647976 0.614053 0.212454
0.672113 0.615367 0.213650
0.696354 0.616686 0.214852
0.720694 0.618010 0.216058
0.745130 0.619340 0.217269
0.769659 0.620675 0.218485
0.794277 0.622014 0.219706
0.818982 0.623359 0.220930
0.843771 0.624708 0.222159
0.868642 0.626061 0.223392
0.893592 0.627419 0.224628
0.918620 0.628781 0.225869
0.943722 0.630147 0.227113
0.953783 0.630694 0.227612
0.953783 0.630694 0.227612
0.243952 0.618140 0.196224
0.264645 0.619266 0.197250
0.285725 0.620414 0.198295
0.307137 0.621579 0.199356
0.328841 0.622760 0.200432
0.350804 0.623955 0.201521
0.373002 0.625163 0.202621
0.395414 0.626382 0.203732
0.418024 0.627613 0.204853
0.440816 0.628853 0.205982
0.463779 0.630103 0.207121
0.486902 0.631361 0.208267
0.510176 0.632627 0.209420
0.533591 0.633902 0.210581
0.557142 0.635183 0.211748
0.580821 0.636472 0.212922
0.604622 0.637767 0.214102
0.628540 0.639068 0.215287
0.652570 0.640376 0.216479
0.676707 0.641690 0.217675
0.700948 0.643009 0.218877
0.725288 0.644333 0.220083
0.749724 0.645663 0.221294
0.774252 0.646998 0.222510
0.798871 0.648337 0.223730
0.823576 0.649682 0.224955
0.848365 0.651031 0.226184
0.873236 0.652384 0.227416
0.898186 0.653742 0.228653
0.923213 0.655104 0.229894
0.948315 0.656470 0.231138
0.958377 0.657017 0.231637
0.958377 0.657017 0.231637
0.248565 0.644576 0.200266
0.269258 0.645702 0.201292
0.290338 0.646849 0.202337
0.311750 0.648014 0.203398
0.333454 0.649195 0.204474
0.355417 0.650391 0.205563
0.377615 0.651598 0.206663
0.400027 0.652818 0.207774
0.422637 0.654048 0.208895
0.445430 0.655289 0.210025
0.468393 0.656538 0.211163
0.491516 0.657797 0.212309
0.514789 0.659063 0.213463
0.538205 0.660337 0.214623
0.561755 0.661619 0.215791
0.585434 0.662907 0.216964
0.609235 0.664202 0.218144
0.633153 0.665504 0.219330
0.657183 0.666812 0.220521
0.681320 0.668125 0.221717
0.705561 0.669444 0.222919
0.729901 0.670769 0.224125
0.754337 0.672098 0.225336
0.778866 0.673433 0.226552
0.803484 0.674773 0.227772
0.828189 0.676117 0.228997
0.852978 0.677466 0.230226
0.877849 0.678820 0.231459
0.902799 0.680177 0.232695
0.927826 0.681539 0.233936
0.952929 0.682905 0.235180
0.962990 0.683453 0.235679
0.962990 0.683453 0.235679
0.253197 0.671120 0.204325
0.273890 0.672246 0.205351
0.294970 0.673393 0.206396
0.316383 0.674558 0.207457
0.338086 0.675739 0.208533
0.360049 0.676935 0.209622
0.382247 0.678142 0.210722
0.404660 0.679362 0.211833
0.427269 0.680592 0.212953
0.450062 0.681833 0.214083
0.473025 0.683082 0.215221
0.496148 0.684341 0.216368
0.519421 0.685607 0.217521
0.542837 0.686881 0.218682
0.566387 0.688163 0.219849
0.590066 0.689451 0.221023
0.613867 0.690746 0.222203
0.637785 0.692048 0.223388
0.661815 0.693356 0.224579
0.685952 0.694669 0.225776
0.710193 0.695988 0.226977
0.734533 0.697313 0.228184
0.758969 0.698642 0.229395
0.783498 0.699977 0.230611
0.808116 0.701317 0.231831
0.832821 0.702661 0.233056
0.857610 0.704010 0.234284
0.882481 0.705364 0.235517
0.907431 0.706721 0.236754
0.932459 0.708083 0.237995
0.957561 0.709449 0.239239
0.967622 0.709997 0.239738
0.967622 0.709997 0.239738
0.257848 0.697769 0.208400
0.278541 0.698895 0.209425
0.299621 0.700042 0.210470
0.321033 0.701207 0.211532
0.342737 0.702388 0.212608
0.364700 0.703583 0.213696
0.386898 0.704791 0.214796
0.409310 0.706011 0.215907
0.431920 0.707241 0.217028
0.454712 0.708481 0.218158
0.477675 0.709731 0.219296
0.500798 0.710989 0.220442
0.524072 0.712256 0.221596
0.547487 0.713530 0.222757
0.571038 0.714811 0.223924
0.594717 0.716100 0.225098
0.618518 0.717395 0.226277
0.642436 0.718697 0.227463
0.666466 0.720004 0.228654
0.690603 0.721318 0.229850
0.714843 0.722637 0.231052
0.739183 0.723961 0.232258
0.763620 0.725291 0.233470
0.788148 0.726626 0.234686
0.812767 0.727966 0.235906
0.837472 0.729310 0.237130
0.862261 0.730659 0.238359
0.887132 0.732012 0.239592
0.912082 0.733370 0.240829
0.937109 0.734732 0.242069
0.962211 0.736098 0.243313
0.972273 0.736645 0.243812
0.972273 0.736645 0.243812
0.262516 0.724518 0.212490
0.283209 0.725645 0.213516
0.304289 0.726792 0.214561
0.325701 0.727957 0.215622
0.347405 0.729138 0.216698
0.369368 0.730333 0.217786
0.391566 0.731541 0.218887
0.413978 0.732761 0.219998
0.436588 0.733991 0.221118
0.459380 0.735231 0.222248
0.482343 0.736481 0.223386
0.505466 0.737739 0.224532
0.528740 0.739005 0.225686
0.552155 0.740280 0.226847
0.575706 0.741561 0.228014
0.599385 0.742850 0.229188
0.623186 0.744145 0.230367
0.647104 0.745446 0.231553
0.671134 0.746754 0.232744
0.695271 0.748068 0.233941
0.719511 0.749387 0.235142
0.743852 0.750711 0.236349
0.768288 0.752041 0.237560
0.792816 0.753376 0.238776
0.817435 0.754715 0.239996
0.842140 0.756060 0.241221
0.866929 0.757409 0.242449
0.891800 0.758762 0.243682
0.916750 0.760120 0.244919
0.941777 0.761482 0.246159
0.966879 0.762848 0.247404
0.976941 0.763395 0.247902
0.976941 0.763395 0.247902
0.267201 0.751366 0.216595
0.287894 0.752492 0.217621
0.308974 0.753639 0.218666
0.330386 0.754804 0.219727
0.352090 0.755985 0.220803
0.374053 0.757181 0.221891
0.396251 0.758388 0.222992
0.418663 0.759608 0.224103
0.441273 0.760838 0.225223
0.464065 0.762079 0.226353
0.487028 0.763328 0.227491
0.510151 0.764587 0.228637
0.533425 0.765853 0.229791
0.556841 0.767127 0.230952
0.580391 0.768409 0.232119
0.604070 0.769697 0.233293
0.627871 0.770992 0.234473
0.651789 0.772294 0.235658
0.675819 0.773602 0.236849
0.699956 0.774915 0.238046
0.724197 0.776234 0.239247
0.748537 0.777559 0.240454
0.772973 0.778888 0.241665
0.797501 0.780223 0.242881
0.822120 0.781563 0.244101
0.846825 0.782907 0.245326
0.871614 0.784256 0.246554
0.896485 0.785610 0.247787
0.921435 0.786967 0.249024
0.946462 0.788329 0.250264
0.971565 0.789695 0.251509
0.981626 0.790243 0.252007
0.981626 0.790243 0.252007
0.271902 0.778308 0.220715
0.292595 0.779434 0.221740
0.313676 0.780581 0.222785
0.335088 0.781746 0.223846
0.356791 0.782927 0.224922
0.378755 0.784123 0.226011
0.400953 0.785331 0.227111
0.423365 0.786550 0.228222
0.445975 0.787781 0.229343
0.468767 0.789021 0.230473
0.491730 0.790270 0.231611
0.514853 0.791529 0.232757
0.538127 0.792795 0.233911
0.561542 0.794069 0.235071
0.585093 0.795351 0.236239
0.608772 0.796639 0.237412
0.632573 0.797935 0.238592
0.656491 0.799236 0.239778
0.680520 0.800544 0.240969
0.704658 0.801857 0.242165
0.728898 0.803176 0.243367
0.753238 0.804501 0.244573
0.777674 0.805831 0.245784
0.802203 0.807165 0.247000
0.826821 0.808505 0.248221
0.851527 0.809849 0.249445
0.876316 0.811198 0.250674
0.901187 0.812552 0.251907
0.926137 0.813909 0.253143
0.951164 0.815271 0.254384
0.976266 0.816637 0.255628
0.986328 0.817185 0.256127
0.986328 0.817185 0.256127
0.276620 0.805342 0.224848
0.297313 0.806468 0.225874
0.318393 0.807615 0.226919
0.339806 0.808780 0.227980
0.361509 0.809961 0.229056
0.383472 0.811157 0.230145
0.405670 0.812364 0.231245
0.428083 0.813584 0.232356
0.450692 0.814814 0.233476
0.473485 0.816055 0.234606
0.496448 0.817304 0.235744
0.519571 0.818563 0.236891
0.542844 0.819829 0.238044
0.566260 0.821103 0.239205
0.589810 0.822385 0.240372
0.613489 0.823673 0.241546
0.637290 0.824968 0.242726
0.661208 0.826270 0.243911
0.685238 0.827578 0.245102
