library/cube/Kodachrome_Soul_000.cube
# CINEGRADE LAB — Premium Cinematic LUT
# Title: Kodachrome Soul
# Category: Analog Film
# Description: Film grain, muted colors, and vintage feel emulating classic film stocks
# Mood: Nostalgic, warm, organic
# Variant: 1
# Generated: 2026-05-21T16:12:13.953949
TITLE "Kodachrome Soul"
LUT_3D_SIZE 9
0.161593 0.146199 0.124063
0.246482 0.150819 0.128271
0.335666 0.155672 0.132691
0.427818 0.160686 0.137259
0.522264 0.165826 0.141940
0.618589 0.171068 0.146715
0.716512 0.176396 0.151569
0.815828 0.181801 0.156492
0.876019 0.185076 0.159475
0.177749 0.238775 0.138218
0.262638 0.243394 0.142426
0.351821 0.248247 0.146846
0.443973 0.253262 0.151414
0.538419 0.258402 0.156096
0.634745 0.263643 0.160870
0.732668 0.268972 0.165724
0.831983 0.274376 0.170647
0.892174 0.277652 0.173630
0.194721 0.336034 0.153089
0.279610 0.340653 0.157297
0.368793 0.345506 0.161718
0.460945 0.350521 0.166285
0.555392 0.355660 0.170967
0.651717 0.360902 0.175741
0.749640 0.366231 0.180595
0.848956 0.371635 0.185518
0.909147 0.374910 0.188502
0.212259 0.436530 0.168455
0.297148 0.441149 0.172663
0.386331 0.446002 0.177084
0.478483 0.451017 0.181652
0.572929 0.456156 0.186333
0.669255 0.461398 0.191108
0.767178 0.466727 0.195961
0.866493 0.472131 0.200884
0.926684 0.475407 0.203868
0.230233 0.539528 0.184204
0.315122 0.544147 0.188412
0.404305 0.549000 0.192833
0.496457 0.554015 0.197400
0.590903 0.559155 0.202082
0.687229 0.564396 0.206856
0.785152 0.569725 0.211710
0.884467 0.575129 0.216633
0.944658 0.578405 0.219617
0.248565 0.644576 0.200266
0.333454 0.649195 0.204474
0.422637 0.654048 0.208895
0.514789 0.659063 0.213463
0.609235 0.664202 0.218144
0.705561 0.669444 0.222919
0.803484 0.674773 0.227772
0.902799 0.680177 0.232695
0.962990 0.683453 0.235679
0.267201 0.751366 0.216595
0.352090 0.755985 0.220803
0.441273 0.760838 0.225223
0.533425 0.765853 0.229791
0.627871 0.770992 0.234473
0.724197 0.776234 0.239247
0.822120 0.781563 0.244101
0.921435 0.786967 0.249024
0.981626 0.790243 0.252007
0.286102 0.859674 0.233156
0.370991 0.864294 0.237363
0.460174 0.869147 0.241784
0.552326 0.874161 0.246352
0.646772 0.879301 0.251033
0.743097 0.884542 0.255808
0.841021 0.889871 0.260662
0.940336 0.895276 0.265585
1.000000 0.898551 0.268568
0.297557 0.925315 0.243192
0.382446 0.929935 0.247400
0.471629 0.934788 0.251821
0.563781 0.939802 0.256389
0.658227 0.944942 0.261070
0.754552 0.950184 0.265845
0.852476 0.955512 0.270699
0.951791 0.960917 0.275621
1.000000 0.964192 0.278605
0.163224 0.147768 0.195663
0.248113 0.152388 0.199871
0.337296 0.157241 0.204291
0.429448 0.162255 0.208859
0.523895 0.167395 0.213541
0.620220 0.172636 0.218315
0.718143 0.177965 0.223169
0.817459 0.183369 0.228092
0.877650 0.186645 0.231075
0.179380 0.240344 0.209818
0.264269 0.244963 0.214026
0.353452 0.249816 0.218446
0.445604 0.254831 0.223014
0.540050 0.259970 0.227696
0.636376 0.265212 0.232470
0.734299 0.270541 0.237324
0.833614 0.275945 0.242247
0.893805 0.279220 0.245231
0.196352 0.337602 0.224689
0.281241 0.342222 0.228897
0.370424 0.347075 0.233318
0.462576 0.352089 0.237885
0.557022 0.357229 0.242567
0.653348 0.362471 0.247342
0.751271 0.367799 0.252195
0.850587 0.373204 0.257118
0.910777 0.376479 0.260102
0.213890 0.438099 0.240056
0.298779 0.442718 0.244263
0.387962 0.447571 0.248684
0.480114 0.452586 0.253252
0.574560 0.457725 0.257933
0.670886 0.462967 0.262708
0.768809 0.468296 0.267562
0.868124 0.473700 0.272484
0.928315 0.476975 0.275468
0.231864 0.541097 0.255804
0.316753 0.545716 0.260012
0.405936 0.550569 0.264433
0.498088 0.555584 0.269000
0.592534 0.560723 0.273682
0.688860 0.565965 0.278457
0.786783 0.571294 0.283310
0.886098 0.576698 0.288233
0.946289 0.579973 0.291217
0.250196 0.646145 0.271867
0.335085 0.650764 0.276074
0.424268 0.655617 0.280495
0.516420 0.660632 0.285063
0.610866 0.665771 0.289744
0.707192 0.671013 0.294519
0.805115 0.676342 0.299373
0.904430 0.681746 0.304295
0.964621 0.685021 0.307279
0.268832 0.752935 0.288195
0.353721 0.757554 0.292403
0.442904 0.762407 0.296823
0.535056 0.767422 0.301391
0.629502 0.772561 0.306073
0.725828 0.777803 0.310847
0.823751 0.783132 0.315701
0.923066 0.788536 0.320624
0.983257 0.791811 0.323608
0.287733 0.861243 0.304756
0.372621 0.865862 0.308964
0.461805 0.870715 0.313384
0.553957 0.875730 0.317952
0.648403 0.880869 0.322633
0.744728 0.886111 0.327408
0.842651 0.891440 0.332262
0.941967 0.896844 0.337185
1.000000 0.900120 0.340168
0.299188 0.926884 0.314793
0.384077 0.931504 0.319000
0.473260 0.936357 0.323421
0.565412 0.941371 0.327989
0.659858 0.946511 0.332670
0.756183 0.951752 0.337445
0.854106 0.957081 0.342299
0.953422 0.962485 0.347221
1.000000 0.965761 0.350205
0.164938 0.149416 0.270885
0.249827 0.154036 0.275093
0.339010 0.158889 0.279513
0.431162 0.163903 0.284081
0.525608 0.169043 0.288763
0.621934 0.174285 0.293537
0.719857 0.179613 0.298391
0.819172 0.185018 0.303314
0.879363 0.188293 0.306297
0.181093 0.241992 0.285040
0.265982 0.246611 0.289248
0.355165 0.251464 0.293669
0.447317 0.256479 0.298236
0.541763 0.261618 0.302918
0.638089 0.266860 0.307692
0.736012 0.272189 0.312546
0.835327 0.277593 0.317469
0.895518 0.280869 0.320453
0.198066 0.339251 0.299911
0.282955 0.343870 0.304119
0.372138 0.348723 0.308540
0.464290 0.353738 0.313108
0.558736 0.358877 0.317789
0.655061 0.364119 0.322564
0.752985 0.369447 0.327417
0.852300 0.374852 0.332340
0.912491 0.378127 0.335324
0.215603 0.439747 0.315278
0.300492 0.444366 0.319485
0.389675 0.449219 0.323906
0.481827 0.454234 0.328474
0.576273 0.459373 0.333155
0.672599 0.464615 0.337930
0.770522 0.469944 0.342784
0.869838 0.475348 0.347707
0.930028 0.478624 0.350690
0.233577 0.542745 0.331026
0.318466 0.547364 0.335234
0.407649 0.552217 0.339655
0.499801 0.557232 0.344223
0.594248 0.562371 0.348904
0.690573 0.567613 0.353679
0.788496 0.572942 0.358532
0.887812 0.578346 0.363455
0.948003 0.581622 0.366439
0.251909 0.647793 0.347089
0.336798 0.652412 0.351296
0.425981 0.657265 0.355717
0.518133 0.662280 0.360285
0.612579 0.667419 0.364966
0.708905 0.672661 0.369741
0.806828 0.677990 0.374595
0.906144 0.683394 0.379517
0.966334 0.686670 0.382501
0.270545 0.754583 0.363417
0.355434 0.759202 0.367625
0.444617 0.764055 0.372046
0.536769 0.769070 0.376613
0.631215 0.774209 0.381295
0.727541 0.779451 0.386069
0.825464 0.784780 0.390923
0.924779 0.790184 0.395846
0.984970 0.793460 0.398830
0.289446 0.862891 0.379978
0.374335 0.867511 0.384186
0.463518 0.872364 0.388606
0.555670 0.877378 0.393174
0.650116 0.882518 0.397855
0.746442 0.887759 0.402630
0.844365 0.893088 0.407484
0.943680 0.898492 0.412407
1.000000 0.901768 0.415390
0.300901 0.928532 0.390015
0.385790 0.933152 0.394222
0.474973 0.938005 0.398643
0.567125 0.943019 0.403211
0.661571 0.948159 0.407892
0.757897 0.953400 0.412667
0.855820 0.958729 0.417521
0.955135 0.964134 0.422444
1.000000 0.967409 0.425427
0.166708 0.151119 0.348611
0.251597 0.155739 0.352819
0.340780 0.160592 0.357240
0.432932 0.165606 0.361807
0.527378 0.170746 0.366489
0.623704 0.175988 0.371263
0.721627 0.181316 0.376117
0.820943 0.186721 0.381040
0.881133 0.189996 0.384024
0.182864 0.243695 0.362766
0.267753 0.248314 0.366974
0.356936 0.253167 0.371395
0.449088 0.258182 0.375963
0.543534 0.263321 0.380644
0.639859 0.268563 0.385419
0.737782 0.273892 0.390272
0.837098 0.279296 0.395195
0.897289 0.282572 0.398179
0.199836 0.340954 0.377638
0.284725 0.345573 0.381845
0.373908 0.350426 0.386266
0.466060 0.355441 0.390834
0.560506 0.360580 0.395515
0.656832 0.365822 0.400290
0.754755 0.371150 0.405144
0.854070 0.376555 0.410066
0.914261 0.379830 0.413050
0.217374 0.441450 0.393004
0.302263 0.446069 0.397212
0.391446 0.450922 0.401632
0.483598 0.455937 0.406200
0.578044 0.461076 0.410881
0.674369 0.466318 0.415656
0.772293 0.471647 0.420510
0.871608 0.477051 0.425433
0.931799 0.480327 0.428416
0.235348 0.544448 0.408753
0.320237 0.549067 0.412960
0.409420 0.553920 0.417381
0.501572 0.558935 0.421949
0.596018 0.564074 0.426630
0.692344 0.569316 0.431405
0.790267 0.574645 0.436259
0.889582 0.580049 0.441181
0.949773 0.583325 0.444165
0.253680 0.649496 0.424815
0.338569 0.654115 0.429023
0.427752 0.658968 0.433443
0.519904 0.663983 0.438011
0.614350 0.669122 0.442692
0.710675 0.674364 0.447467
0.808599 0.679693 0.452321
0.907914 0.685097 0.457244
0.968105 0.688372 0.460227
0.272316 0.756286 0.441143
0.357204 0.760905 0.445351
0.446388 0.765758 0.449772
0.538540 0.770773 0.454339
0.632986 0.775912 0.459021
0.729311 0.781154 0.463796
0.827234 0.786483 0.468649
0.926550 0.791887 0.473572
0.986741 0.795162 0.476556
0.291216 0.864594 0.457704
0.376105 0.869213 0.461912
0.465288 0.874067 0.466332
0.557440 0.879081 0.470900
0.651887 0.884221 0.475582
0.748212 0.889462 0.480356
0.846135 0.894791 0.485210
0.945451 0.900195 0.490133
1.000000 0.903471 0.493116
0.302671 0.930235 0.467741
0.387560 0.934855 0.471949
0.476743 0.939708 0.476369
0.568895 0.944722 0.480937
0.663342 0.949862 0.485618
0.759667 0.955103 0.490393
0.857590 0.960432 0.495247
0.956906 0.965837 0.500170
1.000000 0.969112 0.503153
0.168523 0.152865 0.428272
0.253412 0.157484 0.432480
0.342595 0.162337 0.436901
0.434747 0.167352 0.441468
0.529193 0.172491 0.446150
0.625519 0.177733 0.450925
0.723442 0.183062 0.455778
0.822757 0.188466 0.460701
0.882948 0.191741 0.463685
0.184678 0.245440 0.442427
0.269567 0.250060 0.446635
0.358750 0.254913 0.451056
0.450902 0.259927 0.455624
0.545348 0.265067 0.460305
0.641674 0.270309 0.465080
0.739597 0.275637 0.469934
0.838912 0.281042 0.474856
0.899103 0.284317 0.477840
0.201651 0.342699 0.457299
0.286540 0.347318 0.461506
0.375723 0.352171 0.465927
0.467875 0.357186 0.470495
0.562321 0.362325 0.475176
0.658646 0.367567 0.479951
0.756570 0.372896 0.484805
0.855885 0.378300 0.489728
0.916076 0.381576 0.492711
0.219188 0.443195 0.472665
0.304077 0.447815 0.476873
0.393260 0.452668 0.481293
0.485412 0.457682 0.485861
0.579858 0.462822 0.490543
0.676184 0.468063 0.495317
0.774107 0.473392 0.500171
0.873422 0.478796 0.505094
0.933613 0.482072 0.508077
0.237162 0.546193 0.488414
0.322051 0.550813 0.492621
0.411234 0.555666 0.497042
0.503386 0.560680 0.501610
0.597832 0.565820 0.506291
0.694158 0.571062 0.511066
0.792081 0.576390 0.515920
0.891397 0.581795 0.520843
0.951587 0.585070 0.523826
0.255494 0.651241 0.504476
0.340383 0.655861 0.508684
0.429566 0.660714 0.513104
0.521718 0.665728 0.517672
0.616164 0.670868 0.522353
0.712490 0.676109 0.527128
0.810413 0.681438 0.531982
0.909728 0.686842 0.536905
0.969919 0.690118 0.539888
0.274130 0.758031 0.520804
0.359019 0.762651 0.525012
0.448202 0.767504 0.529433
0.540354 0.772518 0.534001
0.634800 0.777658 0.538682
0.731126 0.782899 0.543457
0.829049 0.788228 0.548311
0.928364 0.793632 0.553233
0.988555 0.796908 0.556217
0.293031 0.866339 0.537365
0.377920 0.870959 0.541573
0.467103 0.875812 0.545994
0.559255 0.880827 0.550561
0.653701 0.885966 0.555243
0.750027 0.891208 0.560017
0.847950 0.896536 0.564871
0.947265 0.901941 0.569794
1.000000 0.905216 0.572778
0.304486 0.931981 0.547402
0.389375 0.936600 0.551610
0.478558 0.941453 0.556030
0.570710 0.946468 0.560598
0.665156 0.951607 0.565280
0.761482 0.956849 0.570054
0.859405 0.962177 0.574908
0.958720 0.967582 0.579831
1.000000 0.970857 0.582814
0.170373 0.154645 0.509519
0.255262 0.159264 0.513727
0.344445 0.164117 0.518147
0.436597 0.169132 0.522715
0.531043 0.174271 0.527396
0.627369 0.179513 0.532171
0.725292 0.184842 0.537025
0.824608 0.190246 0.541948
0.884799 0.193521 0.544931
0.186529 0.247220 0.523674
0.271418 0.251840 0.527882
0.360601 0.256693 0.532302
0.452753 0.261707 0.536870
0.547199 0.266847 0.541552
0.643524 0.272089 0.546326
0.741448 0.277417 0.551180
0.840763 0.282822 0.556103
0.900954 0.286097 0.559086
0.203501 0.344479 0.538545
0.288390 0.349098 0.542753
0.377573 0.353951 0.547174
0.469725 0.358966 0.551741
0.564171 0.364106 0.556423
0.660497 0.369347 0.561197
0.758420 0.374676 0.566051
0.857736 0.380080 0.570974
0.917926 0.383356 0.573958
0.221039 0.444975 0.553911
0.305928 0.449595 0.558119
0.395111 0.454448 0.562540
0.487263 0.459462 0.567108
0.581709 0.464602 0.571789
0.678035 0.469844 0.576564
0.775958 0.475172 0.581417
0.875273 0.480577 0.586340
0.935464 0.483852 0.589324
0.239013 0.547973 0.569660
0.323902 0.552593 0.573868
0.413085 0.557446 0.578289
0.505237 0.562460 0.582856
0.599683 0.567600 0.587538
0.696009 0.572842 0.592312
0.793932 0.578170 0.597166
0.893247 0.583575 0.602089
0.953438 0.586850 0.605073
0.257345 0.653021 0.585722
0.342234 0.657641 0.589930
0.431417 0.662494 0.594351
0.523569 0.667508 0.598919
0.618015 0.672648 0.603600
0.714341 0.677890 0.608375
0.812264 0.683218 0.613228
0.911579 0.688623 0.618151
0.971770 0.691898 0.621135
0.275981 0.759811 0.602051
0.360870 0.764431 0.606259
0.450053 0.769284 0.610679
0.542205 0.774298 0.615247
0.636651 0.779438 0.619929
0.732976 0.784680 0.624703
0.830900 0.790008 0.629557
0.930215 0.795413 0.634480
0.990406 0.798688 0.637463
0.294881 0.868120 0.618612
0.379770 0.872739 0.622819
0.468954 0.877592 0.627240
0.561106 0.882607 0.631808
0.655552 0.887746 0.636489
0.751877 0.892988 0.641264
0.849800 0.898316 0.646118
0.949116 0.903721 0.651041
1.000000 0.906996 0.654024
0.306336 0.933761 0.628648
0.391225 0.938380 0.632856
0.480409 0.943233 0.637277
0.572561 0.948248 0.641845
0.667007 0.953387 0.646526
0.763332 0.958629 0.651301
0.861255 0.963958 0.656155
0.960571 0.969362 0.661077
1.000000 0.972637 0.664061
0.172255 0.156454 0.592113
0.257144 0.161074 0.596320
0.346327 0.165927 0.600741
0.438479 0.170941 0.605309
0.532925 0.176081 0.609990
0.629250 0.181323 0.614765
0.727174 0.186651 0.619619
0.826489 0.192056 0.624542
0.886680 0.195331 0.627525
0.188410 0.249030 0.606268
0.273299 0.253649 0.610476
0.362482 0.258503 0.614896
0.454634 0.263517 0.619464
0.549080 0.268657 0.624145
0.645406 0.273898 0.628920
0.743329 0.279227 0.633774
0.842644 0.284631 0.638697
0.902835 0.287907 0.641680
0.205383 0.346289 0.621139
0.290271 0.350908 0.625347
0.379455 0.355761 0.629767
0.471607 0.360776 0.634335
0.566053 0.365915 0.639017
0.662378 0.371157 0.643791
0.760301 0.376486 0.648645
0.859617 0.381890 0.653568
0.919808 0.385165 0.656551
0.222920 0.446785 0.636505
0.307809 0.451404 0.640713
0.396992 0.456257 0.645134
0.489144 0.461272 0.649701
0.583590 0.466411 0.654383
0.679916 0.471653 0.659158
0.777839 0.476982 0.664011
0.877154 0.482386 0.668934
0.937345 0.485662 0.671918
0.240894 0.549783 0.652254
0.325783 0.554402 0.656462
0.414966 0.559255 0.660882
0.507118 0.564270 0.665450
0.601564 0.569410 0.670132
0.697890 0.574651 0.674906
0.795813 0.579980 0.679760
0.895129 0.585384 0.684683
0.955319 0.588660 0.687666
0.259226 0.654831 0.668316
0.344115 0.659450 0.672524
0.433298 0.664303 0.676945
0.525450 0.669318 0.681512
0.619896 0.674457 0.686194
0.716222 0.679699 0.690968
0.814145 0.685028 0.695822
0.913460 0.690432 0.700745
0.973651 0.693708 0.703729
0.277862 0.761621 0.684645
0.362751 0.766240 0.688853
0.451934 0.771093 0.693273
0.544086 0.776108 0.697841
0.638532 0.781247 0.702522
0.734858 0.786489 0.707297
0.832781 0.791818 0.712151
0.932096 0.797222 0.717074
0.992287 0.800498 0.720057
0.296763 0.869929 0.701206
0.381652 0.874549 0.705413
0.470835 0.879402 0.709834
0.562987 0.884416 0.714402
0.657433 0.889556 0.719083
0.753759 0.894797 0.723858
0.851682 0.900126 0.728712
0.950997 0.905531 0.733634
1.000000 0.908806 0.736618
0.308218 0.935570 0.711242
0.393107 0.940190 0.715450
0.482290 0.945043 0.719871
0.574442 0.950057 0.724438
0.668888 0.955197 0.729120
0.765214 0.960439 0.733895
0.863137 0.965767 0.738748
0.962452 0.971172 0.743671
1.000000 0.974447 0.746655
0.174163 0.158290 0.675881
0.259052 0.162909 0.680089
0.348235 0.167762 0.684509
0.440387 0.172777 0.689077
0.534833 0.177916 0.693758
0.631159 0.183158 0.698533
0.729082 0.188487 0.703387
0.828397 0.193891 0.708310
0.888588 0.197166 0.711293
0.190318 0.250865 0.690036
0.275207 0.255485 0.694244
0.364390 0.260338 0.698664
0.456542 0.265352 0.703232
0.550988 0.270492 0.707914
0.647314 0.275734 0.712688
0.745237 0.281062 0.717542
0.844552 0.286467 0.722465
0.904743 0.289742 0.725448
0.207291 0.348124 0.704907
0.292180 0.352743 0.709115
0.381363 0.357596 0.713536
0.473515 0.362611 0.718103
0.567961 0.367751 0.722785
0.664286 0.372992 0.727559
0.762210 0.378321 0.732413
0.861525 0.383725 0.737336
0.921716 0.387001 0.740320
0.224828 0.448620 0.720273
0.309717 0.453240 0.724481
0.398900 0.458093 0.728902
0.491052 0.463107 0.733470
0.585498 0.468247 0.738151
0.681824 0.473489 0.742926
0.779747 0.478817 0.747779
0.879062 0.484222 0.752702
0.939253 0.487497 0.755686
0.242802 0.551618 0.736022
0.327691 0.556238 0.740230
0.416874 0.561091 0.744651
0.509026 0.566105 0.749218
0.603472 0.571245 0.753900
0.699798 0.576487 0.758674
0.797721 0.581815 0.763528
0.897037 0.587220 0.768451
0.957227 0.590495 0.771435
0.261134 0.656666 0.752084
0.346023 0.661286 0.756292
0.435206 0.666139 0.760713
0.527358 0.671153 0.765281
0.621804 0.676293 0.769962
0.718130 0.681535 0.774737
0.816053 0.686863 0.779590
0.915368 0.692268 0.784513
0.975559 0.695543 0.787497
0.279770 0.763456 0.768413
0.364659 0.768076 0.772621
0.453842 0.772929 0.777041
0.545994 0.777943 0.781609
0.640440 0.783083 0.786291
0.736766 0.788325 0.791065
0.834689 0.793653 0.795919
0.934004 0.799058 0.800842
0.994195 0.802333 0.803825
0.298671 0.871765 0.784974
0.383560 0.876384 0.789181
0.472743 0.881237 0.793602
0.564895 0.886252 0.798170
0.659341 0.891391 0.802851
0.755667 0.896633 0.807626
0.853590 0.901961 0.812480
0.952905 0.907366 0.817403
1.000000 0.910641 0.820386
0.310126 0.937406 0.795010
0.395015 0.942025 0.799218
0.484198 0.946878 0.803639
0.576350 0.951893 0.808207
0.670796 0.957032 0.812888
0.767122 0.962274 0.817663
0.865045 0.967603 0.822517
0.964360 0.973007 0.827439
1.000000 0.976282 0.830423
0.175319 0.159402 0.726649
0.260208 0.164022 0.730857
0.349391 0.168875 0.735278
0.441543 0.173889 0.739845
0.535989 0.179029 0.744527
0.632315 0.184270 0.749301
0.730238 0.189599 0.754155
0.829553 0.195003 0.759078
0.889744 0.198279 0.762062
0.191474 0.251978 0.740804
0.276363 0.256597 0.745012
0.365547 0.261450 0.749433
0.457699 0.266465 0.754001
0.552145 0.271604 0.758682
0.648470 0.276846 0.763457
0.746393 0.282175 0.768310
0.845709 0.287579 0.773233
0.905900 0.290854 0.776217
0.208447 0.349236 0.755676
0.293336 0.353856 0.759883
0.382519 0.358709 0.764304
0.474671 0.363723 0.768872
0.569117 0.368863 0.773553
0.665443 0.374105 0.778328
0.763366 0.379433 0.783182
0.862681 0.384838 0.788104
0.922872 0.388113 0.791088
0.225985 0.449733 0.771042
0.310873 0.454352 0.775250
0.400057 0.459205 0.779670
0.492209 0.464220 0.784238
0.586655 0.469359 0.788919
0.682980 0.474601 0.793694
0.780903 0.479930 0.798548
0.880219 0.485334 0.803471
0.940410 0.488609 0.806454
0.243959 0.552731 0.786791
0.328848 0.557350 0.790998
0.418031 0.562203 0.795419
0.510183 0.567218 0.799987
0.604629 0.572357 0.804668
0.700954 0.577599 0.809443
0.798878 0.582928 0.814297
0.898193 0.588332 0.819219
0.958384 0.591607 0.822203
0.262291 0.657779 0.802853
0.347179 0.662398 0.807061
0.436363 0.667251 0.811481
0.528515 0.672266 0.816049
0.622961 0.677405 0.820730
0.719286 0.682647 0.825505
0.817209 0.687976 0.830359
0.916525 0.693380 0.835282
0.976716 0.696655 0.838265
0.280926 0.764569 0.819181
0.365815 0.769188 0.823389
0.454998 0.774041 0.827810
0.547150 0.779056 0.832377
0.641597 0.784195 0.837059
0.737922 0.789437 0.841834
0.835845 0.794766 0.846687
0.935161 0.800170 0.851610
0.995352 0.803445 0.854594
0.299827 0.872877 0.835742
0.384716 0.877496 0.839950
0.473899 0.882349 0.844370
0.566051 0.887364 0.848938
0.660497 0.892503 0.853620
0.756823 0.897745 0.858394
0.854746 0.903074 0.863248
0.954062 0.908478 0.868171
1.000000 0.911754 0.871155
0.311282 0.938518 0.845779
0.396171 0.943137 0.849987
0.485354 0.947991 0.854407
0.577506 0.953005 0.858975
0.671952 0.958145 0.863656
0.768278 0.963386 0.868431
0.866201 0.968715 0.873285
0.965517 0.974119 0.878208
1.000000 0.977395 0.881191
