library/cube/Laser_Dreams_004.cube
# CINEGRADE LAB — Premium Cinematic LUT
# Title: Laser Dreams
# Category: Night Neon
# Description: Cyberpunk-inspired with neon glow enhancement and deep shadow work
# Mood: Electric, urban, futuristic
# Variant: 5
# Generated: 2026-05-21T16:12:23.208301
TITLE "Laser Dreams"
LUT_3D_SIZE 5
0.000000 0.012995 0.015995
0.134488 0.006644 0.009334
0.588484 0.000000 0.000000
1.000000 0.000000 0.000000
1.000000 0.000000 0.000000
0.000000 0.124840 0.000000
0.094876 0.119397 0.000000
0.609094 0.099264 0.000000
1.000000 0.081924 0.000000
1.000000 0.080337 0.000000
0.000000 0.494445 0.000000
0.050418 0.488497 0.000000
0.436142 0.472834 0.000000
1.000000 0.449207 0.000000
1.000000 0.447618 0.000000
0.000000 0.861405 0.000000
0.004816 0.855357 0.000000
0.401743 0.839382 0.000000
0.803642 0.823417 0.000000
1.000000 0.814150 0.000000
0.000000 1.000000 0.000000
0.000000 1.000000 0.000000
0.384039 1.000000 0.000000
0.789555 1.000000 0.000000
1.000000 1.000000 0.000000
0.000000 0.010468 0.184733
0.133414 0.004036 0.183824
0.590389 0.000000 0.164553
1.000000 0.000000 0.146688
1.000000 0.000000 0.143842
0.000000 0.168423 0.181186
0.093945 0.117327 0.121566
0.610229 0.096658 0.140330
1.000000 0.079292 0.122261
1.000000 0.077758 0.120080
0.000000 0.687079 0.103625
0.049376 0.486364 0.065397
0.436442 0.470705 0.049910
1.000000 0.446593 0.065336
1.000000 0.445072 0.063845
0.000000 0.859264 0.016591
0.003639 0.853273 0.011200
0.401434 0.837336 0.000000
0.803920 0.821418 0.000000
1.000000 0.811749 0.010025
0.000000 1.000000 0.000000
0.000000 1.000000 0.000000
0.383062 1.000000 0.000000
0.788703 1.000000 0.000000
1.000000 1.000000 0.000000
0.000000 0.003346 0.731431
0.097738 0.000000 0.579371
0.587477 0.000000 0.726831
1.000000 0.000000 0.706075
1.000000 0.000000 0.700617
0.000000 0.115348 0.698008
0.087691 0.109961 0.689316
0.606620 0.089403 0.693925
1.000000 0.072032 0.673599
1.000000 0.070568 0.669420
0.000000 0.678927 0.718016
0.015325 0.672778 0.709921
0.433135 0.465052 0.470611
1.000000 0.439407 0.610702
1.000000 0.437967 0.607827
0.000000 1.000000 0.656174
0.000000 1.000000 0.648926
0.397545 0.831800 0.413011
0.800578 0.815938 0.396781
1.000000 0.804822 0.550701
0.000000 1.000000 0.648312
0.000000 1.000000 0.397312
0.378525 1.000000 0.381565
0.784244 1.000000 0.366041
1.000000 1.000000 0.357502
0.000000 0.000000 1.000000
0.091211 0.000000 1.000000
0.449354 0.000000 0.987801
1.000000 0.000000 1.000000
1.000000 0.000000 1.000000
0.000000 0.109164 1.000000
0.082544 0.103729 1.000000
0.460037 0.091191 0.953405
1.000000 0.065948 1.000000
1.000000 0.064483 1.000000
0.000000 0.478407 1.000000
0.037632 0.472540 1.000000
0.427213 0.456868 1.000000
1.000000 0.433189 1.000000
1.000000 0.431780 1.000000
0.000000 1.000000 1.000000
0.000000 1.000000 1.000000
0.363877 1.000000 1.000000
0.797134 0.810495 0.812362
1.000000 0.798700 1.000000
0.000000 1.000000 1.000000
0.000000 1.000000 1.000000
0.371170 1.000000 1.000000
0.779679 1.000000 0.780914
1.000000 1.000000 0.772397
0.000000 0.000000 1.000000
0.091986 0.000000 1.000000
0.450082 0.000000 1.000000
0.820364 0.000000 1.000000
1.000000 0.000000 1.000000
0.000000 0.108725 1.000000
0.083171 0.103299 1.000000
0.459924 0.088322 1.000000
0.846089 0.073089 1.000000
1.000000 0.064016 1.000000
0.000000 0.477878 1.000000
0.038124 0.472044 1.000000
0.428901 0.456376 1.000000
0.826311 0.440606 1.000000
1.000000 0.431344 1.000000
0.000000 1.000000 1.000000
0.000000 0.839041 1.000000
0.391973 0.823204 1.000000
0.795919 0.807420 1.000000
1.000000 0.798413 1.000000
0.000000 1.000000 1.000000
0.000000 1.000000 1.000000
0.371568 1.000000 1.000000
0.777288 1.000000 1.000000
1.000000 1.000000 1.000000
