library/cube/Laser_Dreams_004.cube
# CINEGRADE LAB — Premium Cinematic LUT
# Title: Laser Dreams
# Category: Night Neon
# Description: Cyberpunk-inspired with neon glow enhancement and deep shadow work
# Mood: Electric, urban, futuristic
# Variant: 5
# Generated: 2026-05-21T16:12:23.208301
TITLE "Laser Dreams"
LUT_3D_SIZE 9
0.000000 0.012995 0.015995
0.000000 0.012314 0.015157
0.134488 0.006644 0.009334
0.359223 0.000000 0.000288
0.588484 0.000000 0.000000
0.822070 0.000000 0.000000
1.000000 0.000000 0.000000
1.000000 0.000000 0.000000
1.000000 0.000000 0.000000
0.000000 0.010776 0.013263
0.000000 0.010156 0.012500
0.139530 0.004375 0.006580
0.371537 0.000000 0.000000
0.607619 0.000000 0.000000
0.847576 0.000000 0.000000
1.000000 0.000000 0.000000
1.000000 0.000000 0.000000
1.000000 0.000000 0.000000
0.000000 0.124840 0.000000
0.000000 0.124159 0.000000
0.094876 0.119397 0.000000
0.366933 0.108770 0.000000
0.609094 0.099264 0.000000
0.854679 0.089655 0.000000
1.000000 0.081924 0.000000
1.000000 0.081114 0.000000
1.000000 0.080337 0.000000
0.000000 0.310084 0.000000
0.000000 0.309302 0.000000
0.072775 0.304338 0.000000
0.260733 0.296713 0.000000
0.598969 0.283596 0.000000
0.849427 0.273733 0.000000
1.000000 0.265814 0.000000
1.000000 0.264978 0.000000
1.000000 0.264182 0.000000
0.000000 0.494445 0.000000
0.000000 0.493606 0.000000
0.050418 0.488497 0.000000
0.242234 0.480686 0.000000
0.436142 0.472834 0.000000
0.841522 0.457249 0.000000
1.000000 0.449207 0.000000
1.000000 0.448389 0.000000
1.000000 0.447618 0.000000
0.000000 0.678145 0.000000
0.000000 0.677292 0.000000
0.027775 0.672096 0.000000
0.222860 0.664165 0.000000
0.419689 0.656212 0.000000
0.618109 0.648242 0.000000
1.000000 0.632324 0.000000
1.000000 0.631569 0.000000
1.000000 0.630866 0.000000
0.000000 0.861405 0.000000
0.000000 0.860583 0.000000
0.004816 0.855357 0.000000
0.202581 0.847371 0.000000
0.401743 0.839382 0.000000
0.602148 0.831395 0.000000
0.803642 0.823417 0.000000
1.000000 0.814740 0.000000
1.000000 0.814150 0.000000
0.000000 1.000000 0.000000
0.000000 1.000000 0.000000
0.000000 1.000000 0.000000
0.181774 1.000000 0.000000
0.382610 1.000000 0.000000
0.584348 1.000000 0.000000
0.786834 1.000000 0.000000
0.989913 0.997612 0.000000
1.000000 0.996783 0.000000
0.000000 1.000000 0.000000
0.000000 1.000000 0.000000
0.000000 1.000000 0.000000
0.182038 1.000000 0.000000
0.384039 1.000000 0.000000
0.586596 1.000000 0.000000
0.789555 1.000000 0.000000
0.992763 1.000000 0.000000
1.000000 1.000000 0.000000
0.000000 0.012762 0.015708
0.000000 0.012087 0.014877
0.135020 0.006405 0.009043
0.360523 0.000000 0.000000
0.590507 0.000000 0.000000
0.824771 0.000000 0.000000
1.000000 0.000000 0.000000
1.000000 0.000000 0.000000
1.000000 0.000000 0.000000
0.000000 0.010563 0.013002
0.000000 0.009950 0.012246
0.140011 0.004158 0.006318
0.372710 0.000000 0.000000
0.609439 0.000000 0.000000
0.849997 0.000000 0.000000
1.000000 0.000000 0.000000
1.000000 0.000000 0.000000
1.000000 0.000000 0.000000
0.000000 0.171020 0.000000
0.000000 0.123933 0.000000
0.095219 0.119167 0.000000
0.367984 0.108522 0.000000
0.610715 0.099003 0.000000
0.856824 0.089382 0.000000
1.000000 0.081645 0.000000
1.000000 0.080846 0.000000
1.000000 0.080081 0.000000
0.000000 0.309815 0.000000
0.000000 0.309043 0.000000
0.073085 0.304078 0.000000
0.261458 0.296448 0.000000
0.600393 0.283316 0.000000
0.851299 0.273446 0.000000
1.000000 0.265525 0.000000
1.000000 0.264703 0.000000
1.000000 0.263921 0.000000
0.000000 0.494156 0.000000
0.000000 0.493329 0.000000
0.050694 0.488223 0.000000
0.242864 0.480412 0.000000
0.437092 0.472560 0.000000
0.843118 0.456963 0.000000
1.000000 0.448924 0.000000
1.000000 0.448122 0.000000
1.000000 0.447366 0.000000
0.000000 0.677851 0.000000
0.000000 0.677012 0.000000
0.028014 0.671823 0.000000
0.223395 0.663895 0.000000
0.420485 0.655946 0.000000
0.619130 0.647982 0.000000
1.000000 0.632062 0.000000
1.000000 0.631325 0.000000
1.000000 0.630640 0.000000
0.000000 0.861121 0.000000
0.000000 0.860315 0.000000
0.005017 0.855099 0.000000
0.203018 0.847121 0.000000
0.402382 0.839141 0.000000
0.602953 0.831164 0.000000
0.804579 0.823198 0.000000
1.000000 0.814533 0.000000
1.000000 0.813963 0.000000
0.000000 1.000000 0.000000
0.000000 1.000000 0.000000
0.000000 1.000000 0.000000
0.182087 1.000000 0.000000
0.383067 1.000000 0.000000
0.584915 1.000000 0.000000
0.787476 1.000000 0.000000
0.990595 0.997573 0.000000
1.000000 0.996749 0.000000
0.000000 1.000000 0.000000
0.000000 1.000000 0.000000
0.000000 1.000000 0.000000
0.182252 1.000000 0.000000
0.384339 1.000000 0.000000
0.586947 1.000000 0.000000
0.789923 1.000000 0.000000
0.993111 1.000000 0.000000
1.000000 1.000000 0.000000
0.000000 0.010468 0.184733
0.000000 0.010217 0.149652
0.133414 0.004036 0.183824
0.359684 0.000000 0.174252
0.590389 0.000000 0.164553
0.825328 0.000000 0.154735
1.000000 0.000000 0.146688
1.000000 0.000000 0.145241
1.000000 0.000000 0.143842
0.000000 0.008310 0.180443
0.000000 0.007708 0.179247
0.138374 0.001831 0.179547
0.371763 0.000000 0.169836
0.609136 0.000000 0.160015
0.850292 0.000000 0.150092
1.000000 0.000000 0.142010
1.000000 0.000000 0.140723
1.000000 0.000000 0.139484
0.000000 0.168423 0.181186
0.000000 0.167716 0.180069
0.093945 0.117327 0.121566
0.366932 0.106186 0.150230
0.610229 0.096658 0.140330
0.856860 0.087030 0.130344
1.000000 0.079292 0.122261
1.000000 0.078509 0.121147
1.000000 0.077758 0.120080
0.000000 0.428391 0.142088
0.000000 0.427522 0.141131
0.071791 0.302222 0.093220
0.260575 0.294590 0.085509
0.599724 0.280967 0.111551
0.851074 0.271095 0.101533
1.000000 0.263177 0.093476
1.000000 0.262372 0.092538
1.000000 0.261606 0.091646
0.000000 0.687079 0.103625
0.000000 0.491463 0.070404
0.049376 0.486364 0.065397
0.241898 0.478554 0.057675
0.436442 0.470705 0.049910
0.842628 0.454625 0.073352
1.000000 0.446593 0.065336
1.000000 0.445809 0.064568
1.000000 0.445072 0.063845
0.000000 0.675975 0.043624
0.000000 0.675153 0.043031
0.026668 0.669974 0.038067
0.222340 0.662052 0.030350
0.419688 0.654110 0.022601
0.618555 0.646154 0.014826
1.000000 0.629761 0.037812
1.000000 0.629044 0.037208
1.000000 0.628379 0.036648
0.000000 0.859264 0.016591
0.000000 0.858477 0.016113
0.003639 0.853273 0.011200
0.201873 0.845305 0.003503
0.401434 0.837336 0.000000
0.602168 0.829371 0.000000
0.803920 0.821418 0.000000
1.000000 0.812297 0.010427
1.000000 0.811749 0.010025
0.000000 1.000000 0.000000
0.000000 1.000000 0.000000
0.000000 1.000000 0.000000
0.180824 1.000000 0.000000
0.381944 1.000000 0.000000
0.583897 1.000000 0.000000
0.786527 1.000000 0.000000
0.989681 0.995974 0.000000
1.000000 0.994688 0.000000
0.000000 1.000000 0.000000
0.000000 1.000000 0.000000
0.000000 1.000000 0.000000
0.180894 1.000000 0.000000
0.383062 1.000000 0.000000
0.585716 1.000000 0.000000
0.788703 1.000000 0.000000
0.991867 1.000000 0.000000
1.000000 1.000000 0.000000
0.000000 0.006903 0.458352
0.000000 0.006256 0.456253
0.099982 0.002807 0.362183
0.357518 0.000000 0.456411
0.588940 0.000000 0.445941
0.824550 0.000000 0.435378
1.000000 0.000000 0.426615
1.000000 0.000000 0.424496
1.000000 0.000000 0.422448
0.000000 0.004797 0.451521
0.000000 0.004210 0.449617
0.103855 0.000683 0.356401
0.369500 0.000000 0.449587
0.607512 0.000000 0.439075
0.849262 0.000000 0.428486
1.000000 0.000000 0.419767
1.000000 0.000000 0.417885
1.000000 0.000000 0.416073
0.000000 0.118845 0.429656
0.000000 0.118200 0.427964
0.090616 0.113439 0.422191
0.364573 0.102559 0.427836
0.608433 0.093026 0.417325
0.855579 0.083394 0.406751
1.000000 0.075658 0.398111
1.000000 0.074892 0.396479
1.000000 0.074159 0.394916
0.000000 0.424319 0.451559
0.000000 0.423470 0.449951
0.051253 0.418412 0.444163
0.258694 0.291748 0.297563
0.597753 0.277340 0.386740
0.849541 0.267468 0.376215
1.000000 0.259555 0.367679
1.000000 0.258769 0.366299
1.000000 0.258022 0.364988
0.000000 0.682998 0.411017
0.000000 0.682052 0.409645
0.018783 0.676816 0.404002
0.239938 0.475719 0.268483
0.434795 0.467875 0.260371
0.840838 0.451019 0.346565
1.000000 0.442995 0.338148
1.000000 0.442232 0.337015
1.000000 0.441515 0.335950
0.000000 0.938912 0.371600
0.000000 0.938108 0.370431
0.024339 0.667150 0.248131
0.220298 0.659236 0.240109
0.417898 0.651303 0.232075
0.616982 0.643356 0.224034
1.000000 0.626200 0.309490
1.000000 0.625504 0.308597
1.000000 0.624861 0.307772
0.000000 1.000000 0.352405
0.000000 0.855668 0.225523
0.001282 0.850479 0.220352
0.199744 0.842521 0.212411
0.399497 0.834564 0.204470
0.600388 0.826613 0.196533
0.802263 0.818674 0.188607
1.000000 0.808807 0.281016
1.000000 0.808281 0.280424
0.000000 1.000000 0.349115
0.000000 1.000000 0.198738
0.000000 1.000000 0.193608
0.178580 1.000000 0.185694
0.379835 1.000000 0.177798
0.581887 1.000000 0.169925
0.784582 1.000000 0.162081
0.987765 0.993408 0.154271
1.000000 0.991369 0.253962
0.000000 1.000000 0.194992
0.000000 1.000000 0.194499
0.000000 1.000000 0.189503
0.178558 1.000000 0.181710
0.380801 1.000000 0.173949
0.583495 1.000000 0.166225
0.786487 1.000000 0.158543
0.989621 1.000000 0.150910
1.000000 1.000000 0.150046
0.000000 0.003346 0.731431
0.000000 0.002715 0.728566
0.097738 0.000000 0.579371
0.272982 0.000000 0.570621
0.587477 0.000000 0.726831
0.823749 0.000000 0.715538
1.000000 0.000000 0.706075
1.000000 0.000000 0.703300
1.000000 0.000000 0.700617
0.000000 0.001292 0.722109
0.000000 0.000720 0.719513
0.099874 0.000000 0.712962
0.282192 0.000000 0.563004
0.605873 0.000000 0.717688
0.848209 0.000000 0.706449
1.000000 0.000000 0.697109
1.000000 0.000000 0.694647
1.000000 0.000000 0.692279
0.000000 0.115348 0.698008
0.000000 0.114718 0.695697
0.087691 0.109961 0.689316
0.274781 0.104271 0.540559
0.606620 0.089403 0.693925
0.854274 0.079766 0.682781
1.000000 0.072032 0.673599
1.000000 0.071284 0.671463
1.000000 0.070568 0.669420
0.000000 0.420256 0.760578
0.000000 0.299797 0.663195
0.065520 0.294850 0.657002
0.255115 0.287221 0.648178
0.595765 0.273722 0.661587
0.847983 0.263849 0.650570
1.000000 0.255942 0.641571
1.000000 0.255175 0.639764
1.000000 0.254446 0.638050
0.000000 0.678927 0.718016
0.000000 0.678002 0.716095
0.015325 0.672778 0.709921
0.208560 0.664842 0.701079
0.433135 0.465052 0.470611
0.630095 0.457181 0.462165
1.000000 0.439407 0.610702
1.000000 0.438664 0.609219
1.000000 0.437967 0.607827
0.000000 0.934911 0.676854
0.000000 0.934127 0.675223
0.000000 0.928971 0.669263
0.179017 0.921065 0.660599
0.416094 0.648503 0.441367
0.615390 0.640566 0.433071
1.000000 0.622648 0.580962
1.000000 0.621973 0.579796
1.000000 0.621351 0.578720
0.000000 1.000000 0.656174
0.000000 1.000000 0.654742
0.000000 1.000000 0.648926
0.197606 0.839745 0.421164
0.397545 0.831800 0.413011
0.598588 0.823862 0.404881
0.800578 0.815938 0.396781
1.000000 0.805325 0.551466
1.000000 0.804822 0.550701
0.000000 1.000000 0.651723
0.000000 1.000000 0.650601
0.000000 1.000000 0.401893
0.176327 1.000000 0.393811
0.377711 1.000000 0.385766
0.579857 1.000000 0.377763
0.782610 0.998343 0.369807
0.985816 0.990845 0.361906
1.000000 0.988054 0.523812
0.000000 1.000000 0.648312
0.000000 1.000000 0.647499
0.000000 1.000000 0.397312
0.176212 1.000000 0.389413
0.378525 1.000000 0.381565
0.581254 1.000000 0.373772
0.784244 1.000000 0.366041
0.987342 1.000000 0.358377
1.000000 1.000000 0.357502
0.000000 0.000000 1.000000
0.000000 0.000000 1.000000
0.093099 0.000000 0.992926
0.271313 0.000000 0.786822
0.450435 0.000000 0.777451
0.823036 0.000000 0.986216
1.000000 0.000000 0.976642
1.000000 0.000000 0.973779
1.000000 0.000000 0.971014
0.000000 0.000000 0.992215
0.000000 0.000000 0.988942
0.096959 0.000000 0.981723
0.280447 0.000000 0.777439
0.464517 0.000000 0.768176
0.847219 0.000000 0.976834
1.000000 0.000000 0.967399
1.000000 0.000000 0.964864
1.000000 0.000000 0.962426
0.000000 0.111859 0.965927
0.000000 0.111244 0.963012
0.084766 0.106491 0.956039
0.270610 0.099096 0.946505
0.461412 0.093973 0.744311
0.853013 0.076214 0.952924
1.000000 0.068476 0.943662
1.000000 0.067740 0.941467
1.000000 0.067036 0.939368
0.000000 0.297024 0.931198
0.000000 0.296316 0.928648
0.062585 0.291376 0.921937
0.252576 0.283748 0.912613
0.447162 0.278397 0.711900
0.846451 0.260289 0.920518
1.000000 0.252382 0.911455
1.000000 0.251629 0.909602
1.000000 0.250915 0.907844
0.000000 0.675099 1.000000
0.000000 0.674175 1.000000
0.040126 0.475542 0.889130
0.233676 0.467748 0.880031
0.429142 0.459918 0.870962
0.628685 0.454371 0.671884
1.000000 0.435858 0.880450
1.000000 0.435131 0.878933
1.000000 0.434450 0.877511
0.000000 0.931089 0.967891
0.000000 0.930308 0.967230
0.000000 0.925147 0.962183
0.175931 0.917235 0.954378
0.374008 0.909307 0.946551
0.613777 0.637784 0.641944
0.814537 0.629851 0.633443
1.000000 0.618468 0.849431
1.000000 0.617864 0.848339
0.000000 1.000000 0.950243
0.000000 1.000000 0.949614
0.000000 1.000000 0.944544
0.164466 1.000000 0.936694
0.364498 1.000000 0.928841
0.596767 0.821120 0.613105
0.798867 0.813210 0.604842
1.000000 0.801861 0.821065
1.000000 0.801378 0.820297
0.000000 1.000000 0.948290
0.000000 1.000000 0.947800
0.000000 1.000000 0.942822
0.167585 1.000000 0.935044
0.375573 1.000000 0.593638
0.577806 1.000000 0.585517
0.780612 0.995780 0.577463
0.983835 0.988284 0.569481
1.000000 0.984743 0.793419
0.000000 1.000000 0.946805
0.000000 1.000000 0.946453
0.000000 1.000000 0.941579
0.173858 1.000000 0.597049
0.376234 1.000000 0.589125
0.578991 1.000000 0.581276
0.781975 1.000000 0.573507
0.985031 1.000000 0.565825
1.000000 1.000000 0.564951
0.000000 0.000000 1.000000
0.000000 0.000000 1.000000
0.091211 0.000000 1.000000
0.269702 0.000000 0.997411
0.449354 0.000000 0.987801
0.823554 0.000000 1.000000
1.000000 0.000000 1.000000
1.000000 0.000000 1.000000
1.000000 0.000000 1.000000
0.000000 0.000000 1.000000
0.000000 0.000000 1.000000
0.094894 0.000000 1.000000
0.276476 0.000000 1.000000
0.463287 0.000000 0.977852
0.650597 0.000000 0.968371
1.000000 0.000000 1.000000
1.000000 0.000000 1.000000
1.000000 0.000000 1.000000
0.000000 0.109164 1.000000
0.000000 0.108521 1.000000
0.082544 0.103729 1.000000
0.268797 0.096291 1.000000
0.460037 0.091191 0.953405
0.651320 0.083644 0.944107
1.000000 0.065948 1.000000
1.000000 0.065199 1.000000
1.000000 0.064483 1.000000
0.000000 0.294181 1.000000
0.000000 0.293450 1.000000
0.060220 0.288479 1.000000
0.250566 0.280818 1.000000
0.443142 0.273104 1.000000
0.640319 0.267868 0.911410
1.000000 0.249771 1.000000
1.000000 0.249010 1.000000
1.000000 0.248290 1.000000
0.000000 0.478407 1.000000
0.000000 0.477634 1.000000
0.037632 0.472540 1.000000
0.231481 0.464721 1.000000
0.427213 0.456868 1.000000
0.627274 0.451586 0.879960
1.000000 0.433189 1.000000
1.000000 0.432461 1.000000
1.000000 0.431780 1.000000
0.000000 0.929721 1.000000
0.000000 0.928945 1.000000
0.000000 0.923783 1.000000
0.211513 0.648222 1.000000
0.409813 0.640295 1.000000
0.609494 0.632359 1.000000
0.813078 0.627097 0.841144
1.000000 0.615774 1.000000
1.000000 0.615176 1.000000
0.000000 1.000000 1.000000
0.000000 1.000000 1.000000
0.000000 1.000000 1.000000
0.163677 1.000000 1.000000
0.363877 1.000000 1.000000
0.565117 1.000000 1.000000
0.797134 0.810495 0.812362
1.000000 0.802618 0.804110
1.000000 0.798700 1.000000
0.000000 1.000000 1.000000
0.000000 1.000000 1.000000
0.000000 1.000000 1.000000
0.166681 1.000000 1.000000
0.368286 1.000000 1.000000
0.570584 1.000000 1.000000
0.778589 0.993222 0.784873
0.981822 0.985728 0.776878
1.000000 0.982172 1.000000
0.000000 1.000000 1.000000
0.000000 1.000000 1.000000
0.000000 1.000000 1.000000
0.168744 1.000000 1.000000
0.371170 1.000000 1.000000
0.576709 1.000000 0.788676
0.779679 1.000000 0.780914
0.982686 1.000000 0.773246
1.000000 1.000000 0.772397
0.000000 0.000000 1.000000
0.000000 0.000000 1.000000
0.091601 0.000000 1.000000
0.268499 0.000000 1.000000
0.448827 0.000000 1.000000
0.632046 0.000000 1.000000
1.000000 0.000000 1.000000
1.000000 0.000000 1.000000
1.000000 0.000000 1.000000
0.000000 0.000000 1.000000
0.000000 0.000000 1.000000
0.095244 0.000000 1.000000
0.277323 0.000000 1.000000
0.462496 0.000000 1.000000
0.650203 0.000000 1.000000
1.000000 0.000000 1.000000
1.000000 0.000000 1.000000
1.000000 0.000000 1.000000
0.000000 0.108943 1.000000
0.000000 0.108307 1.000000
0.082859 0.103512 1.000000
0.269550 0.096067 1.000000
0.458784 0.088550 1.000000
0.650622 0.081185 1.000000
0.844479 0.073547 1.000000
1.000000 0.064952 1.000000
1.000000 0.064248 1.000000
0.000000 0.293929 1.000000
0.000000 0.293209 1.000000
0.060503 0.288238 1.000000
0.251227 0.280573 1.000000
0.444147 0.272856 1.000000
0.639331 0.265318 1.000000
0.836179 0.257517 1.000000
1.000000 0.248761 1.000000
1.000000 0.248054 1.000000
0.000000 0.478141 1.000000
0.000000 0.477379 1.000000
0.037880 0.472290 1.000000
0.232049 0.464471 1.000000
0.428065 0.456619 1.000000
0.625775 0.448741 1.000000
0.825256 0.441074 1.000000
1.000000 0.432225 1.000000
1.000000 0.431559 1.000000
0.000000 0.929453 1.000000
0.000000 0.661040 1.000000
0.014960 0.655890 1.000000
0.211985 0.647982 1.000000
0.410510 0.640061 1.000000
0.610381 0.632132 1.000000
0.811680 0.624440 1.000000
1.000000 0.615565 1.000000
1.000000 0.614985 1.000000
0.000000 1.000000 1.000000
0.000000 1.000000 1.000000
0.000000 1.000000 1.000000
0.164023 1.000000 1.000000
0.391450 0.823403 1.000000
0.592893 0.815489 1.000000
0.795180 0.807594 1.000000
0.998399 0.799963 1.000000
1.000000 0.798553 1.000000
0.000000 1.000000 1.000000
0.000000 1.000000 1.000000
0.000000 1.000000 1.000000
0.166932 1.000000 1.000000
0.368646 1.000000 1.000000
0.571019 1.000000 1.000000
0.773896 1.000000 1.000000
0.979789 0.983187 0.983203
1.000000 0.982394 0.982404
0.000000 1.000000 1.000000
0.000000 1.000000 1.000000
0.000000 1.000000 1.000000
0.168900 1.000000 1.000000
0.371377 1.000000 1.000000
0.574166 1.000000 1.000000
0.777113 1.000000 1.000000
0.980309 1.000000 0.980586
1.000000 1.000000 0.979847
0.000000 0.000000 1.000000
0.000000 0.000000 1.000000
0.091986 0.000000 1.000000
0.269434 0.000000 1.000000
0.450082 0.000000 1.000000
0.633777 0.000000 1.000000
0.820364 0.000000 1.000000
1.000000 0.000000 1.000000
1.000000 0.000000 1.000000
0.000000 0.000000 1.000000
0.000000 0.000000 1.000000
0.095591 0.000000 1.000000
0.278160 0.000000 1.000000
0.463584 0.000000 1.000000
0.651708 0.000000 1.000000
0.842378 0.000000 1.000000
1.000000 0.000000 1.000000
1.000000 0.000000 1.000000
0.000000 0.108725 1.000000
0.000000 0.108096 1.000000
0.083171 0.103299 1.000000
0.270294 0.095845 1.000000
0.459924 0.088322 1.000000
0.651907 0.080734 1.000000
0.846089 0.073089 1.000000
1.000000 0.064709 1.000000
1.000000 0.064016 1.000000
0.000000 0.293681 1.000000
0.000000 0.292971 1.000000
0.060782 0.288001 1.000000
0.251879 0.280332 1.000000
0.445136 0.272613 1.000000
0.640398 0.264849 1.000000
0.837512 0.257046 1.000000
1.000000 0.249210 1.000000
1.000000 0.247823 1.000000
0.000000 0.477878 1.000000
0.000000 0.477129 1.000000
0.038124 0.472044 1.000000
0.232606 0.464225 1.000000
0.428901 0.456376 1.000000
0.626854 0.448501 1.000000
0.826311 0.440606 1.000000
1.000000 0.432697 1.000000
1.000000 0.431344 1.000000
0.000000 0.661536 1.000000
0.000000 0.660793 1.000000
0.015167 0.655650 1.000000
0.212446 0.647747 1.000000
0.411190 0.639832 1.000000
0.611245 0.631911 1.000000
0.812457 0.623990 1.000000
1.000000 0.616074 1.000000
1.000000 0.614800 1.000000
0.000000 1.000000 1.000000
0.000000 1.000000 1.000000
0.000000 0.839041 1.000000
0.191369 0.831118 1.000000
0.391973 0.823204 1.000000
0.593541 0.815302 1.000000
0.795919 0.807420 1.000000
0.998951 0.799562 1.000000
1.000000 0.798413 1.000000
0.000000 1.000000 1.000000
0.000000 1.000000 1.000000
0.000000 1.000000 1.000000
0.167174 1.000000 1.000000
0.368991 1.000000 1.000000
0.573847 0.997904 1.000000
0.776762 0.990412 1.000000
0.979992 0.982916 1.000000
1.000000 0.982129 1.000000
0.000000 1.000000 1.000000
0.000000 1.000000 1.000000
0.000000 1.000000 1.000000
0.169046 1.000000 1.000000
0.371568 1.000000 1.000000
0.574367 1.000000 1.000000
0.777288 1.000000 1.000000
0.980178 1.000000 1.000000
1.000000 1.000000 1.000000
