library/cube/Laser_Dreams_004.cube
# CINEGRADE LAB — Premium Cinematic LUT
# Title: Laser Dreams
# Category: Night Neon
# Description: Cyberpunk-inspired with neon glow enhancement and deep shadow work
# Mood: Electric, urban, futuristic
# Variant: 5
# Generated: 2026-05-21T16:12:23.208301
TITLE "Laser Dreams"
LUT_3D_SIZE 33
0.000000 0.012995 0.015995
0.000000 0.012823 0.015784
0.000000 0.012652 0.015573
0.000000 0.012483 0.015364
0.000000 0.012314 0.015157
0.000000 0.012146 0.014950
0.023880 0.011035 0.013800
0.079035 0.008844 0.011572
0.134488 0.006644 0.009334
0.190237 0.004434 0.007086
0.246277 0.002215 0.004829
0.302607 0.000000 0.002563
0.359223 0.000000 0.000288
0.416122 0.000000 0.000000
0.473301 0.000000 0.000000
0.530756 0.000000 0.000000
0.588484 0.000000 0.000000
0.646483 0.000000 0.000000
0.704749 0.000000 0.000000
0.763279 0.000000 0.000000
0.822070 0.000000 0.000000
0.881119 0.000000 0.000000
0.940422 0.000000 0.000000
0.999977 0.000000 0.000000
1.000000 0.000000 0.000000
1.000000 0.000000 0.000000
1.000000 0.000000 0.000000
1.000000 0.000000 0.000000
1.000000 0.000000 0.000000
1.000000 0.000000 0.000000
1.000000 0.000000 0.000000
1.000000 0.000000 0.000000
1.000000 0.000000 0.000000
0.000000 0.012421 0.015288
0.000000 0.012253 0.015081
0.000000 0.012086 0.014876
0.000000 0.011920 0.014671
0.000000 0.011755 0.014469
0.000000 0.011591 0.014267
0.024201 0.010475 0.013113
0.079852 0.008270 0.010871
0.135795 0.006056 0.008620
0.192027 0.003832 0.006359
0.248543 0.001599 0.004090
0.305342 0.000000 0.001811
0.362420 0.000000 0.000000
0.419773 0.000000 0.000000
0.477399 0.000000 0.000000
0.535295 0.000000 0.000000
0.593457 0.000000 0.000000
0.651882 0.000000 0.000000
0.710568 0.000000 0.000000
0.769510 0.000000 0.000000
0.828707 0.000000 0.000000
0.888154 0.000000 0.000000
0.947848 0.000000 0.000000
1.000000 0.000000 0.000000
1.000000 0.000000 0.000000
1.000000 0.000000 0.000000
1.000000 0.000000 0.000000
1.000000 0.000000 0.000000
1.000000 0.000000 0.000000
1.000000 0.000000 0.000000
1.000000 0.000000 0.000000
1.000000 0.000000 0.000000
1.000000 0.000000 0.000000
0.000000 0.011860 0.014597
0.000000 0.011695 0.014395
0.000000 0.011532 0.014194
0.000000 0.011370 0.013995
0.000000 0.011209 0.013797
0.000000 0.011049 0.013600
0.024514 0.009928 0.012442
0.080650 0.007709 0.010187
0.137071 0.005481 0.007923
0.193774 0.003244 0.005650
0.250754 0.000998 0.003368
0.308010 0.000000 0.001077
0.365537 0.000000 0.000000
0.423334 0.000000 0.000000
0.481395 0.000000 0.000000
0.539720 0.000000 0.000000
0.598304 0.000000 0.000000
0.657144 0.000000 0.000000
0.716237 0.000000 0.000000
0.775580 0.000000 0.000000
0.835170 0.000000 0.000000
0.895003 0.000000 0.000000
0.955077 0.000000 0.000000
1.000000 0.000000 0.000000
1.000000 0.000000 0.000000
1.000000 0.000000 0.000000
1.000000 0.000000 0.000000
1.000000 0.000000 0.000000
1.000000 0.000000 0.000000
1.000000 0.000000 0.000000
1.000000 0.000000 0.000000
1.000000 0.000000 0.000000
1.000000 0.000000 0.000000
0.000000 0.011311 0.013922
0.000000 0.011151 0.013725
0.000000 0.010991 0.013529
0.000000 0.010833 0.013334
0.000000 0.010676 0.013140
0.000000 0.010520 0.012949
0.024819 0.009395 0.011788
0.081429 0.007162 0.009520
0.138316 0.004921 0.007243
0.195478 0.002671 0.004958
0.252910 0.000412 0.002664
0.310611 0.000000 0.000362
0.368576 0.000000 0.000000
0.426804 0.000000 0.000000
0.485290 0.000000 0.000000
0.544031 0.000000 0.000000
0.603025 0.000000 0.000000
0.662267 0.000000 0.000000
0.721756 0.000000 0.000000
0.781488 0.000000 0.000000
0.841460 0.000000 0.000000
0.901668 0.000000 0.000000
0.962110 0.000000 0.000000
1.000000 0.000000 0.000000
1.000000 0.000000 0.000000
1.000000 0.000000 0.000000
1.000000 0.000000 0.000000
1.000000 0.000000 0.000000
1.000000 0.000000 0.000000
1.000000 0.000000 0.000000
1.000000 0.000000 0.000000
1.000000 0.000000 0.000000
1.000000 0.000000 0.000000
0.000000 0.010776 0.013263
0.000000 0.010619 0.013070
0.000000 0.010464 0.012879
0.000000 0.010309 0.012689
0.000000 0.010156 0.012500
0.000000 0.010004 0.012313
0.025117 0.008874 0.011149
0.082188 0.006629 0.008869
0.139530 0.004375 0.006580
0.197139 0.002112 0.004283
0.255011 0.000000 0.001978
0.313145 0.000000 0.000000
0.371537 0.000000 0.000000
0.430183 0.000000 0.000000
0.489081 0.000000 0.000000
0.548228 0.000000 0.000000
0.607619 0.000000 0.000000
0.667253 0.000000 0.000000
0.727126 0.000000 0.000000
0.787235 0.000000 0.000000
0.847576 0.000000 0.000000
0.908147 0.000000 0.000000
0.968945 0.000000 0.000000
1.000000 0.000000 0.000000
1.000000 0.000000 0.000000
1.000000 0.000000 0.000000
1.000000 0.000000 0.000000
1.000000 0.000000 0.000000
1.000000 0.000000 0.000000
1.000000 0.000000 0.000000
1.000000 0.000000 0.000000
1.000000 0.000000 0.000000
1.000000 0.000000 0.000000
0.000000 0.010253 0.012620
0.000000 0.010100 0.012432
0.000000 0.009949 0.012245
0.000000 0.009798 0.012060
0.000000 0.009649 0.011876
0.000000 0.009501 0.011694
0.025408 0.008367 0.010527
0.082928 0.006109 0.008235
0.140712 0.003842 0.005935
0.198756 0.001567 0.003626
0.257058 0.000000 0.001310
0.315613 0.000000 0.000000
0.374419 0.000000 0.000000
0.433473 0.000000 0.000000
0.492771 0.000000 0.000000
0.552311 0.000000 0.000000
0.612088 0.000000 0.000000
0.672101 0.000000 0.000000
0.732346 0.000000 0.000000
0.792820 0.000000 0.000000
0.853520 0.000000 0.000000
0.914442 0.000000 0.000000
0.975583 0.000000 0.000000
1.000000 0.000000 0.000000
1.000000 0.000000 0.000000
1.000000 0.000000 0.000000
1.000000 0.000000 0.000000
1.000000 0.000000 0.000000
1.000000 0.000000 0.000000
1.000000 0.000000 0.000000
1.000000 0.000000 0.000000
1.000000 0.000000 0.000000
1.000000 0.000000 0.000000
0.000000 0.031818 0.009006
0.000000 0.031662 0.008823
0.000000 0.031508 0.008642
0.000000 0.031356 0.008463
0.000000 0.031204 0.008284
0.000000 0.031054 0.008107
0.016464 0.030140 0.007167
0.080667 0.027634 0.004636
0.138883 0.025350 0.002325
0.197351 0.023057 0.000007
0.256070 0.020757 0.000000
0.315035 0.018448 0.000000
0.374245 0.016132 0.000000
0.433695 0.013808 0.000000
0.493382 0.011476 0.000000
0.553304 0.009138 0.000000
0.613457 0.006791 0.000000
0.673838 0.004438 0.000000
0.734444 0.002078 0.000000
0.795272 0.000000 0.000000
0.856318 0.000000 0.000000
0.917580 0.000000 0.000000
0.979054 0.000000 0.000000
1.000000 0.000000 0.000000
1.000000 0.000000 0.000000
1.000000 0.000000 0.000000
1.000000 0.000000 0.000000
1.000000 0.000000 0.000000
1.000000 0.000000 0.000000
1.000000 0.000000 0.000000
1.000000 0.000000 0.000000
1.000000 0.000000 0.000000
1.000000 0.000000 0.000000
0.000000 0.078365 0.002028
0.000000 0.078201 0.001852
0.000000 0.078038 0.001678
0.000000 0.077877 0.001504
0.000000 0.077717 0.001332
0.000000 0.077558 0.001162
0.010336 0.076630 0.000223
0.055254 0.074824 0.000000
0.133649 0.071790 0.000000
0.192531 0.069475 0.000000
0.251656 0.067151 0.000000
0.311021 0.064820 0.000000
0.370623 0.062482 0.000000
0.430458 0.060136 0.000000
0.490523 0.057783 0.000000
0.550816 0.055423 0.000000
0.611333 0.053056 0.000000
0.672071 0.050683 0.000000
0.733027 0.048302 0.000000
0.794198 0.045915 0.000000
0.855580 0.043522 0.000000
0.917171 0.041122 0.000000
0.978967 0.038716 0.000000
1.000000 0.036304 0.000000
1.000000 0.035848 0.000000
1.000000 0.035646 0.000000
1.000000 0.035445 0.000000
1.000000 0.035247 0.000000
1.000000 0.035051 0.000000
1.000000 0.034857 0.000000
1.000000 0.034665 0.000000
1.000000 0.034474 0.000000
1.000000 0.034286 0.000000
0.000000 0.124840 0.000000
0.000000 0.124668 0.000000
0.000000 0.124497 0.000000
0.000000 0.124327 0.000000
0.000000 0.124159 0.000000
0.000000 0.123993 0.000000
0.004213 0.123052 0.000000
0.049451 0.121227 0.000000
0.094876 0.119397 0.000000
0.187679 0.115827 0.000000
0.247199 0.113482 0.000000
0.306951 0.111130 0.000000
0.366933 0.108770 0.000000
0.427141 0.106404 0.000000
0.487573 0.104031 0.000000
0.548225 0.101651 0.000000
0.609094 0.099264 0.000000
0.670177 0.096872 0.000000
0.731471 0.094472 0.000000
0.792972 0.092067 0.000000
0.854679 0.089655 0.000000
0.916586 0.087238 0.000000
0.978692 0.084814 0.000000
1.000000 0.082385 0.000000
1.000000 0.081924 0.000000
1.000000 0.081718 0.000000
1.000000 0.081515 0.000000
1.000000 0.081313 0.000000
1.000000 0.081114 0.000000
1.000000 0.080916 0.000000
1.000000 0.080721 0.000000
1.000000 0.080528 0.000000
1.000000 0.080337 0.000000
0.000000 0.171246 0.000000
0.000000 0.171066 0.000000
0.000000 0.170888 0.000000
0.000000 0.170711 0.000000
0.000000 0.170536 0.000000
0.000000 0.170362 0.000000
0.000000 0.169408 0.000000
0.043643 0.167565 0.000000
0.089373 0.165717 0.000000
0.135281 0.163864 0.000000
0.181365 0.162006 0.000000
0.302824 0.157380 0.000000
0.363174 0.155001 0.000000
0.423744 0.152615 0.000000
0.484530 0.150223 0.000000
0.545529 0.147824 0.000000
0.606738 0.145419 0.000000
0.668154 0.143008 0.000000
0.729774 0.140591 0.000000
0.791595 0.138168 0.000000
0.853613 0.135740 0.000000
0.915825 0.133305 0.000000
0.978229 0.130865 0.000000
1.000000 0.128420 0.000000
1.000000 0.127955 0.000000
1.000000 0.127747 0.000000
1.000000 0.127540 0.000000
1.000000 0.127336 0.000000
1.000000 0.127134 0.000000
1.000000 0.126935 0.000000
1.000000 0.126737 0.000000
1.000000 0.126542 0.000000
1.000000 0.126349 0.000000
0.000000 0.217586 0.000000
0.000000 0.217399 0.000000
0.000000 0.217215 0.000000
0.000000 0.217031 0.000000
0.000000 0.216849 0.000000
0.000000 0.216669 0.000000
0.000000 0.215704 0.000000
0.037830 0.213844 0.000000
0.083855 0.211979 0.000000
0.130054 0.210109 0.000000
0.176423 0.208234 0.000000
0.222961 0.206355 0.000000
0.359346 0.201177 0.000000
0.420265 0.198773 0.000000
0.481394 0.196362 0.000000
0.542728 0.193946 0.000000
0.604266 0.191524 0.000000
0.666003 0.189096 0.000000
0.727937 0.186662 0.000000
0.790065 0.184223 0.000000
0.852383 0.181778 0.000000
0.914888 0.179329 0.000000
0.977578 0.176874 0.000000
1.000000 0.174414 0.000000
1.000000 0.173945 0.000000
1.000000 0.173734 0.000000
1.000000 0.173526 0.000000
1.000000 0.173320 0.000000
1.000000 0.173116 0.000000
1.000000 0.172915 0.000000
1.000000 0.172716 0.000000
1.000000 0.172519 0.000000
1.000000 0.172324 0.000000
0.000000 0.263864 0.000000
0.000000 0.263672 0.000000
0.000000 0.263481 0.000000
0.000000 0.263291 0.000000
0.000000 0.263104 0.000000
0.000000 0.262918 0.000000
0.000000 0.261942 0.000000
0.032010 0.260065 0.000000
0.078323 0.258184 0.000000
0.124803 0.256299 0.000000
0.171448 0.254409 0.000000
0.218256 0.252515 0.000000
0.265225 0.250616 0.000000
0.416706 0.244880 0.000000
0.478164 0.242453 0.000000
0.539822 0.240020 0.000000
0.601676 0.237582 0.000000
0.663723 0.235138 0.000000
0.725959 0.232689 0.000000
0.788382 0.230234 0.000000
0.850988 0.227775 0.000000
0.913774 0.225311 0.000000
0.976738 0.222842 0.000000
1.000000 0.220368 0.000000
1.000000 0.219896 0.000000
1.000000 0.219685 0.000000
1.000000 0.219475 0.000000
1.000000 0.219268 0.000000
1.000000 0.219063 0.000000
1.000000 0.218861 0.000000
1.000000 0.218661 0.000000
1.000000 0.218463 0.000000
1.000000 0.218268 0.000000
0.000000 0.310084 0.000000
0.000000 0.309886 0.000000
0.000000 0.309689 0.000000
0.000000 0.309495 0.000000
0.000000 0.309302 0.000000
0.000000 0.309111 0.000000
0.000000 0.308125 0.000000
0.026185 0.306234 0.000000
0.072775 0.304338 0.000000
0.119527 0.302437 0.000000
0.166439 0.300533 0.000000
0.213509 0.298625 0.000000
0.260733 0.296713 0.000000
0.308110 0.294797 0.000000
0.474841 0.288498 0.000000
0.536810 0.286050 0.000000
0.598969 0.283596 0.000000
0.661313 0.281138 0.000000
0.723839 0.278674 0.000000
0.786545 0.276206 0.000000
0.849427 0.273733 0.000000
0.912483 0.271256 0.000000
0.975709 0.268774 0.000000
1.000000 0.266288 0.000000
1.000000 0.265814 0.000000
1.000000 0.265601 0.000000
1.000000 0.265391 0.000000
1.000000 0.265183 0.000000
1.000000 0.264978 0.000000
1.000000 0.264775 0.000000
1.000000 0.264575 0.000000
1.000000 0.264377 0.000000
1.000000 0.264182 0.000000
0.000000 0.356248 0.000000
0.000000 0.356045 0.000000
0.000000 0.355844 0.000000
0.000000 0.355645 0.000000
0.000000 0.355448 0.000000
0.000000 0.355253 0.000000
0.000000 0.354258 0.000000
0.020352 0.352352 0.000000
0.067211 0.350442 0.000000
0.114226 0.348528 0.000000
0.161396 0.346611 0.000000
0.208718 0.344689 0.000000
0.256189 0.342765 0.000000
0.303807 0.340836 0.000000
0.351570 0.338905 0.000000
0.533692 0.332039 0.000000
0.596143 0.329572 0.000000
0.658772 0.327099 0.000000
0.721577 0.324623 0.000000
0.784554 0.322142 0.000000
0.847701 0.319656 0.000000
0.911014 0.317167 0.000000
0.974490 0.314673 0.000000
1.000000 0.312175 0.000000
1.000000 0.311700 0.000000
1.000000 0.311487 0.000000
1.000000 0.311277 0.000000
1.000000 0.311069 0.000000
1.000000 0.310864 0.000000
1.000000 0.310662 0.000000
1.000000 0.310462 0.000000
1.000000 0.310265 0.000000
1.000000 0.310070 0.000000
0.000000 0.402361 0.000000
0.000000 0.402154 0.000000
0.000000 0.401949 0.000000
0.000000 0.401746 0.000000
0.000000 0.401545 0.000000
0.000000 0.401346 0.000000
0.000000 0.400343 0.000000
0.014512 0.398424 0.000000
0.061630 0.396501 0.000000
0.108900 0.394575 0.000000
0.156318 0.392645 0.000000
0.203882 0.390712 0.000000
0.251591 0.388775 0.000000
0.299441 0.386836 0.000000
0.347431 0.384893 0.000000
0.395557 0.382947 0.000000
0.593199 0.375511 0.000000
0.656101 0.373026 0.000000
0.719173 0.370537 0.000000
0.782409 0.368044 0.000000
0.845808 0.365547 0.000000
0.909366 0.363047 0.000000
0.973080 0.360542 0.000000
1.000000 0.358034 0.000000
1.000000 0.357558 0.000000
1.000000 0.357346 0.000000
1.000000 0.357137 0.000000
1.000000 0.356930 0.000000
1.000000 0.356726 0.000000
1.000000 0.356525 0.000000
1.000000 0.356326 0.000000
1.000000 0.356130 0.000000
1.000000 0.355937 0.000000
0.000000 0.448425 0.000000
0.000000 0.448215 0.000000
0.000000 0.448007 0.000000
0.000000 0.447800 0.000000
0.000000 0.447596 0.000000
0.000000 0.447394 0.000000
0.000000 0.446384 0.000000
0.008665 0.444453 0.000000
0.056033 0.442518 0.000000
0.103547 0.440580 0.000000
0.151204 0.438639 0.000000
0.199002 0.436695 0.000000
0.246939 0.434748 0.000000
0.295013 0.432798 0.000000
0.343220 0.430845 0.000000
0.391558 0.428889 0.000000
0.440025 0.426931 0.000000
0.653300 0.418921 0.000000
0.716625 0.416421 0.000000
0.780109 0.413918 0.000000
0.843749 0.411411 0.000000
0.907540 0.408900 0.000000
0.971480 0.406386 0.000000
1.000000 0.403869 0.000000
1.000000 0.403393 0.000000
1.000000 0.403182 0.000000
1.000000 0.402974 0.000000
1.000000 0.402769 0.000000
1.000000 0.402567 0.000000
1.000000 0.402367 0.000000
1.000000 0.402170 0.000000
1.000000 0.401976 0.000000
1.000000 0.401785 0.000000
0.000000 0.494445 0.000000
0.000000 0.494232 0.000000
0.000000 0.494021 0.000000
0.000000 0.493812 0.000000
0.000000 0.493606 0.000000
0.000000 0.493401 0.000000
0.000000 0.492385 0.000000
0.002809 0.490442 0.000000
0.050418 0.488497 0.000000
0.098167 0.486548 0.000000
0.146055 0.484597 0.000000
0.194078 0.482643 0.000000
0.242234 0.480686 0.000000
0.290521 0.478727 0.000000
0.338936 0.476765 0.000000
0.387477 0.474801 0.000000
0.436142 0.472834 0.000000
0.484928 0.470865 0.000000
0.713934 0.462278 0.000000
0.777654 0.459765 0.000000
0.841522 0.457249 0.000000
0.905534 0.454729 0.000000
0.969689 0.452207 0.000000
1.000000 0.449682 0.000000
1.000000 0.449207 0.000000
1.000000 0.448998 0.000000
1.000000 0.448792 0.000000
1.000000 0.448589 0.000000
1.000000 0.448389 0.000000
1.000000 0.448192 0.000000
1.000000 0.447998 0.000000
1.000000 0.447806 0.000000
1.000000 0.447618 0.000000
0.000000 0.540423 0.000000
0.000000 0.540208 0.000000
0.000000 0.539995 0.000000
0.000000 0.539785 0.000000
0.000000 0.539577 0.000000
0.000000 0.539371 0.000000
0.000000 0.538348 0.000000
0.000000 0.536396 0.000000
0.044785 0.534440 0.000000
0.092761 0.532483 0.000000
0.140869 0.530522 0.000000
0.189107 0.528559 0.000000
0.237473 0.526594 0.000000
0.285965 0.524626 0.000000
0.334579 0.522656 0.000000
0.383314 0.520684 0.000000
0.432167 0.518710 0.000000
0.481136 0.516734 0.000000
0.530218 0.514756 0.000000
0.775043 0.505590 0.000000
0.839127 0.503066 0.000000
0.903349 0.500539 0.000000
0.967706 0.498009 0.000000
1.000000 0.495477 0.000000
1.000000 0.495003 0.000000
1.000000 0.494797 0.000000
1.000000 0.494594 0.000000
1.000000 0.494394 0.000000
1.000000 0.494197 0.000000
1.000000 0.494003 0.000000
1.000000 0.493812 0.000000
1.000000 0.493624 0.000000
1.000000 0.493439 0.000000
0.000000 0.586364 0.000000
0.000000 0.586147 0.000000
0.000000 0.585933 0.000000
0.000000 0.585721 0.000000
0.000000 0.585512 0.000000
0.000000 0.585305 0.000000
0.000000 0.584278 0.000000
0.000000 0.582317 0.000000
0.039134 0.580353 0.000000
0.087327 0.578386 0.000000
0.135647 0.576417 0.000000
0.184091 0.574447 0.000000
0.232658 0.572474 0.000000
0.281345 0.570499 0.000000
0.330149 0.568522 0.000000
0.379068 0.566543 0.000000
0.428100 0.564563 0.000000
0.477243 0.562581 0.000000
0.526493 0.560597 0.000000
0.575848 0.558612 0.000000
0.625307 0.556625 0.000000
0.900984 0.546331 0.000000
0.965531 0.543795 0.000000
1.000000 0.541257 0.000000
1.000000 0.540786 0.000000
1.000000 0.540583 0.000000
1.000000 0.540384 0.000000
1.000000 0.540187 0.000000
1.000000 0.539994 0.000000
1.000000 0.539804 0.000000
1.000000 0.539617 0.000000
1.000000 0.539433 0.000000
1.000000 0.539252 0.000000
0.000000 0.632270 0.000000
0.000000 0.632053 0.000000
0.000000 0.631838 0.000000
0.000000 0.631626 0.000000
0.000000 0.631416 0.000000
0.000000 0.631209 0.000000
0.000000 0.630178 0.000000
0.000000 0.628208 0.000000
0.033464 0.626237 0.000000
0.081865 0.624263 0.000000
0.130387 0.622287 0.000000
0.179028 0.620309 0.000000
0.227787 0.618330 0.000000
0.276660 0.616348 0.000000
0.325645 0.614366 0.000000
0.374739 0.612381 0.000000
0.423941 0.610395 0.000000
0.473248 0.608408 0.000000
0.522657 0.606420 0.000000
0.572166 0.604430 0.000000
0.621773 0.602440 0.000000
0.671475 0.600448 0.000000
0.963163 0.589570 0.000000
1.000000 0.587027 0.000000
1.000000 0.586559 0.000000
1.000000 0.586360 0.000000
1.000000 0.586165 0.000000
1.000000 0.585973 0.000000
1.000000 0.585784 0.000000
1.000000 0.585598 0.000000
1.000000 0.585415 0.000000
1.000000 0.585236 0.000000
1.000000 0.585060 0.000000
0.000000 0.678145 0.000000
0.000000 0.677928 0.000000
0.000000 0.677713 0.000000
0.000000 0.677501 0.000000
0.000000 0.677292 0.000000
0.000000 0.677086 0.000000
0.000000 0.676051 0.000000
0.000000 0.674075 0.000000
0.027775 0.672096 0.000000
0.076374 0.670116 0.000000
0.125090 0.668134 0.000000
0.173919 0.666150 0.000000
0.222860 0.664165 0.000000
0.271909 0.662179 0.000000
0.321066 0.660191 0.000000
0.370327 0.658202 0.000000
0.419689 0.656212 0.000000
0.469151 0.654221 0.000000
0.518710 0.652228 0.000000
0.568363 0.650235 0.000000
0.618109 0.648242 0.000000
0.667945 0.646247 0.000000
0.717867 0.644252 0.000000
1.000000 0.632789 0.000000
1.000000 0.632324 0.000000
1.000000 0.632131 0.000000
1.000000 0.631940 0.000000
1.000000 0.631753 0.000000
1.000000 0.631569 0.000000
1.000000 0.631388 0.000000
1.000000 0.631211 0.000000
1.000000 0.631037 0.000000
1.000000 0.630866 0.000000
0.000000 0.723993 0.000000
0.000000 0.723776 0.000000
0.000000 0.723563 0.000000
0.000000 0.723352 0.000000
0.000000 0.723143 0.000000
0.000000 0.722938 0.000000
0.000000 0.721901 0.000000
0.000000 0.719919 0.000000
0.022066 0.717934 0.000000
0.070855 0.715949 0.000000
0.119754 0.713961 0.000000
0.168762 0.711973 0.000000
0.217876 0.709983 0.000000
0.267093 0.707993 0.000000
0.316412 0.706001 0.000000
0.365830 0.704008 0.000000
0.415344 0.702015 0.000000
0.464952 0.700021 0.000000
0.514651 0.698026 0.000000
0.564440 0.696031 0.000000
0.614315 0.694035 0.000000
0.664275 0.692038 0.000000
0.714317 0.690042 0.000000
0.764438 0.688045 0.000000
1.000000 0.678087 0.000000
1.000000 0.677899 0.000000
1.000000 0.677714 0.000000
1.000000 0.677532 0.000000
1.000000 0.677354 0.000000
1.000000 0.677179 0.000000
1.000000 0.677008 0.000000
1.000000 0.676840 0.000000
1.000000 0.676675 0.000000
0.000000 0.769816 0.000000
0.000000 0.769601 0.000000
0.000000 0.769389 0.000000
0.000000 0.769180 0.000000
0.000000 0.768973 0.000000
0.000000 0.768770 0.000000
0.000000 0.767732 0.000000
0.000000 0.765744 0.000000
0.016337 0.763755 0.000000
0.065306 0.761765 0.000000
0.114380 0.759774 0.000000
0.163557 0.757781 0.000000
0.212835 0.755788 0.000000
0.262211 0.753794 0.000000
0.311683 0.751800 0.000000
0.361248 0.749805 0.000000
0.410905 0.747809 0.000000
0.460649 0.745813 0.000000
0.510480 0.743816 0.000000
0.560395 0.741819 0.000000
0.610391 0.739822 0.000000
0.660466 0.737825 0.000000
0.710617 0.735828 0.000000
0.760842 0.733831 0.000000
0.811139 0.731835 0.000000
1.000000 0.723667 0.000000
1.000000 0.723489 0.000000
1.000000 0.723313 0.000000
1.000000 0.723142 0.000000
1.000000 0.722973 0.000000
1.000000 0.722809 0.000000
1.000000 0.722648 0.000000
1.000000 0.722490 0.000000
0.000000 0.815619 0.000000
0.000000 0.815407 0.000000
0.000000 0.815197 0.000000
0.000000 0.814990 0.000000
0.000000 0.814786 0.000000
0.000000 0.814584 0.000000
0.000000 0.813546 0.000000
0.000000 0.811554 0.000000
0.010587 0.809561 0.000000
0.059727 0.807568 0.000000
0.108967 0.805573 0.000000
0.158304 0.803578 0.000000
0.207737 0.801583 0.000000
0.257262 0.799587 0.000000
0.306878 0.797590 0.000000
0.356582 0.795594 0.000000
0.406371 0.793597 0.000000
0.456243 0.791599 0.000000
0.506196 0.789602 0.000000
0.556228 0.787605 0.000000
0.606335 0.785608 0.000000
0.656516 0.783611 0.000000
0.706768 0.781615 0.000000
0.757088 0.779619 0.000000
0.807475 0.777623 0.000000
0.857925 0.775628 0.000000
1.000000 0.769269 0.000000
1.000000 0.769100 0.000000
1.000000 0.768936 0.000000
1.000000 0.768775 0.000000
1.000000 0.768617 0.000000
1.000000 0.768464 0.000000
1.000000 0.768314 0.000000
0.000000 0.861405 0.000000
0.000000 0.861195 0.000000
0.000000 0.860988 0.000000
0.000000 0.860784 0.000000
0.000000 0.860583 0.000000
0.000000 0.860386 0.000000
0.000000 0.859347 0.000000
0.000000 0.857352 0.000000
0.004816 0.855357 0.000000
0.054118 0.853361 0.000000
0.103514 0.851365 0.000000
0.153003 0.849368 0.000000
0.202581 0.847371 0.000000
0.252246 0.845374 0.000000
0.301997 0.843376 0.000000
0.351830 0.841379 0.000000
0.401743 0.839382 0.000000
0.451734 0.837385 0.000000
0.501800 0.835388 0.000000
0.551939 0.833391 0.000000
0.602148 0.831395 0.000000
0.652425 0.829400 0.000000
0.702768 0.827405 0.000000
0.753175 0.825410 0.000000
0.803642 0.823417 0.000000
0.854167 0.821424 0.000000
0.904749 0.819433 0.000000
1.000000 0.814896 0.000000
1.000000 0.814740 0.000000
1.000000 0.814587 0.000000
1.000000 0.814437 0.000000
1.000000 0.814292 0.000000
1.000000 0.814150 0.000000
0.000000 0.907178 0.000000
0.000000 0.906971 0.000000
0.000000 0.906768 0.000000
0.000000 0.906568 0.000000
0.000000 0.906370 0.000000
0.000000 0.906176 0.000000
0.000000 0.905139 0.000000
0.000000 0.903142 0.000000
0.000000 0.901145 0.000000
0.048478 0.899148 0.000000
0.098021 0.897151 0.000000
0.147652 0.895153 0.000000
0.197366 0.893156 0.000000
0.247163 0.891158 0.000000
0.297038 0.889161 0.000000
0.346992 0.887164 0.000000
0.397019 0.885168 0.000000
0.447119 0.883172 0.000000
0.497289 0.881176 0.000000
0.547526 0.879181 0.000000
0.597829 0.877187 0.000000
0.648194 0.875194 0.000000
0.698619 0.873202 0.000000
0.749102 0.871210 0.000000
0.799640 0.869220 0.000000
0.850231 0.867231 0.000000
0.900873 0.865243 0.000000
0.951563 0.863256 0.000000
1.000000 0.860557 0.000000
1.000000 0.860412 0.000000
1.000000 0.860272 0.000000
1.000000 0.860135 0.000000
1.000000 0.860002 0.000000
0.000000 0.951315 0.000000
0.000000 0.951164 0.000000
0.000000 0.951015 0.000000
0.000000 0.950869 0.000000
0.000000 0.950725 0.000000
0.000000 0.950583 0.000000
0.000000 0.949595 0.000000
0.000000 0.947643 0.000000
0.000000 0.945691 0.000000
0.042968 0.943738 0.000000
0.092644 0.941784 0.000000
0.142401 0.939830 0.000000
0.192237 0.937875 0.000000
0.242149 0.935920 0.000000
0.292136 0.933965 0.000000
0.342195 0.932009 0.000000
0.392323 0.930053 0.000000
0.442517 0.928097 0.000000
0.492777 0.926141 0.000000
0.543098 0.924186 0.000000
