library/cube/Light_Chaser_004.cube
# CINEGRADE LAB — Premium Cinematic LUT
# Title: Light Chaser
# Category: Moody Documentary
# Description: Desaturated, contrasty, journalistic style for documentary storytelling
# Mood: Raw, honest, gritty
# Variant: 5
# Generated: 2026-05-21T16:12:17.416049
TITLE "Light Chaser"
LUT_3D_SIZE 5
0.000000 0.000000 0.003600
0.108119 0.010362 0.013649
0.344875 0.033004 0.036124
0.582767 0.055693 0.058606
0.730996 0.069772 0.072370
0.034683 0.134171 0.037495
0.143758 0.144698 0.047623
0.382248 0.167524 0.070154
0.621531 0.190372 0.092700
0.770284 0.204562 0.106547
0.111039 0.428031 0.113284
0.220823 0.438733 0.123480
0.460516 0.461733 0.146067
0.700693 0.484721 0.168675
0.849708 0.499005 0.182598
0.187956 0.722847 0.189269
0.298135 0.733568 0.199548
0.538486 0.756584 0.222208
0.779068 0.779565 0.244892
0.928075 0.793814 0.258897
0.235786 0.905624 0.236233
0.346098 0.916233 0.246601
0.586673 0.939144 0.269341
0.827299 0.962019 0.292102
0.976143 0.976160 0.306182
0.003474 0.003516 0.107412
0.111704 0.013887 0.117394
0.348664 0.036541 0.139806
0.586723 0.059241 0.162232
0.735021 0.073325 0.175948
0.038213 0.137746 0.141108
0.147367 0.148274 0.151189
0.385998 0.171105 0.173679
0.625390 0.193956 0.196188
0.774178 0.208145 0.210005
0.114622 0.431668 0.216758
0.224453 0.442362 0.226927
0.464230 0.465356 0.249490
0.704464 0.488337 0.272078
0.853485 0.502612 0.285988
0.191554 0.726493 0.292666
0.301754 0.737199 0.302933
0.542143 0.760202 0.325584
0.782741 0.783170 0.348262
0.931735 0.797406 0.362266
0.239368 0.909232 0.339603
0.349684 0.919826 0.349970
0.590264 0.942724 0.372711
0.830882 0.965586 0.395475
0.979709 0.979717 0.409558
0.011062 0.011191 0.333957
0.119412 0.021575 0.343788
0.356579 0.044245 0.366060
0.594809 0.066959 0.388360
0.743179 0.081053 0.401964
0.045889 0.145491 0.367199
0.155127 0.156025 0.377173
0.393901 0.178863 0.399566
0.633403 0.201720 0.421991
0.782229 0.215911 0.435737
0.122372 0.439484 0.442532
0.232253 0.450172 0.452634
0.472115 0.473162 0.475139
0.712405 0.496138 0.497680
0.861434 0.510406 0.511551
0.199333 0.734322 0.518251
0.309556 0.745015 0.528484
0.549981 0.768006 0.551109
0.790594 0.790962 0.573768
0.939575 0.805186 0.587761
0.247138 0.917027 0.565105
0.357457 0.927606 0.575462
0.598041 0.950492 0.598199
0.838651 0.973343 0.620963
0.987462 0.987465 0.635049
0.018664 0.018871 0.560393
0.127130 0.029268 0.570083
0.364497 0.051954 0.592224
0.602891 0.074681 0.614406
0.751331 0.088784 0.627908
0.053575 0.153240 0.593211
0.162893 0.163779 0.603087
0.401804 0.186624 0.625392
0.641410 0.209485 0.647740
0.790270 0.223678 0.661421
0.130127 0.447298 0.668255
0.240055 0.457981 0.678297
0.479996 0.480967 0.700751
0.720338 0.503937 0.723250
0.869371 0.518198 0.737090
0.207113 0.742147 0.743808
0.317355 0.752826 0.754013
0.557813 0.775806 0.776616
0.798438 0.798750 0.799262
0.947405 0.812962 0.813248
0.254906 0.924817 0.790596
0.365227 0.935382 0.800948
0.605814 0.958256 0.823684
0.846413 0.981096 0.846451
0.995210 0.995211 0.860541
0.023382 0.023628 0.700263
0.131951 0.034034 0.709879
0.369505 0.056732 0.731951
0.608049 0.079469 0.754074
0.756548 0.093577 0.767524
0.058348 0.158051 0.732864
0.167738 0.168592 0.742692
0.406774 0.191441 0.764954
0.646473 0.214305 0.787266
0.795361 0.228498 0.800919
0.134948 0.452165 0.807768
0.244917 0.462840 0.817785
0.484928 0.485819 0.840218
0.725315 0.508783 0.862702
0.874349 0.523035 0.876533
0.211945 0.747016 0.883255
0.322203 0.757682 0.893452
0.562688 0.780649 0.916052
0.803320 0.803581 0.938650
0.952271 0.817780 0.952638
0.259720 0.929648 0.930017
0.370041 0.940200 0.940368
0.610626 0.963061 0.963113
0.851216 0.985892 0.985899
1.000000 1.000000 1.000000
