library/cube/Light_Chaser_004.cube
# CINEGRADE LAB — Premium Cinematic LUT
# Title: Light Chaser
# Category: Moody Documentary
# Description: Desaturated, contrasty, journalistic style for documentary storytelling
# Mood: Raw, honest, gritty
# Variant: 5
# Generated: 2026-05-21T16:12:17.416049
TITLE "Light Chaser"
LUT_3D_SIZE 33
0.000000 0.000000 0.003600
0.000000 0.000000 0.003541
0.000000 0.000000 0.003482
0.000000 0.000000 0.003423
0.000000 0.000000 0.003366
0.019662 0.001886 0.005222
0.049127 0.004710 0.008031
0.078612 0.007536 0.010840
0.108119 0.010362 0.013649
0.137646 0.013190 0.016458
0.167192 0.016018 0.019267
0.196759 0.018847 0.022076
0.226345 0.021677 0.024886
0.255949 0.024507 0.027695
0.285573 0.027339 0.030504
0.315215 0.030171 0.033314
0.344875 0.033004 0.036124
0.374552 0.035837 0.038934
0.404247 0.038672 0.041744
0.433960 0.041507 0.044554
0.463689 0.044343 0.047364
0.493434 0.047179 0.050174
0.523196 0.050017 0.052985
0.552974 0.052855 0.055795
0.582767 0.055693 0.058606
0.612576 0.058532 0.061417
0.642399 0.061372 0.064228
0.672238 0.064213 0.067039
0.702090 0.067054 0.069851
0.730405 0.069747 0.072513
0.730604 0.069756 0.072465
0.730801 0.069764 0.072417
0.730996 0.069772 0.072370
0.000000 0.000000 0.003402
0.000000 0.000000 0.003345
0.000000 0.000000 0.003288
0.000000 0.000000 0.003231
0.000000 0.000000 0.003176
0.019685 0.001887 0.005033
0.049185 0.004713 0.007843
0.078705 0.007540 0.010653
0.108244 0.010368 0.013464
0.137804 0.013196 0.016274
0.167382 0.016026 0.019084
0.196980 0.018856 0.021894
0.226596 0.021687 0.024705
0.256230 0.024519 0.027515
0.285883 0.027352 0.030326
0.315553 0.030185 0.033137
0.345240 0.033019 0.035948
0.374945 0.035854 0.038759
0.404666 0.038690 0.041570
0.434404 0.041526 0.044381
0.464158 0.044363 0.047193
0.493928 0.047200 0.050004
0.523713 0.050038 0.052816
0.553513 0.052877 0.055628
0.583329 0.055717 0.058440
0.613159 0.058557 0.061252
0.643003 0.061398 0.064065
0.672862 0.064239 0.066877
0.702734 0.067081 0.069690
0.731066 0.069775 0.072353
0.731257 0.069783 0.072307
0.731446 0.069791 0.072261
0.731632 0.069799 0.072217
0.000000 0.000000 0.003211
0.000000 0.000000 0.003156
0.000000 0.000000 0.003101
0.000000 0.000000 0.003046
0.000000 0.000000 0.002992
0.019708 0.001887 0.004852
0.049241 0.004715 0.007663
0.078794 0.007544 0.010474
0.108365 0.010373 0.013285
0.137956 0.013203 0.016096
0.167565 0.016034 0.018908
0.197193 0.018865 0.021719
0.226838 0.021697 0.024531
0.256501 0.024531 0.027342
0.286181 0.027364 0.030154
0.315878 0.030199 0.032966
0.345592 0.033034 0.035778
0.375322 0.035870 0.038591
0.405069 0.038707 0.041403
0.434831 0.041544 0.044215
0.464609 0.044382 0.047028
0.494401 0.047220 0.049841
0.524209 0.050059 0.052654
0.554031 0.052899 0.055467
0.583868 0.055740 0.058280
0.613718 0.058580 0.061094
0.643582 0.061422 0.063908
0.673460 0.064264 0.066721
0.703351 0.067107 0.069536
0.731699 0.069802 0.072200
0.731883 0.069809 0.072156
0.732063 0.069817 0.072112
0.732241 0.069824 0.072069
0.000000 0.000000 0.003027
0.000000 0.000000 0.002973
0.000000 0.000000 0.002920
0.000000 0.000000 0.002867
0.000000 0.000000 0.002816
0.019730 0.001888 0.004676
0.049295 0.004717 0.007488
0.078879 0.007547 0.010300
0.108482 0.010378 0.013113
0.138103 0.013209 0.015925
0.167741 0.016041 0.018738
0.197397 0.018874 0.021550
0.227071 0.021707 0.024363
0.256761 0.024541 0.027176
0.286468 0.027376 0.029989
0.316191 0.030212 0.032802
0.345930 0.033048 0.035616
0.375685 0.035885 0.038429
0.405456 0.038723 0.041243
0.435241 0.041561 0.044056
0.465041 0.044400 0.046870
0.494856 0.047239 0.049684
0.524685 0.050079 0.052499
0.554528 0.052920 0.055313
0.584385 0.055761 0.058128
0.614254 0.058603 0.060942
0.644137 0.061445 0.063757
0.674033 0.064288 0.066572
0.703941 0.067132 0.069388
0.732306 0.069827 0.072054
0.732481 0.069835 0.072012
0.732653 0.069842 0.071970
0.732824 0.069849 0.071929
0.000000 0.000000 0.002849
0.000000 0.000000 0.002797
0.000000 0.000000 0.002746
0.000000 0.000000 0.002695
0.000000 0.000000 0.002645
0.019751 0.001889 0.004507
0.049347 0.004720 0.007320
0.078962 0.007551 0.010134
0.108594 0.010382 0.012947
0.138244 0.013215 0.015761
0.167911 0.016048 0.018574
0.197595 0.018882 0.021388
0.227295 0.021717 0.024202
0.257011 0.024552 0.027016
0.286744 0.027388 0.029830
0.316492 0.030225 0.032645
0.346255 0.033062 0.035459
0.376034 0.035900 0.038274
0.405827 0.038738 0.041089
0.435635 0.041578 0.043904
0.465456 0.044417 0.046719
0.495292 0.047258 0.049534
0.525141 0.050099 0.052350
0.555004 0.052940 0.055165
0.584879 0.055782 0.057981
0.614768 0.058625 0.060797
0.644668 0.061468 0.063613
0.674581 0.064311 0.066430
0.704506 0.067155 0.069247
0.732885 0.069852 0.071914
0.733052 0.069859 0.071874
0.733217 0.069866 0.071834
0.733379 0.069872 0.071795
0.006295 0.024393 0.009107
0.006297 0.024396 0.009057
0.006299 0.024400 0.009007
0.006301 0.024403 0.008958
0.006303 0.024406 0.008910
0.026076 0.026300 0.010772
0.055704 0.029134 0.013586
0.085350 0.031970 0.016400
0.115012 0.034806 0.019214
0.144692 0.037643 0.022028
0.174387 0.040480 0.024843
0.204099 0.043318 0.027657
0.233827 0.046157 0.030472
0.263571 0.048996 0.033287
0.293329 0.051836 0.036102
0.323103 0.054677 0.038917
0.352891 0.057518 0.041732
0.382693 0.060360 0.044547
0.412510 0.063202 0.047363
0.442340 0.066045 0.050179
0.472184 0.068888 0.052995
0.502042 0.071732 0.055811
0.531912 0.074576 0.058627
0.561794 0.077421 0.061444
0.591689 0.080266 0.064260
0.621596 0.083112 0.067077
0.651515 0.085958 0.069895
0.681446 0.088805 0.072712
0.711388 0.091652 0.075530
0.739782 0.094351 0.078198
0.739942 0.094360 0.078159
0.740101 0.094369 0.078121
0.740257 0.094378 0.078083
0.015739 0.060954 0.018569
0.015744 0.060962 0.018520
0.015749 0.060971 0.018471
0.015753 0.060979 0.018423
0.015758 0.060986 0.018375
0.035553 0.062885 0.020239
0.065213 0.065726 0.023053
0.094889 0.068567 0.025867
0.124582 0.071408 0.028682
0.154290 0.074251 0.031497
0.184015 0.077093 0.034311
0.213754 0.079937 0.037126
0.243509 0.082781 0.039942
0.273279 0.085625 0.042757
0.303063 0.088470 0.045572
0.332862 0.091316 0.048388
0.362674 0.094162 0.051204
0.392501 0.097008 0.054020
0.422340 0.099855 0.056836
0.452193 0.102702 0.059653
0.482059 0.105550 0.062469
0.511937 0.108399 0.065286
0.541827 0.111247 0.068103
0.571730 0.114097 0.070920
0.601644 0.116946 0.073738
0.631569 0.119796 0.076555
0.661506 0.122647 0.079373
0.691454 0.125497 0.082192
0.721412 0.128348 0.085010
0.749821 0.131051 0.087679
0.749976 0.131063 0.087642
0.750129 0.131075 0.087605
0.750279 0.131087 0.087568
0.025202 0.097548 0.028031
0.025209 0.097560 0.027983
0.025217 0.097573 0.027936
0.025224 0.097585 0.027889
0.025231 0.097597 0.027843
0.045048 0.099501 0.029707
0.074737 0.102347 0.032521
0.104443 0.105193 0.035336
0.134164 0.108040 0.038151
0.163900 0.110887 0.040967
0.193652 0.113735 0.043782
0.223418 0.116583 0.046597
0.253199 0.119432 0.049413
0.282994 0.122281 0.052229
0.312802 0.125130 0.055045
0.342625 0.127980 0.057861
0.372461 0.130831 0.060678
0.402309 0.133682 0.063495
0.432171 0.136533 0.066312
0.462045 0.139385 0.069129
0.491931 0.142237 0.071946
0.521829 0.145089 0.074764
0.551738 0.147942 0.077581
0.581659 0.150795 0.080399
0.611591 0.153649 0.083218
0.641534 0.156502 0.086036
0.671487 0.159357 0.088855
0.701451 0.162211 0.091674
0.731425 0.165066 0.094493
0.759848 0.167772 0.097163
0.759997 0.167787 0.097127
0.760144 0.167801 0.097091
0.760288 0.167815 0.097056
0.034683 0.134171 0.037495
0.034693 0.134188 0.037449
0.034702 0.134204 0.037402
0.034712 0.134221 0.037357
0.034721 0.134237 0.037311
0.054558 0.136145 0.039176
0.084276 0.138995 0.041992
0.114010 0.141846 0.044807
0.143758 0.144698 0.047623
0.173521 0.147550 0.050438
0.203298 0.150402 0.053254
0.233090 0.153255 0.056070
0.262895 0.156108 0.058887
0.292714 0.158962 0.061703
0.322546 0.161815 0.064520
0.352391 0.164670 0.067337
0.382248 0.167524 0.070154
0.412118 0.170379 0.072972
0.442000 0.173234 0.075789
0.471894 0.176090 0.078607
0.501799 0.178946 0.081425
0.531716 0.181802 0.084244
0.561643 0.184658 0.087062
0.591582 0.187515 0.089881
0.621531 0.190372 0.092700
0.651490 0.193229 0.095519
0.681459 0.196087 0.098339
0.711437 0.198944 0.101159
0.741425 0.201802 0.103979
0.769861 0.204512 0.106650
0.770004 0.204529 0.106615
0.770145 0.204545 0.106581
0.770284 0.204562 0.106547
0.044180 0.170823 0.046961
0.044192 0.170844 0.046915
0.044204 0.170864 0.046870
0.044215 0.170883 0.046826
0.044227 0.170903 0.046782
0.064083 0.172815 0.048648
0.093829 0.175670 0.051464
0.123589 0.178526 0.054280
0.153363 0.181382 0.057096
0.183151 0.184238 0.059912
0.212953 0.187094 0.062729
0.242769 0.189951 0.065546
0.272597 0.192808 0.068363
0.302439 0.195666 0.071180
0.332292 0.198523 0.073998
0.362159 0.201381 0.076815
0.392037 0.204240 0.079633
0.421927 0.207098 0.082451
0.451828 0.209957 0.085270
0.481741 0.212816 0.088088
0.511664 0.215675 0.090907
0.541598 0.218535 0.093726
0.571543 0.221395 0.096546
0.601497 0.224255 0.099365
0.631462 0.227115 0.102185
0.661436 0.229975 0.105006
0.691419 0.232835 0.107826
0.721412 0.235696 0.110647
0.751413 0.238557 0.113468
0.779860 0.241269 0.116140
0.779997 0.241288 0.116106
0.780132 0.241306 0.116074
0.780265 0.241325 0.116041
0.053693 0.207502 0.056429
0.053707 0.207525 0.056384
0.053720 0.207549 0.056341
0.053734 0.207572 0.056297
0.053747 0.207594 0.056255
0.073622 0.209511 0.058121
0.103393 0.212370 0.060938
0.133179 0.215229 0.063754
0.162978 0.218089 0.066571
0.192790 0.220949 0.069388
0.222615 0.223809 0.072206
0.252454 0.226670 0.075023
0.282304 0.229530 0.077841
0.312167 0.232391 0.080659
0.342041 0.235253 0.083477
0.371928 0.238114 0.086296
0.401825 0.240976 0.089115
0.431734 0.243838 0.091934
0.461654 0.246700 0.094753
0.491584 0.249562 0.097572
0.521524 0.252424 0.100392
0.551475 0.255287 0.103212
0.581435 0.258149 0.106032
0.611404 0.261012 0.108853
0.641383 0.263875 0.111674
0.671371 0.266738 0.114495
0.701368 0.269601 0.117316
0.731373 0.272464 0.120138
0.761387 0.275327 0.122960
0.789845 0.278042 0.125633
0.789976 0.278063 0.125601
0.790105 0.278083 0.125570
0.790232 0.278103 0.125539
0.063220 0.244205 0.065898
0.063236 0.244231 0.065855
0.063251 0.244258 0.065813
0.063266 0.244283 0.065771
0.063281 0.244309 0.065730
0.083173 0.246229 0.067597
0.112970 0.249092 0.070414
0.142779 0.251955 0.073231
0.172602 0.254818 0.076049
0.202437 0.257681 0.078867
0.232284 0.260545 0.081685
0.262144 0.263409 0.084503
0.292015 0.266273 0.087322
0.321898 0.269137 0.090141
0.351792 0.272001 0.092960
0.381697 0.274866 0.095779
0.411613 0.277731 0.098599
0.441539 0.280595 0.101419
0.471476 0.283460 0.104239
0.501423 0.286325 0.107059
0.531379 0.289190 0.109880
0.561345 0.292055 0.112701
0.591319 0.294920 0.115522
0.621303 0.297786 0.118343
0.651296 0.300651 0.121165
0.681297 0.303516 0.123987
0.711306 0.306382 0.126810
0.741323 0.309247 0.129632
0.771347 0.312113 0.132455
0.799815 0.314830 0.135129
0.799940 0.314851 0.135099
0.800063 0.314873 0.135069
0.800184 0.314894 0.135039
0.072761 0.280931 0.075370
0.072778 0.280960 0.075329
0.072795 0.280989 0.075287
0.072812 0.281017 0.075247
0.072828 0.281045 0.075207
0.092737 0.282968 0.077075
0.122557 0.285834 0.079893
0.152389 0.288701 0.082711
0.182233 0.291567 0.085530
0.212090 0.294434 0.088348
0.241958 0.297300 0.091167
0.271838 0.300167 0.093986
0.301729 0.303034 0.096806
0.331631 0.305901 0.099625
0.361543 0.308768 0.102445
0.391466 0.311635 0.105266
0.421399 0.314503 0.108086
0.451342 0.317370 0.110907
0.481295 0.320237 0.113728
0.511257 0.323105 0.116549
0.541228 0.325972 0.119371
0.571208 0.328840 0.122193
0.601196 0.331707 0.125015
0.631193 0.334574 0.127837
0.661198 0.337442 0.130660
0.691210 0.340309 0.133483
0.721231 0.343177 0.136307
0.751258 0.346044 0.139130
0.781293 0.348911 0.141954
0.809770 0.351630 0.144629
0.809889 0.351653 0.144600
0.810006 0.351675 0.144572
0.810121 0.351698 0.144544
0.082314 0.317678 0.084845
0.082333 0.317710 0.084804
0.082351 0.317741 0.084764
0.082369 0.317771 0.084725
0.082387 0.317802 0.084687
0.102311 0.319727 0.086556
0.132153 0.322596 0.089374
0.162007 0.325465 0.092193
0.191872 0.328335 0.095013
0.221749 0.331204 0.097832
0.251637 0.334073 0.100652
0.281536 0.336943 0.103472
0.311445 0.339812 0.106292
0.341365 0.342682 0.109113
0.371295 0.345551 0.111934
0.401234 0.348421 0.114755
0.431183 0.351290 0.117576
0.461142 0.354160 0.120398
0.491109 0.357029 0.123220
0.521085 0.359899 0.126042
0.551070 0.362768 0.128865
0.581063 0.365638 0.131688
0.611064 0.368507 0.134511
0.641073 0.371376 0.137335
0.671089 0.374246 0.140158
0.701112 0.377115 0.142982
0.731143 0.379984 0.145807
0.761180 0.382853 0.148632
0.791225 0.385722 0.151457
0.819709 0.388442 0.154133
0.819822 0.388465 0.154105
0.819933 0.388489 0.154078
0.820042 0.388512 0.154052
0.091879 0.354445 0.094322
0.091899 0.354479 0.094283
0.091918 0.354512 0.094244
0.091937 0.354544 0.094206
0.091956 0.354576 0.094169
0.111895 0.356504 0.096039
0.141758 0.359376 0.098859
0.171632 0.362247 0.101679
0.201517 0.365119 0.104499
0.231413 0.367991 0.107319
0.261320 0.370863 0.110140
0.291237 0.373734 0.112961
0.321163 0.376606 0.115782
0.351100 0.379478 0.118604
0.381046 0.382349 0.121425
0.411001 0.385221 0.124248
0.440965 0.388092 0.127070
0.470937 0.390964 0.129893
0.500918 0.393835 0.132716
0.530908 0.396706 0.135539
0.560905 0.399578 0.138363
0.590910 0.402449 0.141186
0.620922 0.405320 0.144011
0.650942 0.408190 0.146835
0.680969 0.411061 0.149660
0.711002 0.413932 0.152485
0.741042 0.416802 0.155311
0.771088 0.419672 0.158137
0.801141 0.422542 0.160963
0.829632 0.425264 0.163640
0.829739 0.425288 0.163614
0.829844 0.425312 0.163588
0.829947 0.425335 0.163563
0.101454 0.391230 0.103802
0.101475 0.391265 0.103764
0.101495 0.391300 0.103727
0.101515 0.391334 0.103690
0.101535 0.391367 0.103654
0.121488 0.393297 0.105526
0.151370 0.396171 0.108346
0.181264 0.399045 0.111167
0.211168 0.401919 0.113988
0.241082 0.404793 0.116809
0.271006 0.407667 0.119631
0.300939 0.410540 0.122453
0.330882 0.413414 0.125275
0.360834 0.416287 0.128098
0.390795 0.419161 0.130920
0.420764 0.422034 0.133743
0.450742 0.424907 0.136567
0.480728 0.427780 0.139391
0.510722 0.430653 0.142215
0.540723 0.433526 0.145039
0.570732 0.436398 0.147864
0.600748 0.439270 0.150689
0.630771 0.442143 0.153514
0.660801 0.445015 0.156340
0.690837 0.447887 0.159166
0.720879 0.450758 0.161992
0.750928 0.453630 0.164818
0.780982 0.456501 0.167645
0.811041 0.459372 0.170473
0.839539 0.462094 0.173151
0.839640 0.462119 0.173126
0.839739 0.462143 0.173102
0.839836 0.462166 0.173079
0.111039 0.428031 0.113284
0.111060 0.428068 0.113248
0.111081 0.428103 0.113212
0.111102 0.428139 0.113177
0.111122 0.428174 0.113143
0.131088 0.430105 0.115015
0.160990 0.432981 0.117837
0.190902 0.435857 0.120658
0.220823 0.438733 0.123480
0.250754 0.441608 0.126303
0.280694 0.444484 0.129125
0.310643 0.447359 0.131948
0.340601 0.450234 0.134771
0.370568 0.453109 0.137595
0.400542 0.455984 0.140419
0.430525 0.458858 0.143243
0.460516 0.461733 0.146067
0.490514 0.464607 0.148892
0.520519 0.467481 0.151717
0.550532 0.470355 0.154543
0.580551 0.473229 0.157368
0.610577 0.476102 0.160194
0.640610 0.478975 0.163021
0.670648 0.481848 0.165848
0.700693 0.484721 0.168675
0.730743 0.487593 0.171502
0.760799 0.490466 0.174330
0.790860 0.493338 0.177158
0.820926 0.496209 0.179986
0.849429 0.498932 0.182666
0.849524 0.498957 0.182643
0.849617 0.498981 0.182620
0.849708 0.499005 0.182598
0.120632 0.464847 0.122770
0.120654 0.464884 0.122735
0.120676 0.464921 0.122701
0.120697 0.464958 0.122667
0.120718 0.464993 0.122634
0.140696 0.466926 0.124508
0.170615 0.469804 0.127330
0.200544 0.472681 0.130153
0.230482 0.475559 0.132976
0.260428 0.478435 0.135799
0.290383 0.481312 0.138623
0.320347 0.484189 0.141447
0.350319 0.487065 0.144271
0.380299 0.489941 0.147096
0.410287 0.492817 0.149921
0.440282 0.495693 0.152746
0.470284 0.498568 0.155571
0.500294 0.501444 0.158397
0.530310 0.504319 0.161223
0.560333 0.507193 0.164050
0.590362 0.510068 0.166877
0.620397 0.512942 0.169704
0.650438 0.515816 0.172532
0.680485 0.518689 0.175359
0.710537 0.521563 0.178188
0.740594 0.524436 0.181016
0.770656 0.527308 0.183845
0.800724 0.530181 0.186674
0.830795 0.533053 0.189504
0.859303 0.535776 0.192185
0.859392 0.535801 0.192163
0.859479 0.535825 0.192142
0.859563 0.535848 0.192121
0.130234 0.501676 0.132259
0.130256 0.501714 0.132226
0.130278 0.501752 0.132193
0.130300 0.501789 0.132161
0.130321 0.501825 0.132129
0.150311 0.503760 0.134004
0.180246 0.506638 0.136827
0.210190 0.509517 0.139651
0.240143 0.512395 0.142475
0.270104 0.515273 0.145299
0.300074 0.518151 0.148124
0.330051 0.521029 0.150949
0.360036 0.523906 0.153774
0.390028 0.526783 0.156600
0.420028 0.529660 0.159426
0.450034 0.532536 0.162252
0.480047 0.535412 0.165079
0.510067 0.538288 0.167906
0.540093 0.541164 0.170733
0.570125 0.544039 0.173561
0.600163 0.546914 0.176389
0.630206 0.549789 0.179217
0.660255 0.552663 0.182046
0.690309 0.555537 0.184875
0.720367 0.558411 0.187705
0.750431 0.561284 0.190534
0.780499 0.564157 0.193364
0.810571 0.567030 0.196195
0.840648 0.569902 0.199026
0.869159 0.572625 0.201708
0.869242 0.572649 0.201687
0.869323 0.572673 0.201668
0.869402 0.572696 0.201648
0.139842 0.538517 0.141752
0.139864 0.538556 0.141720
0.139887 0.538594 0.141689
0.139909 0.538631 0.141658
0.139930 0.538668 0.141627
0.159930 0.540603 0.143503
0.189881 0.543483 0.146328
0.219840 0.546362 0.149152
0.249807 0.549241 0.151978
0.279782 0.552120 0.154803
0.309764 0.554999 0.157629
0.339754 0.557877 0.160455
0.369751 0.560755 0.163281
0.399755 0.563633 0.166108
0.429765 0.566510 0.168935
0.459782 0.569387 0.171763
0.489805 0.572264 0.174591
0.519834 0.575140 0.177419
0.549868 0.578016 0.180247
0.579909 0.580891 0.183076
0.609954 0.583767 0.185905
0.640005 0.586641 0.188735
0.670060 0.589516 0.191565
0.700120 0.592390 0.194395
0.730185 0.595264 0.197226
0.760254 0.598137 0.200056
0.790327 0.601010 0.202888
0.820404 0.603883 0.205719
0.850484 0.606755 0.208552
0.878999 0.609478 0.211235
0.879076 0.609501 0.211216
0.879150 0.609524 0.211197
0.879223 0.609547 0.211180
0.149456 0.575368 0.151248
0.149478 0.575407 0.151217
0.149501 0.575445 0.151187
0.149523 0.575483 0.151158
0.149545 0.575520 0.151129
0.169555 0.577455 0.153006
0.199520 0.580336 0.155832
0.229492 0.583216 0.158658
0.259472 0.586096 0.161484
0.289460 0.588975 0.164311
0.319454 0.591854 0.167137
0.349455 0.594733 0.169965
0.379463 0.597611 0.172792
0.409477 0.600489 0.175620
0.439498 0.603367 0.178448
0.469524 0.606244 0.181277
0.499556 0.609121 0.184106
0.529593 0.611997 0.186935
0.559635 0.614873 0.189765
0.589683 0.617749 0.192595
0.619735 0.620624 0.195425
0.649792 0.623499 0.198256
0.679854 0.626373 0.201087
0.709919 0.629247 0.203919
0.739989 0.632121 0.206750
0.770063 0.634994 0.209583
0.800140 0.637866 0.212415
0.830220 0.640739 0.215248
0.860304 0.643611 0.218081
0.888821 0.646333 0.220766
0.888892 0.646356 0.220748
0.888961 0.646378 0.220731
0.889028 0.646400 0.220715
0.159075 0.612228 0.160747
0.159098 0.612267 0.160718
0.159120 0.612305 0.160690
0.159142 0.612343 0.160662
0.159164 0.612379 0.160635
0.179183 0.614315 0.162513
0.209161 0.617196 0.165340
0.239146 0.620077 0.168167
0.269138 0.622957 0.170994
0.299137 0.625836 0.173822
0.329143 0.628716 0.176650
0.359155 0.631594 0.179478
0.389172 0.634473 0.182307
0.419196 0.637351 0.185136
0.449225 0.640228 0.187965
0.479260 0.643106 0.190795
0.509299 0.645982 0.193625
0.539344 0.648859 0.196456
0.569394 0.651734 0.199287
0.599448 0.654610 0.202118
0.629506 0.657485 0.204950
0.659569 0.660359 0.207782
0.689635 0.663233 0.210614
0.719706 0.666107 0.213446
0.749780 0.668980 0.216280
0.779857 0.671853 0.219113
0.809937 0.674725 0.221947
0.840021 0.677597 0.224781
0.870107 0.680468 0.227615
0.898626 0.683190 0.230301
0.898691 0.683212 0.230285
0.898754 0.683233 0.230269
0.898815 0.683254 0.230254
0.168698 0.649095 0.170251
0.168721 0.649134 0.170223
0.168743 0.649172 0.170196
0.168765 0.649209 0.170170
0.168787 0.649246 0.170144
0.188814 0.651181 0.172023
0.218804 0.654062 0.174851
0.248801 0.656943 0.177679
0.278805 0.659823 0.180508
0.308814 0.662703 0.183337
0.338830 0.665582 0.186166
0.368851 0.668461 0.188996
0.398878 0.671339 0.191826
0.428910 0.674217 0.194656
0.458947 0.677094 0.197486
0.488989 0.679971 0.200317
0.519036 0.682847 0.203149
0.549087 0.685723 0.205981
0.579143 0.688599 0.208813
0.609203 0.691474 0.211645
0.639266 0.694348 0.214478
0.669334 0.697222 0.217311
0.699405 0.700096 0.220145
0.729479 0.702969 0.222978
0.759556 0.705842 0.225813
0.789637 0.708714 0.228647
0.819720 0.711585 0.231482
0.849805 0.714456 0.234318
0.879894 0.717327 0.237153
0.908413 0.720048 0.239840
0.908472 0.720069 0.239826
0.908530 0.720089 0.239812
0.908585 0.720108 0.239798
0.178326 0.685969 0.179758
0.178348 0.686007 0.179732
0.178370 0.686045 0.179707
0.178392 0.686081 0.179682
0.178413 0.686117 0.179657
0.198448 0.688053 0.181538
0.228449 0.690934 0.184367
0.258457 0.693814 0.187196
0.288470 0.696694 0.190026
0.318489 0.699573 0.192856
0.348514 0.702452 0.195686
0.378544 0.705331 0.198517
0.408579 0.708208 0.201348
0.438618 0.711086 0.204180
0.468663 0.713963 0.207012
0.498712 0.716839 0.209844
0.528765 0.719715 0.212676
0.558822 0.722590 0.215509
0.588883 0.725465 0.218343
0.618948 0.728340 0.221176
0.649016 0.731213 0.224010
0.679087 0.734087 0.226845
0.709162 0.736959 0.229679
0.739239 0.739832 0.232515
0.769319 0.742703 0.235350
0.799402 0.745575 0.238186
0.829487 0.748445 0.241022
0.859574 0.751315 0.243859
0.889663 0.754185 0.246696
0.918183 0.756905 0.249384
0.918237 0.756925 0.249371
0.918289 0.756944 0.249358
0.918339 0.756962 0.249346
0.187956 0.722847 0.189269
0.187978 0.722885 0.189245
0.187999 0.722922 0.189221
0.188020 0.722958 0.189197
0.188041 0.722993 0.189174
0.208083 0.724928 0.191056
0.238095 0.727808 0.193886
0.268112 0.730688 0.196717
0.298135 0.733568 0.199548
0.328162 0.736447 0.202379
0.358195 0.739325 0.205211
0.388233 0.742203 0.208043
0.418275 0.745080 0.210875
0.448322 0.747957 0.213708
0.478372 0.750833 0.216541
0.508427 0.753709 0.219374
0.538486 0.756584 0.222208
0.568548 0.759458 0.225042
0.598613 0.762332 0.227877
0.628682 0.765206 0.230712
0.658754 0.768079 0.233547
0.688828 0.770951 0.236382
0.718906 0.773823 0.239218
0.748986 0.776694 0.242055
0.779068 0.779565 0.244892
0.809152 0.782435 0.247729
0.839238 0.785305 0.250566
0.869327 0.788174 0.253404
0.899416 0.791042 0.256242
0.927936 0.793761 0.258932
0.927984 0.793780 0.258920
0.928031 0.793797 0.258908
0.928075 0.793814 0.258897
0.197588 0.759730 0.198784
0.197610 0.759766 0.198761
0.197631 0.759802 0.198739
0.197651 0.759837 0.198717
0.197671 0.759871 0.198695
0.217719 0.761806 0.200578
0.247740 0.764686 0.203410
0.277766 0.767565 0.206242
0.307797 0.770444 0.209074
0.337833 0.773322 0.211906
0.367873 0.776199 0.214739
0.397918 0.779076 0.217572
0.427966 0.781953 0.220406
0.458019 0.784829 0.223240
0.488075 0.787704 0.226074
0.518135 0.790579 0.228909
0.548198 0.793453 0.231744
0.578264 0.796327 0.234579
0.608333 0.799200 0.237415
0.638406 0.802072 0.240251
0.668480 0.804944 0.243088
0.698558 0.807815 0.245924
0.728637 0.810686 0.248762
0.758719 0.813556 0.251599
0.788802 0.816426 0.254437
0.818888 0.819295 0.257276
0.848975 0.822163 0.260114
0.879063 0.825031 0.262953
0.909153 0.827898 0.265793
0.937672 0.830616 0.268483
0.937715 0.830632 0.268473
0.937756 0.830649 0.268463
0.937795 0.830664 0.268453
0.207222 0.796615 0.208304
0.207243 0.796650 0.208282
0.207263 0.796685 0.208261
0.207283 0.796719 0.208240
0.207302 0.796752 0.208220
0.227356 0.798685 0.210105
0.257386 0.801564 0.212937
0.287419 0.804443 0.215770
0.317458 0.807320 0.218604
0.347500 0.810198 0.221437
0.377547 0.813074 0.224272
0.407597 0.815950 0.227106
0.437652 0.818826 0.229941
0.467709 0.821701 0.232776
0.497770 0.824575 0.235611
0.527834 0.827449 0.238447
0.557901 0.830322 0.241284
0.587971 0.833194 0.244120
0.618043 0.836066 0.246957
