library/cube/Light_Chaser_004.cube
# CINEGRADE LAB — Premium Cinematic LUT
# Title: Light Chaser
# Category: Moody Documentary
# Description: Desaturated, contrasty, journalistic style for documentary storytelling
# Mood: Raw, honest, gritty
# Variant: 5
# Generated: 2026-05-21T16:12:17.416049
TITLE "Light Chaser"
LUT_3D_SIZE 9
0.000000 0.000000 0.003600
0.000000 0.000000 0.003366
0.108119 0.010362 0.013649
0.226345 0.021677 0.024886
0.344875 0.033004 0.036124
0.463689 0.044343 0.047364
0.582767 0.055693 0.058606
0.702090 0.067054 0.069851
0.730996 0.069772 0.072370
0.000000 0.000000 0.002849
0.000000 0.000000 0.002645
0.108594 0.010382 0.012947
0.227295 0.021717 0.024202
0.346255 0.033062 0.035459
0.465456 0.044417 0.046719
0.584879 0.055782 0.057981
0.704506 0.067155 0.069247
0.733379 0.069872 0.071795
0.034683 0.134171 0.037495
0.034721 0.134237 0.037311
0.143758 0.144698 0.047623
0.262895 0.156108 0.058887
0.382248 0.167524 0.070154
0.501799 0.178946 0.081425
0.621531 0.190372 0.092700
0.741425 0.201802 0.103979
0.770284 0.204562 0.106547
0.072761 0.280931 0.075370
0.072828 0.281045 0.075207
0.182233 0.291567 0.085530
0.301729 0.303034 0.096806
0.421399 0.314503 0.108086
0.541228 0.325972 0.119371
0.661198 0.337442 0.130660
0.781293 0.348911 0.141954
0.810121 0.351698 0.144544
0.111039 0.428031 0.113284
0.111122 0.428174 0.113143
0.220823 0.438733 0.123480
0.340601 0.450234 0.134771
0.460516 0.461733 0.146067
0.580551 0.473229 0.157368
0.700693 0.484721 0.168675
0.820926 0.496209 0.179986
0.849708 0.499005 0.182598
0.149456 0.575368 0.151248
0.149545 0.575520 0.151129
0.259472 0.586096 0.161484
0.379463 0.597611 0.172792
0.499556 0.609121 0.184106
0.619735 0.620624 0.195425
0.739989 0.632121 0.206750
0.860304 0.643611 0.218081
0.889028 0.646400 0.220715
0.187956 0.722847 0.189269
0.188041 0.722993 0.189174
0.298135 0.733568 0.199548
0.418275 0.745080 0.210875
0.538486 0.756584 0.222208
0.658754 0.768079 0.233547
0.779068 0.779565 0.244892
0.899416 0.791042 0.256242
0.928075 0.793814 0.258897
0.226492 0.870388 0.227354
0.226566 0.870514 0.227283
0.336770 0.881073 0.237676
0.457004 0.892568 0.249023
0.577281 0.904053 0.260376
0.697591 0.915528 0.271735
0.817922 0.926992 0.283099
0.938267 0.938447 0.294469
0.966859 0.941194 0.297144
0.235786 0.905624 0.236233
0.235836 0.905709 0.236186
0.346098 0.916233 0.246601
0.466375 0.927694 0.257968
0.586673 0.939144 0.269341
0.706983 0.950586 0.280719
0.827299 0.962019 0.292102
0.947613 0.973443 0.303490
0.976143 0.976160 0.306182
0.000000 0.000000 0.003519
0.000000 0.000000 0.003288
0.108170 0.010365 0.013573
0.226447 0.021681 0.024812
0.345024 0.033010 0.036052
0.463880 0.044351 0.047294
0.582997 0.055703 0.058538
0.702353 0.067065 0.069785
0.731256 0.069783 0.072307
0.000000 0.000000 0.002778
0.000000 0.000000 0.002578
0.108638 0.010384 0.012882
0.227383 0.021720 0.024139
0.346383 0.033067 0.035398
0.465619 0.044424 0.046659
0.585073 0.055790 0.057924
0.704727 0.067165 0.069191
0.733596 0.069882 0.071742
0.034696 0.134194 0.037432
0.034734 0.134258 0.037251
0.143807 0.144720 0.047564
0.262980 0.156130 0.058831
0.382366 0.167547 0.070100
0.501945 0.178969 0.081373
0.621700 0.190395 0.092650
0.741615 0.201825 0.103931
0.770468 0.204583 0.106502
0.072784 0.280971 0.075314
0.072850 0.281083 0.075153
0.182285 0.291604 0.085478
0.301809 0.303070 0.096757
0.421505 0.314538 0.108039
0.541354 0.326006 0.119326
0.661342 0.337475 0.130618
0.781452 0.348943 0.141914
0.810273 0.351727 0.144507
0.111068 0.428080 0.113235
0.111150 0.428220 0.113097
0.220873 0.438777 0.123437
0.340674 0.450276 0.134730
0.460607 0.461773 0.146028
0.580658 0.473267 0.157332
0.700811 0.484757 0.168640
0.821053 0.496243 0.179954
0.849828 0.499036 0.182568
0.149487 0.575421 0.151207
0.149573 0.575569 0.151091
0.259518 0.586142 0.161448
0.379525 0.597654 0.172759
0.499630 0.609161 0.184075
0.619820 0.620661 0.195397
0.740081 0.632155 0.206724
0.860400 0.643642 0.218057
0.889116 0.646428 0.220693
0.187986 0.722898 0.189236
0.188068 0.723039 0.189144
0.298174 0.733611 0.199520
0.418325 0.745119 0.210849
0.538543 0.756620 0.222185
0.658816 0.768111 0.233526
0.779133 0.779594 0.244873
0.899482 0.791068 0.256226
0.928133 0.793836 0.258883
0.226518 0.870432 0.227329
0.226589 0.870553 0.227260
0.336800 0.881108 0.237656
0.457040 0.892600 0.249005
0.577321 0.904081 0.260360
0.697631 0.915552 0.271721
0.817962 0.927013 0.283087
0.938304 0.938464 0.294459
0.966890 0.941207 0.297136
0.235804 0.905654 0.236216
0.235851 0.905735 0.236172
0.346117 0.916255 0.246588
0.466397 0.927712 0.257958
0.586695 0.939160 0.269333
0.707004 0.950598 0.280712
0.827316 0.962028 0.292097
0.947626 0.973449 0.303486
0.976152 0.976164 0.306179
0.003474 0.003516 0.107412
0.003479 0.003518 0.107145
0.111704 0.013887 0.117394
0.230037 0.025208 0.128599
0.348664 0.036541 0.139806
0.467566 0.047885 0.151017
0.586723 0.059241 0.162232
0.706117 0.070606 0.173451
0.735021 0.073325 0.175948
0.003490 0.003523 0.106556
0.003494 0.003525 0.106325
0.112180 0.013913 0.116598
0.230972 0.025253 0.127826
0.350014 0.036603 0.139058
0.469289 0.047963 0.150293
0.588777 0.059332 0.161533
0.708460 0.070709 0.172778
0.737329 0.073427 0.175307
0.038213 0.137746 0.141108
0.038254 0.137810 0.140901
0.147367 0.148274 0.151189
0.266579 0.159687 0.162432
0.385998 0.171105 0.173679
0.505608 0.182528 0.184930
0.625390 0.193956 0.196188
0.745327 0.205387 0.207450
0.774178 0.208145 0.210005
0.076323 0.284544 0.178905
0.076390 0.284655 0.178724
0.185857 0.295177 0.189028
0.305413 0.306644 0.200287
0.425135 0.318111 0.211552
0.545008 0.329580 0.222822
0.665015 0.341048 0.234099
0.785141 0.352516 0.245381
0.813958 0.355299 0.247961
0.114622 0.431668 0.216758
0.114704 0.431805 0.216603
0.224453 0.442362 0.226927
0.344277 0.453860 0.238205
0.464230 0.465356 0.249490
0.584297 0.476848 0.260781
0.704464 0.488337 0.272078
0.824716 0.499822 0.283382
0.853485 0.502612 0.285988
0.153050 0.579015 0.254676
0.153137 0.579160 0.254548
0.263100 0.589731 0.264893
0.383124 0.601242 0.276193
0.503243 0.612746 0.287499
0.623444 0.624244 0.298812
0.743712 0.635736 0.310132
0.864036 0.647220 0.321459
0.892746 0.650004 0.324089
0.191554 0.726493 0.292666
0.191636 0.726630 0.292565
0.301754 0.737199 0.302933
0.421916 0.748705 0.314255
0.542143 0.760202 0.325584
0.662422 0.771690 0.336920
0.782741 0.783170 0.348262
0.903091 0.794641 0.359611
0.931735 0.797406 0.362266
0.230087 0.874022 0.330732
0.230156 0.874139 0.330658
0.340376 0.884691 0.341048
0.460622 0.896179 0.352393
0.580906 0.907656 0.363745
0.701218 0.919123 0.375103
0.821548 0.930581 0.386467
0.941888 0.942029 0.397838
0.970467 0.944769 0.400514
0.239368 0.909232 0.339603
0.239414 0.909309 0.339555
0.349684 0.919826 0.349970
0.469965 0.931279 0.361338
0.590264 0.942724 0.372711
0.710572 0.954159 0.384090
0.830882 0.965586 0.395475
0.951188 0.977005 0.406864
0.979709 0.979717 0.409558
0.007266 0.007353 0.220699
0.007276 0.007357 0.220393
0.115557 0.017730 0.230604
0.233944 0.029055 0.241772
0.352621 0.040392 0.252945
0.471568 0.051741 0.264123
0.590767 0.063099 0.275306
0.710197 0.074467 0.286496
0.739101 0.077189 0.288965
0.007299 0.007367 0.219720
0.007308 0.007371 0.219456
0.116041 0.017763 0.229697
0.234879 0.029106 0.240893
0.353964 0.040460 0.252096
0.473276 0.051823 0.263304
0.592797 0.063195 0.274518
0.712510 0.074574 0.285738
0.741378 0.077294 0.288245
0.042050 0.141618 0.254164
0.042094 0.141683 0.253929
0.151246 0.152149 0.264190
0.270496 0.163564 0.275407
0.389950 0.174984 0.286630
0.509589 0.186409 0.297860
0.629397 0.197838 0.309096
0.749356 0.209270 0.320340
0.778204 0.212028 0.322877
0.080182 0.288438 0.291871
0.080251 0.288549 0.291667
0.189750 0.299071 0.301950
0.309336 0.310538 0.313189
0.429084 0.322006 0.324435
0.548980 0.333475 0.335688
0.669006 0.344943 0.346948
0.789147 0.356411 0.358215
0.817960 0.359192 0.360782
0.118496 0.435576 0.329652
0.118580 0.435711 0.329479
0.228353 0.446267 0.339786
0.348200 0.457765 0.351049
0.468173 0.469259 0.362319
0.588256 0.480750 0.373597
0.708436 0.492238 0.384883
0.828698 0.503721 0.396177
0.857461 0.506510 0.398773
0.156934 0.582929 0.367514
0.157021 0.583072 0.367373
0.267003 0.593641 0.377705
0.387044 0.605149 0.388994
0.507176 0.616652 0.400290
0.627386 0.628148 0.411594
0.747662 0.639637 0.422906
0.867990 0.651119 0.434226
0.896694 0.653899 0.436851
0.195443 0.730408 0.405463
0.195524 0.730542 0.405352
0.305655 0.741107 0.415711
0.425828 0.752610 0.427026
0.546062 0.764104 0.438349
0.666347 0.775590 0.449679
0.786669 0.787067 0.461017
0.907019 0.798535 0.472363
0.935657 0.801296 0.475015
0.233977 0.877932 0.443500
0.234044 0.878045 0.443420
0.344271 0.888593 0.453806
0.464524 0.900077 0.465147
0.584811 0.911552 0.476495
0.705124 0.923016 0.487850
0.825454 0.934470 0.499213
0.945791 0.945915 0.510583
0.974364 0.948651 0.513259
0.243253 0.913130 0.452356
0.243297 0.913203 0.452305
0.353571 0.923716 0.462717
0.473854 0.935167 0.474083
0.594153 0.946608 0.485456
0.714460 0.958041 0.496835
0.834767 0.969465 0.508219
0.955070 0.980881 0.519609
0.983586 0.983592 0.522304
0.011062 0.011191 0.333957
0.011077 0.011197 0.333614
0.119412 0.021575 0.343788
0.237853 0.032904 0.354921
0.356579 0.044245 0.366060
0.475571 0.055597 0.377206
0.594809 0.066959 0.388360
0.714274 0.078330 0.399521
0.743179 0.081053 0.401964
0.011112 0.011213 0.332859
0.011125 0.011219 0.332563
0.119905 0.021614 0.342773
0.238788 0.032961 0.353940
0.357914 0.044318 0.365114
0.477263 0.055684 0.376296
0.596817 0.067059 0.387485
0.716558 0.078441 0.398682
0.745425 0.081161 0.401168
0.045889 0.145491 0.367199
0.045936 0.145557 0.366938
0.155127 0.156025 0.377173
0.274415 0.167441 0.388366
0.393901 0.178863 0.399566
0.513570 0.190289 0.410775
0.633403 0.201720 0.421991
0.753384 0.213153 0.433216
0.782229 0.215911 0.435737
0.084042 0.292333 0.404820
0.084114 0.292443 0.404595
0.193643 0.302965 0.414857
0.313259 0.314433 0.426077
0.433033 0.325901 0.437305
0.552951 0.337369 0.448541
0.672995 0.348838 0.459786
0.793151 0.360305 0.471040
0.821959 0.363086 0.473594
0.122372 0.439484 0.442532
0.122456 0.439617 0.442343
0.232253 0.450172 0.452634
0.352123 0.461669 0.463882
0.472115 0.473162 0.475139
0.592214 0.484652 0.486405
0.712405 0.496138 0.497680
0.832676 0.507620 0.508963
0.861434 0.510406 0.511551
0.160820 0.586843 0.480341
0.160906 0.586983 0.480188
0.270906 0.597550 0.490509
0.390962 0.609056 0.501787
0.511107 0.620556 0.513074
0.631327 0.632050 0.524369
0.751610 0.643537 0.535674
0.871942 0.655017 0.546988
0.900639 0.657795 0.549608
0.199333 0.734322 0.518251
0.199413 0.734452 0.518133
0.309556 0.745015 0.528484
0.429739 0.756515 0.539792
0.549981 0.768006 0.551109
0.670270 0.779488 0.562434
0.790594 0.790962 0.573768
0.910945 0.802427 0.585111
0.939575 0.805186 0.587761
0.237867 0.881841 0.556264
0.237933 0.881950 0.556179
0.348167 0.892494 0.566560
0.468424 0.903975 0.577897
0.588715 0.915446 0.589242
0.709029 0.926907 0.600596
0.829357 0.938358 0.611957
0.949692 0.949799 0.623326
0.978258 0.952533 0.626002
0.247138 0.917027 0.565105
0.247180 0.917096 0.565052
0.357457 0.927606 0.575462
0.477743 0.939054 0.586827
0.598041 0.950492 0.598199
0.718346 0.961921 0.609578
0.838651 0.973343 0.620963
0.958950 0.984757 0.632354
0.987462 0.987465 0.635049
0.014861 0.015030 0.447189
0.014882 0.015039 0.446809
0.123269 0.025421 0.456948
0.241763 0.036754 0.468046
0.360538 0.048099 0.479153
0.479573 0.059454 0.490269
0.598850 0.070820 0.501393
0.718351 0.082194 0.512526
0.747256 0.084918 0.514945
0.014927 0.015060 0.445975
0.014945 0.015067 0.445649
0.123770 0.025466 0.455828
0.242699 0.036817 0.466967
0.361865 0.048177 0.478114
0.481250 0.059546 0.489270
0.600835 0.070923 0.500435
0.720604 0.082308 0.511609
0.749470 0.085029 0.514076
0.049731 0.149365 0.480215
0.049781 0.149431 0.479929
0.159009 0.159901 0.490139
0.278334 0.171320 0.501308
0.397853 0.182743 0.512487
0.517549 0.194171 0.523675
0.637407 0.205602 0.534872
0.757408 0.217037 0.546080
0.786251 0.219795 0.548585
0.087905 0.296227 0.517754
0.087978 0.296336 0.517508
0.197538 0.306859 0.527750
0.317182 0.318327 0.538951
0.436981 0.329796 0.550162
0.556920 0.341264 0.561383
0.676982 0.352732 0.572614
0.797152 0.364199 0.583855
0.825956 0.366978 0.586398
0.126249 0.443391 0.555400
0.126334 0.443523 0.555195
0.236154 0.454077 0.565471
0.356046 0.465572 0.576705
0.476056 0.477065 0.587949
0.596169 0.488553 0.599204
0.716373 0.500038 0.610469
0.836652 0.511518 0.621743
0.865404 0.514302 0.624324
0.164705 0.590757 0.593159
0.164791 0.590893 0.592994
0.274808 0.601458 0.603304
0.394880 0.612963 0.614572
0.515037 0.624461 0.625850
0.635267 0.635952 0.637139
0.755555 0.647436 0.648437
0.875892 0.658914 0.659745
0.904582 0.661689 0.662361
0.203223 0.738235 0.631033
0.203301 0.738361 0.630907
0.313456 0.748921 0.641251
0.433649 0.760418 0.652553
0.553898 0.771906 0.663865
0.674191 0.783386 0.675186
0.794517 0.794857 0.686517
0.914867 0.806319 0.697857
0.943492 0.809074 0.700505
0.241756 0.885749 0.669022
0.241820 0.885854 0.668933
0.352061 0.896395 0.679310
0.472324 0.907872 0.690644
0.592617 0.919339 0.701987
0.712932 0.930796 0.713340
0.833259 0.942244 0.724700
0.953590 0.953683 0.736069
0.982150 0.956413 0.738745
0.251022 0.920922 0.677852
0.251063 0.920988 0.677797
0.361343 0.931495 0.688206
0.481630 0.942939 0.699570
0.601928 0.954374 0.710942
0.722231 0.965801 0.722321
0.842533 0.977220 0.733707
0.962829 0.988632 0.745099
0.991337 0.991338 0.747795
0.018664 0.018871 0.560393
0.018690 0.018883 0.559979
0.127130 0.029268 0.570083
0.245675 0.040606 0.581148
0.364497 0.051954 0.592224
0.483575 0.063313 0.603310
0.602891 0.074681 0.614406
0.722425 0.086059 0.625513
0.751331 0.088784 0.627908
0.018746 0.018908 0.559069
0.018768 0.018918 0.558712
0.127638 0.029320 0.568863
0.246610 0.040674 0.579974
0.365816 0.052037 0.591095
0.485236 0.063409 0.602227
0.604853 0.074789 0.613369
0.724648 0.086176 0.624522
0.753513 0.088898 0.626969
0.053575 0.153240 0.593211
0.053628 0.153307 0.592901
0.162893 0.163779 0.603087
0.282253 0.175199 0.614234
0.401804 0.186624 0.625392
0.521528 0.198053 0.636561
0.641410 0.209485 0.647740
0.761431 0.220920 0.658931
0.790270 0.223678 0.661421
0.091769 0.300122 0.630671
0.091844 0.300231 0.630406
0.201433 0.310754 0.640629
0.321105 0.322222 0.651813
0.440929 0.333690 0.663008
0.560888 0.345159 0.674214
0.680967 0.356626 0.685431
0.801151 0.368093 0.696660
0.829951 0.370871 0.699193
0.130127 0.447298 0.668255
0.130212 0.447428 0.668035
0.240055 0.457981 0.678297
0.359968 0.469475 0.689518
0.479996 0.480967 0.700751
0.600124 0.492454 0.711995
0.720338 0.503937 0.723250
0.840625 0.515416 0.734517
0.869371 0.518198 0.737090
0.168592 0.594669 0.705967
0.168677 0.594803 0.705791
0.278711 0.605366 0.716091
0.398797 0.616868 0.727350
0.518966 0.628364 0.738621
0.639204 0.639853 0.749903
0.759499 0.651335 0.761195
0.879838 0.662810 0.772499
0.908522 0.665582 0.775111
0.207113 0.742147 0.743808
0.207190 0.742270 0.743675
0.317355 0.752826 0.754013
0.437558 0.764321 0.765309
0.557813 0.775806 0.776616
0.678110 0.787282 0.787934
0.798438 0.798750 0.799262
0.918788 0.810209 0.810600
0.947405 0.812962 0.813248
0.245646 0.889656 0.781777
0.245708 0.889756 0.781683
0.355955 0.900293 0.792057
0.476222 0.911767 0.803389
0.596518 0.923231 0.814731
0.716832 0.934685 0.826082
0.837158 0.946130 0.837442
0.957487 0.957565 0.848810
0.986040 0.960293 0.851487
0.254906 0.924817 0.790596
0.254945 0.924879 0.790540
0.365227 0.935382 0.800948
0.485516 0.946823 0.812312
0.605814 0.958256 0.823684
0.726115 0.969680 0.835064
0.846413 0.981096 0.846451
0.966706 0.992506 0.857844
0.995210 0.995211 0.860541
0.022471 0.022714 0.673572
0.022501 0.022728 0.673124
0.130992 0.033117 0.683194
0.249589 0.044458 0.694228
0.368457 0.055811 0.705273
0.487578 0.067173 0.716330
0.606931 0.078544 0.727400
0.726498 0.089924 0.738482
0.755403 0.092651 0.740853
0.022568 0.022757 0.672140
0.022594 0.022769 0.671755
0.131507 0.033175 0.681877
0.250523 0.044532 0.692962
0.369767 0.055898 0.704058
0.489222 0.067273 0.715166
0.608869 0.078655 0.726287
0.728691 0.090044 0.737419
0.757554 0.092768 0.739848
0.057421 0.157115 0.706189
0.057477 0.157183 0.705855
0.166778 0.167656 0.716019
0.286173 0.179078 0.727145
0.405755 0.190504 0.738283
0.525506 0.201935 0.749433
0.645411 0.213368 0.760596
0.765451 0.224804 0.771771
0.794287 0.227562 0.774247
0.095635 0.304017 0.743573
0.095711 0.304125 0.743290
0.205329 0.314648 0.753495
0.325029 0.326117 0.764663
0.444876 0.337585 0.775842
0.564855 0.349053 0.787034
0.684951 0.360521 0.798239
0.805148 0.371987 0.809457
0.833942 0.374764 0.811979
0.134006 0.451205 0.781098
0.134092 0.451333 0.780864
0.243957 0.461885 0.791112
0.363890 0.473378 0.802322
0.483935 0.484868 0.813543
0.604076 0.496354 0.824778
0.724301 0.507836 0.836025
0.844596 0.519313 0.847284
0.873336 0.522093 0.849851
0.172479 0.598581 0.818766
0.172564 0.598712 0.818580
0.282613 0.609273 0.828871
0.402714 0.620773 0.840122
0.522894 0.632266 0.851386
0.643140 0.643753 0.862661
0.763440 0.655233 0.873949
0.883782 0.666705 0.885248
0.912459 0.669475 0.887857
0.211003 0.746058 0.856577
0.211079 0.746177 0.856437
0.321254 0.756731 0.866769
0.441465 0.768222 0.878061
0.561727 0.779704 0.889365
0.682027 0.791178 0.900679
0.802357 0.802643 0.912005
0.922705 0.814099 0.923342
0.951316 0.816849 0.925985
0.249535 0.893561 0.894527
0.249596 0.893657 0.894430
0.359848 0.904191 0.904801
0.480119 0.915662 0.916131
0.600417 0.927122 0.927463
0.720731 0.938573 0.938797
0.841055 0.950014 0.950153
0.961380 0.961447 0.961526
0.989928 0.964172 0.964214
0.258790 0.928710 0.903338
0.258827 0.928769 0.903281
0.369111 0.939269 0.913689
0.489400 0.950707 0.925052
0.609698 0.962136 0.936419
0.729997 0.973557 0.947800
0.850292 0.984971 0.959191
0.970581 0.996379 0.970587
0.999083 0.999083 0.973288
0.023382 0.023628 0.700263
0.023413 0.023642 0.699812
0.131951 0.034034 0.709879
0.250594 0.045378 0.720909
0.369505 0.056732 0.731951
0.488663 0.068096 0.743006
0.608049 0.079469 0.754074
0.727646 0.090850 0.765154
0.756548 0.093577 0.767524
0.023481 0.023673 0.698822
0.023508 0.023685 0.698436
0.132461 0.034092 0.708556
0.251516 0.045451 0.719638
0.370795 0.056819 0.730732
0.490281 0.068195 0.741839
0.609954 0.079579 0.752959
0.729799 0.090969 0.764091
0.758659 0.093693 0.766519
0.058348 0.158051 0.732864
0.058404 0.158118 0.732530
0.167738 0.168592 0.742692
0.287164 0.180015 0.753817
0.406774 0.191441 0.764954
0.526549 0.202872 0.776104
0.646473 0.214305 0.787266
0.766531 0.225741 0.798442
0.795361 0.228498 0.800919
0.096571 0.304969 0.770244
0.096647 0.305074 0.769961
0.206291 0.315597 0.780166
0.326015 0.327065 0.791333
0.445884 0.338532 0.802514
0.565880 0.349999 0.813706
0.685990 0.361466 0.824912
0.806198 0.372930 0.836131
0.834986 0.375705 0.838655
0.134948 0.452165 0.807768
0.135032 0.452290 0.807535
0.244917 0.462840 0.817785
0.364868 0.474331 0.828995
0.484928 0.485819 0.840218
0.605081 0.497303 0.851454
0.725315 0.508783 0.862702
0.845615 0.520258 0.873963
0.874349 0.523035 0.876533
0.173422 0.599543 0.845439
0.173506 0.599670 0.845255
0.283569 0.610228 0.855547
0.403682 0.621725 0.866800
0.523871 0.633216 0.878066
0.644124 0.644700 0.889344
0.764428 0.656177 0.900633
0.884772 0.667647 0.911935
0.913442 0.670413 0.914547
0.211945 0.747016 0.883255
0.212019 0.747132 0.883118
0.322203 0.757682 0.893452
0.442421 0.769170 0.904746
0.562688 0.780649 0.916052
0.682991 0.792119 0.927356
0.803320 0.803581 0.938650
0.923667 0.815034 0.949975
0.952271 0.817780 0.952638
0.250473 0.894512 0.921213
0.250531 0.894604 0.921119
0.360788 0.905134 0.931464
0.481062 0.916601 0.942770
0.601361 0.928058 0.954104
0.721675 0.939505 0.965460
0.841996 0.950944 0.976833
0.962318 0.962373 0.988219
0.990860 0.965095 0.990916
0.259720 0.929648 0.930017
0.259755 0.929703 0.929968
0.370041 0.940200 0.940368
0.490330 0.951635 0.951734
0.610626 0.963061 0.963113
0.730923 0.974480 0.974503
0.851216 0.985892 0.985899
0.971501 0.997298 0.997299
1.000000 1.000000 1.000000
