library/cube/Luminous_Prime_000.cube
# CINEGRADE LAB — Premium Cinematic LUT
# Title: Luminous Prime
# Category: High Dynamic Luxury
# Description: HDR-like with detailed shadows and highlights for luxury imagery
# Mood: Premium, detailed, luminous
# Variant: 1
# Generated: 2026-05-21T16:12:33.875405
TITLE "Luminous Prime"
LUT_3D_SIZE 9
0.071600 0.071600 0.071600
0.194834 0.067330 0.067327
0.318200 0.063195 0.063183
0.441689 0.059195 0.059168
0.565287 0.055329 0.055282
0.688983 0.051599 0.051525
0.812765 0.048005 0.047897
0.936622 0.044546 0.044399
1.000000 0.041223 0.041030
0.057833 0.185257 0.057738
0.181521 0.181431 0.053899
0.305316 0.177738 0.050189
0.429207 0.174177 0.046608
0.553181 0.170750 0.043157
0.677227 0.167456 0.039836
0.801332 0.164296 0.036644
0.925485 0.161269 0.033582
1.000000 0.158376 0.030650
0.045723 0.300355 0.045337
0.169823 0.296958 0.041933
0.294004 0.293691 0.038659
0.418254 0.290556 0.035514
0.542561 0.287551 0.032499
0.666913 0.284677 0.029615
0.791298 0.281935 0.026860
0.915705 0.279324 0.024235
1.000000 0.276845 0.021740
0.035279 0.416814 0.034402
0.159749 0.413830 0.031434
0.284272 0.410974 0.028597
0.408838 0.408247 0.025889
0.533435 0.405649 0.023312
0.658049 0.403180 0.020865
0.782670 0.400839 0.018547
0.907285 0.398628 0.016361
1.000000 0.396546 0.014304
0.026512 0.534552 0.024936
0.151307 0.531964 0.022406
0.276129 0.529503 0.020006
0.400967 0.527168 0.017736
0.525808 0.524960 0.015597
0.650640 0.522878 0.013587
0.775452 0.520923 0.011708
0.900230 0.519094 0.009960
1.000000 0.517391 0.008341
0.019427 0.653483 0.016942
0.144503 0.651276 0.014850
0.269579 0.649192 0.012888
0.394643 0.647233 0.011057
0.519683 0.645397 0.009355
0.644688 0.643685 0.007784
0.769644 0.642097 0.006343
0.894540 0.640633 0.005032
1.000000 0.639292 0.003852
0.014028 0.773522 0.010422
0.139338 0.771678 0.008768
0.264622 0.769955 0.007245
0.389867 0.768353 0.005851
0.515060 0.766872 0.004588
0.640190 0.765513 0.003454
0.765244 0.764274 0.002451
0.890210 0.763156 0.001578
1.000000 0.762159 0.000834
0.010313 0.894581 0.005376
0.135813 0.893082 0.004160
0.261258 0.891701 0.003074
0.386637 0.890439 0.002118
0.511936 0.889295 0.001292
0.637144 0.888270 0.000596
0.762249 0.887362 0.000029
0.887237 0.886572 0.000000
1.000000 0.885900 0.000000
0.008282 1.000000 0.001802
0.133923 1.000000 0.001024
0.259482 1.000000 0.000375
0.384947 1.000000 0.000000
0.510305 1.000000 0.000000
0.635543 1.000000 0.000000
0.760649 1.000000 0.000000
0.885612 1.000000 0.000000
1.000000 1.000000 0.000000
0.070135 0.070135 0.197634
0.193417 0.065911 0.193404
0.316829 0.061821 0.189300
0.440360 0.057867 0.185324
0.563998 0.054047 0.181474
0.687731 0.050363 0.177753
0.811548 0.046815 0.174158
0.935436 0.043402 0.170692
1.000000 0.040125 0.167353
0.056535 0.183943 0.183908
0.180267 0.180162 0.180105
0.304103 0.176514 0.176429
0.428032 0.172998 0.172881
0.552041 0.169616 0.169461
0.676120 0.166368 0.166169
0.800255 0.163253 0.163005
0.924436 0.160271 0.159968
1.000000 0.157424 0.157060
0.044593 0.299187 0.171622
0.168732 0.295834 0.168248
0.292949 0.292612 0.165002
0.417233 0.289520 0.161885
0.541572 0.286560 0.158895
0.665952 0.283731 0.156033
0.790363 0.281034 0.153300
0.914793 0.278468 0.150695
1.000000 0.276033 0.148218
0.034318 0.415786 0.160781
0.158822 0.412846 0.157838
0.283378 0.410034 0.155023
0.407974 0.407350 0.152337
0.532597 0.404796 0.149779
0.657235 0.402370 0.147349
0.781877 0.400074 0.145047
0.906511 0.397906 0.142874
1.000000 0.395868 0.140829
0.025721 0.533659 0.151391
0.150546 0.531114 0.148879
0.275396 0.528696 0.146496
0.400258 0.526404 0.144241
0.525122 0.524239 0.142115
0.649973 0.522200 0.140117
0.774802 0.520287 0.138247
0.899594 0.518501 0.136506
1.000000 0.516842 0.134893
0.018806 0.652719 0.143452
0.143907 0.650554 0.141372
0.269006 0.648513 0.139421
0.394091 0.646595 0.137598
0.519149 0.644802 0.135904
0.644168 0.643132 0.134338
0.769136 0.641586 0.132901
0.894041 0.640164 0.131591
1.000000 0.638865 0.130410
0.013576 0.772882 0.136967
0.138908 0.771079 0.135319
0.264210 0.769397 0.133800
0.389471 0.767836 0.132409
0.514677 0.766397 0.131147
0.639817 0.765078 0.130012
0.764878 0.763881 0.129006
0.889849 0.762804 0.128128
1.000000 0.761848 0.127379
0.010032 0.894058 0.131935
0.135548 0.892600 0.130719
0.261007 0.891259 0.129631
0.386396 0.890037 0.128672
0.511704 0.888934 0.127841
0.636917 0.887948 0.127138
0.762024 0.887080 0.126562
0.887012 0.886331 0.126115
1.000000 0.885698 0.125795
0.008170 1.000000 0.128354
0.133823 1.000000 0.127570
0.259391 1.000000 0.126913
0.384862 1.000000 0.126385
0.510222 1.000000 0.125984
0.635461 1.000000 0.125711
0.760565 1.000000 0.125565
0.885522 1.000000 0.125547
1.000000 1.000000 0.125656
0.068688 0.068685 0.323683
0.192016 0.064507 0.319493
0.315473 0.060463 0.315429
0.439046 0.056554 0.311490
0.562724 0.052781 0.307676
0.686494 0.049143 0.303989
0.810345 0.045641 0.300427
0.934264 0.042274 0.296990
1.000000 0.039043 0.293680
0.055254 0.182644 0.310087
0.179029 0.178908 0.306319
0.302905 0.175305 0.302677
0.426872 0.171835 0.299161
0.550917 0.168498 0.295771
0.675028 0.165295 0.292506
0.799193 0.162225 0.289368
0.923401 0.159289 0.286357
1.000000 0.156487 0.283471
0.043479 0.298034 0.297912
0.167658 0.294725 0.294568
0.291911 0.291547 0.291349
0.416229 0.288500 0.288257
0.540598 0.285585 0.285292
0.665006 0.282801 0.282452
0.789443 0.280148 0.279739
0.913895 0.277626 0.277153
1.000000 0.275236 0.274693
0.033374 0.414773 0.287163
0.157913 0.411876 0.284243
0.282500 0.409108 0.281450
0.407125 0.406468 0.278783
0.531774 0.403958 0.276242
0.656436 0.401576 0.273829
0.781099 0.399323 0.271541
0.905751 0.397200 0.269381
1.000000 0.395205 0.267347
0.024946 0.532780 0.277843
0.149801 0.530279 0.275349
0.274678 0.527903 0.272981
0.399565 0.525655 0.270740
0.524450 0.523532 0.268626
0.649321 0.521536 0.266638
0.774166 0.519666 0.264776
0.898971 0.517923 0.263042
1.000000 0.516307 0.261434
0.018201 0.651970 0.269956
0.143328 0.649847 0.267887
0.268450 0.647848 0.265945
0.393554 0.645972 0.264130
0.518629 0.644221 0.262442
0.643663 0.642593 0.260880
0.768642 0.641089 0.259444
0.893556 0.639709 0.258135
1.000000 0.638452 0.256953
0.013142 0.772256 0.263501
0.138494 0.770494 0.261858
0.263815 0.768853 0.260342
0.389090 0.767334 0.258953
0.514309 0.765936 0.257690
0.639459 0.764658 0.256554
0.764527 0.763502 0.255544
0.889501 0.762466 0.254660
1.000000 0.761551 0.253903
0.009768 0.893550 0.258479
0.135300 0.892131 0.257262
0.260772 0.890831 0.256172
0.386171 0.889649 0.255208
0.511487 0.888586 0.254370
0.636705 0.887640 0.253659
0.761814 0.886813 0.253073
0.886801 0.886103 0.252614
1.000000 0.885510 0.252280
0.008075 1.000000 0.254888
0.133739 1.000000 0.254096
0.259316 1.000000 0.253431
0.384792 1.000000 0.252891
0.510155 1.000000 0.252478
0.635394 1.000000 0.252190
0.760495 1.000000 0.252028
0.885446 1.000000 0.251992
1.000000 1.000000 0.252081
0.067257 0.067251 0.449745
0.190632 0.063118 0.445595
0.314133 0.059121 0.441569
0.437748 0.055258 0.437666
0.561464 0.051530 0.433887
0.685271 0.047938 0.430232
0.809155 0.044482 0.426701
0.933106 0.041162 0.423294
1.000000 0.037977 0.420012
0.053990 0.181360 0.436276
0.177807 0.177669 0.432542
0.301724 0.174112 0.428932
0.425728 0.170687 0.425446
0.549807 0.167395 0.422085
0.673950 0.164238 0.418847
0.798145 0.161213 0.415734
0.922380 0.158323 0.412746
1.000000 0.155566 0.409882
0.042383 0.296895 0.424208
0.166600 0.293631 0.420892
0.290889 0.290498 0.417700
0.415240 0.287496 0.414632
0.539639 0.284625 0.411689
0.664075 0.281885 0.408870
0.788537 0.279277 0.406176
0.913011 0.276800 0.403607
1.000000 0.274454 0.401163
0.032447 0.413775 0.413546
0.157020 0.410922 0.410648
0.281638 0.408197 0.407875
0.406291 0.405601 0.405227
0.530966 0.403135 0.402703
0.655652 0.400797 0.400304
0.780335 0.398588 0.398030
0.905005 0.396508 0.395880
1.000000 0.394557 0.393856
0.024189 0.531917 0.404293
0.149073 0.529458 0.401815
0.273977 0.527126 0.399462
0.398888 0.524920 0.397233
0.523795 0.522840 0.395129
0.648684 0.520887 0.393150
0.773544 0.519060 0.391296
0.898363 0.517360 0.389566
1.000000 0.515786 0.387961
0.017614 0.651235 0.396452
0.142766 0.649154 0.394394
0.267909 0.647197 0.392460
0.393033 0.645364 0.390651
0.518125 0.643654 0.388967
0.643172 0.642068 0.387408
0.768163 0.640607 0.385974
0.893085 0.639268 0.384664
1.000000 0.638054 0.383479
0.012725 0.771644 0.390024
0.138098 0.769923 0.388385
0.263435 0.768324 0.386872
0.388726 0.766845 0.385483
0.513956 0.765488 0.384218
0.639115 0.764252 0.383079
0.764189 0.763136 0.382063
0.889167 0.762142 0.381173
1.000000 0.761268 0.380407
0.009520 0.893055 0.385008
0.135068 0.891676 0.383789
0.260553 0.890417 0.382695
0.385962 0.889275 0.381725
0.511285 0.888251 0.380879
0.636507 0.887346 0.380159
0.761617 0.886558 0.379562
0.886603 0.885888 0.379089
1.000000 0.885336 0.378741
0.007998 1.000000 0.381403
0.133673 1.000000 0.380603
0.259257 1.000000 0.379927
0.384738 1.000000 0.379375
0.510104 1.000000 0.378948
0.635341 1.000000 0.378645
0.760439 1.000000 0.378465
0.885383 1.000000 0.378409
1.000000 1.000000 0.378477
0.065843 0.065833 0.575820
0.189265 0.061746 0.571709
0.312809 0.057794 0.567720
0.436465 0.053977 0.563852
0.560220 0.050295 0.560106
0.684063 0.046749 0.556483
0.807981 0.043339 0.552981
0.931962 0.040065 0.549603
1.000000 0.036927 0.546346
0.052743 0.180092 0.562474
0.176602 0.176446 0.558773
0.300558 0.172934 0.555194
0.424599 0.169554 0.551737
0.548713 0.166308 0.548403
0.672888 0.163195 0.545191
0.797111 0.160217 0.542102
0.921372 0.157371 0.539136
1.000000 0.154660 0.536292
0.041304 0.295772 0.550509
0.165559 0.292552 0.547219
0.289883 0.289464 0.544052
0.414266 0.286506 0.541008
0.538695 0.283679 0.538086
0.663159 0.280984 0.535287
0.787645 0.278421 0.532611
0.912141 0.275988 0.530058
1.000000 0.273688 0.527628
0.031537 0.412792 0.539930
0.156143 0.409982 0.537053
0.280793 0.407301 0.534299
0.405474 0.404749 0.531668
0.530174 0.402326 0.529159
0.654882 0.400032 0.526774
0.779586 0.397867 0.524512
0.904272 0.395831 0.522372
1.000000 0.393924 0.520356
0.023449 0.531068 0.530740
0.148362 0.528652 0.528277
0.273292 0.526362 0.525936
0.398227 0.524199 0.523719
0.523154 0.522163 0.521624
0.648061 0.520252 0.519653
0.772937 0.518469 0.517804
0.897768 0.516812 0.516079
1.000000 0.515281 0.514476
0.017044 0.650515 0.522942
0.142220 0.648476 0.520892
0.267385 0.646560 0.518965
0.392528 0.644769 0.517162
0.517636 0.643102 0.515481
0.642697 0.641558 0.513923
0.767698 0.640138 0.512489
0.892628 0.638842 0.511177
1.000000 0.637669 0.509988
0.012325 0.771046 0.516536
0.137718 0.769367 0.514900
0.263072 0.767808 0.513387
0.388377 0.766371 0.511997
0.513619 0.765055 0.510730
0.638786 0.763859 0.509585
0.763866 0.762785 0.508564
0.888847 0.761831 0.507665
1.000000 0.760998 0.506889
0.009291 0.892573 0.511521
0.134853 0.891235 0.510299
0.260350 0.890016 0.509199
0.385769 0.888914 0.508223
0.511098 0.887931 0.507368
0.636324 0.887065 0.506637
0.761435 0.886318 0.506027
0.886419 0.885688 0.505540
1.000000 0.885175 0.505176
0.007937 1.000000 0.507897
0.133622 1.000000 0.507088
0.259214 1.000000 0.506401
0.384700 1.000000 0.505836
0.510067 1.000000 0.505393
0.635304 1.000000 0.505073
0.760397 1.000000 0.504875
0.885335 1.000000 0.504798
1.000000 1.000000 0.504844
0.064445 0.064429 0.701908
0.187913 0.060388 0.697834
0.311501 0.056482 0.693880
0.435198 0.052711 0.690046
0.558991 0.049076 0.686333
0.682869 0.045576 0.682740
0.806820 0.042212 0.679267
0.930832 0.038984 0.675915
1.000000 0.035892 0.672684
0.051513 0.178839 0.688680
0.175414 0.175238 0.685011
0.299409 0.171771 0.681461
0.423486 0.168437 0.678033
0.547634 0.165236 0.674724
0.671840 0.162169 0.671537
0.796092 0.159235 0.668471
0.920379 0.156436 0.665525
1.000000 0.153770 0.662701
0.040242 0.294664 0.676814
0.164534 0.291489 0.673550
0.288894 0.288444 0.670407
0.413309 0.285531 0.667384
0.537767 0.282749 0.664483
0.662257 0.280099 0.661702
0.786767 0.277580 0.659043
0.911284 0.275192 0.656505
1.000000 0.272936 0.654088
0.030644 0.411823 0.666314
0.155283 0.409057 0.663457
0.279963 0.406420 0.660720
0.404672 0.403912 0.658105
0.529397 0.401533 0.655611
0.654128 0.399282 0.653238
0.778850 0.397161 0.650986
0.903554 0.395169 0.648856
1.000000 0.393305 0.646847
0.022726 0.530233 0.657183
0.147668 0.527860 0.654733
0.272624 0.525613 0.652404
0.397581 0.523493 0.650197
0.522529 0.521500 0.648110
0.647454 0.519633 0.646145
0.772344 0.517892 0.644301
0.897187 0.516277 0.642579
1.000000 0.514790 0.640977
0.016491 0.649808 0.649423
0.141691 0.647811 0.647381
0.266878 0.645938 0.645460
0.392039 0.644189 0.643660
0.517162 0.642564 0.641982
0.642236 0.641062 0.640424
0.767247 0.639684 0.638988
0.892185 0.638430 0.637673
1.000000 0.637299 0.636479
0.011942 0.770462 0.643035
0.137354 0.768824 0.641401
0.262725 0.767306 0.639887
0.388043 0.765910 0.638495
0.513296 0.764635 0.637224
0.638472 0.763481 0.636074
0.763557 0.762448 0.635045
0.888541 0.761535 0.634137
1.000000 0.760743 0.633349
0.009078 0.892106 0.638019
0.134655 0.890808 0.636791
0.260164 0.889628 0.635685
0.385592 0.888567 0.634700
0.510926 0.887624 0.633836
0.636156 0.886798 0.633092
0.761268 0.886090 0.632469
0.886249 0.885500 0.631966
1.000000 0.885028 0.631584
0.007894 1.000000 0.634372
0.133589 1.000000 0.633551
0.259187 1.000000 0.632851
0.384677 1.000000 0.632272
0.510045 1.000000 0.631813
0.635280 1.000000 0.631475
0.760369 1.000000 0.631257
0.885299 1.000000 0.631158
1.000000 1.000000 0.631180
0.063064 0.063042 0.828007
0.186578 0.059047 0.823970
0.310209 0.055186 0.820050
0.433946 0.051462 0.816249
0.557777 0.047872 0.812566
0.681690 0.044418 0.809002
0.805673 0.041100 0.805557
0.929715 0.037919 0.802230
1.000000 0.034873 0.799023
0.050299 0.177601 0.814894
0.174242 0.174046 0.811255
0.298276 0.170624 0.807734
0.422389 0.167335 0.804332
0.546570 0.164179 0.801049
0.670807 0.161158 0.797885
0.795087 0.158270 0.794840
0.919399 0.155515 0.791914
1.000000 0.152895 0.789107
0.039197 0.293571 0.803123
0.163526 0.290440 0.799883
0.287920 0.287440 0.796762
0.412367 0.284572 0.793761
0.536854 0.281835 0.790878
0.661371 0.279229 0.788115
0.785904 0.276754 0.785471
0.910442 0.274411 0.782947
1.000000 0.272200 0.780541
0.029769 0.410869 0.792698
0.154440 0.408147 0.789858
0.279150 0.405554 0.787139
0.403886 0.403089 0.784538
0.528636 0.400754 0.782057
0.653388 0.398547 0.779695
0.778130 0.396470 0.777453
0.902849 0.394521 0.775330
1.000000 0.392702 0.773327
0.022020 0.529413 0.783621
0.146990 0.527083 0.781184
0.271971 0.524879 0.778865
0.396952 0.522802 0.776667
0.521919 0.520851 0.774587
0.646861 0.519027 0.772627
0.771766 0.517329 0.770787
0.896621 0.515758 0.769066
1.000000 0.514313 0.767464
0.015955 0.649116 0.775896
0.141179 0.647161 0.773860
0.266386 0.645330 0.771943
0.391565 0.643623 0.770146
0.516704 0.642040 0.768469
0.641790 0.640580 0.766910
0.766811 0.639244 0.765471
0.891755 0.638032 0.764152
1.000000 0.636943 0.762951
0.011577 0.769892 0.769522
0.137007 0.768295 0.767888
0.262395 0.766819 0.766373
0.387726 0.765464 0.764977
0.512989 0.764230 0.763701
0.638172 0.763117 0.762544
0.763263 0.762124 0.761506
0.888248 0.761252 0.760587
1.000000 0.760501 0.759786
0.008882 0.891652 0.764499
0.134473 0.890394 0.763266
0.259993 0.889255 0.762152
0.385430 0.888233 0.761157
0.510770 0.887330 0.760282
0.636002 0.886545 0.759525
0.761114 0.885877 0.758887
0.886092 0.885327 0.758367
1.000000 0.884894 0.757966
0.007867 1.000000 0.760825
0.133571 1.000000 0.759992
0.259176 1.000000 0.759279
0.384669 1.000000 0.758684
0.510039 1.000000 0.758207
0.635271 1.000000 0.757849
0.760355 1.000000 0.757610
0.885278 1.000000 0.757489
1.000000 1.000000 0.757485
0.061701 0.061670 0.954118
0.185260 0.057721 0.950115
0.308933 0.053906 0.946229
0.432710 0.050227 0.942459
0.556579 0.046684 0.938806
0.680526 0.043276 0.935270
0.804541 0.040005 0.931851
0.928612 0.036869 0.928549
1.000000 0.033870 0.925364
0.049103 0.176379 0.941115
0.173086 0.172869 0.937505
0.297159 0.169492 0.934011
0.421308 0.166248 0.930635
0.545522 0.163138 0.927376
0.669788 0.160162 0.924233
0.794096 0.157319 0.921209
0.918433 0.154610 0.918301
1.000000 0.152036 0.915511
0.038170 0.292493 0.929435
0.162535 0.289407 0.926218
0.286963 0.286451 0.923119
0.411440 0.283628 0.920137
0.535957 0.280935 0.917272
0.660499 0.278374 0.914525
0.785055 0.275944 0.911895
0.909614 0.273646 0.909383
1.000000 0.271479 0.906988
0.028910 0.409930 0.919080
0.153614 0.407252 0.916258
0.278353 0.404702 0.913554
0.403116 0.402282 0.910967
0.527890 0.399990 0.908497
0.652663 0.397827 0.906146
0.777423 0.395794 0.903912
0.902158 0.393889 0.901795
1.000000 0.392114 0.899797
0.021331 0.528607 0.910054
0.146329 0.526320 0.907628
0.271335 0.524160 0.905319
0.396338 0.522125 0.903128
0.521324 0.520218 0.901054
0.646283 0.518436 0.899098
0.771201 0.516782 0.897260
0.896068 0.515253 0.895539
1.000000 0.513851 0.893936
0.015437 0.648438 0.902359
0.140683 0.646526 0.900328
0.265911 0.644737 0.898415
0.391108 0.643072 0.896620
0.516261 0.641530 0.894942
0.641359 0.640113 0.893381
0.766389 0.638819 0.891938
0.891340 0.637648 0.890613
1.000000 0.636601 0.889405
0.011228 0.769336 0.895995
0.136677 0.767780 0.894360
0.262080 0.766345 0.892842
0.387424 0.765031 0.891442
0.512698 0.763838 0.890159
0.637888 0.762766 0.888994
0.762982 0.761815 0.887946
0.887969 0.760984 0.887015
1.000000 0.760274 0.886201
0.008703 0.891211 0.890961
0.134308 0.889994 0.889721
0.259839 0.888895 0.888599
0.385283 0.887913 0.887593
0.510629 0.887050 0.886705
0.635863 0.886305 0.885933
0.760974 0.885677 0.885279
0.885949 0.885167 0.884741
1.000000 0.884774 0.884320
0.007858 1.000000 0.887256
0.133571 1.000000 0.886410
0.259181 1.000000 0.885682
0.384678 1.000000 0.885070
0.510047 1.000000 0.884575
0.635277 1.000000 0.884196
0.760355 1.000000 0.883934
0.885269 1.000000 0.883788
1.000000 1.000000 0.883759
0.060354 0.060314 1.000000
0.183957 0.056410 1.000000
0.307673 0.052642 1.000000
0.431490 0.049009 1.000000
0.555395 0.045511 1.000000
0.679377 0.042150 1.000000
0.803423 0.038924 1.000000
0.927523 0.035835 1.000000
1.000000 0.032882 1.000000
0.047923 0.175172 1.000000
0.171948 0.171707 1.000000
0.296058 0.168375 1.000000
0.420242 0.165177 1.000000
0.544488 0.162112 1.000000
0.668785 0.159181 1.000000
0.793120 0.156384 1.000000
0.917481 0.153721 1.000000
1.000000 0.151192 1.000000
0.037159 0.291430 1.000000
0.161560 0.288388 1.000000
0.286021 0.285478 1.000000
0.410530 0.282698 1.000000
0.535074 0.280050 1.000000
0.659642 0.277534 1.000000
0.784221 0.275149 1.000000
0.908799 0.272895 1.000000
1.000000 0.270773 1.000000
0.028069 0.409006 1.000000
0.152804 0.406372 1.000000
0.277572 0.403866 1.000000
0.402361 0.401489 1.000000
0.527159 0.399241 1.000000
0.651953 0.397122 1.000000
0.776731 0.395132 1.000000
0.901482 0.393272 1.000000
1.000000 0.391540 1.000000
0.020660 0.527817 1.000000
0.145685 0.525572 1.000000
0.270715 0.523455 1.000000
0.395739 0.521463 1.000000
0.520745 0.519599 1.000000
0.645720 0.517860 1.000000
0.770652 0.516248 1.000000
0.895529 0.514763 1.000000
1.000000 0.513404 1.000000
0.014936 0.647775 1.000000
0.140205 0.645904 1.000000
0.265452 0.644157 1.000000
0.390666 0.642534 1.000000
0.515833 0.641035 1.000000
0.640943 0.639659 1.000000
0.765982 0.638407 1.000000
0.890938 0.637279 1.000000
1.000000 0.636274 1.000000
0.010897 0.768794 1.000000
0.136364 0.767279 1.000000
0.261782 0.765885 1.000000
0.387138 0.764612 1.000000
0.512421 0.763460 1.000000
0.637618 0.762429 1.000000
0.762716 0.761519 1.000000
0.887704 0.760729 1.000000
1.000000 0.760060 1.000000
0.008542 0.890785 1.000000
0.134160 0.889607 1.000000
0.259701 0.888548 1.000000
0.385153 0.887607 1.000000
0.510503 0.886784 1.000000
0.635739 0.886078 1.000000
0.760849 0.885490 1.000000
0.885820 0.885020 1.000000
1.000000 0.884667 1.000000
0.007866 1.000000 1.000000
0.133587 1.000000 1.000000
0.259203 1.000000 1.000000
0.384701 1.000000 1.000000
0.510071 1.000000 1.000000
0.635297 1.000000 1.000000
0.760370 1.000000 1.000000
0.885275 1.000000 1.000000
1.000000 1.000000 1.000000
