library/cube/Luminous_Prime_000.cube
# CINEGRADE LAB — Premium Cinematic LUT
# Title: Luminous Prime
# Category: High Dynamic Luxury
# Description: HDR-like with detailed shadows and highlights for luxury imagery
# Mood: Premium, detailed, luminous
# Variant: 1
# Generated: 2026-05-21T16:12:33.875405
TITLE "Luminous Prime"
LUT_3D_SIZE 5
0.071600 0.071600 0.071600
0.318200 0.063195 0.063183
0.565287 0.055329 0.055282
0.812765 0.048005 0.047897
1.000000 0.041223 0.041030
0.045723 0.300355 0.045337
0.294004 0.293691 0.038659
0.542561 0.287551 0.032499
0.791298 0.281935 0.026860
1.000000 0.276845 0.021740
0.026512 0.534552 0.024936
0.276129 0.529503 0.020006
0.525808 0.524960 0.015597
0.775452 0.520923 0.011708
1.000000 0.517391 0.008341
0.014028 0.773522 0.010422
0.264622 0.769955 0.007245
0.515060 0.766872 0.004588
0.765244 0.764274 0.002451
1.000000 0.762159 0.000834
0.008282 1.000000 0.001802
0.259482 1.000000 0.000375
0.510305 1.000000 0.000000
0.760649 1.000000 0.000000
1.000000 1.000000 0.000000
0.068688 0.068685 0.323683
0.315473 0.060463 0.315429
0.562724 0.052781 0.307676
0.810345 0.045641 0.300427
1.000000 0.039043 0.293680
0.043479 0.298034 0.297912
0.291911 0.291547 0.291349
0.540598 0.285585 0.285292
0.789443 0.280148 0.279739
1.000000 0.275236 0.274693
0.024946 0.532780 0.277843
0.274678 0.527903 0.272981
0.524450 0.523532 0.268626
0.774166 0.519666 0.264776
1.000000 0.516307 0.261434
0.013142 0.772256 0.263501
0.263815 0.768853 0.260342
0.514309 0.765936 0.257690
0.764527 0.763502 0.255544
1.000000 0.761551 0.253903
0.008075 1.000000 0.254888
0.259316 1.000000 0.253431
0.510155 1.000000 0.252478
0.760495 1.000000 0.252028
1.000000 1.000000 0.252081
0.065843 0.065833 0.575820
0.312809 0.057794 0.567720
0.560220 0.050295 0.560106
0.807981 0.043339 0.552981
1.000000 0.036927 0.546346
0.041304 0.295772 0.550509
0.289883 0.289464 0.544052
0.538695 0.283679 0.538086
0.787645 0.278421 0.532611
1.000000 0.273688 0.527628
0.023449 0.531068 0.530740
0.273292 0.526362 0.525936
0.523154 0.522163 0.521624
0.772937 0.518469 0.517804
1.000000 0.515281 0.514476
0.012325 0.771046 0.516536
0.263072 0.767808 0.513387
0.513619 0.765055 0.510730
0.763866 0.762785 0.508564
1.000000 0.760998 0.506889
0.007937 1.000000 0.507897
0.259214 1.000000 0.506401
0.510067 1.000000 0.505393
0.760397 1.000000 0.504875
1.000000 1.000000 0.504844
0.063064 0.063042 0.828007
0.310209 0.055186 0.820050
0.557777 0.047872 0.812566
0.805673 0.041100 0.805557
1.000000 0.034873 0.799023
0.039197 0.293571 0.803123
0.287920 0.287440 0.796762
0.536854 0.281835 0.790878
0.785904 0.276754 0.785471
1.000000 0.272200 0.780541
0.022020 0.529413 0.783621
0.271971 0.524879 0.778865
0.521919 0.520851 0.774587
0.771766 0.517329 0.770787
1.000000 0.514313 0.767464
0.011577 0.769892 0.769522
0.262395 0.766819 0.766373
0.512989 0.764230 0.763701
0.763263 0.762124 0.761506
1.000000 0.760501 0.759786
0.007867 1.000000 0.760825
0.259176 1.000000 0.759279
0.510039 1.000000 0.758207
0.760355 1.000000 0.757610
1.000000 1.000000 0.757485
0.060354 0.060314 1.000000
0.307673 0.052642 1.000000
0.555395 0.045511 1.000000
0.803423 0.038924 1.000000
1.000000 0.032882 1.000000
0.037159 0.291430 1.000000
0.286021 0.285478 1.000000
0.535074 0.280050 1.000000
0.784221 0.275149 1.000000
1.000000 0.270773 1.000000
0.020660 0.527817 1.000000
0.270715 0.523455 1.000000
0.520745 0.519599 1.000000
0.770652 0.516248 1.000000
1.000000 0.513404 1.000000
0.010897 0.768794 1.000000
0.261782 0.765885 1.000000
0.512421 0.763460 1.000000
0.762716 0.761519 1.000000
1.000000 0.760060 1.000000
0.007866 1.000000 1.000000
0.259203 1.000000 1.000000
0.510071 1.000000 1.000000
0.760370 1.000000 1.000000
1.000000 1.000000 1.000000
