library/cube/Luminous_Prime_000.cube
# CINEGRADE LAB — Premium Cinematic LUT
# Title: Luminous Prime
# Category: High Dynamic Luxury
# Description: HDR-like with detailed shadows and highlights for luxury imagery
# Mood: Premium, detailed, luminous
# Variant: 1
# Generated: 2026-05-21T16:12:33.875405
TITLE "Luminous Prime"
LUT_3D_SIZE 33
0.071600 0.071600 0.071600
0.102395 0.070520 0.070520
0.133199 0.069448 0.069448
0.164012 0.068385 0.068383
0.194834 0.067330 0.067327
0.225663 0.066284 0.066279
0.256501 0.065246 0.065239
0.287347 0.064216 0.064207
0.318200 0.063195 0.063183
0.349062 0.062182 0.062167
0.379930 0.061178 0.061159
0.410806 0.060182 0.060160
0.441689 0.059195 0.059168
0.472579 0.058216 0.058184
0.503475 0.057245 0.057209
0.534378 0.056283 0.056241
0.565287 0.055329 0.055282
0.596202 0.054384 0.054330
0.627124 0.053447 0.053387
0.658051 0.052519 0.052452
0.688983 0.051599 0.051525
0.719921 0.050688 0.050606
0.750864 0.049785 0.049695
0.781812 0.048891 0.048792
0.812765 0.048005 0.047897
0.843723 0.047127 0.047010
0.874685 0.046258 0.046132
0.905651 0.045398 0.045261
0.936622 0.044546 0.044399
0.967596 0.043702 0.043544
0.998574 0.042867 0.042698
1.000000 0.042041 0.041860
1.000000 0.041223 0.041030
0.068004 0.099875 0.067998
0.098829 0.098823 0.066945
0.129663 0.097779 0.065900
0.160505 0.096744 0.064862
0.191355 0.095717 0.063833
0.222213 0.094699 0.062812
0.253079 0.093689 0.061799
0.283952 0.092687 0.060795
0.314833 0.091694 0.059798
0.345721 0.090709 0.058809
0.376616 0.089733 0.057828
0.407517 0.088765 0.056856
0.438426 0.087805 0.055891
0.469340 0.086854 0.054934
0.500261 0.085911 0.053986
0.531189 0.084977 0.053046
0.562122 0.084051 0.052113
0.593060 0.083133 0.051189
0.624005 0.082224 0.050273
0.654954 0.081323 0.049365
0.685909 0.080431 0.048465
0.716869 0.079547 0.047573
0.747834 0.078672 0.046690
0.778803 0.077805 0.045814
0.809776 0.076947 0.044946
0.840754 0.076096 0.044087
0.871736 0.075255 0.043235
0.902722 0.074422 0.042392
0.933711 0.073597 0.041557
0.964704 0.072781 0.040730
0.995700 0.071973 0.039911
1.000000 0.071174 0.039100
1.000000 0.070383 0.038297
0.064511 0.128243 0.064487
0.095365 0.127219 0.063461
0.126228 0.126204 0.062443
0.157098 0.125196 0.061433
0.187976 0.124197 0.060431
0.218862 0.123207 0.059437
0.249755 0.122224 0.058451
0.280655 0.121250 0.057473
0.311563 0.120285 0.056503
0.342477 0.119328 0.055542
0.373397 0.118379 0.054588
0.404324 0.117438 0.053643
0.435257 0.116506 0.052705
0.466197 0.115583 0.051776
0.497142 0.114667 0.050855
0.528093 0.113761 0.049942
0.559049 0.112862 0.049037
0.590010 0.111972 0.048140
0.620977 0.111090 0.047251
0.651949 0.110217 0.046370
0.682925 0.109352 0.045497
0.713906 0.108495 0.044632
0.744891 0.107647 0.043776
0.775881 0.106808 0.042927
0.806874 0.105976 0.042087
0.837872 0.105154 0.041255
0.868872 0.104339 0.040431
0.899877 0.103533 0.039615
0.930884 0.102736 0.038807
0.961895 0.101946 0.038007
0.992909 0.101166 0.037215
1.000000 0.100393 0.036432
1.000000 0.099630 0.035656
0.061120 0.156705 0.061067
0.092004 0.155708 0.060068
0.122894 0.154720 0.059077
0.153793 0.153740 0.058094
0.184698 0.152769 0.057119
0.215611 0.151806 0.056152
0.246531 0.150851 0.055194
0.277457 0.149905 0.054243
0.308390 0.148966 0.053301
0.339330 0.148037 0.052366
0.370275 0.147115 0.051440
0.401227 0.146202 0.050521
0.432184 0.145298 0.049611
0.463147 0.144401 0.048709
0.494116 0.143513 0.047815
0.525090 0.142634 0.046929
0.556069 0.141762 0.046051
0.587052 0.140899 0.045181
0.618041 0.140045 0.044320
0.649034 0.139199 0.043466
0.680031 0.138361 0.042621
0.711032 0.137531 0.041783
0.742038 0.136710 0.040954
0.773047 0.135898 0.040133
0.804059 0.135093 0.039320
0.835076 0.134297 0.038515
0.866095 0.133510 0.037718
0.897117 0.132731 0.036929
0.928143 0.131960 0.036149
0.959170 0.131198 0.035376
0.990201 0.130444 0.034612
1.000000 0.129698 0.033855
1.000000 0.128961 0.033107
0.057833 0.185257 0.057738
0.088745 0.184288 0.056766
0.119663 0.183327 0.055802
0.150589 0.182375 0.054847
0.181521 0.181431 0.053899
0.212460 0.180495 0.052959
0.243406 0.179568 0.052028
0.274358 0.178648 0.051104
0.305316 0.177738 0.050189
0.336280 0.176835 0.049282
0.367250 0.175941 0.048383
0.398226 0.175055 0.047491
0.429207 0.174177 0.046608
0.460193 0.173308 0.045734
0.491184 0.172447 0.044867
0.522180 0.171594 0.044008
0.553181 0.170750 0.043157
0.584186 0.169914 0.042315
0.615196 0.169086 0.041480
0.646209 0.168267 0.040654
0.677227 0.167456 0.039836
0.708248 0.166653 0.039026
0.739273 0.165859 0.038224
0.770301 0.165073 0.037430
0.801332 0.164296 0.036644
0.832366 0.163526 0.035866
0.863403 0.162766 0.035097
0.894443 0.162013 0.034335
0.925485 0.161269 0.033582
0.956530 0.160533 0.032837
0.987576 0.159806 0.032100
1.000000 0.159087 0.031371
1.000000 0.158376 0.030650
0.054650 0.213900 0.054501
0.085589 0.212958 0.053556
0.116534 0.212024 0.052619
0.147486 0.211099 0.051691
0.178445 0.210182 0.050770
0.209410 0.209273 0.049858
0.240381 0.208373 0.048953
0.271358 0.207481 0.048057
0.302340 0.206597 0.047169
0.333329 0.205721 0.046289
0.364322 0.204854 0.045417
0.395321 0.203995 0.044553
0.426325 0.203144 0.043697
0.457333 0.202302 0.042850
0.488347 0.201468 0.042010
0.519364 0.200642 0.041179
0.550386 0.199824 0.040355
0.581412 0.199015 0.039540
0.612442 0.198214 0.038733
0.643476 0.197421 0.037934
0.674513 0.196637 0.037143
0.705553 0.195861 0.036360
0.736596 0.195093 0.035585
0.767643 0.194334 0.034819
0.798692 0.193582 0.034060
0.829744 0.192840 0.033310
0.860798 0.192105 0.032567
0.891854 0.191379 0.031833
0.922913 0.190661 0.031107
0.953973 0.189952 0.030389
0.985035 0.189250 0.029680
1.000000 0.188558 0.028978
1.000000 0.187873 0.028285
0.051570 0.242631 0.051355
0.082536 0.241716 0.050437
0.113507 0.240810 0.049528
0.144485 0.239911 0.048626
0.175469 0.239021 0.047733
0.206459 0.238139 0.046848
0.237455 0.237266 0.045971
0.268456 0.236400 0.045102
0.299463 0.235543 0.044241
0.330475 0.234694 0.043388
0.361491 0.233854 0.042543
0.392513 0.233021 0.041706
0.423539 0.232197 0.040878
0.454569 0.231381 0.040057
0.485603 0.230574 0.039245
0.516642 0.229774 0.038441
0.547685 0.228983 0.037645
0.578731 0.228200 0.036857
0.609780 0.227426 0.036077
0.640833 0.226659 0.035305
0.671889 0.225901 0.034542
0.702948 0.225152 0.033786
0.734009 0.224410 0.033039
0.765073 0.223677 0.032299
0.796140 0.222952 0.031568
0.827208 0.222235 0.030845
0.858279 0.221527 0.030130
0.889351 0.220827 0.029423
0.920425 0.220135 0.028725
0.951500 0.219452 0.028034
0.982577 0.218777 0.027352
1.000000 0.218110 0.026677
1.000000 0.217451 0.026011
0.048594 0.271450 0.048300
0.079586 0.270562 0.047410
0.110583 0.269682 0.046527
0.141586 0.268810 0.045653
0.172595 0.267947 0.044787
0.203610 0.267092 0.043929
0.234629 0.266245 0.043079
0.265654 0.265406 0.042238
0.296684 0.264575 0.041404
0.327718 0.263753 0.040578
0.358757 0.262938 0.039761
0.389801 0.262132 0.038951
0.420848 0.261335 0.038150
0.451900 0.260545 0.037357
0.482955 0.259764 0.036572
0.514014 0.258991 0.035795
0.545076 0.258226 0.035026
0.576141 0.257469 0.034266
0.607210 0.256721 0.033513
0.638282 0.255981 0.032768
0.669356 0.255249 0.032032
0.700432 0.254525 0.031304
0.731511 0.253810 0.030584
0.762592 0.253102 0.029872
0.793675 0.252403 0.029168
0.824760 0.251713 0.028472
0.855846 0.251030 0.027785
0.886933 0.250356 0.027105
0.918022 0.249690 0.026434
0.949112 0.249032 0.025771
0.980203 0.248383 0.025116
1.000000 0.247742 0.024469
1.000000 0.247109 0.023830
0.045723 0.300355 0.045337
0.076739 0.299494 0.044474
0.107762 0.298640 0.043619
0.138790 0.297795 0.042772
0.169823 0.296958 0.041933
0.200861 0.296129 0.041102
0.231904 0.295308 0.040280
0.262952 0.294496 0.039465
0.294004 0.293691 0.038659
0.325060 0.292895 0.037860
0.356121 0.292107 0.037070
0.387185 0.291327 0.036288
0.418254 0.290556 0.035514
0.449326 0.289792 0.034748
0.480401 0.289037 0.033991
0.511479 0.288290 0.033241
0.542561 0.287551 0.032499
0.573645 0.286820 0.031766
0.604732 0.286098 0.031041
0.635821 0.285383 0.030324
0.666913 0.284677 0.029615
0.698007 0.283980 0.028914
0.729102 0.283290 0.028221
0.760199 0.282608 0.027536
0.791298 0.281935 0.026860
0.822398 0.281270 0.026191
0.853499 0.280613 0.025531
0.884602 0.279965 0.024879
0.915705 0.279324 0.024235
0.946808 0.278692 0.023599
0.977912 0.278068 0.022971
1.000000 0.277453 0.022352
1.000000 0.276845 0.021740
0.042955 0.329346 0.042466
0.073997 0.328510 0.041630
0.105043 0.327683 0.040802
0.136095 0.326864 0.039982
0.167152 0.326053 0.039171
0.198213 0.325250 0.038367
0.229278 0.324456 0.037572
0.260348 0.323669 0.036785
0.291422 0.322891 0.036005
0.322500 0.322120 0.035234
0.353582 0.321358 0.034472
0.384667 0.320604 0.033717
0.415755 0.319859 0.032970
0.446847 0.319121 0.032232
0.477942 0.318392 0.031501
0.509039 0.317670 0.030779
0.540139 0.316957 0.030065
0.571241 0.316252 0.029359
0.602346 0.315555 0.028661
0.633452 0.314867 0.027971
0.664561 0.314186 0.027289
0.695671 0.313514 0.026616
0.726782 0.312850 0.025950
0.757895 0.312194 0.025293
0.789009 0.311546 0.024644
0.820124 0.310906 0.024003
0.851240 0.310275 0.023370
0.882356 0.309652 0.022745
0.913472 0.309037 0.022128
0.944588 0.308430 0.021520
0.975705 0.307831 0.020919
1.000000 0.307240 0.020327
1.000000 0.306658 0.019743
0.040292 0.358420 0.039686
0.071358 0.357611 0.038877
0.102428 0.356809 0.038077
0.133503 0.356016 0.037284
0.164582 0.355231 0.036500
0.195666 0.354454 0.035724
0.226753 0.353685 0.034956
0.257845 0.352924 0.034196
0.288940 0.352172 0.033444
0.320038 0.351427 0.032700
0.351140 0.350691 0.031965
0.382245 0.349963 0.031237
0.413353 0.349242 0.030518
0.444464 0.348530 0.029807
0.475577 0.347826 0.029104
0.506693 0.347131 0.028409
0.537811 0.346443 0.027722
0.568930 0.345764 0.027043
0.600052 0.345092 0.026372
0.631175 0.344429 0.025710
0.662299 0.343774 0.025056
0.693425 0.343127 0.024409
0.724552 0.342488 0.023771
0.755680 0.341857 0.023141
0.786808 0.341235 0.022520
0.817937 0.340620 0.021906
0.849066 0.340014 0.021300
0.880195 0.339416 0.020703
0.911324 0.338826 0.020114
0.942453 0.338244 0.019533
0.973582 0.337670 0.018960
1.000000 0.337104 0.018395
1.000000 0.336547 0.017838
0.037733 0.387577 0.036998
0.068822 0.386793 0.036216
0.099916 0.386017 0.035443
0.131013 0.385250 0.034678
0.162114 0.384490 0.033921
0.193220 0.383739 0.033172
0.224329 0.382996 0.032432
0.255441 0.382261 0.031699
0.286556 0.381533 0.030974
0.317675 0.380814 0.030258
0.348797 0.380103 0.029550
0.379921 0.379401 0.028850
0.411048 0.378706 0.028158
0.442177 0.378019 0.027474
0.473308 0.377340 0.026798
0.504441 0.376670 0.026130
0.535576 0.376007 0.025471
0.566712 0.375353 0.024819
0.597850 0.374707 0.024176
0.628989 0.374069 0.023541
0.660129 0.373439 0.022914
0.691270 0.372817 0.022295
0.722411 0.372203 0.021684
0.753553 0.371597 0.021082
0.784695 0.370999 0.020487
0.815837 0.370410 0.019901
0.846979 0.369828 0.019323
0.878121 0.369255 0.018753
0.909262 0.368690 0.018191
0.940403 0.368133 0.017637
0.971542 0.367584 0.017092
1.000000 0.367043 0.016554
1.000000 0.366510 0.016025
0.035279 0.416814 0.034402
0.066391 0.416056 0.033648
0.097507 0.415306 0.032902
0.128626 0.414564 0.032164
0.159749 0.413830 0.031434
0.190875 0.413104 0.030713
0.222004 0.412386 0.029999
0.253137 0.411676 0.029294
0.284272 0.410974 0.028597
0.315410 0.410280 0.027908
0.346551 0.409595 0.027227
0.377693 0.408917 0.026554
0.408838 0.408247 0.025889
0.439985 0.407586 0.025233
0.471133 0.406932 0.024584
0.502283 0.406287 0.023944
0.533435 0.405649 0.023312
0.564587 0.405020 0.022688
0.595740 0.404398 0.022072
0.626895 0.403785 0.021464
0.658049 0.403180 0.020865
0.689204 0.402583 0.020273
0.720360 0.401993 0.019690
0.751515 0.401412 0.019115
0.782670 0.400839 0.018547
0.813825 0.400274 0.017989
0.844979 0.399718 0.017438
0.876133 0.399169 0.016895
0.907285 0.398628 0.016361
0.938437 0.398095 0.015834
0.969587 0.397571 0.015316
1.000000 0.397054 0.014806
1.000000 0.396546 0.014304
0.032930 0.446132 0.031897
0.064064 0.445399 0.031171
0.095201 0.444674 0.030452
0.126341 0.443957 0.029741
0.157485 0.443249 0.029039
0.188632 0.442548 0.028345
0.219781 0.441855 0.027659
0.250933 0.441170 0.026981
0.282087 0.440493 0.026311
0.313244 0.439824 0.025649
0.344403 0.439163 0.024996
0.375563 0.438510 0.024350
0.406726 0.437866 0.023713
0.437889 0.437229 0.023084
0.469054 0.436600 0.022463
0.500220 0.435979 0.021850
0.531387 0.435366 0.021245
0.562555 0.434762 0.020648
0.593723 0.434165 0.020060
0.624892 0.433576 0.019479
0.656061 0.432996 0.018907
0.687229 0.432423 0.018343
0.718398 0.431858 0.017787
0.749566 0.431302 0.017239
0.780733 0.430753 0.016700
0.811900 0.430212 0.016168
0.843066 0.429680 0.015645
0.874230 0.429155 0.015129
0.905394 0.428639 0.014622
0.936555 0.428130 0.014123
0.967715 0.427630 0.013632
0.998873 0.427138 0.013150
1.000000 0.426653 0.012675
0.030686 0.475528 0.029485
0.061841 0.474821 0.028785
0.092999 0.474121 0.028094
0.124160 0.473429 0.027411
0.155323 0.472745 0.026736
0.186490 0.472069 0.026069
0.217658 0.471400 0.025410
0.248829 0.470740 0.024760
0.280002 0.470088 0.024117
0.311177 0.469444 0.023483
0.342353 0.468808 0.022857
0.373530 0.468180 0.022239
0.404709 0.467559 0.021629
0.435889 0.466947 0.021027
0.467070 0.466343 0.020433
0.498252 0.465747 0.019847
0.529434 0.465158 0.019270
0.560616 0.464578 0.018701
0.591798 0.464006 0.018140
0.622981 0.463441 0.017587
0.654163 0.462885 0.017042
0.685344 0.462336 0.016505
0.716525 0.461796 0.015976
0.747706 0.461263 0.015456
0.778885 0.460739 0.014944
0.810063 0.460223 0.014440
0.841239 0.459714 0.013944
0.872414 0.459214 0.013456
0.903587 0.458721 0.012976
0.934758 0.458236 0.012504
0.965927 0.457760 0.012041
0.997094 0.457291 0.011585
1.000000 0.456831 0.011138
0.028547 0.505002 0.027164
0.059722 0.504319 0.026492
0.090900 0.503644 0.025828
0.122081 0.502976 0.025173
0.153264 0.502317 0.024525
0.184449 0.501665 0.023885
0.215636 0.501022 0.023254
0.246825 0.500386 0.022631
0.278016 0.499759 0.022016
0.309208 0.499139 0.021409
0.340401 0.498527 0.020810
0.371595 0.497923 0.020219
0.402790 0.497327 0.019636
0.433985 0.496739 0.019062
0.465181 0.496159 0.018496
0.496378 0.495587 0.017937
0.527574 0.495023 0.017387
0.558770 0.494467 0.016845
0.589966 0.493919 0.016312
0.621161 0.493378 0.015786
0.652356 0.492846 0.015269
0.683550 0.492322 0.014759
0.714743 0.491805 0.014258
0.745934 0.491297 0.013765
0.777124 0.490796 0.013280
0.808313 0.490303 0.012803
0.839499 0.489819 0.012335
0.870684 0.489342 0.011874
0.901866 0.488873 0.011422
0.933046 0.488412 0.010977
0.964223 0.487959 0.010541
0.995398 0.487514 0.010113
1.000000 0.487077 0.009694
0.026512 0.534552 0.024936
0.057708 0.533893 0.024291
0.088906 0.533242 0.023655
0.120105 0.532599 0.023026
0.151307 0.531964 0.022406
0.182510 0.531337 0.021794
0.213715 0.530718 0.021190
0.244922 0.530106 0.020594
0.276129 0.529503 0.020006
0.307338 0.528907 0.019426
0.338547 0.528320 0.018855
0.369757 0.527740 0.018291
0.400967 0.527168 0.017736
0.432177 0.526604 0.017189
0.463388 0.526048 0.016650
0.494598 0.525500 0.016119
0.525808 0.524960 0.015597
0.557017 0.524428 0.015082
0.588226 0.523903 0.014576
0.619434 0.523387 0.014078
0.650640 0.522878 0.013587
0.681846 0.522377 0.013105
0.713049 0.521884 0.012632
0.744252 0.521400 0.012166
0.775452 0.520923 0.011708
0.806650 0.520453 0.011259
0.837846 0.519992 0.010818
0.869039 0.519539 0.010385
0.900230 0.519094 0.009960
0.931418 0.518656 0.009543
0.962603 0.518226 0.009134
0.993785 0.517805 0.008734
1.000000 0.517391 0.008341
0.024583 0.564176 0.022799
0.055798 0.563541 0.022182
0.087014 0.562915 0.021573
0.118233 0.562296 0.020972
0.149452 0.561685 0.020379
0.180673 0.561082 0.019794
0.211895 0.560487 0.019217
0.243118 0.559899 0.018649
0.274342 0.559320 0.018088
0.305567 0.558748 0.017536
0.336791 0.558184 0.016992
0.368016 0.557629 0.016456
0.399241 0.557081 0.015928
0.430465 0.556540 0.015408
0.461690 0.556008 0.014897
0.492913 0.555484 0.014393
0.524136 0.554967 0.013898
0.555358 0.554458 0.013411
0.586579 0.553957 0.012932
0.617798 0.553464 0.012461
0.649016 0.552979 0.011998
0.680232 0.552502 0.011544
0.711446 0.552033 0.011097
0.742658 0.551571 0.010659
0.773868 0.551117 0.010229
0.805075 0.550671 0.009807
0.836279 0.550234 0.009393
0.867481 0.549803 0.008987
0.898680 0.549381 0.008590
0.929875 0.548967 0.008200
0.961067 0.548560 0.007819
0.992255 0.548162 0.007446
1.000000 0.547771 0.007081
0.022759 0.593873 0.020755
0.053993 0.593263 0.020165
0.085227 0.592660 0.019583
0.116463 0.592065 0.019009
0.147700 0.591478 0.018444
0.178938 0.590899 0.017886
0.210176 0.590327 0.017337
0.241415 0.589764 0.016796
0.272655 0.589208 0.016263
0.303894 0.588660 0.015738
0.335134 0.588120 0.015221
0.366373 0.587587 0.014713
0.397611 0.587063 0.014212
0.428849 0.586546 0.013720
0.460087 0.586037 0.013236
0.491323 0.585536 0.012760
0.522558 0.585043 0.012292
0.553791 0.584558 0.011832
0.585023 0.584080 0.011380
0.616254 0.583610 0.010937
0.647482 0.583148 0.010502
0.678708 0.582694 0.010074
0.709932 0.582248 0.009655
0.741153 0.581810 0.009244
0.772372 0.581379 0.008842
0.803587 0.580956 0.008447
0.834800 0.580541 0.008060
0.866009 0.580134 0.007682
0.897215 0.579735 0.007312
0.928417 0.579343 0.006950
0.959615 0.578959 0.006596
0.990809 0.578583 0.006250
1.000000 0.578215 0.005912
0.021041 0.623643 0.018802
0.052292 0.623056 0.018240
0.083544 0.622477 0.017685
0.114797 0.621906 0.017139
0.146050 0.621342 0.016601
0.177304 0.620786 0.016071
0.208558 0.620238 0.015549
0.239813 0.619698 0.015035
0.271067 0.619166 0.014530
0.302321 0.618641 0.014032
0.333574 0.618124 0.013543
0.364827 0.617615 0.013061
0.396079 0.617114 0.012588
0.427330 0.616621 0.012123
0.458579 0.616135 0.011667
0.489827 0.615657 0.011218
0.521074 0.615187 0.010777
0.552318 0.614725 0.010345
0.583561 0.614270 0.009921
0.614801 0.613823 0.009505
0.646039 0.613384 0.009097
0.677275 0.612953 0.008697
0.708507 0.612530 0.008305
0.739737 0.612114 0.007922
0.770964 0.611706 0.007546
0.802187 0.611306 0.007179
0.833407 0.610914 0.006820
0.864622 0.610529 0.006469
0.895834 0.610152 0.006126
0.927042 0.609783 0.005791
0.958246 0.609422 0.005465
0.989445 0.609069 0.005146
1.000000 0.608723 0.004836
0.019427 0.653483 0.016942
0.050696 0.652919 0.016407
0.081964 0.652364 0.015880
0.113233 0.651816 0.015361
0.144503 0.651276 0.014850
0.175772 0.650743 0.014347
0.207041 0.650218 0.013853
0.238310 0.649701 0.013367
0.269579 0.649192 0.012888
0.300846 0.648691 0.012418
0.332113 0.648197 0.011956
0.363379 0.647711 0.011502
0.394643 0.647233 0.011057
0.425906 0.646762 0.010619
0.457167 0.646299 0.010190
0.488426 0.645844 0.009768
0.519683 0.645397 0.009355
0.550938 0.644957 0.008950
0.582191 0.644526 0.008553
0.613441 0.644102 0.008165
0.644688 0.643685 0.007784
0.675932 0.643277 0.007412
0.707173 0.642876 0.007047
0.738410 0.642483 0.006691
0.769644 0.642097 0.006343
0.800874 0.641719 0.006003
0.832100 0.641350 0.005672
0.863322 0.640987 0.005348
0.894540 0.640633 0.005032
0.925753 0.640286 0.004725
0.956961 0.639947 0.004426
0.988164 0.639616 0.004135
1.000000 0.639292 0.003852
0.017919 0.683392 0.015174
0.049204 0.682852 0.014666
0.080489 0.682319 0.014166
0.111773 0.681794 0.013675
0.143058 0.681277 0.013191
0.174342 0.680768 0.012716
0.205626 0.680266 0.012249
0.236908 0.679772 0.011790
0.268190 0.679286 0.011339
0.299471 0.678807 0.010896
0.330750 0.678336 0.010462
0.362028 0.677873 0.010035
0.393304 0.677417 0.009617
0.424578 0.676969 0.009207
0.455850 0.676529 0.008805
0.487120 0.676097 0.008411
0.518387 0.675672 0.008025
0.549651 0.675255 0.007648
0.580913 0.674846 0.007278
0.612172 0.674444 0.006917
0.643427 0.674050 0.006564
0.674679 0.673664 0.006219
0.705927 0.673285 0.005882
0.737172 0.672914 0.005553
0.768412 0.672551 0.005232
0.799648 0.672195 0.004920
0.830880 0.671848 0.004615
0.862107 0.671507 0.004319
0.893330 0.671175 0.004031
0.924547 0.670850 0.003751
0.955760 0.670533 0.003479
0.986967 0.670224 0.003215
1.000000 0.669922 0.002959
0.016517 0.713369 0.013498
0.047817 0.712852 0.013018
0.079117 0.712342 0.012545
0.110417 0.711840 0.012081
0.141716 0.711346 0.011625
0.173014 0.710859 0.011177
0.204311 0.710380 0.010737
0.235607 0.709908 0.010306
0.266901 0.709445 0.009882
0.298194 0.708989 0.009467
0.329485 0.708540 0.009060
0.360774 0.708099 0.008661
0.392062 0.707666 0.008270
0.423346 0.707241 0.007887
0.454628 0.706823 0.007512
0.485908 0.706413 0.007146
0.517184 0.706010 0.006787
0.548458 0.705616 0.006437
0.579728 0.705228 0.006095
0.610994 0.704849 0.005761
0.642257 0.704477 0.005435
0.673516 0.704113 0.005117
0.704771 0.703756 0.004808
0.736022 0.703407 0.004506
0.767268 0.703066 0.004213
0.798510 0.702732 0.003928
0.829747 0.702406 0.003651
0.860979 0.702088 0.003382
0.892205 0.701777 0.003121
0.923426 0.701474 0.002868
0.954642 0.701179 0.002624
0.985852 0.700891 0.002387
1.000000 0.700611 0.002159
0.015220 0.743413 0.011914
0.046535 0.742918 0.011461
0.077849 0.742431 0.011016
0.109163 0.741951 0.010579
0.140476 0.741480 0.010151
0.171787 0.741015 0.009730
0.203097 0.740559 0.009318
0.234405 0.740110 0.008913
0.265712 0.739668 0.008517
0.297016 0.739234 0.008129
0.328319 0.738808 0.007750
0.359619 0.738390 0.007378
0.390916 0.737979 0.007014
0.422210 0.737575 0.006659
0.453502 0.737180 0.006312
0.484790 0.736791 0.005972
0.516075 0.736411 0.005641
0.547357 0.736038 0.005319
0.578635 0.735673 0.005004
0.609909 0.735315 0.004697
0.641178 0.734965 0.004399
0.672444 0.734623 0.004108
0.703705 0.734288 0.003826
0.734961 0.733960 0.003552
0.766213 0.733641 0.003286
0.797459 0.733329 0.003028
0.828700 0.733024 0.002778
0.859935 0.732727 0.002537
0.891165 0.732438 0.002303
0.922389 0.732156 0.002078
0.953608 0.731882 0.001861
0.984819 0.731616 0.001652
1.000000 0.731357 0.001451
0.014028 0.773522 0.010422
0.045357 0.773049 0.009997
0.076686 0.772584 0.009579
0.108013 0.772127 0.009170
0.139338 0.771678 0.008768
0.170662 0.771235 0.008375
0.201984 0.770801 0.007990
0.233304 0.770374 0.007613
0.264622 0.769955 0.007245
0.295937 0.769543 0.006884
0.327250 0.769139 0.006531
0.358560 0.768742 0.006187
0.389867 0.768353 0.005851
0.421171 0.767971 0.005523
0.452471 0.767597 0.005203
0.483768 0.767231 0.004891
0.515060 0.766872 0.004588
0.546349 0.766521 0.004292
0.577634 0.766177 0.004005
0.608915 0.765841 0.003725
0.640190 0.765513 0.003454
0.671461 0.765192 0.003191
0.702728 0.764878 0.002936
0.733989 0.764572 0.002690
0.765244 0.764274 0.002451
0.796495 0.763983 0.002220
0.827739 0.763700 0.001998
0.858978 0.763424 0.001784
0.890210 0.763156 0.001578
0.921437 0.762896 0.001380
0.952657 0.762643 0.001190
0.983870 0.762397 0.001008
1.000000 0.762159 0.000834
0.012941 0.803694 0.009023
0.044284 0.803244 0.008624
0.075626 0.802801 0.008234
0.106965 0.802366 0.007852
0.138303 0.801938 0.007478
0.169639 0.801518 0.007112
0.200973 0.801105 0.006755
0.232304 0.800700 0.006405
0.263632 0.800302 0.006064
0.294957 0.799912 0.005731
0.326280 0.799530 0.005405
0.357599 0.799155 0.005089
0.388915 0.798787 0.004780
0.420227 0.798427 0.004479
0.451535 0.798075 0.004186
0.482839 0.797730 0.003902
0.514139 0.797393 0.003626
0.545435 0.797063 0.003358
0.576726 0.796740 0.003097
0.608012 0.796426 0.002846
0.639293 0.796118 0.002602
0.670569 0.795818 0.002366
0.701840 0.795526 0.002139
0.733105 0.795241 0.001919
0.764364 0.794964 0.001708
0.795618 0.794694 0.001505
0.826865 0.794432 0.001310
0.858106 0.794177 0.001123
0.889340 0.793930 0.000944
0.920568 0.793690 0.000773
0.951789 0.793458 0.000610
0.983003 0.793233 0.000456
1.000000 0.793016 0.000310
0.011960 0.833929 0.007715
0.043316 0.833501 0.007344
0.074670 0.833080 0.006981
0.106021 0.832666 0.006626
0.137371 0.832260 0.006280
0.168718 0.831861 0.005942
0.200062 0.831470 0.005611
0.231403 0.831087 0.005289
0.262741 0.830711 0.004975
0.294076 0.830342 0.004669
0.325407 0.829981 0.004372
0.356735 0.829627 0.004082
0.388059 0.829281 0.003800
0.419378 0.828942 0.003527
0.450694 0.828611 0.003262
0.482005 0.828287 0.003005
0.513311 0.827971 0.002756
0.544613 0.827662 0.002515
0.575909 0.827361 0.002282
