library/cube/Market_Master_004.cube
# CINEGRADE LAB — Premium Cinematic LUT
# Title: Market Master
# Category: Commercial Luxury
# Description: Polished, professional, product-ready aesthetic for commercial work
# Mood: Clean, premium, sharp
# Variant: 5
# Generated: 2026-05-21T16:12:42.429188
TITLE "Market Master"
LUT_3D_SIZE 33
0.005000 0.002000 0.000000
0.005000 0.002000 0.000000
0.005000 0.002000 0.000000
0.036360 0.002561 0.000558
0.070708 0.003175 0.001169
0.105055 0.003789 0.001781
0.139402 0.004404 0.002392
0.173749 0.005018 0.003003
0.208096 0.005632 0.003614
0.242444 0.006247 0.004225
0.276791 0.006861 0.004837
0.311138 0.007475 0.005448
0.345485 0.008089 0.006059
0.379832 0.008704 0.006670
0.414180 0.009318 0.007282
0.448527 0.009932 0.007893
0.482874 0.010547 0.008504
0.517221 0.011161 0.009115
0.551568 0.011775 0.009726
0.585916 0.012389 0.010338
0.620263 0.013004 0.010949
0.654610 0.013618 0.011560
0.688957 0.014232 0.012171
0.723304 0.014846 0.012783
0.757652 0.015461 0.013394
0.791999 0.016075 0.014005
0.826346 0.016689 0.014616
0.860693 0.017304 0.015227
0.895040 0.017918 0.015839
0.929388 0.018532 0.016450
0.960748 0.019093 0.017008
0.960748 0.019093 0.017008
0.960748 0.019093 0.017008
0.005000 0.002000 0.000000
0.005000 0.002000 0.000000
0.014849 0.007081 0.000456
0.046837 0.007654 0.001025
0.081871 0.008280 0.001649
0.116905 0.008907 0.002272
0.139402 0.004404 0.002392
0.173749 0.005018 0.003003
0.208096 0.005632 0.003614
0.242444 0.006247 0.004225
0.276791 0.006861 0.004837
0.311138 0.007475 0.005448
0.345485 0.008089 0.006059
0.379832 0.008704 0.006670
0.414180 0.009318 0.007282
0.448527 0.009932 0.007893
0.482874 0.010547 0.008504
0.517221 0.011161 0.009115
0.551568 0.011775 0.009726
0.585916 0.012389 0.010338
0.620263 0.013004 0.010949
0.654610 0.013618 0.011560
0.688957 0.014232 0.012171
0.723304 0.014846 0.012783
0.757652 0.015461 0.013394
0.791999 0.016075 0.014005
0.826346 0.016689 0.014616
0.860693 0.017304 0.015227
0.895040 0.017918 0.015839
0.929388 0.018532 0.016450
0.960748 0.019093 0.017008
0.960748 0.019093 0.017008
0.960748 0.019093 0.017008
0.005328 0.007524 0.000322
0.005328 0.007524 0.000322
0.005328 0.007524 0.000322
0.047169 0.013233 0.001350
0.082203 0.013860 0.001974
0.117237 0.014486 0.002597
0.152271 0.015113 0.003221
0.187305 0.015739 0.003844
0.222339 0.016366 0.004468
0.257373 0.016992 0.005091
0.292408 0.017619 0.005715
0.327442 0.018246 0.006338
0.345814 0.013614 0.006381
0.380161 0.014228 0.006992
0.414508 0.014842 0.007603
0.448855 0.015457 0.008215
0.483202 0.016071 0.008826
0.517550 0.016685 0.009437
0.551897 0.017299 0.010048
0.586244 0.017914 0.010660
0.620591 0.018528 0.011271
0.654938 0.019142 0.011882
0.689286 0.019757 0.012493
0.723633 0.020371 0.013104
0.757980 0.020985 0.013716
0.792327 0.021599 0.014327
0.826674 0.022214 0.014938
0.861022 0.022828 0.015549
0.895369 0.023442 0.016161
0.929716 0.024056 0.016772
0.961076 0.024617 0.017330
0.961076 0.024617 0.017330
0.961076 0.024617 0.017330
0.007389 0.042205 0.002342
0.007389 0.042205 0.002342
0.007389 0.042205 0.002342
0.038750 0.042766 0.002900
0.073097 0.043380 0.003512
0.119318 0.049514 0.004638
0.154352 0.050140 0.005261
0.189387 0.050767 0.005885
0.224421 0.051393 0.006508
0.259455 0.052020 0.007132
0.294489 0.052646 0.007755
0.329523 0.053273 0.008379
0.364557 0.053899 0.009002
0.399591 0.054526 0.009626
0.434626 0.055153 0.010249
0.469660 0.055779 0.010872
0.504694 0.056406 0.011496
0.519610 0.051366 0.011458
0.553958 0.051980 0.012069
0.588305 0.052594 0.012680
0.622652 0.053208 0.013291
0.656999 0.053823 0.013902
0.691346 0.054437 0.014514
0.725694 0.055051 0.015125
0.760041 0.055666 0.015736
0.794388 0.056280 0.016347
0.828735 0.056894 0.016959
0.863082 0.057508 0.017570
0.897430 0.058123 0.018181
0.931777 0.058737 0.018792
0.963137 0.059298 0.019350
0.963137 0.059298 0.019350
0.963137 0.059298 0.019350
0.009450 0.076885 0.004363
0.009450 0.076885 0.004363
0.009450 0.076885 0.004363
0.040810 0.077446 0.004921
0.075158 0.078060 0.005532
0.109505 0.078675 0.006143
0.156434 0.085167 0.007302
0.191468 0.085794 0.007926
0.226502 0.086420 0.008549
0.261536 0.087047 0.009172
0.296570 0.087674 0.009796
0.331605 0.088300 0.010419
0.366639 0.088927 0.011043
0.401673 0.089553 0.011666
0.436707 0.090180 0.012290
0.471741 0.090806 0.012913
0.506775 0.091433 0.013537
0.541809 0.092060 0.014160
0.576844 0.092686 0.014783
0.611878 0.093313 0.015407
0.646912 0.093939 0.016030
0.681946 0.094566 0.016654
0.716980 0.095192 0.017277
0.727754 0.089732 0.017145
0.762102 0.090346 0.017757
0.796449 0.090960 0.018368
0.830796 0.091575 0.018979
0.865143 0.092189 0.019590
0.899490 0.092803 0.020201
0.933838 0.093417 0.020813
0.965198 0.093978 0.021371
0.965198 0.093978 0.021371
0.965198 0.093978 0.021371
0.011511 0.111566 0.006383
0.011511 0.111566 0.006383
0.011511 0.111566 0.006383
0.042871 0.112127 0.006941
0.077219 0.112741 0.007552
0.111566 0.113355 0.008164
0.145913 0.113969 0.008775
0.193549 0.120821 0.009966
0.228584 0.121448 0.010590
0.263618 0.122074 0.011213
0.298652 0.122701 0.011837
0.333686 0.123327 0.012460
0.368720 0.123954 0.013083
0.403754 0.124581 0.013707
0.438788 0.125207 0.014330
0.473823 0.125834 0.014954
0.508857 0.126460 0.015577
0.543891 0.127087 0.016201
0.578925 0.127713 0.016824
0.613959 0.128340 0.017448
0.648993 0.128967 0.018071
0.684027 0.129593 0.018694
0.719062 0.130220 0.019318
0.754096 0.130846 0.019941
0.789130 0.131473 0.020565
0.824164 0.132099 0.021188
0.859198 0.132726 0.021812
0.894232 0.133353 0.022435
0.901551 0.127484 0.022222
0.935898 0.128098 0.022833
0.967259 0.128659 0.023391
0.967259 0.128659 0.023391
0.967259 0.128659 0.023391
0.013572 0.146246 0.008404
0.013572 0.146246 0.008404
0.013572 0.146246 0.008404
0.044932 0.146807 0.008962
0.079279 0.147421 0.009573
0.113627 0.148036 0.010184
0.147974 0.148650 0.010795
0.182321 0.149264 0.011407
0.216668 0.149879 0.012018
0.265699 0.157102 0.013254
0.300733 0.157728 0.013877
0.335768 0.158355 0.014501
0.370802 0.158981 0.015124
0.405836 0.159608 0.015748
0.440870 0.160234 0.016371
0.475904 0.160861 0.016994
0.510938 0.161488 0.017618
0.545972 0.162114 0.018241
0.581007 0.162741 0.018865
0.616041 0.163367 0.019488
0.651075 0.163994 0.020112
0.686109 0.164620 0.020735
0.721143 0.165247 0.021359
0.756177 0.165874 0.021982
0.791211 0.166500 0.022605
0.826246 0.167127 0.023229
0.861280 0.167753 0.023852
0.896314 0.168380 0.024476
0.931348 0.169006 0.025099
0.966382 0.169633 0.025723
0.969697 0.169692 0.025782
0.969697 0.169692 0.025782
0.969697 0.169692 0.025782
0.015633 0.180927 0.010424
0.015633 0.180927 0.010424
0.015633 0.180927 0.010424
0.046993 0.181488 0.010982
0.081340 0.182102 0.011593
0.115687 0.182716 0.012205
0.150035 0.183330 0.012816
0.184382 0.183945 0.013427
0.218729 0.184559 0.014038
0.253076 0.185173 0.014649
0.302815 0.192755 0.015918
0.337849 0.193382 0.016541
0.372883 0.194009 0.017165
0.407917 0.194635 0.017788
0.442951 0.195262 0.018412
0.477986 0.195888 0.019035
0.513020 0.196515 0.019659
0.548054 0.197141 0.020282
0.583088 0.197768 0.020905
0.618122 0.198395 0.021529
0.653156 0.199021 0.022152
0.688190 0.199648 0.022776
0.723225 0.200274 0.023399
0.758259 0.200901 0.024023
0.793293 0.201527 0.024646
0.828327 0.202154 0.025270
0.863361 0.202781 0.025893
0.898395 0.203407 0.026516
0.933429 0.204034 0.027140
0.968464 0.204660 0.027763
0.971779 0.204720 0.027822
0.971779 0.204720 0.027822
0.971779 0.204720 0.027822
0.017693 0.215607 0.012444
0.017693 0.215607 0.012444
0.017693 0.215607 0.012444
0.049054 0.216168 0.013003
0.083401 0.216782 0.013614
0.117748 0.217397 0.014225
0.152095 0.218011 0.014836
0.186443 0.218625 0.015447
0.220790 0.219239 0.016059
0.255137 0.219854 0.016670
0.289484 0.220468 0.017281
0.323831 0.221082 0.017892
0.374965 0.229036 0.019205
0.409999 0.229662 0.019829
0.445033 0.230289 0.020452
0.480067 0.230916 0.021076
0.515101 0.231542 0.021699
0.550135 0.232169 0.022323
0.585169 0.232795 0.022946
0.620204 0.233422 0.023570
0.655238 0.234048 0.024193
0.690272 0.234675 0.024816
0.725306 0.235302 0.025440
0.760340 0.235928 0.026063
0.795374 0.236555 0.026687
0.830408 0.237181 0.027310
0.865443 0.237808 0.027934
0.900477 0.238434 0.028557
0.935511 0.239061 0.029181
0.970545 0.239688 0.029804
0.973860 0.239747 0.029863
0.973860 0.239747 0.029863
0.973860 0.239747 0.029863
0.019754 0.250288 0.014465
0.019754 0.250288 0.014465
0.019754 0.250288 0.014465
0.051115 0.250849 0.015023
0.085462 0.251463 0.015634
0.119809 0.252077 0.016245
0.154156 0.252691 0.016857
0.188504 0.253306 0.017468
0.222851 0.253920 0.018079
0.257198 0.254534 0.018690
0.291545 0.255149 0.019302
0.325892 0.255763 0.019913
0.360240 0.256377 0.020524
0.412080 0.264690 0.021869
0.447114 0.265316 0.022493
0.482148 0.265943 0.023116
0.517183 0.266569 0.023740
0.552217 0.267196 0.024363
0.587251 0.267823 0.024987
0.622285 0.268449 0.025610
0.657319 0.269076 0.026234
0.692353 0.269702 0.026857
0.727387 0.270329 0.027481
0.762422 0.270955 0.028104
0.797456 0.271582 0.028727
0.832490 0.272209 0.029351
0.867524 0.272835 0.029974
0.902558 0.273462 0.030598
0.937592 0.274088 0.031221
0.972626 0.274715 0.031845
0.975942 0.274774 0.031904
0.975942 0.274774 0.031904
0.975942 0.274774 0.031904
0.021815 0.284968 0.016485
0.021815 0.284968 0.016485
0.021815 0.284968 0.016485
0.053176 0.285529 0.017043
0.087523 0.286143 0.017655
0.121870 0.286758 0.018266
0.156217 0.287372 0.018877
0.190564 0.287986 0.019488
0.224912 0.288600 0.020100
0.259259 0.289215 0.020711
0.293606 0.289829 0.021322
0.327953 0.290443 0.021933
0.362300 0.291058 0.022544
0.396648 0.291672 0.023156
0.449196 0.300344 0.024534
0.484230 0.300970 0.025157
0.519264 0.301597 0.025780
0.554298 0.302223 0.026404
0.589332 0.302850 0.027027
0.624366 0.303476 0.027651
0.659401 0.304103 0.028274
0.694435 0.304730 0.028898
0.729469 0.305356 0.029521
0.764503 0.305983 0.030145
0.799537 0.306609 0.030768
0.834571 0.307236 0.031391
0.869605 0.307862 0.032015
0.904640 0.308489 0.032638
0.939674 0.309116 0.033262
0.974708 0.309742 0.033885
0.978023 0.309801 0.033944
0.978023 0.309801 0.033944
0.978023 0.309801 0.033944
0.023876 0.319649 0.018506
0.023876 0.319649 0.018506
0.023876 0.319649 0.018506
0.055236 0.320210 0.019064
0.089584 0.320824 0.019675
0.123931 0.321438 0.020286
0.158278 0.322052 0.020898
0.192625 0.322667 0.021509
0.226972 0.323281 0.022120
0.261320 0.323895 0.022731
0.295667 0.324509 0.023342
0.330014 0.325124 0.023954
0.364361 0.325738 0.024565
0.398708 0.326352 0.025176
0.433056 0.326967 0.025787
0.467403 0.327581 0.026399
0.521346 0.336624 0.027821
0.556380 0.337251 0.028445
0.591414 0.337877 0.029068
0.626448 0.338504 0.029691
0.661482 0.339130 0.030315
0.696516 0.339757 0.030938
0.731550 0.340383 0.031562
0.766585 0.341010 0.032185
0.801619 0.341637 0.032809
0.836653 0.342263 0.033432
0.871687 0.342890 0.034056
0.906721 0.343516 0.034679
0.941755 0.344143 0.035302
0.976789 0.344769 0.035926
0.980105 0.344829 0.035985
0.980105 0.344829 0.035985
0.980105 0.344829 0.035985
0.025937 0.354329 0.020526
0.025937 0.354329 0.020526
0.025937 0.354329 0.020526
0.057297 0.354890 0.021084
0.091644 0.355504 0.021696
0.125992 0.356119 0.022307
0.160339 0.356733 0.022918
0.194686 0.357347 0.023529
0.229033 0.357961 0.024140
0.263380 0.358576 0.024752
0.297728 0.359190 0.025363
0.332075 0.359804 0.025974
0.366422 0.360419 0.026585
0.400769 0.361033 0.027197
0.435116 0.361647 0.027808
0.469464 0.362261 0.028419
0.503811 0.362876 0.029030
0.558461 0.372278 0.030485
0.593495 0.372904 0.031109
0.628529 0.373531 0.031732
0.663564 0.374158 0.032356
0.698598 0.374784 0.032979
0.733632 0.375411 0.033602
0.768666 0.376037 0.034226
0.803700 0.376664 0.034849
0.838734 0.377290 0.035473
0.873768 0.377917 0.036096
0.908803 0.378544 0.036720
0.943837 0.379170 0.037343
0.978871 0.379797 0.037967
0.982186 0.379856 0.038026
0.982186 0.379856 0.038026
0.982186 0.379856 0.038026
0.027998 0.389010 0.022547
0.027998 0.389010 0.022547
0.027998 0.389010 0.022547
0.059358 0.389570 0.023105
0.093705 0.390185 0.023716
0.128052 0.390799 0.024327
0.162400 0.391413 0.024938
0.196747 0.392028 0.025550
0.231094 0.392642 0.026161
0.265441 0.393256 0.026772
0.299788 0.393870 0.027383
0.334136 0.394485 0.027995
0.368483 0.395099 0.028606
0.402830 0.395713 0.029217
0.437177 0.396328 0.029828
0.471524 0.396942 0.030439
0.505872 0.397556 0.031051
0.540219 0.398170 0.031662
0.574566 0.398785 0.032273
0.630611 0.408558 0.033773
0.665645 0.409185 0.034396
0.700679 0.409811 0.035020
0.735713 0.410438 0.035643
0.770747 0.411065 0.036267
0.805782 0.411691 0.036890
0.840816 0.412318 0.037513
0.875850 0.412944 0.038137
0.910884 0.413571 0.038760
0.945918 0.414197 0.039384
0.980952 0.414824 0.040007
0.984268 0.414883 0.040066
0.984268 0.414883 0.040066
0.984268 0.414883 0.040066
0.030058 0.423690 0.024567
0.030058 0.423690 0.024567
0.030058 0.423690 0.024567
0.061419 0.424251 0.025125
0.095766 0.424865 0.025736
0.130113 0.425480 0.026348
0.164461 0.426094 0.026959
0.198808 0.426708 0.027570
0.233155 0.427322 0.028181
0.267502 0.427937 0.028793
0.301849 0.428551 0.029404
0.336197 0.429165 0.030015
0.370544 0.429779 0.030626
0.404891 0.430394 0.031237
0.439238 0.431008 0.031849
0.473585 0.431622 0.032460
0.507933 0.432237 0.033071
0.542280 0.432851 0.033682
0.576627 0.433465 0.034294
0.610974 0.434079 0.034905
0.667726 0.444212 0.036437
0.702761 0.444839 0.037060
0.737795 0.445465 0.037684
0.772829 0.446092 0.038307
0.807863 0.446718 0.038931
0.842897 0.447345 0.039554
0.877931 0.447972 0.040178
0.912965 0.448598 0.040801
0.948000 0.449225 0.041424
0.983034 0.449851 0.042048
0.986349 0.449911 0.042107
0.986349 0.449911 0.042107
0.986349 0.449911 0.042107
0.032119 0.458371 0.026588
0.032119 0.458371 0.026588
0.032119 0.458371 0.026588
0.063480 0.458931 0.027146
0.097827 0.459546 0.027757
0.132174 0.460160 0.028368
0.166521 0.460774 0.028979
0.200869 0.461389 0.029591
0.235216 0.462003 0.030202
0.269563 0.462617 0.030813
0.303910 0.463231 0.031424
0.338257 0.463846 0.032035
0.372605 0.464460 0.032647
0.406952 0.465074 0.033258
0.441299 0.465689 0.033869
0.475646 0.466303 0.034480
0.509993 0.466917 0.035092
0.544341 0.467531 0.035703
0.578688 0.468146 0.036314
0.613035 0.468760 0.036925
0.647382 0.469374 0.037536
0.704842 0.479866 0.039101
0.739876 0.480493 0.039724
0.774910 0.481119 0.040348
0.809944 0.481746 0.040971
0.844979 0.482372 0.041595
0.880013 0.482999 0.042218
0.915047 0.483625 0.042842
0.950081 0.484252 0.043465
0.985115 0.484879 0.044089
0.988430 0.484938 0.044148
0.988430 0.484938 0.044148
0.988430 0.484938 0.044148
0.034180 0.493051 0.028608
0.034180 0.493051 0.028608
0.034180 0.493051 0.028608
0.065541 0.493612 0.029166
0.099888 0.494226 0.029777
0.134235 0.494840 0.030389
0.168582 0.495455 0.031000
0.202929 0.496069 0.031611
0.237277 0.496683 0.032222
0.271624 0.497298 0.032833
0.305971 0.497912 0.033445
0.340318 0.498526 0.034056
0.374665 0.499140 0.034667
0.409013 0.499755 0.035278
0.443360 0.500369 0.035890
0.477707 0.500983 0.036501
0.512054 0.501598 0.037112
0.546401 0.502212 0.037723
0.580749 0.502826 0.038334
0.615096 0.503440 0.038946
0.649443 0.504055 0.039557
0.683790 0.504669 0.040168
0.718137 0.505283 0.040779
0.776992 0.516146 0.042388
0.812026 0.516773 0.043012
0.847060 0.517400 0.043635
0.882094 0.518026 0.044259
0.917128 0.518653 0.044882
0.952163 0.519279 0.045506
0.987197 0.519906 0.046129
0.990512 0.519965 0.046188
0.990512 0.519965 0.046188
0.990512 0.519965 0.046188
0.036241 0.527732 0.030628
0.036241 0.527732 0.030628
0.036241 0.527732 0.030628
0.067601 0.528292 0.031187
0.101949 0.528907 0.031798
0.136296 0.529521 0.032409
0.170643 0.530135 0.033020
0.204990 0.530750 0.033631
0.239337 0.531364 0.034243
0.273685 0.531978 0.034854
0.308032 0.532592 0.035465
0.342379 0.533207 0.036076
0.376726 0.533821 0.036688
0.411073 0.534435 0.037299
0.445421 0.535049 0.037910
0.479768 0.535664 0.038521
0.514115 0.536278 0.039132
0.548462 0.536892 0.039744
0.582809 0.537507 0.040355
0.617157 0.538121 0.040966
0.651504 0.538735 0.041577
0.685851 0.539349 0.042189
0.720198 0.539964 0.042800
0.754545 0.540578 0.043411
0.814107 0.551800 0.045053
0.849142 0.552427 0.045676
0.884176 0.553053 0.046299
0.919210 0.553680 0.046923
0.954244 0.554307 0.047546
0.989278 0.554933 0.048170
0.992593 0.554992 0.048229
0.992593 0.554992 0.048229
0.992593 0.554992 0.048229
0.038302 0.562412 0.032649
0.038302 0.562412 0.032649
0.038302 0.562412 0.032649
0.069662 0.562973 0.033207
0.104010 0.563587 0.033818
0.138357 0.564201 0.034429
0.172704 0.564816 0.035041
0.207051 0.565430 0.035652
0.241398 0.566044 0.036263
0.275746 0.566659 0.036874
0.310093 0.567273 0.037486
0.344440 0.567887 0.038097
0.378787 0.568501 0.038708
0.413134 0.569116 0.039319
0.447482 0.569730 0.039930
0.481829 0.570344 0.040542
0.516176 0.570959 0.041153
0.550523 0.571573 0.041764
0.584870 0.572187 0.042375
0.619218 0.572801 0.042987
0.653565 0.573416 0.043598
0.687912 0.574030 0.044209
0.722259 0.574644 0.044820
0.756606 0.575258 0.045431
0.790954 0.575873 0.046043
0.851223 0.587454 0.047717
0.886257 0.588081 0.048340
0.921291 0.588707 0.048964
0.956325 0.589334 0.049587
0.991360 0.589960 0.050210
0.994675 0.590020 0.050269
0.994675 0.590020 0.050269
0.994675 0.590020 0.050269
0.040363 0.597092 0.034669
0.040363 0.597092 0.034669
0.040363 0.597092 0.034669
0.071723 0.597653 0.035227
0.106070 0.598268 0.035839
0.140418 0.598882 0.036450
0.174765 0.599496 0.037061
0.209112 0.600110 0.037672
0.243459 0.600725 0.038284
0.277806 0.601339 0.038895
0.312154 0.601953 0.039506
0.346501 0.602568 0.040117
0.380848 0.603182 0.040728
0.415195 0.603796 0.041340
0.449542 0.604410 0.041951
0.483890 0.605025 0.042562
0.518237 0.605639 0.043173
0.552584 0.606253 0.043785
0.586931 0.606868 0.044396
0.621278 0.607482 0.045007
0.655626 0.608096 0.045618
0.689973 0.608710 0.046229
0.724320 0.609325 0.046841
0.758667 0.609939 0.047452
0.793014 0.610553 0.048063
0.827362 0.611168 0.048674
0.861709 0.611782 0.049286
0.923373 0.623735 0.051004
0.958407 0.624361 0.051628
0.993441 0.624988 0.052251
0.996756 0.625047 0.052310
0.996756 0.625047 0.052310
0.996756 0.625047 0.052310
0.042424 0.631773 0.036690
0.042424 0.631773 0.036690
0.042424 0.631773 0.036690
0.073784 0.632334 0.037248
0.108131 0.632948 0.037859
0.142478 0.633562 0.038470
0.176826 0.634177 0.039082
0.211173 0.634791 0.039693
0.245520 0.635405 0.040304
0.279867 0.636020 0.040915
0.314214 0.636634 0.041526
0.348562 0.637248 0.042138
0.382909 0.637862 0.042749
0.417256 0.638477 0.043360
0.451603 0.639091 0.043971
0.485950 0.639705 0.044583
0.520298 0.640319 0.045194
0.554645 0.640934 0.045805
0.588992 0.641548 0.046416
0.623339 0.642162 0.047027
0.657686 0.642777 0.047639
0.692034 0.643391 0.048250
0.726381 0.644005 0.048861
0.760728 0.644619 0.049472
0.795075 0.645234 0.050084
0.829422 0.645848 0.050695
0.863770 0.646462 0.051306
0.898117 0.647077 0.051917
0.960488 0.659388 0.053668
0.995523 0.660015 0.054292
0.998838 0.660074 0.054351
0.998838 0.660074 0.054351
0.998838 0.660074 0.054351
0.044484 0.666453 0.038710
0.044484 0.666453 0.038710
0.044484 0.666453 0.038710
0.075845 0.667014 0.039268
0.110192 0.667629 0.039880
0.144539 0.668243 0.040491
0.178886 0.668857 0.041102
0.213234 0.669471 0.041713
0.247581 0.670086 0.042324
0.281928 0.670700 0.042936
0.316275 0.671314 0.043547
0.350622 0.671929 0.044158
0.384970 0.672543 0.044769
0.419317 0.673157 0.045381
0.453664 0.673771 0.045992
0.488011 0.674386 0.046603
0.522358 0.675000 0.047214
0.556706 0.675614 0.047825
0.591053 0.676229 0.048437
0.625400 0.676843 0.049048
0.659747 0.677457 0.049659
0.694094 0.678071 0.050270
0.728442 0.678686 0.050882
0.762789 0.679300 0.051493
0.797136 0.679914 0.052104
0.831483 0.680528 0.052715
0.865830 0.681143 0.053326
0.900178 0.681757 0.053938
0.934525 0.682371 0.054549
0.968872 0.682986 0.055160
1.000000 0.695102 0.056391
1.000000 0.695102 0.056391
1.000000 0.695102 0.056391
0.046545 0.701134 0.040731
0.046545 0.701134 0.040731
0.046545 0.701134 0.040731
0.077906 0.701695 0.041289
0.112253 0.702309 0.041900
0.146600 0.702923 0.042511
0.180947 0.703538 0.043122
0.215295 0.704152 0.043734
0.249642 0.704766 0.044345
0.283989 0.705380 0.044956
0.318336 0.705995 0.045567
0.352683 0.706609 0.046179
0.387031 0.707223 0.046790
0.421378 0.707838 0.047401
0.455725 0.708452 0.048012
0.490072 0.709066 0.048623
0.524419 0.709680 0.049235
0.558767 0.710295 0.049846
0.593114 0.710909 0.050457
0.627461 0.711523 0.051068
0.661808 0.712138 0.051680
0.696155 0.712752 0.052291
0.730503 0.713366 0.052902
0.764850 0.713980 0.053513
0.799197 0.714595 0.054124
0.833544 0.715209 0.054736
0.867891 0.715823 0.055347
0.902239 0.716438 0.055958
0.936586 0.717052 0.056569
0.970933 0.717666 0.057181
1.000000 0.718227 0.057739
1.000000 0.730129 0.058432
1.000000 0.730129 0.058432
0.048606 0.735814 0.042751
0.048606 0.735814 0.042751
0.048606 0.735814 0.042751
0.079967 0.736375 0.043309
0.114314 0.736990 0.043920
0.148661 0.737604 0.044532
0.183008 0.738218 0.045143
0.217355 0.738832 0.045754
0.251703 0.739447 0.046365
0.286050 0.740061 0.046977
0.320397 0.740675 0.047588
0.354744 0.741290 0.048199
0.389091 0.741904 0.048810
0.423439 0.742518 0.049421
0.457786 0.743132 0.050033
0.492133 0.743747 0.050644
0.526480 0.744361 0.051255
0.560827 0.744975 0.051866
0.595175 0.745589 0.052478
0.629522 0.746204 0.053089
0.663869 0.746818 0.053700
0.698216 0.747432 0.054311
0.732563 0.748047 0.054922
0.766911 0.748661 0.055534
0.801258 0.749275 0.056145
0.835605 0.749889 0.056756
0.869952 0.750504 0.057367
0.904299 0.751118 0.057979
0.938647 0.751732 0.058590
0.972994 0.752347 0.059201
1.000000 0.752907 0.059759
1.000000 0.752907 0.059759
1.000000 0.765156 0.060473
0.050667 0.770495 0.044772
0.050667 0.770495 0.044772
0.050667 0.770495 0.044772
0.082027 0.771056 0.045330
0.116375 0.771670 0.045941
0.150722 0.772284 0.046552
0.185069 0.772899 0.047163
0.219416 0.773513 0.047774
0.253763 0.774127 0.048386
0.288111 0.774741 0.048997
0.322458 0.775356 0.049608
0.356805 0.775970 0.050219
0.391152 0.776584 0.050831
0.425499 0.777199 0.051442
0.459847 0.777813 0.052053
0.494194 0.778427 0.052664
0.528541 0.779041 0.053276
0.562888 0.779656 0.053887
0.597235 0.780270 0.054498
0.631583 0.780884 0.055109
0.665930 0.781499 0.055720
0.700277 0.782113 0.056332
0.734624 0.782727 0.056943
0.768971 0.783341 0.057554
0.803319 0.783956 0.058165
0.837666 0.784570 0.058777
0.872013 0.785184 0.059388
0.906360 0.785798 0.059999
0.940707 0.786413 0.060610
0.975055 0.787027 0.061221
1.000000 0.787588 0.061780
1.000000 0.787588 0.061780
1.000000 0.787588 0.061780
0.052728 0.805175 0.046792
0.052728 0.805175 0.046792
0.052728 0.805175 0.046792
0.084088 0.805736 0.047350
0.118435 0.806351 0.047961
0.152783 0.806965 0.048572
0.187130 0.807579 0.049184
0.221477 0.808193 0.049795
0.255824 0.808808 0.050406
0.290171 0.809422 0.051017
0.324519 0.810036 0.051629
0.358866 0.810650 0.052240
0.393213 0.811265 0.052851
0.427560 0.811879 0.053462
0.461907 0.812493 0.054074
0.496255 0.813108 0.054685
0.530602 0.813722 0.055296
0.564949 0.814336 0.055907
0.599296 0.814950 0.056518
0.633643 0.815565 0.057130
0.667991 0.816179 0.057741
0.702338 0.816793 0.058352
0.736685 0.817408 0.058963
0.771032 0.818022 0.059575
0.805379 0.818636 0.060186
0.839727 0.819250 0.060797
0.874074 0.819865 0.061408
0.908421 0.820479 0.062019
0.942768 0.821093 0.062631
0.977115 0.821708 0.063242
1.000000 0.822268 0.063800
1.000000 0.822268 0.063800
1.000000 0.822268 0.063800
0.054789 0.839856 0.048812
0.054789 0.839856 0.048812
0.054789 0.839856 0.048812
0.086149 0.840417 0.049370
0.120496 0.841031 0.049982
0.154844 0.841645 0.050593
0.189191 0.842260 0.051204
0.223538 0.842874 0.051815
0.257885 0.843488 0.052427
0.292232 0.844102 0.053038
0.326580 0.844717 0.053649
0.360927 0.845331 0.054260
0.395274 0.845945 0.054872
0.429621 0.846560 0.055483
0.463968 0.847174 0.056094
0.498316 0.847788 0.056705
0.532663 0.848402 0.057316
0.567010 0.849017 0.057928
0.601357 0.849631 0.058539
