library/cube/Market_Master_004.cube
# CINEGRADE LAB — Premium Cinematic LUT
# Title: Market Master
# Category: Commercial Luxury
# Description: Polished, professional, product-ready aesthetic for commercial work
# Mood: Clean, premium, sharp
# Variant: 5
# Generated: 2026-05-21T16:12:42.429188
TITLE "Market Master"
LUT_3D_SIZE 5
0.005000 0.002000 0.000000
0.208096 0.005632 0.003614
0.482874 0.010547 0.008504
0.757652 0.015461 0.013394
0.960748 0.019093 0.017008
0.017693 0.215607 0.012444
0.220790 0.219239 0.016059
0.515101 0.231542 0.021699
0.795374 0.236555 0.026687
0.973860 0.239747 0.029863
0.034180 0.493051 0.028608
0.237277 0.496683 0.032222
0.512054 0.501598 0.037112
0.812026 0.516773 0.043012
0.990512 0.519965 0.046188
0.050667 0.770495 0.044772
0.253763 0.774127 0.048386
0.528541 0.779041 0.053276
0.803319 0.783956 0.058165
1.000000 0.787588 0.061780
0.063360 0.984102 0.057216
0.266457 0.987734 0.060830
0.541234 0.992649 0.065720
0.816012 0.997563 0.070610
1.000000 1.000000 0.074224
0.006355 0.003335 0.212928
0.209452 0.006967 0.216543
0.484229 0.011882 0.221432
0.759007 0.016796 0.226322
0.962103 0.020428 0.229936
0.019048 0.216942 0.225373
0.222145 0.220575 0.228987
0.496922 0.225489 0.233877
0.771700 0.230403 0.238767
0.974797 0.234035 0.242381
0.035535 0.494386 0.241536
0.238632 0.498018 0.245151
0.513409 0.502933 0.250040
0.813381 0.518108 0.255940
0.991867 0.521300 0.259117
0.052022 0.771830 0.257700
0.255118 0.775462 0.261314
0.529896 0.780377 0.266204
0.804674 0.785291 0.271094
1.000000 0.801518 0.275442
0.064715 0.985437 0.270144
0.267812 0.989069 0.273759
0.542589 0.993984 0.278648
0.817367 0.998898 0.283538
1.000000 1.000000 0.287152
0.007946 0.004902 0.462888
0.211042 0.008535 0.466502
0.485820 0.013449 0.471392
0.760597 0.018363 0.476282
0.963694 0.021995 0.479896
0.020639 0.218510 0.475332
0.223736 0.222142 0.478947
0.498513 0.227056 0.483836
0.773291 0.231970 0.488726
0.976387 0.235603 0.492340
0.037126 0.495953 0.491496
0.240222 0.499586 0.495110
0.515000 0.504500 0.500000
0.789778 0.509414 0.504890
0.992874 0.513047 0.508504
0.053613 0.773397 0.507660
0.256709 0.777030 0.511274
0.531487 0.781944 0.516164
0.806264 0.786858 0.521053
1.000000 0.803086 0.525401
0.066306 0.987005 0.520104
0.269403 0.990637 0.523718
0.544180 0.995551 0.528608
0.818958 1.000000 0.533498
1.000000 1.000000 0.537112
0.009536 0.006470 0.712848
0.212633 0.010102 0.716462
0.487411 0.015016 0.721352
0.762188 0.019931 0.726241
0.965285 0.023563 0.729856
0.022230 0.220077 0.725292
0.225326 0.223709 0.728906
0.500104 0.228623 0.733796
0.774882 0.233538 0.738686
0.977978 0.237170 0.742300
0.038717 0.497521 0.741456
0.241813 0.501153 0.745070
0.516591 0.506067 0.749960
0.791368 0.510982 0.754849
0.994465 0.514614 0.758464
0.055203 0.774965 0.757619
0.258300 0.778597 0.761233
0.533078 0.783511 0.766123
0.807855 0.788425 0.771013
1.000000 0.792058 0.774627
0.067897 0.988572 0.770064
0.270993 0.992204 0.773678
0.545771 0.997118 0.778568
0.820548 1.000000 0.783457
1.000000 1.000000 0.787072
0.010892 0.007805 0.925776
0.213988 0.011437 0.929390
0.488766 0.016351 0.934280
0.763543 0.021266 0.939170
0.966640 0.024898 0.942784
0.023585 0.221412 0.938220
0.226681 0.225044 0.941835
0.501459 0.229959 0.946724
0.776237 0.234873 0.951614
0.979333 0.238505 0.955228
0.040072 0.498856 0.954384
0.243168 0.502488 0.957998
0.517946 0.507402 0.962888
0.792723 0.512317 0.967778
0.995820 0.515949 0.971392
0.056558 0.776300 0.970548
0.259655 0.779932 0.974162
0.534433 0.784846 0.979052
0.809210 0.789761 0.983941
1.000000 0.793393 0.987556
0.069252 0.989907 0.982992
0.272348 0.993539 0.986606
0.547126 0.998453 0.991496
0.821904 1.000000 0.996386
1.000000 1.000000 1.000000
