library/cube/Market_Master_004.cube
# CINEGRADE LAB — Premium Cinematic LUT
# Title: Market Master
# Category: Commercial Luxury
# Description: Polished, professional, product-ready aesthetic for commercial work
# Mood: Clean, premium, sharp
# Variant: 5
# Generated: 2026-05-21T16:12:42.429188
TITLE "Market Master"
LUT_3D_SIZE 9
0.005000 0.002000 0.000000
0.070708 0.003175 0.001169
0.208096 0.005632 0.003614
0.345485 0.008089 0.006059
0.482874 0.010547 0.008504
0.620263 0.013004 0.010949
0.757652 0.015461 0.013394
0.895040 0.017918 0.015839
0.960748 0.019093 0.017008
0.009450 0.076885 0.004363
0.075158 0.078060 0.005532
0.226502 0.086420 0.008549
0.366639 0.088927 0.011043
0.506775 0.091433 0.013537
0.646912 0.093939 0.016030
0.762102 0.090346 0.017757
0.899490 0.092803 0.020201
0.965198 0.093978 0.021371
0.017693 0.215607 0.012444
0.083401 0.216782 0.013614
0.220790 0.219239 0.016059
0.374965 0.229036 0.019205
0.515101 0.231542 0.021699
0.655238 0.234048 0.024193
0.795374 0.236555 0.026687
0.935511 0.239061 0.029181
0.973860 0.239747 0.029863
0.025937 0.354329 0.020526
0.091644 0.355504 0.021696
0.229033 0.357961 0.024140
0.366422 0.360419 0.026585
0.503811 0.362876 0.029030
0.663564 0.374158 0.032356
0.803700 0.376664 0.034849
0.943837 0.379170 0.037343
0.982186 0.379856 0.038026
0.034180 0.493051 0.028608
0.099888 0.494226 0.029777
0.237277 0.496683 0.032222
0.374665 0.499140 0.034667
0.512054 0.501598 0.037112
0.649443 0.504055 0.039557
0.812026 0.516773 0.043012
0.952163 0.519279 0.045506
0.990512 0.519965 0.046188
0.042424 0.631773 0.036690
0.108131 0.632948 0.037859
0.245520 0.635405 0.040304
0.382909 0.637862 0.042749
0.520298 0.640319 0.045194
0.657686 0.642777 0.047639
0.795075 0.645234 0.050084
0.960488 0.659388 0.053668
0.998838 0.660074 0.054351
0.050667 0.770495 0.044772
0.116375 0.771670 0.045941
0.253763 0.774127 0.048386
0.391152 0.776584 0.050831
0.528541 0.779041 0.053276
0.665930 0.781499 0.055720
0.803319 0.783956 0.058165
0.940707 0.786413 0.060610
1.000000 0.787588 0.061780
0.058910 0.909217 0.052853
0.124618 0.910392 0.054023
0.262007 0.912849 0.056467
0.399396 0.915306 0.058912
0.536784 0.917763 0.061357
0.674173 0.920220 0.063802
0.811562 0.922678 0.066247
0.948951 0.925135 0.068692
1.000000 0.926310 0.069861
0.063360 0.984102 0.057216
0.129068 0.985277 0.058385
0.266457 0.987734 0.060830
0.403846 0.990191 0.063275
0.541234 0.992649 0.065720
0.678623 0.995106 0.068165
0.816012 0.997563 0.070610
0.953401 1.000000 0.073055
1.000000 1.000000 0.074224
0.005560 0.002551 0.087949
0.071267 0.003727 0.089118
0.208656 0.006184 0.091563
0.346045 0.008641 0.094008
0.483434 0.011098 0.096453
0.620823 0.013555 0.098898
0.758211 0.016012 0.101343
0.895600 0.018469 0.103787
0.961308 0.019645 0.104957
0.010010 0.077437 0.092311
0.075717 0.078612 0.093481
0.213106 0.081069 0.095926
0.350495 0.083526 0.098371
0.487884 0.085983 0.100815
0.625273 0.088440 0.103260
0.762661 0.090898 0.105705
0.900050 0.093355 0.108150
0.965758 0.094530 0.109319
0.018253 0.216159 0.100393
0.083961 0.217334 0.101562
0.221350 0.219791 0.104007
0.375524 0.229587 0.107154
0.515661 0.232094 0.109648
0.655797 0.234600 0.112142
0.795934 0.237106 0.114635
0.908294 0.232077 0.116232
0.974001 0.233252 0.117401
0.026496 0.354881 0.108475
0.092204 0.356056 0.109644
0.229593 0.358513 0.112089
0.366982 0.360970 0.114534
0.523987 0.372203 0.117810
0.664123 0.374709 0.120304
0.804260 0.377215 0.122798
0.944396 0.379722 0.125292
0.982746 0.380407 0.125974
0.034740 0.493603 0.116557
0.100448 0.494778 0.117726
0.237836 0.497235 0.120171
0.375225 0.499692 0.122616
0.512614 0.502149 0.125061
0.650003 0.504606 0.127506
0.812586 0.517324 0.130961
0.952722 0.519831 0.133454
0.991072 0.520517 0.134137
0.042983 0.632324 0.124638
0.108691 0.633500 0.125808
0.246080 0.635957 0.128253
0.383469 0.638414 0.130698
0.520857 0.640871 0.133142
0.658246 0.643328 0.135587
0.795635 0.645785 0.138032
0.961048 0.659940 0.141617
0.999397 0.660626 0.142299
0.051227 0.771046 0.132720
0.116934 0.772221 0.133890
0.254323 0.774679 0.136334
0.391712 0.777136 0.138779
0.529101 0.779593 0.141224
0.666490 0.782050 0.143669
0.803878 0.784507 0.146114
0.941267 0.786964 0.148559
1.000000 0.800735 0.150462
0.059470 0.909768 0.140802
0.125178 0.910943 0.141971
0.262567 0.913401 0.144416
0.399955 0.915858 0.146861
0.537344 0.918315 0.149306
0.674733 0.920772 0.151751
0.812122 0.923229 0.154196
0.949511 0.925686 0.156641
1.000000 0.926861 0.157810
0.063920 0.984654 0.145165
0.129628 0.985829 0.146334
0.267016 0.988286 0.148779
0.404405 0.990743 0.151224
0.541794 0.993200 0.153669
0.679183 0.995657 0.156114
0.816572 0.998114 0.158559
0.953960 1.000000 0.161003
1.000000 1.000000 0.162173
0.006355 0.003335 0.212928
0.072063 0.004510 0.214098
0.209452 0.006967 0.216543
0.346840 0.009425 0.218988
0.484229 0.011882 0.221432
0.621618 0.014339 0.223877
0.759007 0.016796 0.226322
0.896396 0.019253 0.228767
0.962103 0.020428 0.229936
0.010805 0.078220 0.217291
0.076513 0.079396 0.218461
0.213902 0.081853 0.220905
0.351290 0.084310 0.223350
0.488679 0.086767 0.225795
0.626068 0.089224 0.228240
0.763457 0.091681 0.230685
0.900845 0.094138 0.233130
0.966553 0.095313 0.234299
0.019048 0.216942 0.225373
0.084756 0.218117 0.226542
0.222145 0.220575 0.228987
0.359534 0.223032 0.231432
0.496922 0.225489 0.233877
0.634311 0.227946 0.236322
0.771700 0.230403 0.238767
0.909089 0.232860 0.241212
0.974797 0.234035 0.242381
0.027292 0.355664 0.233455
0.093000 0.356839 0.234624
0.230388 0.359297 0.237069
0.367777 0.361754 0.239514
0.524782 0.372986 0.242790
0.664919 0.375493 0.245284
0.805055 0.377999 0.247778
0.945192 0.380505 0.250272
0.983040 0.372757 0.250463
0.035535 0.494386 0.241536
0.101243 0.495561 0.242706
0.238632 0.498018 0.245151
0.376020 0.500476 0.247596
0.513409 0.502933 0.250040
0.673244 0.515602 0.253447
0.813381 0.518108 0.255940
0.953518 0.520614 0.258434
0.991867 0.521300 0.259117
0.043779 0.633108 0.249618
0.109486 0.634283 0.250788
0.246875 0.636740 0.253232
0.384264 0.639197 0.255677
0.521653 0.641655 0.258122
0.659041 0.644112 0.260567
0.796430 0.646569 0.263012
0.961843 0.660724 0.266597
1.000000 0.661409 0.267279
0.052022 0.771830 0.257700
0.117730 0.773005 0.258869
0.255118 0.775462 0.261314
0.392507 0.777919 0.263759
0.529896 0.780377 0.266204
0.667285 0.782834 0.268649
0.804674 0.785291 0.271094
0.942062 0.787748 0.273539
1.000000 0.801518 0.275442
0.060265 0.910552 0.265782
0.125973 0.911727 0.266951
0.263362 0.914184 0.269396
0.400751 0.916641 0.271841
0.538139 0.919098 0.274286
0.675528 0.921556 0.276731
0.812917 0.924013 0.279176
0.950306 0.926470 0.281620
1.000000 0.927645 0.282790
0.064715 0.985437 0.270144
0.130423 0.986612 0.271314
0.267812 0.989069 0.273759
0.405201 0.991527 0.276204
0.542589 0.993984 0.278648
0.679978 0.996441 0.281093
0.817367 0.998898 0.283538
0.954756 1.000000 0.285983
1.000000 1.000000 0.287152
0.007150 0.004119 0.337908
0.072858 0.005294 0.339078
0.210247 0.007751 0.341522
0.347636 0.010208 0.343967
0.485024 0.012665 0.346412
0.622413 0.015122 0.348857
0.759802 0.017580 0.351302
0.897191 0.020037 0.353747
0.962899 0.021212 0.354916
0.011600 0.079004 0.342271
0.077308 0.080179 0.343440
0.214697 0.082636 0.345885
0.352086 0.085093 0.348330
0.489474 0.087551 0.350775
0.626863 0.090008 0.353220
0.764252 0.092465 0.355665
0.901641 0.094922 0.358110
0.967349 0.096097 0.359279
0.019844 0.217726 0.350353
0.085551 0.218901 0.351522
0.222940 0.221358 0.353967
0.360329 0.223815 0.356412
0.497718 0.226273 0.358857
0.635107 0.228730 0.361302
0.772495 0.231187 0.363747
0.909884 0.233644 0.366191
0.975592 0.234819 0.367361
0.028087 0.356448 0.358434
0.093795 0.357623 0.359604
0.231184 0.360080 0.362049
0.368572 0.362537 0.364494
0.505961 0.364994 0.366938
0.643350 0.367452 0.369383
0.780739 0.369909 0.371828
0.918128 0.372366 0.374273
0.983835 0.373541 0.375442
0.036331 0.495170 0.366516
0.102038 0.496345 0.367686
0.239427 0.498802 0.370130
0.376816 0.501259 0.372575
0.514205 0.503716 0.375020
0.674040 0.516385 0.378426
0.814176 0.518892 0.380920
0.954313 0.521398 0.383414
0.992662 0.522084 0.384096
0.044574 0.633892 0.374598
0.110282 0.635067 0.375767
0.247670 0.637524 0.378212
0.385059 0.639981 0.380657
0.522448 0.642438 0.383102
0.659837 0.644895 0.385547
0.822502 0.659001 0.389083
0.962639 0.661507 0.391577
1.000000 0.662193 0.392259
0.052817 0.772614 0.382680
0.118525 0.773789 0.383849
0.255914 0.776246 0.386294
0.393303 0.778703 0.388739
0.530691 0.781160 0.391184
0.668080 0.783617 0.393629
0.805469 0.786074 0.396074
0.942858 0.788532 0.398518
1.000000 0.802302 0.400422
0.061061 0.911336 0.390762
0.126768 0.912511 0.391931
0.264157 0.914968 0.394376
0.401546 0.917425 0.396821
0.538935 0.919882 0.399266
0.676324 0.922339 0.401710
0.813712 0.924796 0.404155
0.951101 0.927253 0.406600
1.000000 0.928429 0.407770
0.065511 0.986221 0.395124
0.131218 0.987396 0.396294
0.268607 0.989853 0.398738
0.405996 0.992310 0.401183
0.543385 0.994767 0.403628
0.680774 0.997225 0.406073
0.818162 0.999682 0.408518
0.955551 1.000000 0.410963
1.000000 1.000000 0.412132
0.007946 0.004902 0.462888
0.073653 0.006078 0.464057
0.211042 0.008535 0.466502
0.348431 0.010992 0.468947
0.485820 0.013449 0.471392
0.623209 0.015906 0.473837
0.760597 0.018363 0.476282
0.897986 0.020820 0.478727
0.963694 0.021995 0.479896
0.012396 0.079788 0.467251
0.078103 0.080963 0.468420
0.215492 0.083420 0.470865
0.352881 0.085877 0.473310
0.490270 0.088334 0.475755
0.627659 0.090791 0.478200
0.765047 0.093248 0.480645
0.902436 0.095706 0.483089
0.968144 0.096881 0.484259
0.020639 0.218510 0.475332
0.086347 0.219685 0.476502
0.223736 0.222142 0.478947
0.361124 0.224599 0.481392
0.498513 0.227056 0.483836
0.635902 0.229513 0.486281
0.773291 0.231970 0.488726
0.910680 0.234428 0.491171
0.976387 0.235603 0.492340
0.028883 0.357232 0.483414
0.094590 0.358407 0.484584
0.231979 0.360864 0.487028
0.369368 0.363321 0.489473
0.506757 0.365778 0.491918
0.644145 0.368235 0.494363
0.781534 0.370692 0.496808
0.918923 0.373149 0.499253
0.984631 0.374325 0.500422
0.037126 0.495953 0.491496
0.102834 0.497129 0.492665
0.240222 0.499586 0.495110
0.377611 0.502043 0.497555
0.515000 0.504500 0.500000
0.652389 0.506957 0.502445
0.789778 0.509414 0.504890
0.927166 0.511871 0.507335
0.992874 0.513047 0.508504
0.045369 0.634675 0.499578
0.111077 0.635851 0.500747
0.248466 0.638308 0.503192
0.385855 0.640765 0.505637
0.523243 0.643222 0.508082
0.660632 0.645679 0.510527
0.823298 0.659785 0.514062
0.963434 0.662291 0.516556
1.000000 0.662977 0.517239
0.053613 0.773397 0.507660
0.119320 0.774572 0.508829
0.256709 0.777030 0.511274
0.394098 0.779487 0.513719
0.531487 0.781944 0.516164
0.668876 0.784401 0.518608
0.806264 0.786858 0.521053
0.971760 0.802400 0.524719
1.000000 0.803086 0.525401
0.061856 0.912119 0.515741
0.127564 0.913294 0.516911
0.264953 0.915752 0.519355
0.402341 0.918209 0.521800
0.539730 0.920666 0.524245
0.677119 0.923123 0.526690
0.814508 0.925580 0.529135
0.951897 0.928037 0.531580
1.000000 0.929212 0.532749
0.066306 0.987005 0.520104
0.132014 0.988180 0.521273
0.269403 0.990637 0.523718
0.406791 0.993094 0.526163
0.544180 0.995551 0.528608
0.681569 0.998008 0.531053
0.818958 1.000000 0.533498
0.956347 1.000000 0.535943
1.000000 1.000000 0.537112
0.008741 0.005686 0.587868
0.074449 0.006861 0.589037
0.211838 0.009318 0.591482
0.349226 0.011775 0.593927
0.486615 0.014233 0.596372
0.624004 0.016690 0.598817
0.761393 0.019147 0.601262
0.898782 0.021604 0.603706
0.964489 0.022779 0.604876
0.013191 0.080571 0.592230
0.078899 0.081747 0.593400
0.216288 0.084204 0.595845
0.353676 0.086661 0.598290
0.491065 0.089118 0.600734
0.628454 0.091575 0.603179
0.765843 0.094032 0.605624
0.903232 0.096489 0.608069
0.968939 0.097664 0.609238
0.021434 0.219293 0.600312
0.087142 0.220468 0.601482
0.224531 0.222926 0.603926
0.361920 0.225383 0.606371
0.499309 0.227840 0.608816
0.636697 0.230297 0.611261
0.774086 0.232754 0.613706
0.911475 0.235211 0.616151
0.977183 0.236386 0.617320
0.029678 0.358015 0.608394
0.095386 0.359190 0.609563
0.232774 0.361647 0.612008
0.370163 0.364105 0.614453
0.507552 0.366562 0.616898
0.644941 0.369019 0.619343
0.782330 0.371476 0.621788
0.919718 0.373933 0.624233
0.985426 0.375108 0.625402
0.037921 0.496737 0.616476
0.103629 0.497912 0.617645
0.241018 0.500369 0.620090
0.378407 0.502827 0.622535
0.515795 0.505284 0.624980
0.653184 0.507741 0.627425
0.790573 0.510198 0.629870
0.927962 0.512655 0.632314
0.993669 0.513830 0.633484
0.046165 0.635459 0.624558
0.111872 0.636634 0.625727
0.249261 0.639091 0.628172
0.386650 0.641548 0.630617
0.524039 0.644006 0.633062
0.661428 0.646463 0.635506
0.798816 0.648920 0.637951
0.936205 0.651377 0.640396
1.000000 0.652552 0.641566
0.054408 0.774181 0.632639
0.120116 0.775356 0.633809
0.257505 0.777813 0.636253
0.394893 0.780270 0.638698
0.532282 0.782727 0.641143
0.669671 0.785185 0.643588
0.807060 0.787642 0.646033
0.972555 0.803184 0.649699
1.000000 0.803869 0.650381
0.062651 0.912903 0.640721
0.128359 0.914078 0.641890
0.265748 0.916535 0.644335
0.403137 0.918992 0.646780
0.540526 0.921449 0.649225
0.677914 0.923907 0.651670
0.815303 0.926364 0.654115
0.952692 0.928821 0.656560
1.000000 0.943979 0.658544
0.067101 0.987788 0.645084
0.132809 0.988963 0.646253
0.270198 0.991420 0.648698
0.407587 0.993878 0.651143
0.544976 0.996335 0.653588
0.682364 0.998792 0.656033
0.819753 1.000000 0.658478
0.957142 1.000000 0.660922
1.000000 1.000000 0.662092
0.009536 0.006470 0.712848
0.075244 0.007645 0.714017
0.212633 0.010102 0.716462
0.350022 0.012559 0.718907
0.487411 0.015016 0.721352
0.624799 0.017473 0.723796
0.762188 0.019931 0.726241
0.899577 0.022388 0.728686
0.965285 0.023563 0.729856
0.013986 0.081355 0.717210
0.079694 0.082530 0.718380
0.217083 0.084987 0.720824
0.354472 0.087444 0.723269
0.491861 0.089902 0.725714
0.629249 0.092359 0.728159
0.766638 0.094816 0.730604
0.904027 0.097273 0.733049
0.969735 0.098448 0.734218
0.022230 0.220077 0.725292
0.087938 0.221252 0.726461
0.225326 0.223709 0.728906
0.362715 0.226166 0.731351
0.500104 0.228623 0.733796
0.637493 0.231081 0.736241
0.774882 0.233538 0.738686
0.912270 0.235995 0.741131
0.977978 0.237170 0.742300
0.030473 0.358799 0.733374
0.096181 0.359974 0.734543
0.233570 0.362431 0.736988
0.370959 0.364888 0.739433
0.508347 0.367345 0.741878
0.645736 0.369803 0.744323
0.783125 0.372260 0.746768
0.920514 0.374717 0.749212
0.986221 0.375892 0.750382
0.038717 0.497521 0.741456
0.104424 0.498696 0.742625
0.241813 0.501153 0.745070
0.379202 0.503610 0.747515
0.516591 0.506067 0.749960
0.653980 0.508524 0.752404
0.791368 0.510982 0.754849
0.928757 0.513439 0.757294
0.994465 0.514614 0.758464
0.046960 0.636243 0.749537
0.112668 0.637418 0.750707
0.250057 0.639875 0.753151
0.387445 0.642332 0.755596
0.524834 0.644789 0.758041
0.662223 0.647246 0.760486
0.799612 0.649703 0.762931
0.937000 0.652161 0.765376
1.000000 0.653336 0.766545
0.055203 0.774965 0.757619
0.120911 0.776140 0.758788
0.258300 0.778597 0.761233
0.395689 0.781054 0.763678
0.533078 0.783511 0.766123
0.670466 0.785968 0.768568
0.807855 0.788425 0.771013
0.945244 0.790883 0.773458
1.000000 0.792058 0.774627
0.063447 0.913687 0.765701
0.129155 0.914862 0.766870
0.266543 0.917319 0.769315
0.403932 0.919776 0.771760
0.541321 0.922233 0.774205
0.678710 0.924690 0.776650
0.816098 0.927147 0.779095
0.953487 0.929604 0.781540
1.000000 0.944762 0.783523
0.067897 0.988572 0.770064
0.133604 0.989747 0.771233
0.270993 0.992204 0.773678
0.408382 0.994661 0.776123
0.545771 0.997118 0.778568
0.683160 0.999575 0.781012
0.820548 1.000000 0.783457
0.957937 1.000000 0.785902
1.000000 1.000000 0.787072
0.010332 0.007253 0.837827
0.076040 0.008429 0.838997
0.213428 0.010886 0.841441
0.350817 0.013343 0.843886
0.488206 0.015800 0.846331
0.625595 0.018257 0.848776
0.762984 0.020714 0.851221
0.900372 0.023171 0.853666
0.966080 0.024346 0.854835
0.014782 0.082139 0.842190
0.080489 0.083314 0.843359
0.217878 0.085771 0.845804
0.355267 0.088228 0.848249
0.492656 0.090685 0.850694
0.630045 0.093142 0.853139
0.767433 0.095599 0.855584
0.904822 0.098057 0.858029
0.970530 0.099232 0.859198
0.023025 0.220861 0.850272
0.088733 0.222036 0.851441
0.226122 0.224493 0.853886
0.363510 0.226950 0.856331
0.500899 0.229407 0.858776
0.638288 0.231864 0.861221
0.775677 0.234321 0.863666
0.913066 0.236779 0.866110
0.978773 0.237954 0.867280
0.031269 0.359583 0.858354
0.096976 0.360758 0.859523
0.234365 0.363215 0.861968
0.371754 0.365672 0.864413
0.509143 0.368129 0.866858
0.646531 0.370586 0.869302
0.783920 0.373043 0.871747
0.921309 0.375500 0.874192
0.987017 0.376676 0.875362
0.039512 0.498304 0.866435
0.105220 0.499480 0.867605
0.242608 0.501937 0.870049
0.379997 0.504394 0.872494
0.517386 0.506851 0.874939
0.654775 0.509308 0.877384
0.792164 0.511765 0.879829
0.929552 0.514222 0.882274
0.995260 0.515397 0.883443
0.047755 0.637026 0.874517
0.113463 0.638202 0.875686
0.250852 0.640659 0.878131
0.388241 0.643116 0.880576
0.525629 0.645573 0.883021
0.663018 0.648030 0.885466
0.800407 0.650487 0.887911
0.937796 0.652944 0.890356
1.000000 0.654119 0.891525
0.055999 0.775748 0.882599
0.121706 0.776923 0.883768
0.259095 0.779381 0.886213
0.396484 0.781838 0.888658
0.533873 0.784295 0.891103
0.671262 0.786752 0.893548
0.808650 0.789209 0.895993
0.946039 0.791666 0.898438
1.000000 0.792841 0.899607
0.064242 0.914470 0.890681
0.129950 0.915645 0.891850
0.267339 0.918102 0.894295
0.404727 0.920560 0.896740
0.542116 0.923017 0.899185
0.679505 0.925474 0.901629
0.816894 0.927931 0.904074
0.954283 0.930388 0.906519
1.000000 0.931563 0.907689
0.068692 0.989355 0.895043
0.134400 0.990531 0.896213
0.271789 0.992988 0.898657
0.409177 0.995445 0.901102
0.546566 0.997902 0.903547
0.683955 1.000000 0.905992
0.821344 1.000000 0.908437
0.958733 1.000000 0.910882
1.000000 1.000000 0.912051
0.010892 0.007805 0.925776
0.076599 0.008980 0.926945
0.213988 0.011437 0.929390
0.351377 0.013894 0.931835
0.488766 0.016351 0.934280
0.626154 0.018809 0.936725
0.763543 0.021266 0.939170
0.900932 0.023723 0.941615
0.966640 0.024898 0.942784
0.015341 0.082690 0.930139
0.081049 0.083865 0.931308
0.218438 0.086322 0.933753
0.355827 0.088780 0.936198
0.493216 0.091237 0.938643
0.630604 0.093694 0.941088
0.767993 0.096151 0.943533
0.905382 0.098608 0.945977
0.971090 0.099783 0.947147
0.023585 0.221412 0.938220
0.089293 0.222587 0.939390
0.226681 0.225044 0.941835
0.364070 0.227501 0.944280
0.501459 0.229959 0.946724
0.638848 0.232416 0.949169
0.776237 0.234873 0.951614
0.913625 0.237330 0.954059
0.979333 0.238505 0.955228
0.031828 0.360134 0.946302
0.097536 0.361309 0.947472
0.234925 0.363766 0.949916
0.372314 0.366223 0.952361
0.509702 0.368681 0.954806
0.647091 0.371138 0.957251
0.784480 0.373595 0.959696
0.921869 0.376052 0.962141
0.987576 0.377227 0.963310
0.040072 0.498856 0.954384
0.105779 0.500031 0.955553
0.243168 0.502488 0.957998
0.380557 0.504945 0.960443
0.517946 0.507402 0.962888
0.655335 0.509860 0.965333
0.792723 0.512317 0.967778
0.930112 0.514774 0.970223
0.995820 0.515949 0.971392
0.048315 0.637578 0.962466
0.114023 0.638753 0.963635
0.251412 0.641210 0.966080
0.388800 0.643667 0.968525
0.526189 0.646124 0.970970
0.663578 0.648581 0.973415
0.800967 0.651039 0.975860
0.938356 0.653496 0.978304
1.000000 0.654671 0.979474
0.056558 0.776300 0.970548
0.122266 0.777475 0.971717
0.259655 0.779932 0.974162
0.397044 0.782389 0.976607
0.534433 0.784846 0.979052
0.671821 0.787303 0.981496
0.809210 0.789761 0.983941
0.946599 0.792218 0.986386
1.000000 0.793393 0.987556
0.064802 0.915022 0.978629
0.130510 0.916197 0.979799
0.267898 0.918654 0.982243
0.405287 0.921111 0.984688
0.542676 0.923568 0.987133
0.680065 0.926025 0.989578
0.817454 0.928482 0.992023
0.954842 0.930940 0.994468
1.000000 0.932115 0.995637
0.069252 0.989907 0.982992
0.134960 0.991082 0.984161
0.272348 0.993539 0.986606
0.409737 0.995996 0.989051
0.547126 0.998453 0.991496
0.684515 1.000000 0.993941
0.821904 1.000000 0.996386
0.959292 1.000000 0.998831
1.000000 1.000000 1.000000
