library/cube/Matrix_Haze_002.cube
# CINEGRADE LAB — Premium Cinematic LUT
# Title: Matrix Haze
# Category: Cyberpunk Cinema
# Description: Cyan/magenta split with high contrast for futuristic cyberpunk visuals
# Mood: Futuristic, neon, dystopian
# Variant: 3
# Generated: 2026-05-21T16:12:28.381657
TITLE "Matrix Haze"
LUT_3D_SIZE 5
0.000000 0.033963 0.015838
0.090531 0.025365 0.009619
0.421038 0.006714 0.000000
0.778637 0.000000 0.000000
0.999851 0.000000 0.000000
0.000000 0.140238 0.000000
0.088100 0.131227 0.000000
0.459780 0.110959 0.000000
0.851806 0.090097 0.000000
1.000000 0.076951 0.000000
0.000000 0.505519 0.000000
0.040735 0.494233 0.000000
0.443279 0.470775 0.000000
0.857170 0.447065 0.000000
1.000000 0.432226 0.000000
0.000000 0.854413 0.000000
0.000000 0.840881 0.000000
0.419186 0.814418 0.000000
0.842979 0.788070 0.000000
1.000000 0.771411 0.000000
0.000000 1.000000 0.000000
0.000000 1.000000 0.000000
0.417017 0.979966 0.000000
0.843011 0.952398 0.000000
1.000000 0.934845 0.000000
0.000000 0.030369 0.157091
0.090359 0.021831 0.149778
0.425555 0.003099 0.132351
0.787112 0.000000 0.114152
1.000000 0.000000 0.102531
0.000000 0.136764 0.128717
0.087725 0.127817 0.122272
0.462934 0.107507 0.104522
0.857865 0.086624 0.086261
1.000000 0.073598 0.075919
0.000000 0.501460 0.062140
0.040307 0.490233 0.056923
0.445399 0.466752 0.039530
0.860707 0.443058 0.022021
1.000000 0.428334 0.013596
0.000000 0.849726 0.002783
0.000000 0.836209 0.000000
0.420508 0.809696 0.000000
0.844758 0.783341 0.000000
1.000000 0.766751 0.000000
0.000000 1.000000 0.000000
0.000000 1.000000 0.000000
0.417736 0.974933 0.000000
0.843731 0.947171 0.000000
1.000000 0.929512 0.000000
0.000000 0.022179 0.614779
0.085552 0.013734 0.604079
0.425342 0.000000 0.583584
0.790768 0.000000 0.562789
1.000000 0.000000 0.549135
0.000000 0.128786 0.577067
0.082802 0.119923 0.568724
0.461448 0.099588 0.549393
0.859198 0.078698 0.529980
1.000000 0.065802 0.519026
0.000000 0.492940 0.506069
0.035371 0.481775 0.500317
0.442923 0.458273 0.482697
0.859530 0.434596 0.465378
1.000000 0.419979 0.457605
0.000000 0.840563 0.446675
0.000000 0.827051 0.443413
0.417240 0.800476 0.427668
0.841862 0.774096 0.412724
1.000000 0.757555 0.408249
0.000000 1.000000 0.425403
0.000000 0.993401 0.424156
0.413852 0.965271 0.410061
0.839807 0.937291 0.397305
1.000000 0.919500 0.395876
0.000000 0.014172 1.000000
0.080843 0.005807 1.000000
0.425092 0.000000 1.000000
0.794264 0.000000 1.000000
1.000000 0.000000 0.989149
0.000000 0.120948 1.000000
0.077948 0.112160 1.000000
0.459918 0.091797 0.988370
0.860224 0.070903 0.968267
1.000000 0.058127 0.957102
0.000000 0.484529 0.944700
0.030488 0.473420 0.938801
0.440409 0.449893 0.921300
0.858200 0.426229 0.904467
1.000000 0.411717 0.897579
0.000000 0.831477 0.886381
0.000000 0.817962 0.884030
0.413953 0.791321 0.869412
0.838879 0.764915 0.855880
1.000000 0.748420 0.853109
0.000000 0.998282 0.869252
0.000000 0.984000 0.869705
0.410001 0.955608 0.857429
0.835908 0.927417 0.846663
1.000000 0.909505 0.847407
0.000000 0.010353 1.000000
0.080085 0.001901 1.000000
0.428524 0.000000 1.000000
0.801207 0.000000 1.000000
1.000000 0.000000 1.000000
0.000000 0.116816 1.000000
0.076644 0.108009 1.000000
0.461763 0.087548 1.000000
0.864312 0.066610 1.000000
1.000000 0.053923 1.000000
0.000000 0.479589 1.000000
0.029004 0.468513 1.000000
0.441210 0.444962 1.000000
0.860098 0.421333 1.000000
1.000000 0.406964 1.000000
0.000000 0.825855 1.000000
0.000000 0.812380 1.000000
0.414153 0.785735 1.000000
0.839401 0.759378 1.000000
1.000000 0.743020 1.000000
0.000000 0.992718 1.000000
0.000000 0.978309 1.000000
0.410011 0.949770 1.000000
0.835991 0.921492 1.000000
1.000000 0.903592 1.000000
