library/cube/Matrix_Haze_002.cube
# CINEGRADE LAB — Premium Cinematic LUT
# Title: Matrix Haze
# Category: Cyberpunk Cinema
# Description: Cyan/magenta split with high contrast for futuristic cyberpunk visuals
# Mood: Futuristic, neon, dystopian
# Variant: 3
# Generated: 2026-05-21T16:12:28.381657
TITLE "Matrix Haze"
LUT_3D_SIZE 9
0.000000 0.033963 0.015838
0.000000 0.031748 0.014820
0.090531 0.025365 0.009619
0.252192 0.016158 0.001577
0.421038 0.006714 0.000000
0.596655 0.000000 0.000000
0.778637 0.000000 0.000000
0.965659 0.000000 0.000000
0.999851 0.000000 0.000000
0.000000 0.026843 0.012682
0.000000 0.024907 0.011889
0.099588 0.018468 0.006578
0.272678 0.009030 0.000000
0.452048 0.000000 0.000000
0.637311 0.000000 0.000000
0.828094 0.000000 0.000000
1.000000 0.000000 0.000000
1.000000 0.000000 0.000000
0.000000 0.140238 0.000000
0.000000 0.138129 0.000000
0.088100 0.131227 0.000000
0.271220 0.121174 0.000000
0.459780 0.110959 0.000000
0.653423 0.100595 0.000000
0.851806 0.090097 0.000000
1.000000 0.079815 0.000000
1.000000 0.076951 0.000000
0.000000 0.324827 0.000000
0.000000 0.322272 0.000000
0.064311 0.314671 0.000000
0.256143 0.303788 0.000000
0.452642 0.292772 0.000000
0.653479 0.281636 0.000000
0.857490 0.270430 0.000000
1.000000 0.259677 0.000000
1.000000 0.256441 0.000000
0.000000 0.505519 0.000000
0.000000 0.502511 0.000000
0.040735 0.494233 0.000000
0.240028 0.482559 0.000000
0.443279 0.470775 0.000000
0.650189 0.458892 0.000000
0.857170 0.447065 0.000000
1.000000 0.435874 0.000000
1.000000 0.432226 0.000000
0.000000 0.682278 0.000000
0.000000 0.678788 0.000000
0.017452 0.669834 0.000000
0.223067 0.657381 0.000000
0.431998 0.644833 0.000000
0.643978 0.632199 0.000000
0.852059 0.619781 0.000000
1.000000 0.608179 0.000000
1.000000 0.604051 0.000000
0.000000 0.854413 0.000000
0.000000 0.850468 0.000000
0.000000 0.840881 0.000000
0.205535 0.827698 0.000000
0.419186 0.814418 0.000000
0.635346 0.801047 0.000000
0.842979 0.788070 0.000000
1.000000 0.776087 0.000000
1.000000 0.771411 0.000000
0.000000 1.000000 0.000000
0.000000 1.000000 0.000000
0.000000 1.000000 0.000000
0.188180 0.990173 0.000000
0.405606 0.976847 0.000000
0.625104 0.963305 0.000000
0.831073 0.950239 0.000000
1.000000 0.938257 0.000000
1.000000 0.933240 0.000000
0.000000 1.000000 0.000000
0.000000 1.000000 0.000000
0.000000 1.000000 0.000000
0.196408 0.993883 0.000000
0.417017 0.979966 0.000000
0.639335 0.965836 0.000000
0.843011 0.952398 0.000000
1.000000 0.940284 0.000000
1.000000 0.934845 0.000000
0.000000 0.033201 0.015484
0.000000 0.031015 0.014490
0.091481 0.024625 0.009276
0.254365 0.015391 0.001202
0.424341 0.005926 0.000000
0.600995 0.000000 0.000000
0.783927 0.000000 0.000000
0.971652 0.000000 0.000000
1.000000 0.000000 0.000000
0.000000 0.026176 0.012406
0.000000 0.024268 0.011635
0.100460 0.017826 0.006314
0.274621 0.008368 0.000000
0.454972 0.000000 0.000000
0.641133 0.000000 0.000000
0.832732 0.000000 0.000000
1.000000 0.000000 0.000000
1.000000 0.000000 0.000000
0.000000 0.139513 0.000000
0.000000 0.137431 0.000000
0.088928 0.130529 0.000000
0.272975 0.120462 0.000000
0.462381 0.110235 0.000000
0.656794 0.099863 0.000000
0.855870 0.089360 0.000000
1.000000 0.079100 0.000000
1.000000 0.076271 0.000000
0.000000 0.323950 0.000000
0.000000 0.321423 0.000000
0.065117 0.313824 0.000000
0.257745 0.302931 0.000000
0.454965 0.291908 0.000000
0.656453 0.280768 0.000000
0.860843 0.269568 0.000000
1.000000 0.258839 0.000000
1.000000 0.255636 0.000000
0.000000 0.504490 0.000000
0.000000 0.501506 0.000000
0.041526 0.493232 0.000000
0.241495 0.481550 0.000000
0.445354 0.469761 0.000000
0.652808 0.457874 0.000000
0.859968 0.446059 0.000000
1.000000 0.434898 0.000000
1.000000 0.431278 0.000000
0.000000 0.681086 0.000000
0.000000 0.677616 0.000000
0.018238 0.668665 0.000000
0.224421 0.656205 0.000000
0.433858 0.643652 0.000000
0.646286 0.631012 0.000000
0.854375 0.618608 0.000000
1.000000 0.607039 0.000000
1.000000 0.602931 0.000000
0.000000 0.853069 0.000000
0.000000 0.849137 0.000000
0.000000 0.839547 0.000000
0.206794 0.826351 0.000000
0.420862 0.813060 0.000000
0.637390 0.799679 0.000000
0.844895 0.786712 0.000000
1.000000 0.774758 0.000000
1.000000 0.770091 0.000000
0.000000 1.000000 0.000000
0.000000 1.000000 0.000000
0.000000 1.000000 0.000000
0.189326 0.988889 0.000000
0.407100 0.975506 0.000000
0.626907 0.961908 0.000000
0.832666 0.948809 0.000000
1.000000 0.936818 0.000000
1.000000 0.931766 0.000000
0.000000 1.000000 0.000000
0.000000 1.000000 0.000000
0.000000 1.000000 0.000000
0.197498 0.992451 0.000000
0.418398 0.978474 0.000000
0.640976 0.964287 0.000000
0.844400 0.950814 0.000000
1.000000 0.938692 0.000000
1.000000 0.933213 0.000000
0.000000 0.030369 0.157091
0.000000 0.028220 0.155544
0.090359 0.021831 0.149778
0.254459 0.012579 0.141169
0.425555 0.003099 0.132351
0.603239 0.000000 0.123340
0.787112 0.000000 0.114152
0.975516 0.000000 0.104860
1.000000 0.000000 0.102531
0.000000 0.023465 0.152294
0.000000 0.021591 0.151088
0.099285 0.015152 0.145336
0.274506 0.005680 0.136568
0.455831 0.000000 0.127626
0.642880 0.000000 0.118525
0.835287 0.000000 0.109280
1.000000 0.000000 0.100084
1.000000 0.000000 0.098166
0.000000 0.136764 0.128717
0.000000 0.134715 0.127911
0.087725 0.127817 0.122272
0.272691 0.117740 0.113468
0.462934 0.107507 0.104522
0.658105 0.097130 0.095448
0.857865 0.086624 0.086261
1.000000 0.076390 0.077361
1.000000 0.073598 0.075919
0.000000 0.321065 0.094516
0.000000 0.318567 0.094139
0.063905 0.310974 0.088681
0.257319 0.300074 0.079931
0.455251 0.289047 0.071069
0.657379 0.277903 0.062107
0.862130 0.266711 0.053116
1.000000 0.256010 0.044634
1.000000 0.252838 0.043704
0.000000 0.501460 0.062140
0.000000 0.498502 0.062179
0.040307 0.490233 0.056923
0.240942 0.478546 0.048269
0.445399 0.466752 0.039530
0.653386 0.454862 0.030719
0.860707 0.443058 0.022021
1.000000 0.431927 0.014024
1.000000 0.428334 0.013596
0.000000 0.677897 0.031544
0.000000 0.674448 0.031987
0.017017 0.665499 0.026956
0.223756 0.653032 0.018439
0.433689 0.640472 0.009862
0.646556 0.627827 0.001237
0.854634 0.615434 0.000000
1.000000 0.603896 0.000000
1.000000 0.599806 0.000000
0.000000 0.849726 0.002783
0.000000 0.845804 0.003610
0.000000 0.836209 0.000000
0.206033 0.823000 0.000000
0.420508 0.809696 0.000000
0.637393 0.796302 0.000000
0.844758 0.783341 0.000000
1.000000 0.771413 0.000000
1.000000 0.766751 0.000000
0.000000 1.000000 0.000000
0.000000 1.000000 0.000000
0.000000 0.998799 0.000000
0.188448 0.985575 0.000000
0.406561 0.972131 0.000000
0.626666 0.958474 0.000000
0.832205 0.945338 0.000000
1.000000 0.933334 0.000000
1.000000 0.928242 0.000000
0.000000 1.000000 0.000000
0.000000 1.000000 0.000000
0.000000 1.000000 0.000000
0.196556 0.988974 0.000000
0.417736 0.974933 0.000000
0.640565 0.960684 0.000000
0.843731 0.947171 0.000000
1.000000 0.935036 0.000000
1.000000 0.929512 0.000000
0.000000 0.026265 0.386246
0.000000 0.024157 0.383821
0.087955 0.017774 0.377200
0.253259 0.008509 0.367774
0.425465 0.000000 0.358200
0.604167 0.000000 0.348492
0.788971 0.000000 0.338665
0.978026 0.000000 0.328801
1.000000 0.000000 0.325991
0.000000 0.019496 0.378722
0.000000 0.017660 0.376829
0.096841 0.011227 0.370414
0.273111 0.001746 0.361022
0.455398 0.000000 0.351513
0.643326 0.000000 0.341902
0.836529 0.000000 0.332202
1.000000 0.000000 0.322624
1.000000 0.000000 0.320399
0.000000 0.132768 0.353075
0.000000 0.130753 0.351764
0.085265 0.123863 0.345645
0.271136 0.113779 0.336401
0.462206 0.103541 0.327069
0.658125 0.093161 0.317663
0.858559 0.082655 0.308197
1.000000 0.072448 0.299098
1.000000 0.069693 0.297516
0.000000 0.316940 0.317422
0.000000 0.314474 0.316714
0.061441 0.306888 0.310952
0.255631 0.295982 0.301937
0.454264 0.284951 0.292862
0.657021 0.273806 0.283739
0.862111 0.262623 0.274647
1.000000 0.251949 0.266130
1.000000 0.248809 0.265218
0.000000 0.497195 0.284171
0.000000 0.494263 0.284045
0.037841 0.486000 0.278654
0.239130 0.474307 0.269902
0.444174 0.462508 0.261115
0.652685 0.450615 0.252304
0.860146 0.438823 0.243669
1.000000 0.427722 0.235800
1.000000 0.424153 0.235540
0.000000 0.673473 0.253252
0.000000 0.670044 0.253689
0.014549 0.661097 0.248683
0.221834 0.648622 0.240227
0.432253 0.636054 0.231758
0.645548 0.623402 0.223288
0.853600 0.611021 0.215174
1.000000 0.599511 0.208022
1.000000 0.595437 0.208397
0.000000 0.845143 0.224689
0.000000 0.841231 0.225663
0.000000 0.831629 0.221045
0.204013 0.818405 0.212905
0.418885 0.805086 0.204775
0.636119 0.791676 0.196661
0.843330 0.778719 0.189114
1.000000 0.766816 0.182736
1.000000 0.762155 0.183722
0.000000 1.000000 0.199228
0.000000 1.000000 0.200562
0.000000 0.994281 0.196202
0.186309 0.980994 0.188282
0.404753 0.967487 0.180407
0.625148 0.953768 0.172583
0.830459 0.940593 0.165563
1.000000 0.928573 0.159955
1.000000 0.923438 0.161488
0.000000 1.000000 0.201431
0.000000 1.000000 0.203238
0.000000 0.998110 0.199247
0.194348 0.984219 0.191642
0.415801 0.970112 0.184091
0.638874 0.955797 0.176595
0.841778 0.942241 0.170118
1.000000 0.930090 0.165302
1.000000 0.924517 0.167313
0.000000 0.022179 0.614779
0.000000 0.020112 0.611515
0.085552 0.013734 0.604079
0.252043 0.004456 0.593876
0.425342 0.000000 0.583584
0.605048 0.000000 0.573216
0.790768 0.000000 0.562789
0.980445 0.000000 0.552390
1.000000 0.000000 0.549135
0.000000 0.015544 0.604660
0.000000 0.013745 0.602117
0.094396 0.007319 0.595076
0.271700 0.000000 0.585097
0.454935 0.000000 0.575058
0.643727 0.000000 0.564973
0.837713 0.000000 0.554855
1.000000 0.000000 0.544930
1.000000 0.000000 0.542434
0.000000 0.128786 0.577067
0.000000 0.126806 0.575286
0.082802 0.119923 0.568724
0.269566 0.109832 0.559075
0.461448 0.099588 0.549393
0.658103 0.089206 0.539690
0.859198 0.078698 0.529980
1.000000 0.068521 0.520716
1.000000 0.065802 0.519026
0.000000 0.312828 0.540081
0.000000 0.310392 0.539076
0.058975 0.302813 0.533045
0.253926 0.291902 0.523799
0.453248 0.280867 0.514545
0.656624 0.269719 0.505294
0.862031 0.258546 0.496134
1.000000 0.247899 0.487615
1.000000 0.244791 0.486752
0.000000 0.492940 0.506069
0.000000 0.490034 0.505811
0.035371 0.481775 0.500317
0.237303 0.470076 0.491500
0.442923 0.458273 0.482697
0.651946 0.446376 0.473919
0.859530 0.434596 0.465378
1.000000 0.423524 0.457667
1.000000 0.419979 0.457605
0.000000 0.669056 0.474935
0.000000 0.665647 0.475399
0.012076 0.656700 0.470448
0.219896 0.644217 0.462084
0.430791 0.631642 0.453754
0.644506 0.618981 0.445468
0.852516 0.606611 0.437601
1.000000 0.595130 0.430758
1.000000 0.591070 0.431470
0.000000 0.840563 0.446675
0.000000 0.836659 0.447825
0.000000 0.827051 0.443413
0.201979 0.813811 0.435514
0.417240 0.800476 0.427668
0.634815 0.787049 0.419882
0.841862 0.774096 0.412724
1.000000 0.762216 0.406796
1.000000 0.757555 0.408249
0.000000 1.000000 0.421952
0.000000 0.999263 0.423611
0.000000 0.989746 0.419605
0.184161 0.976395 0.412072
0.402928 0.962825 0.404623
0.623607 0.949044 0.397264
0.828683 0.935829 0.390767
1.000000 0.923794 0.385742
1.000000 0.918616 0.387863
0.000000 1.000000 0.425403
0.000000 1.000000 0.427665
0.000000 0.993401 0.424156
0.192131 0.979443 0.417064
0.413852 0.965271 0.410061
0.637166 0.950890 0.403147
0.839807 0.937291 0.397305
1.000000 0.925124 0.393180
1.000000 0.919500 0.395876
0.000000 0.018112 0.842712
0.000000 0.016085 0.838648
0.083149 0.009713 0.830435
0.250810 0.000421 0.819494
0.425188 0.000000 0.808522
0.605882 0.000000 0.797533
0.792504 0.000000 0.786542
0.982771 0.000000 0.775646
1.000000 0.000000 0.771981
0.000000 0.011607 0.830126
0.000000 0.009845 0.826970
0.091950 0.003425 0.819342
0.270273 0.000000 0.808813
0.454441 0.000000 0.798281
0.644083 0.000000 0.787758
0.838840 0.000000 0.777257
1.000000 0.000000 0.767022
1.000000 0.000000 0.764287
0.000000 0.124819 0.800711
0.000000 0.122872 0.798497
0.080338 0.115996 0.791527
0.267980 0.105898 0.781509
0.460661 0.095649 0.771511
0.658038 0.085264 0.761546
0.859771 0.074756 0.751626
1.000000 0.064607 0.742230
1.000000 0.061923 0.740466
0.000000 0.308728 0.762511
0.000000 0.306322 0.761244
0.056506 0.298749 0.754978
0.252206 0.287833 0.745535
0.452204 0.276793 0.736134
0.656187 0.265643 0.726788
0.861891 0.254479 0.717593
1.000000 0.243860 0.709105
1.000000 0.240782 0.708322
0.000000 0.488694 0.727851
0.000000 0.485813 0.727495
0.032897 0.477559 0.721930
0.235460 0.465854 0.713080
0.441646 0.454046 0.704293
0.651171 0.442144 0.695578
0.858859 0.430375 0.687163
1.000000 0.419334 0.679641
1.000000 0.415811 0.679805
0.000000 0.664646 0.696612
0.000000 0.661255 0.697132
0.009599 0.652309 0.692267
0.217944 0.639817 0.684026
0.429306 0.627233 0.675865
0.643431 0.614565 0.667792
0.851385 0.602204 0.660202
1.000000 0.590753 0.653696
1.000000 0.586706 0.654773
0.000000 0.835986 0.668757
0.000000 0.832089 0.670112
0.000000 0.822473 0.665934
0.199931 0.809216 0.658306
0.415573 0.795865 0.650773
0.633481 0.782421 0.643341
0.840354 0.769471 0.636599
1.000000 0.757614 0.631147
1.000000 0.752952 0.633091
0.000000 0.998359 0.644872
0.000000 0.994769 0.646882
0.000000 0.985193 0.643256
0.182003 0.971778 0.636136
0.401086 0.958145 0.629141
0.622043 0.944302 0.622271
0.826880 0.931047 0.616323
1.000000 0.918996 0.611904
1.000000 0.913774 0.614635
0.000000 1.000000 0.649660
0.000000 0.998803 0.652401
0.000000 0.988673 0.649399
0.189906 0.974647 0.642844
0.411890 0.960408 0.636412
0.635443 0.945962 0.630101
0.837819 0.932318 0.624915
1.000000 0.920136 0.621502
1.000000 0.914462 0.624900
0.000000 0.014172 1.000000
0.000000 0.012178 1.000000
0.080843 0.005807 1.000000
0.249655 0.000000 1.000000
0.425092 0.000000 1.000000
0.606756 0.000000 1.000000
0.794264 0.000000 1.000000
0.985086 0.000000 0.993036
1.000000 0.000000 0.989149
0.000000 0.007780 1.000000
0.000000 0.006050 1.000000
0.089589 0.000000 1.000000
0.268913 0.000000 1.000000
0.453997 0.000000 1.000000
0.644473 0.000000 1.000000
0.839986 0.000000 0.994204
1.000000 0.000000 0.983807
1.000000 0.000000 0.980967
0.000000 0.120948 1.000000
0.000000 0.119032 1.000000
0.077948 0.112160 1.000000
0.266453 0.102052 0.998541
0.459918 0.091797 0.988370
0.658005 0.081407 0.978272
0.860224 0.070903 0.968267
1.000000 0.060777 0.958844
1.000000 0.058127 0.957102
0.000000 0.304716 0.979591
0.000000 0.302337 0.978199
0.054106 0.294769 0.971824
0.250541 0.283845 0.962298
0.451202 0.272800 0.952857
0.655780 0.261646 0.943509
0.861760 0.250492 0.934365
1.000000 0.239899 0.925983
1.000000 0.236850 0.925344
0.000000 0.484529 0.944700
0.000000 0.481672 0.944345
0.030488 0.473420 0.938801
0.233670 0.461708 0.930000
0.440409 0.449893 0.921300
0.650427 0.437987 0.912708
0.858200 0.426229 0.904467
1.000000 0.415217 0.897168
1.000000 0.411717 0.897579
0.000000 0.660311 0.913653
0.000000 0.656936 0.914298
0.007185 0.647990 0.909575
0.216044 0.635488 0.901500
0.427862 0.622895 0.893537
0.642390 0.610218 0.885692
0.850273 0.597868 0.878374
1.000000 0.586446 0.872184
1.000000 0.582412 0.873581
0.000000 0.831477 0.886381
0.000000 0.827587 0.887966
0.000000 0.817962 0.884030
0.197938 0.804690 0.876662
0.413953 0.791321 0.869412
0.632189 0.777861 0.862283
0.838879 0.764915 0.855880
1.000000 0.753082 0.850803
1.000000 0.748420 0.853109
0.000000 0.993962 0.863349
0.000000 0.990325 0.865673
0.000000 0.980692 0.862367
0.179907 0.967214 0.855575
0.399302 0.953520 0.848920
0.620534 0.939617 0.842400
0.825129 0.926326 0.836828
0.999172 0.914263 0.832813
1.000000 0.909000 0.835919
0.000000 0.998282 0.869252
0.000000 0.994191 0.872351
0.000000 0.984000 0.869705
0.187754 0.969910 0.863504
0.410001 0.955608 0.857429
0.633792 0.941100 0.851475
0.835908 0.927417 0.846663
1.000000 0.915223 0.843650
1.000000 0.909505 0.847407
0.000000 0.011269 1.000000
0.000000 0.009240 1.000000
0.079423 0.002804 1.000000
0.249309 0.000000 1.000000
0.425733 0.000000 1.000000
0.608302 0.000000 1.000000
0.796633 0.000000 1.000000
0.987936 0.000000 1.000000
1.000000 0.000000 1.000000
0.000000 0.004773 1.000000
0.000000 0.003020 1.000000
0.087925 0.000000 1.000000
0.268190 0.000000 1.000000
0.454134 0.000000 1.000000
0.645395 0.000000 1.000000
0.841617 0.000000 1.000000
1.000000 0.000000 1.000000
1.000000 0.000000 1.000000
0.000000 0.117729 1.000000
0.000000 0.115803 1.000000
0.076119 0.108900 1.000000
0.265441 0.098752 1.000000
0.459651 0.088462 1.000000
0.658413 0.078046 1.000000
0.861078 0.067529 1.000000
1.000000 0.057411 1.000000
1.000000 0.054786 1.000000
0.000000 0.301236 1.000000
0.000000 0.298859 1.000000
0.052178 0.291275 1.000000
0.249319 0.280327 1.000000
0.450620 0.269265 1.000000
0.655774 0.258099 1.000000
0.862004 0.246950 1.000000
1.000000 0.236386 1.000000
1.000000 0.233370 1.000000
0.000000 0.480828 1.000000
0.000000 0.477982 1.000000
0.028513 0.469728 1.000000
0.232300 0.458005 1.000000
0.439585 0.446187 1.000000
0.650091 0.434281 1.000000
0.857943 0.422545 1.000000
1.000000 0.411576 1.000000
1.000000 0.408115 1.000000
0.000000 0.656418 1.000000
0.000000 0.653063 1.000000
0.005214 0.644123 1.000000
0.214589 0.631623 1.000000
0.426870 0.619036 1.000000
0.641810 0.606369 1.000000
0.849632 0.594051 1.000000
1.000000 0.582684 1.000000
1.000000 0.578691 1.000000
0.000000 0.827435 1.000000
0.000000 0.823567 1.000000
0.000000 0.813954 1.000000
0.196456 0.800688 1.000000
0.412865 0.787330 1.000000
0.631451 0.773883 1.000000
0.837983 0.760973 1.000000
1.000000 0.749200 1.000000
1.000000 0.744576 1.000000
0.000000 0.990084 1.000000
0.000000 0.986428 1.000000
0.000000 0.976769 1.000000
0.178431 0.963263 1.000000
0.398169 0.949545 1.000000
0.619712 0.935622 1.000000
0.824103 0.922335 1.000000
0.997365 0.910305 0.999843
1.000000 0.905048 1.000000
0.000000 0.994345 1.000000
0.000000 0.990240 1.000000
0.000000 0.980030 1.000000
0.186360 0.965919 1.000000
0.408911 0.951600 1.000000
0.632988 0.937077 1.000000
0.834895 0.923404 1.000000
0.999508 0.911252 1.000000
1.000000 0.905541 1.000000
0.000000 0.010353 1.000000
0.000000 0.008347 1.000000
0.080085 0.001901 1.000000
0.251080 0.000000 1.000000
0.428524 0.000000 1.000000
0.612026 0.000000 1.000000
0.801207 0.000000 1.000000
0.992995 0.000000 1.000000
1.000000 0.000000 1.000000
0.000000 0.003933 1.000000
0.000000 0.002203 1.000000
0.088500 0.000000 1.000000
0.269729 0.000000 1.000000
0.456556 0.000000 1.000000
0.648619 0.000000 1.000000
0.845567 0.000000 1.000000
1.000000 0.000000 1.000000
1.000000 0.000000 1.000000
0.000000 0.116816 1.000000
0.000000 0.114913 1.000000
0.076644 0.108009 1.000000
0.266798 0.097847 1.000000
0.461763 0.087548 1.000000
0.661206 0.077124 1.000000
0.864312 0.066610 1.000000
1.000000 0.056515 1.000000
1.000000 0.053923 1.000000
0.000000 0.300161 1.000000
0.000000 0.297807 1.000000
0.052680 0.290225 1.000000
0.250530 0.279269 1.000000
0.452471 0.268200 1.000000
0.658197 0.257030 1.000000
0.864664 0.245893 1.000000
1.000000 0.235358 1.000000
1.000000 0.232373 1.000000
0.000000 0.479589 1.000000
0.000000 0.476765 1.000000
0.029004 0.468513 1.000000
0.233390 0.456785 1.000000
0.441210 0.444962 1.000000
0.652192 0.433054 1.000000
0.860098 0.421333 1.000000
1.000000 0.410399 1.000000
1.000000 0.406964 1.000000
0.000000 0.655007 1.000000
0.000000 0.651669 1.000000
0.005709 0.642732 1.000000
0.215583 0.630225 1.000000
0.428307 0.617633 1.000000
0.643638 0.604962 1.000000
0.851370 0.592661 1.000000
1.000000 0.581330 1.000000
1.000000 0.577356 1.000000
0.000000 0.825855 1.000000
0.000000 0.821997 1.000000
0.000000 0.812380 1.000000
0.197380 0.799103 1.000000
0.414153 0.785735 1.000000
0.633061 0.772277 1.000000
0.839401 0.759378 1.000000
1.000000 0.747637 1.000000
1.000000 0.743020 1.000000
0.000000 0.988599 1.000000
0.000000 0.984903 1.000000
0.000000 0.975194 1.000000
0.179286 0.961634 1.000000
0.399333 0.947863 1.000000
0.621150 0.933889 1.000000
0.825302 0.920575 1.000000
0.997735 0.908543 1.000000
1.000000 0.903254 1.000000
0.000000 0.992718 1.000000
0.000000 0.988570 1.000000
0.000000 0.978309 1.000000
0.187195 0.964143 1.000000
0.410011 0.949770 1.000000
0.634332 0.935195 1.000000
0.835991 0.921492 1.000000
0.999691 0.909339 1.000000
1.000000 0.903592 1.000000
