library/cube/Matrix_Haze_002.cube
# CINEGRADE LAB — Premium Cinematic LUT
# Title: Matrix Haze
# Category: Cyberpunk Cinema
# Description: Cyan/magenta split with high contrast for futuristic cyberpunk visuals
# Mood: Futuristic, neon, dystopian
# Variant: 3
# Generated: 2026-05-21T16:12:28.381657
TITLE "Matrix Haze"
LUT_3D_SIZE 33
0.000000 0.033963 0.015838
0.000000 0.033401 0.015577
0.000000 0.032845 0.015320
0.000000 0.032294 0.015068
0.000000 0.031748 0.014820
0.000000 0.031207 0.014576
0.012528 0.029875 0.013540
0.051288 0.027628 0.011588
0.090531 0.025365 0.009619
0.130249 0.023087 0.007633
0.170437 0.020792 0.005630
0.211086 0.018483 0.003612
0.252192 0.016158 0.001577
0.293746 0.013818 0.000000
0.335743 0.011464 0.000000
0.378176 0.009096 0.000000
0.421038 0.006714 0.000000
0.464324 0.004318 0.000000
0.508026 0.001909 0.000000
0.552138 0.000000 0.000000
0.596655 0.000000 0.000000
0.641569 0.000000 0.000000
0.686875 0.000000 0.000000
0.732566 0.000000 0.000000
0.778637 0.000000 0.000000
0.825081 0.000000 0.000000
0.871892 0.000000 0.000000
0.918671 0.000000 0.000000
0.965659 0.000000 0.000000
0.986726 0.000000 0.000000
0.991155 0.000000 0.000000
0.995530 0.000000 0.000000
0.999851 0.000000 0.000000
0.000000 0.032094 0.014977
0.000000 0.031550 0.014730
0.000000 0.031012 0.014488
0.000000 0.030478 0.014250
0.000000 0.029950 0.014016
0.000000 0.029427 0.013787
0.013275 0.028095 0.012748
0.052838 0.025830 0.010774
0.092868 0.023550 0.008785
0.133359 0.021254 0.006779
0.174304 0.018944 0.004757
0.215697 0.016619 0.002719
0.257531 0.014279 0.000666
0.299799 0.011925 0.000000
0.342495 0.009558 0.000000
0.385613 0.007176 0.000000
0.429146 0.004782 0.000000
0.473088 0.002374 0.000000
0.517432 0.000000 0.000000
0.562174 0.000000 0.000000
0.607305 0.000000 0.000000
0.652821 0.000000 0.000000
0.698715 0.000000 0.000000
0.744981 0.000000 0.000000
0.791613 0.000000 0.000000
0.838606 0.000000 0.000000
0.885886 0.000000 0.000000
0.932975 0.000000 0.000000
0.980322 0.000000 0.000000
1.000000 0.000000 0.000000
1.000000 0.000000 0.000000
1.000000 0.000000 0.000000
1.000000 0.000000 0.000000
0.000000 0.030285 0.014165
0.000000 0.029759 0.013932
0.000000 0.029238 0.013704
0.000000 0.028721 0.013480
0.000000 0.028211 0.013261
0.000000 0.027705 0.013045
0.014022 0.026374 0.012004
0.054363 0.024092 0.010010
0.095156 0.021796 0.008000
0.136395 0.019484 0.005975
0.178073 0.017159 0.003934
0.220185 0.014819 0.001879
0.262723 0.012465 0.000000
0.305681 0.010098 0.000000
0.349053 0.007718 0.000000
0.392832 0.005324 0.000000
0.437013 0.002918 0.000000
0.481589 0.000500 0.000000
0.526554 0.000000 0.000000
0.571902 0.000000 0.000000
0.617627 0.000000 0.000000
0.663723 0.000000 0.000000
0.710184 0.000000 0.000000
0.757003 0.000000 0.000000
0.804176 0.000000 0.000000
0.851696 0.000000 0.000000
0.899290 0.000000 0.000000
0.946721 0.000000 0.000000
0.994387 0.000000 0.000000
1.000000 0.000000 0.000000
1.000000 0.000000 0.000000
1.000000 0.000000 0.000000
1.000000 0.000000 0.000000
0.000000 0.028535 0.013400
0.000000 0.028026 0.013182
0.000000 0.027522 0.012968
0.000000 0.027023 0.012758
0.000000 0.026530 0.012552
0.000000 0.026041 0.012350
0.014771 0.024712 0.011307
0.055864 0.022414 0.009293
0.097395 0.020102 0.007265
0.139358 0.017776 0.005221
0.181746 0.015436 0.003163
0.224552 0.013082 0.001090
0.267771 0.010716 0.000000
0.311396 0.008336 0.000000
0.355421 0.005944 0.000000
0.399839 0.003539 0.000000
0.444646 0.001123 0.000000
0.489834 0.000000 0.000000
0.535397 0.000000 0.000000
0.581330 0.000000 0.000000
0.627627 0.000000 0.000000
0.674282 0.000000 0.000000
0.721288 0.000000 0.000000
0.768641 0.000000 0.000000
0.816334 0.000000 0.000000
0.864361 0.000000 0.000000
0.912175 0.000000 0.000000
0.959910 0.000000 0.000000
1.000000 0.000000 0.000000
1.000000 0.000000 0.000000
1.000000 0.000000 0.000000
1.000000 0.000000 0.000000
1.000000 0.000000 0.000000
0.000000 0.026843 0.012682
0.000000 0.026351 0.012478
0.000000 0.025865 0.012278
0.000000 0.025383 0.012081
0.000000 0.024907 0.011889
0.000000 0.024435 0.011701
0.015521 0.023108 0.010656
0.057343 0.020795 0.008624
0.099588 0.018468 0.006578
0.142250 0.016128 0.004517
0.185324 0.013775 0.002442
0.228802 0.011409 0.000352
0.272678 0.009030 0.000000
0.316947 0.006639 0.000000
0.361602 0.004236 0.000000
0.406638 0.001821 0.000000
0.452048 0.000000 0.000000
0.497826 0.000000 0.000000
0.543966 0.000000 0.000000
0.590463 0.000000 0.000000
0.637311 0.000000 0.000000
0.684504 0.000000 0.000000
0.732035 0.000000 0.000000
0.779901 0.000000 0.000000
0.828094 0.000000 0.000000
0.876610 0.000000 0.000000
0.924545 0.000000 0.000000
0.972546 0.000000 0.000000
1.000000 0.000000 0.000000
1.000000 0.000000 0.000000
1.000000 0.000000 0.000000
1.000000 0.000000 0.000000
1.000000 0.000000 0.000000
0.000000 0.025209 0.012011
0.000000 0.024734 0.011820
0.000000 0.024265 0.011634
0.000000 0.023801 0.011451
0.000000 0.023341 0.011273
0.000000 0.022887 0.011098
0.016274 0.021562 0.010052
0.058799 0.019235 0.008002
0.101735 0.016895 0.005938
0.145074 0.014542 0.003861
0.188809 0.012176 0.001770
0.232936 0.009798 0.000000
0.277448 0.007408 0.000000
0.322338 0.005006 0.000000
0.367602 0.002593 0.000000
0.413232 0.000168 0.000000
0.459224 0.000000 0.000000
0.505571 0.000000 0.000000
0.552267 0.000000 0.000000
0.599307 0.000000 0.000000
0.646685 0.000000 0.000000
0.694396 0.000000 0.000000
0.742433 0.000000 0.000000
0.790792 0.000000 0.000000
0.839466 0.000000 0.000000
0.888350 0.000000 0.000000
0.936403 0.000000 0.000000
0.984632 0.000000 0.000000
1.000000 0.000000 0.000000
1.000000 0.000000 0.000000
1.000000 0.000000 0.000000
1.000000 0.000000 0.000000
1.000000 0.000000 0.000000
0.000000 0.046475 0.007573
0.000000 0.045996 0.007400
0.000000 0.045522 0.007230
0.000000 0.045054 0.007064
0.000000 0.044590 0.006903
0.000000 0.044132 0.006745
0.013237 0.042788 0.005701
0.056447 0.040426 0.003638
0.100053 0.038052 0.001562
0.144048 0.035666 0.000000
0.188427 0.033268 0.000000
0.233184 0.030858 0.000000
0.278312 0.028437 0.000000
0.323806 0.026004 0.000000
0.369660 0.023560 0.000000
0.415867 0.021106 0.000000
0.462423 0.018641 0.000000
0.509321 0.016165 0.000000
0.556556 0.013680 0.000000
0.604123 0.011184 0.000000
0.652015 0.008680 0.000000
0.700226 0.006165 0.000000
0.748753 0.003642 0.000000
0.797588 0.001110 0.000000
0.846728 0.000000 0.000000
0.895763 0.000000 0.000000
0.944032 0.000000 0.000000
0.992454 0.000000 0.000000
1.000000 0.000000 0.000000
1.000000 0.000000 0.000000
1.000000 0.000000 0.000000
1.000000 0.000000 0.000000
1.000000 0.000000 0.000000
0.000000 0.093480 0.000000
0.000000 0.092973 0.000000
0.000000 0.092471 0.000000
0.000000 0.091974 0.000000
0.000000 0.091482 0.000000
0.000000 0.090996 0.000000
0.005939 0.089610 0.000000
0.049815 0.087192 0.000000
0.094072 0.084761 0.000000
0.138706 0.082319 0.000000
0.183710 0.079865 0.000000
0.229079 0.077400 0.000000
0.274806 0.074925 0.000000
0.320885 0.072438 0.000000
0.367311 0.069941 0.000000
0.414079 0.067434 0.000000
0.461182 0.064917 0.000000
0.508615 0.062390 0.000000
0.556373 0.059854 0.000000
0.604449 0.057308 0.000000
0.652839 0.054753 0.000000
0.701537 0.052189 0.000000
0.750537 0.049617 0.000000
0.799835 0.047036 0.000000
0.849425 0.044447 0.000000
0.898521 0.041884 0.000000
0.946974 0.039355 0.000000
0.995556 0.036825 0.000000
1.000000 0.034294 0.000000
1.000000 0.033001 0.000000
1.000000 0.032500 0.000000
1.000000 0.032007 0.000000
1.000000 0.031520 0.000000
0.000000 0.140238 0.000000
0.000000 0.139703 0.000000
0.000000 0.139174 0.000000
0.000000 0.138649 0.000000
0.000000 0.138129 0.000000
0.000000 0.137614 0.000000
0.000000 0.136187 0.000000
0.043213 0.133713 0.000000
0.088100 0.131227 0.000000
0.133350 0.128730 0.000000
0.178957 0.126222 0.000000
0.224916 0.123703 0.000000
0.271220 0.121174 0.000000
0.317864 0.118635 0.000000
0.364842 0.116086 0.000000
0.412149 0.113527 0.000000
0.459780 0.110959 0.000000
0.507728 0.108381 0.000000
0.555988 0.105794 0.000000
0.604555 0.103199 0.000000
0.653423 0.100595 0.000000
0.702588 0.097982 0.000000
0.752044 0.095362 0.000000
0.801785 0.092733 0.000000
0.851806 0.090097 0.000000
0.900870 0.087507 0.000000
0.949468 0.084943 0.000000
0.998175 0.082379 0.000000
1.000000 0.079815 0.000000
1.000000 0.078497 0.000000
1.000000 0.077975 0.000000
1.000000 0.077460 0.000000
1.000000 0.076951 0.000000
0.000000 0.186751 0.000000
0.000000 0.186189 0.000000
0.000000 0.185631 0.000000
0.000000 0.185078 0.000000
0.000000 0.184531 0.000000
0.000000 0.183988 0.000000
0.000000 0.182520 0.000000
0.036642 0.179991 0.000000
0.082137 0.177450 0.000000
0.127981 0.174899 0.000000
0.174170 0.172338 0.000000
0.220698 0.169766 0.000000
0.267558 0.167185 0.000000
0.314746 0.164594 0.000000
0.362256 0.161994 0.000000
0.410082 0.159384 0.000000
0.458220 0.156765 0.000000
0.506663 0.154138 0.000000
0.555407 0.151502 0.000000
0.604445 0.148857 0.000000
0.653773 0.146205 0.000000
0.703386 0.143544 0.000000
0.753278 0.140876 0.000000
0.803445 0.138200 0.000000
0.853881 0.135517 0.000000
0.902813 0.132905 0.000000
0.951521 0.130308 0.000000
1.000000 0.127711 0.000000
1.000000 0.125116 0.000000
1.000000 0.123772 0.000000
1.000000 0.123228 0.000000
1.000000 0.122692 0.000000
1.000000 0.122161 0.000000
0.000000 0.233020 0.000000
0.000000 0.232430 0.000000
0.000000 0.231844 0.000000
0.000000 0.231264 0.000000
0.000000 0.230688 0.000000
0.000000 0.230118 0.000000
0.000000 0.228610 0.000000
0.030103 0.226026 0.000000
0.076183 0.223432 0.000000
0.122601 0.220828 0.000000
0.169351 0.218214 0.000000
0.216426 0.215591 0.000000
0.263823 0.212958 0.000000
0.311535 0.210316 0.000000
0.359556 0.207665 0.000000
0.407882 0.205005 0.000000
0.456507 0.202337 0.000000
0.505426 0.199660 0.000000
0.554634 0.196976 0.000000
0.604125 0.194283 0.000000
0.653895 0.191583 0.000000
0.703938 0.188875 0.000000
0.754249 0.186159 0.000000
0.804823 0.183437 0.000000
0.855650 0.180708 0.000000
0.904358 0.178077 0.000000
0.953141 0.175448 0.000000
1.000000 0.172820 0.000000
1.000000 0.170194 0.000000
1.000000 0.168825 0.000000
1.000000 0.168260 0.000000
1.000000 0.167700 0.000000
1.000000 0.167147 0.000000
0.000000 0.279045 0.000000
0.000000 0.278427 0.000000
0.000000 0.277814 0.000000
0.000000 0.277205 0.000000
0.000000 0.276602 0.000000
0.000000 0.276004 0.000000
0.000000 0.274456 0.000000
0.023596 0.271819 0.000000
0.070241 0.269172 0.000000
0.117211 0.266516 0.000000
0.164501 0.263851 0.000000
0.212105 0.261176 0.000000
0.260017 0.258492 0.000000
0.308233 0.255800 0.000000
0.356746 0.253099 0.000000
0.405552 0.250390 0.000000
0.454646 0.247673 0.000000
0.504023 0.244948 0.000000
0.553676 0.242215 0.000000
0.603602 0.239474 0.000000
0.653795 0.236727 0.000000
0.704250 0.233972 0.000000
0.754962 0.231210 0.000000
0.805927 0.228442 0.000000
0.856744 0.225684 0.000000
0.905513 0.223022 0.000000
0.954335 0.220361 0.000000
1.000000 0.217703 0.000000
1.000000 0.215048 0.000000
1.000000 0.213655 0.000000
1.000000 0.213066 0.000000
1.000000 0.212484 0.000000
1.000000 0.211908 0.000000
0.000000 0.324827 0.000000
0.000000 0.324181 0.000000
0.000000 0.323540 0.000000
0.000000 0.322904 0.000000
0.000000 0.322272 0.000000
0.000000 0.321646 0.000000
0.000000 0.320058 0.000000
0.017121 0.317369 0.000000
0.064311 0.314671 0.000000
0.111813 0.311963 0.000000
0.159623 0.309247 0.000000
0.207735 0.306521 0.000000
0.256143 0.303788 0.000000
0.304843 0.301046 0.000000
0.353830 0.298296 0.000000
0.403098 0.295538 0.000000
0.452642 0.292772 0.000000
0.502457 0.289999 0.000000
0.552538 0.287219 0.000000
0.602880 0.284431 0.000000
0.653479 0.281636 0.000000
0.704329 0.278835 0.000000
0.755426 0.276027 0.000000
0.806764 0.273213 0.000000
0.857490 0.270430 0.000000
0.906285 0.267737 0.000000
0.955112 0.265047 0.000000
1.000000 0.262360 0.000000
1.000000 0.259677 0.000000
1.000000 0.258258 0.000000
1.000000 0.257646 0.000000
1.000000 0.257040 0.000000
1.000000 0.256441 0.000000
0.000000 0.370365 0.000000
0.000000 0.369691 0.000000
0.000000 0.369022 0.000000
0.000000 0.368358 0.000000
0.000000 0.367699 0.000000
0.000000 0.367044 0.000000
0.000000 0.365417 0.000000
0.010680 0.362677 0.000000
0.058394 0.359927 0.000000
0.106408 0.357168 0.000000
0.154718 0.354402 0.000000
0.203319 0.351627 0.000000
0.252204 0.348843 0.000000
0.301370 0.346052 0.000000
0.350811 0.343254 0.000000
0.400522 0.340447 0.000000
0.450498 0.337634 0.000000
0.500734 0.334813 0.000000
0.551225 0.331985 0.000000
0.601967 0.329151 0.000000
0.652954 0.326310 0.000000
0.704182 0.323462 0.000000
0.755647 0.320609 0.000000
0.807342 0.317749 0.000000
0.857896 0.314944 0.000000
0.906684 0.312221 0.000000
0.955482 0.309502 0.000000
1.000000 0.306787 0.000000
1.000000 0.304076 0.000000
1.000000 0.302633 0.000000
1.000000 0.301997 0.000000
1.000000 0.301367 0.000000
1.000000 0.300742 0.000000
0.000000 0.415660 0.000000
0.000000 0.414959 0.000000
0.000000 0.414261 0.000000
0.000000 0.413569 0.000000
0.000000 0.412881 0.000000
0.000000 0.412199 0.000000
0.000000 0.410532 0.000000
0.004274 0.407740 0.000000
0.052491 0.404940 0.000000
0.100998 0.402132 0.000000
0.149790 0.399315 0.000000
0.198860 0.396490 0.000000
0.248204 0.393658 0.000000
0.297816 0.390819 0.000000
0.347693 0.387972 0.000000
0.397829 0.385117 0.000000
0.448219 0.382256 0.000000
0.498859 0.379388 0.000000
0.549743 0.376514 0.000000
0.600867 0.373633 0.000000
0.652227 0.370745 0.000000
0.703816 0.367852 0.000000
0.755632 0.364952 0.000000
0.807669 0.362047 0.000000
0.857972 0.359223 0.000000
0.906718 0.356471 0.000000
0.955455 0.353724 0.000000
1.000000 0.350982 0.000000
1.000000 0.348245 0.000000
1.000000 0.346776 0.000000
1.000000 0.346115 0.000000
1.000000 0.345460 0.000000
1.000000 0.344810 0.000000
0.000000 0.460712 0.000000
0.000000 0.459982 0.000000
0.000000 0.459256 0.000000
0.000000 0.458535 0.000000
0.000000 0.457819 0.000000
0.000000 0.457108 0.000000
0.000000 0.455402 0.000000
0.000000 0.452560 0.000000
0.046605 0.449709 0.000000
0.095585 0.446851 0.000000
0.144838 0.443985 0.000000
0.194360 0.441112 0.000000
0.244144 0.438231 0.000000
0.294186 0.435343 0.000000
0.344481 0.432448 0.000000
0.395024 0.429546 0.000000
0.445811 0.426638 0.000000
0.496837 0.423723 0.000000
0.548098 0.420801 0.000000
0.599588 0.417874 0.000000
0.651303 0.414940 0.000000
0.703238 0.412001 0.000000
0.755390 0.409056 0.000000
0.807753 0.406105 0.000000
0.857727 0.403264 0.000000
0.906398 0.400485 0.000000
0.955041 0.397711 0.000000
1.000000 0.394942 0.000000
1.000000 0.392179 0.000000
1.000000 0.390684 0.000000
1.000000 0.389997 0.000000
1.000000 0.389315 0.000000
1.000000 0.388639 0.000000
0.000000 0.505519 0.000000
0.000000 0.504760 0.000000
0.000000 0.504006 0.000000
0.000000 0.503256 0.000000
0.000000 0.502511 0.000000
0.000000 0.501770 0.000000
0.000000 0.500026 0.000000
0.000000 0.497133 0.000000
0.040735 0.494233 0.000000
0.090170 0.491326 0.000000
0.139867 0.488411 0.000000
0.189821 0.485488 0.000000
0.240028 0.482559 0.000000
0.290481 0.479623 0.000000
0.341177 0.476680 0.000000
0.392111 0.473731 0.000000
0.443279 0.470775 0.000000
0.494674 0.467813 0.000000
0.546295 0.464845 0.000000
0.598134 0.461872 0.000000
0.650189 0.458892 0.000000
0.702455 0.455907 0.000000
0.754927 0.452916 0.000000
0.807601 0.449920 0.000000
0.857170 0.447065 0.000000
0.905736 0.444259 0.000000
0.954252 0.441458 0.000000
1.000000 0.438663 0.000000
1.000000 0.435874 0.000000
1.000000 0.434353 0.000000
1.000000 0.433639 0.000000
1.000000 0.432930 0.000000
1.000000 0.432226 0.000000
0.000000 0.550081 0.000000
0.000000 0.549293 0.000000
0.000000 0.548510 0.000000
0.000000 0.547731 0.000000
0.000000 0.546956 0.000000
0.000000 0.546186 0.000000
0.000000 0.544402 0.000000
0.000000 0.541460 0.000000
0.034883 0.538510 0.000000
0.084755 0.535553 0.000000
0.134878 0.532589 0.000000
0.185248 0.529619 0.000000
0.235859 0.526641 0.000000
0.286707 0.523657 0.000000
0.337787 0.520667 0.000000
0.389095 0.517670 0.000000
0.440626 0.514667 0.000000
0.492375 0.511658 0.000000
0.544340 0.508644 0.000000
0.596513 0.505623 0.000000
0.648893 0.502597 0.000000
0.701474 0.499566 0.000000
0.754252 0.496529 0.000000
0.807223 0.493488 0.000000
0.856313 0.490622 0.000000
0.904742 0.487788 0.000000
0.953102 0.484961 0.000000
1.000000 0.482140 0.000000
1.000000 0.479327 0.000000
1.000000 0.477779 0.000000
1.000000 0.477037 0.000000
1.000000 0.476299 0.000000
1.000000 0.475567 0.000000
0.000000 0.594396 0.000000
0.000000 0.593579 0.000000
0.000000 0.592765 0.000000
0.000000 0.591957 0.000000
0.000000 0.591152 0.000000
0.000000 0.590351 0.000000
0.000000 0.588528 0.000000
0.000000 0.585536 0.000000
0.029051 0.582537 0.000000
0.079342 0.579532 0.000000
0.129874 0.576519 0.000000
0.180641 0.573500 0.000000
0.231640 0.570474 0.000000
0.282866 0.567442 0.000000
0.334314 0.564404 0.000000
0.385979 0.561360 0.000000
0.437858 0.558310 0.000000
0.489946 0.555254 0.000000
0.542239 0.552192 0.000000
0.594732 0.549125 0.000000
0.647421 0.546053 0.000000
0.700303 0.542975 0.000000
0.753372 0.539893 0.000000
0.806625 0.536805 0.000000
0.855168 0.533929 0.000000
0.903428 0.531070 0.000000
0.951602 0.528216 0.000000
0.999679 0.525371 0.000000
1.000000 0.522532 0.000000
1.000000 0.520957 0.000000
1.000000 0.520185 0.000000
1.000000 0.519418 0.000000
1.000000 0.518655 0.000000
0.000000 0.638462 0.000000
0.000000 0.637615 0.000000
0.000000 0.636771 0.000000
0.000000 0.635932 0.000000
0.000000 0.635097 0.000000
0.000000 0.634265 0.000000
0.000000 0.632402 0.000000
0.000000 0.629361 0.000000
0.023240 0.626313 0.000000
0.073933 0.623258 0.000000
0.124856 0.620197 0.000000
0.176005 0.617129 0.000000
0.227375 0.614055 0.000000
0.278962 0.610975 0.000000
0.330762 0.607889 0.000000
0.382769 0.604797 0.000000
0.434980 0.601700 0.000000
0.487391 0.598597 0.000000
0.539998 0.595488 0.000000
0.592795 0.592374 0.000000
0.645780 0.589255 0.000000
0.698948 0.586131 0.000000
0.752295 0.583001 0.000000
0.805586 0.579877 0.000000
0.853746 0.576984 0.000000
0.901809 0.574098 0.000000
0.949766 0.571219 0.000000
0.997609 0.568348 0.000000
1.000000 0.565485 0.000000
1.000000 0.563882 0.000000
1.000000 0.563079 0.000000
1.000000 0.562280 0.000000
1.000000 0.561485 0.000000
0.000000 0.682278 0.000000
0.000000 0.681399 0.000000
0.000000 0.680525 0.000000
0.000000 0.679655 0.000000
0.000000 0.678788 0.000000
0.000000 0.677925 0.000000
0.000000 0.676022 0.000000
0.000000 0.672931 0.000000
0.017452 0.669834 0.000000
0.068530 0.666730 0.000000
0.119828 0.663620 0.000000
0.171342 0.660503 0.000000
0.223067 0.657381 0.000000
0.275000 0.654253 0.000000
0.327135 0.651119 0.000000
0.379470 0.647979 0.000000
0.431998 0.644833 0.000000
0.484718 0.641683 0.000000
0.537623 0.638526 0.000000
0.590712 0.635365 0.000000
0.643978 0.632199 0.000000
0.697419 0.629027 0.000000
0.751031 0.625851 0.000000
0.804108 0.622701 0.000000
0.852059 0.619781 0.000000
0.899896 0.616868 0.000000
0.947609 0.613964 0.000000
0.995190 0.611067 0.000000
1.000000 0.608179 0.000000
1.000000 0.606547 0.000000
1.000000 0.605711 0.000000
1.000000 0.604879 0.000000
1.000000 0.604051 0.000000
0.000000 0.725840 0.000000
0.000000 0.724930 0.000000
0.000000 0.724024 0.000000
0.000000 0.723121 0.000000
0.000000 0.722223 0.000000
0.000000 0.721327 0.000000
0.000000 0.719383 0.000000
0.000000 0.716243 0.000000
0.011689 0.713096 0.000000
0.063135 0.709943 0.000000
0.114792 0.706784 0.000000
0.166655 0.703619 0.000000
0.218720 0.700447 0.000000
0.270983 0.697270 0.000000
0.323439 0.694088 0.000000
0.376086 0.690900 0.000000
0.428917 0.687706 0.000000
0.481931 0.684507 0.000000
0.535122 0.681303 0.000000
0.588487 0.678093 0.000000
0.642022 0.674879 0.000000
0.695723 0.671660 0.000000
0.749586 0.668435 0.000000
0.802407 0.665260 0.000000
0.850122 0.662313 0.000000
0.897704 0.659374 0.000000
0.945145 0.656444 0.000000
0.992437 0.653522 0.000000
1.000000 0.650609 0.000000
1.000000 0.648946 0.000000
1.000000 0.648076 0.000000
1.000000 0.647210 0.000000
1.000000 0.646346 0.000000
0.000000 0.769146 0.000000
0.000000 0.768204 0.000000
0.000000 0.767265 0.000000
0.000000 0.766329 0.000000
0.000000 0.765397 0.000000
0.000000 0.764468 0.000000
0.000000 0.762483 0.000000
0.000000 0.759293 0.000000
0.005951 0.756096 0.000000
0.057750 0.752894 0.000000
0.109750 0.749685 0.000000
0.161947 0.746471 0.000000
0.214336 0.743250 0.000000
0.266915 0.740024 0.000000
0.319678 0.736792 0.000000
0.372622 0.733555 0.000000
0.425743 0.730313 0.000000
0.479037 0.727065 0.000000
0.532500 0.723812 0.000000
0.586129 0.720554 0.000000
0.639919 0.717291 0.000000
0.693868 0.714023 0.000000
0.747971 0.710750 0.000000
0.800497 0.707549 0.000000
0.847948 0.704575 0.000000
0.895248 0.701610 0.000000
0.942390 0.698654 0.000000
0.989366 0.695706 0.000000
1.000000 0.692768 0.000000
1.000000 0.691073 0.000000
1.000000 0.690167 0.000000
1.000000 0.689264 0.000000
1.000000 0.688363 0.000000
0.000000 0.812192 0.000000
0.000000 0.811217 0.000000
0.000000 0.810244 0.000000
0.000000 0.809275 0.000000
0.000000 0.808308 0.000000
0.000000 0.807345 0.000000
0.000000 0.805318 0.000000
0.000000 0.802077 0.000000
0.000242 0.798831 0.000000
0.052378 0.795578 0.000000
0.104706 0.792319 0.000000
0.157221 0.789055 0.000000
0.209921 0.785785 0.000000
0.262801 0.782509 0.000000
0.315856 0.779227 0.000000
0.369084 0.775941 0.000000
0.422481 0.772649 0.000000
0.476042 0.769351 0.000000
0.529765 0.766049 0.000000
0.583644 0.762741 0.000000
0.637678 0.759428 0.000000
0.691862 0.756111 0.000000
0.746193 0.752788 0.000000
0.798391 0.749562 0.000000
0.845551 0.746561 0.000000
0.892544 0.743569 0.000000
0.939361 0.740585 0.000000
0.985996 0.737611 0.000000
1.000000 0.734647 0.000000
1.000000 0.732919 0.000000
1.000000 0.731975 0.000000
1.000000 0.731034 0.000000
1.000000 0.730094 0.000000
0.000000 0.854413 0.000000
0.000000 0.853423 0.000000
0.000000 0.852436 0.000000
0.000000 0.851451 0.000000
0.000000 0.850468 0.000000
0.000000 0.849488 0.000000
0.000000 0.847436 0.000000
0.000000 0.844162 0.000000
0.000000 0.840881 0.000000
0.047086 0.837595 0.000000
0.099725 0.834302 0.000000
0.152542 0.831003 0.000000
0.205535 0.827698 0.000000
0.258700 0.824386 0.000000
0.312032 0.821069 0.000000
0.365529 0.817746 0.000000
0.419186 0.814418 0.000000
0.472999 0.811083 0.000000
0.526966 0.807743 0.000000
0.581083 0.804398 0.000000
0.635346 0.801047 0.000000
0.689753 0.797690 0.000000
0.744299 0.794329 0.000000
0.796138 0.791088 0.000000
0.842979 0.788070 0.000000
0.889636 0.785061 0.000000
0.936103 0.782060 0.000000
0.982371 0.779069 0.000000
1.000000 0.776087 0.000000
1.000000 0.774334 0.000000
1.000000 0.773359 0.000000
1.000000 0.772384 0.000000
1.000000 0.771411 0.000000
0.000000 0.894285 0.000000
0.000000 0.893361 0.000000
0.000000 0.892436 0.000000
0.000000 0.891511 0.000000
0.000000 0.890586 0.000000
0.000000 0.889660 0.000000
0.000000 0.887653 0.000000
0.000000 0.884415 0.000000
0.000000 0.881168 0.000000
0.042050 0.877913 0.000000
0.094974 0.874649 0.000000
0.148069 0.871376 0.000000
0.201332 0.868096 0.000000
0.254758 0.864807 0.000000
0.308344 0.861510 0.000000
0.362087 0.858205 0.000000
0.415983 0.854893 0.000000
0.470029 0.851572 0.000000
0.524221 0.848244 0.000000
0.578555 0.844908 0.000000
0.633029 0.841565 0.000000
0.687639 0.838214 0.000000
0.742383 0.834855 0.000000
0.793830 0.831642 0.000000
0.840321 0.828647 0.000000
0.886612 0.825659 0.000000
0.932698 0.822678 0.000000
0.978570 0.819705 0.000000
1.000000 0.816740 0.000000
1.000000 0.814993 0.000000
1.000000 0.814015 0.000000
1.000000 0.813037 0.000000
1.000000 0.812058 0.000000
0.000000 0.934551 0.000000
0.000000 0.933675 0.000000
0.000000 0.932796 0.000000
0.000000 0.931914 0.000000
0.000000 0.931029 0.000000
0.000000 0.930141 0.000000
0.000000 0.928164 0.000000
0.000000 0.924945 0.000000
0.000000 0.921716 0.000000
0.036945 0.918476 0.000000
0.090144 0.915225 0.000000
0.143505 0.911964 0.000000
0.197027 0.908693 0.000000
0.250705 0.905411 0.000000
0.304535 0.902119 0.000000
0.358515 0.898817 0.000000
0.412641 0.895506 0.000000
0.466909 0.892184 0.000000
0.521316 0.888853 0.000000
