library/cube/Midnight_Cinema_004.cube
# CINEGRADE LAB — Premium Cinematic LUT
# Title: Midnight Cinema
# Category: Cinematic Shadows
# Description: Crushed blacks with teal shadows and warm highlights for cinema-inspired images
# Mood: Dramatic, cinematic, bold
# Variant: 5
# Generated: 2026-05-21T16:12:13.514582
TITLE "Midnight Cinema"
LUT_3D_SIZE 33
0.000000 0.000000 0.000000
0.000000 0.000000 0.000000
0.000000 0.000000 0.000000
0.011739 0.000490 0.000490
0.041923 0.001749 0.001749
0.072246 0.003015 0.003015
0.102706 0.004286 0.004286
0.133298 0.005562 0.005562
0.164022 0.006844 0.006844
0.194875 0.008132 0.008132
0.225853 0.009424 0.009424
0.256955 0.010722 0.010722
0.288179 0.012025 0.012025
0.319520 0.013333 0.013333
0.350979 0.014645 0.014645
0.382551 0.015963 0.015963
0.414235 0.017285 0.017285
0.446028 0.018612 0.018612
0.477928 0.019943 0.019943
0.509933 0.021278 0.021278
0.542041 0.022618 0.022618
0.574250 0.023962 0.023962
0.606557 0.025310 0.025310
0.638960 0.026662 0.026662
0.671457 0.028018 0.028018
0.704047 0.029378 0.029378
0.736726 0.030742 0.030742
0.769494 0.032109 0.032109
0.802294 0.033478 0.033478
0.835105 0.034847 0.034847
0.866142 0.036142 0.036142
0.866142 0.036142 0.036142
0.866142 0.036142 0.036142
0.000000 0.000000 0.000000
0.000000 0.000000 0.000000
0.000000 0.000000 0.000000
0.010506 0.000438 0.000438
0.040930 0.001708 0.001708
0.071486 0.002983 0.002983
0.102173 0.004263 0.004263
0.132988 0.005549 0.005549
0.163928 0.006840 0.006840
0.194992 0.008137 0.008137
0.226176 0.009438 0.009438
0.257478 0.010744 0.010744
0.288896 0.012055 0.012055
0.320427 0.013371 0.013371
0.352070 0.014691 0.014691
0.383822 0.016016 0.016016
0.415680 0.017345 0.017345
0.447643 0.018679 0.018679
0.479708 0.020017 0.020017
0.511873 0.021359 0.021359
0.544136 0.022705 0.022705
0.576495 0.024056 0.024056
0.608948 0.025410 0.025410
0.641493 0.026768 0.026768
0.674127 0.028130 0.028130
0.706850 0.029495 0.029495
0.739658 0.030864 0.030864
0.772551 0.032237 0.032237
0.805440 0.033609 0.033609
0.838325 0.034981 0.034981
0.866142 0.036142 0.036142
0.866142 0.036142 0.036142
0.866142 0.036142 0.036142
0.000000 0.000000 0.000000
0.000000 0.000000 0.000000
0.000000 0.000000 0.000000
0.009335 0.000390 0.000390
0.039988 0.001669 0.001669
0.070769 0.002953 0.002953
0.101674 0.004243 0.004243
0.132702 0.005537 0.005537
0.163850 0.006837 0.006837
0.195115 0.008142 0.008142
0.226496 0.009451 0.009451
0.257990 0.010765 0.010765
0.289594 0.012084 0.012084
0.321307 0.013407 0.013407
0.353126 0.014735 0.014735
0.385049 0.016067 0.016067
0.417074 0.017403 0.017403
0.449199 0.018744 0.018744
0.481421 0.020089 0.020089
0.513739 0.021437 0.021437
0.546150 0.022790 0.022790
0.578653 0.024146 0.024146
0.611245 0.025506 0.025506
0.643925 0.026869 0.026869
0.676691 0.028237 0.028237
0.709540 0.029607 0.029607
0.742471 0.030982 0.030982
0.775482 0.032359 0.032359
0.808445 0.033734 0.033734
0.841393 0.035109 0.035109
0.866142 0.036142 0.036142
0.866142 0.036142 0.036142
0.866142 0.036142 0.036142
0.001249 0.009775 0.001249
0.001203 0.009412 0.001203
0.001157 0.009053 0.001157
0.009338 0.009044 0.001455
0.040167 0.009984 0.002699
0.071118 0.010935 0.003948
0.102189 0.011896 0.005204
0.133379 0.012867 0.006464
0.164683 0.013849 0.007731
0.196101 0.014840 0.009002
0.227630 0.015841 0.010279
0.259267 0.016851 0.011561
0.291010 0.017871 0.012848
0.322858 0.018900 0.014140
0.354808 0.019939 0.015437
0.386858 0.020986 0.016739
0.419006 0.022043 0.018045
0.451249 0.023108 0.019356
0.483586 0.024183 0.020672
0.516015 0.025265 0.021992
0.548534 0.026357 0.023316
0.581140 0.027457 0.024644
0.613833 0.028565 0.025977
0.646609 0.029681 0.027314
0.679468 0.030805 0.028654
0.712407 0.031938 0.029999
0.745424 0.033078 0.031348
0.778519 0.034226 0.032700
0.811509 0.035374 0.034048
0.844478 0.036526 0.035396
0.866279 0.037216 0.036279
0.866252 0.036999 0.036252
0.866224 0.036788 0.036224
0.005952 0.046587 0.005952
0.005906 0.046223 0.005906
0.005860 0.045865 0.005860
0.012994 0.045811 0.006115
0.044034 0.046761 0.007367
0.075191 0.047721 0.008625
0.106462 0.048691 0.009889
0.137847 0.049671 0.011158
0.169342 0.050661 0.012433
0.200945 0.051661 0.013712
0.232654 0.052671 0.014997
0.264466 0.053690 0.016286
0.296381 0.054719 0.017580
0.328394 0.055757 0.018880
0.360506 0.056804 0.020184
0.392712 0.057860 0.021492
0.425012 0.058925 0.022805
0.457404 0.059999 0.024122
0.489885 0.061082 0.025444
0.522453 0.062173 0.026770
0.555107 0.063273 0.028101
0.587845 0.064381 0.029435
0.620664 0.065497 0.030773
0.653564 0.066622 0.032115
0.686542 0.067755 0.033462
0.719597 0.068895 0.034812
0.752726 0.070044 0.036165
0.785929 0.071200 0.037522
0.818959 0.072353 0.038873
0.851965 0.073511 0.040223
0.870990 0.074089 0.040990
0.870963 0.073877 0.040963
0.870937 0.073669 0.040937
0.010648 0.083338 0.010648
0.010602 0.082976 0.010602
0.010556 0.082619 0.010556
0.016704 0.082526 0.010770
0.047946 0.083486 0.012031
0.079300 0.084456 0.013298
0.110764 0.085436 0.014570
0.142335 0.086426 0.015847
0.174012 0.087427 0.017129
0.205793 0.088436 0.018416
0.237674 0.089456 0.019708
0.269655 0.090485 0.021005
0.301732 0.091523 0.022307
0.333905 0.092571 0.023613
0.366171 0.093628 0.024924
0.398527 0.094694 0.026239
0.430973 0.095768 0.027558
0.463506 0.096852 0.028882
0.496124 0.097944 0.030210
0.528826 0.099045 0.031542
0.561609 0.100154 0.032878
0.594472 0.101272 0.034218
0.627413 0.102398 0.035562
0.660430 0.103531 0.036910
0.693522 0.104673 0.038262
0.726687 0.105823 0.039617
0.759924 0.106981 0.040975
0.793230 0.108146 0.042337
0.826281 0.109306 0.043690
0.859311 0.110469 0.045041
0.875699 0.110943 0.045699
0.875673 0.110736 0.045673
0.875647 0.110534 0.045647
0.015337 0.120038 0.015337
0.015291 0.119678 0.015291
0.015246 0.119324 0.015246
0.020468 0.119195 0.015421
0.051904 0.120167 0.016691
0.083447 0.121148 0.017966
0.115095 0.122139 0.019246
0.146845 0.123141 0.020531
0.178697 0.124152 0.021821
0.210647 0.125173 0.023116
0.242694 0.126203 0.024415
0.274835 0.127243 0.025719
0.307069 0.128292 0.027028
0.339393 0.129351 0.028341
0.371806 0.130418 0.029659
0.404306 0.131495 0.030980
0.436891 0.132580 0.032306
0.469559 0.133674 0.033636
0.502309 0.134777 0.034970
0.535137 0.135888 0.036308
0.568044 0.137008 0.037650
0.601027 0.138136 0.038996
0.634084 0.139272 0.040345
0.667214 0.140416 0.041699
0.700415 0.141568 0.043055
0.733685 0.142728 0.044415
0.767023 0.143896 0.045779
0.800428 0.145072 0.047146
0.833481 0.146237 0.048499
0.866523 0.147407 0.049852
0.880406 0.147783 0.050406
0.880381 0.147582 0.050381
0.880356 0.147387 0.050356
0.020021 0.156693 0.020021
0.019975 0.156338 0.019975
0.019931 0.155988 0.019931
0.024288 0.155828 0.020070
0.055909 0.156811 0.021348
0.087633 0.157805 0.022632
0.119457 0.158808 0.023920
0.151379 0.159822 0.025212
0.183397 0.160845 0.026510
0.215510 0.161878 0.027812
0.247714 0.162920 0.029119
0.280009 0.163972 0.030430
0.312392 0.165033 0.031745
0.344862 0.166103 0.033065
0.377416 0.167182 0.034389
0.410053 0.168270 0.035718
0.442771 0.169367 0.037050
0.475568 0.170473 0.038386
0.508443 0.171587 0.039726
0.541393 0.172710 0.041070
0.574418 0.173841 0.042417
0.607515 0.174980 0.043769
0.640683 0.176127 0.045124
0.673920 0.177283 0.046482
0.707225 0.178446 0.047844
0.740596 0.179617 0.049209
0.774031 0.180796 0.050578
0.807530 0.181982 0.051950
0.840565 0.183154 0.053303
0.873606 0.184332 0.054657
0.885112 0.184615 0.055112
0.885088 0.184422 0.055088
0.885064 0.184234 0.055064
0.024700 0.193313 0.024700
0.024655 0.192962 0.024655
0.024611 0.192618 0.024611
0.028163 0.192430 0.024718
0.059962 0.193427 0.026004
0.091859 0.194434 0.027295
0.123851 0.195450 0.028591
0.155937 0.196477 0.029891
0.188115 0.197513 0.031196
0.220383 0.198559 0.032506
0.252738 0.199614 0.033819
0.285180 0.200678 0.035138
0.317706 0.201752 0.036460
0.350314 0.202835 0.037786
0.383003 0.203927 0.039117
0.415771 0.205027 0.040451
0.448616 0.206137 0.041790
0.481537 0.207255 0.043132
0.514531 0.208381 0.044478
0.547598 0.209516 0.045828
0.580735 0.210659 0.047181
0.613941 0.211811 0.048538
0.647215 0.212970 0.049898
0.680554 0.214137 0.051261
0.713958 0.215313 0.052628
0.747426 0.216496 0.053999
0.780954 0.217687 0.055372
0.814512 0.218884 0.056747
0.847539 0.220064 0.058101
0.880567 0.221249 0.059455
0.889818 0.221446 0.059818
0.889795 0.221262 0.059795
0.889772 0.221082 0.059772
0.029375 0.229903 0.029375
0.029331 0.229559 0.029331
0.029288 0.229222 0.029288
0.032094 0.229010 0.029364
0.064063 0.230021 0.030658
0.096125 0.231042 0.031957
0.128278 0.232072 0.033261
0.160521 0.233113 0.034569
0.192852 0.234163 0.035881
0.225268 0.235222 0.037197
0.257768 0.236291 0.038518
0.290350 0.237369 0.039843
0.323012 0.238457 0.041172
0.355753 0.239553 0.042505
0.388571 0.240658 0.043842
0.421464 0.241772 0.045183
0.454430 0.242895 0.046527
0.487469 0.244026 0.047875
0.520577 0.245166 0.049227
0.553755 0.246314 0.050582
0.587000 0.247470 0.051941
0.620310 0.248634 0.053303
0.653685 0.249807 0.054669
0.687123 0.250987 0.056038
0.720622 0.252175 0.057410
0.754181 0.253371 0.058785
0.787798 0.254575 0.060163
0.821401 0.255782 0.061541
0.854410 0.256971 0.062896
0.887410 0.258164 0.064250
0.894525 0.258282 0.064525
0.894502 0.258107 0.064502
0.894481 0.257936 0.064481
0.034047 0.266471 0.034047
0.034004 0.266136 0.034004
0.033962 0.265807 0.033962
0.036080 0.265574 0.034011
0.068212 0.266600 0.035313
0.100432 0.267636 0.036619
0.132740 0.268681 0.037930
0.165133 0.269736 0.039246
0.197609 0.270801 0.040565
0.230167 0.271875 0.041889
0.262805 0.272959 0.043216
0.295521 0.274051 0.044548
0.328314 0.275153 0.045883
0.361181 0.276264 0.047223
0.394122 0.277383 0.048566
0.427135 0.278511 0.049913
0.460217 0.279648 0.051263
0.493368 0.280793 0.052617
0.526586 0.281947 0.053975
0.559870 0.283109 0.055335
0.593217 0.284279 0.056700
0.626627 0.285457 0.058067
0.660099 0.286643 0.059438
0.693630 0.287837 0.060812
0.727220 0.289039 0.062189
0.760867 0.290248 0.063569
0.794570 0.291465 0.064952
0.828205 0.292684 0.066333
0.861183 0.293881 0.067687
0.894143 0.295083 0.069041
0.899232 0.295126 0.069232
0.899211 0.294961 0.069211
0.899191 0.294801 0.069191
0.038718 0.303025 0.038718
0.038676 0.302698 0.038676
0.038635 0.302379 0.038635
0.040122 0.302129 0.038659
0.072409 0.303171 0.039968
0.104781 0.304222 0.041282
0.137236 0.305283 0.042600
0.169772 0.306354 0.043923
0.202388 0.307434 0.045249
0.235082 0.308524 0.046580
0.267852 0.309623 0.047914
0.300696 0.310730 0.049252
0.333613 0.311847 0.050594
0.366602 0.312973 0.051940
0.399660 0.314107 0.053289
0.432787 0.315251 0.054642
0.465980 0.316402 0.055998
0.499239 0.317562 0.057358
0.532561 0.318731 0.058721
0.565946 0.319907 0.060088
0.599392 0.321092 0.061457
0.632897 0.322284 0.062830
0.666461 0.323485 0.064206
0.700082 0.324693 0.065585
0.733759 0.325909 0.066967
0.767490 0.327133 0.068352
0.801275 0.328364 0.069739
0.834931 0.329595 0.071122
0.867864 0.330801 0.072476
0.900771 0.332011 0.073829
0.903942 0.331985 0.073942
0.903922 0.331831 0.073922
0.903903 0.331682 0.073903
0.043387 0.339570 0.043387
0.043346 0.339254 0.043346
0.043307 0.338944 0.043307
0.044220 0.338681 0.043308
0.076656 0.339739 0.044625
0.109173 0.340807 0.045946
0.141768 0.341885 0.047272
0.174442 0.342972 0.048601
0.207191 0.344069 0.049934
0.240014 0.345174 0.051272
0.272910 0.346289 0.052612
0.305877 0.347413 0.053957
0.338913 0.348546 0.055305
0.372017 0.349687 0.056657
0.405188 0.350837 0.058013
0.438424 0.351996 0.059371
0.471723 0.353163 0.060733
0.505084 0.354339 0.062099
0.538507 0.355522 0.063468
0.571989 0.356714 0.064839
0.605528 0.357914 0.066214
0.639125 0.359122 0.067592
0.672778 0.360338 0.068973
0.706484 0.361561 0.070357
0.740244 0.362792 0.071744
0.774056 0.364030 0.073134
0.807919 0.365276 0.074526
0.841583 0.366519 0.075911
0.874459 0.367734 0.077264
0.907301 0.368953 0.078615
0.908654 0.368863 0.078654
0.908636 0.368721 0.078636
0.908618 0.368584 0.078618
0.048056 0.376113 0.048056
0.048017 0.375808 0.048017
0.047979 0.375510 0.047979
0.048375 0.375236 0.047960
0.080952 0.376312 0.049284
0.113607 0.377397 0.050613
0.146338 0.378492 0.051945
0.179142 0.379596 0.053281
0.212018 0.380710 0.054621
0.244965 0.381832 0.055965
0.277981 0.382964 0.057313
0.311065 0.384104 0.058663
0.344215 0.385254 0.060018
0.377430 0.386412 0.061376
0.410708 0.387578 0.062737
0.444048 0.388753 0.064102
0.477449 0.389937 0.065470
0.510909 0.391128 0.066841
0.544427 0.392328 0.068215
0.578001 0.393536 0.069592
0.611631 0.394752 0.070972
0.645315 0.395975 0.072355
0.679053 0.397207 0.073741
0.712842 0.398445 0.075130
0.746681 0.399692 0.076522
0.780571 0.400946 0.077916
0.814509 0.402207 0.079313
0.848169 0.403462 0.080700
0.880975 0.404687 0.082051
0.913386 0.405900 0.083386
0.913369 0.405765 0.083369
0.913352 0.405635 0.083352
0.913336 0.405511 0.083336
0.052726 0.412660 0.052726
0.052688 0.412367 0.052688
0.052652 0.412082 0.052652
0.052616 0.411802 0.052616
0.085298 0.412895 0.053946
0.118085 0.413998 0.055282
0.150944 0.415110 0.056621
0.183873 0.416232 0.057964
0.216871 0.417363 0.059311
0.249937 0.418503 0.060661
0.283068 0.419652 0.062015
0.316264 0.420810 0.063372
0.349523 0.421977 0.064733
0.382843 0.423152 0.066096
0.416224 0.424335 0.067464
0.449664 0.425527 0.068834
0.483161 0.426727 0.070207
0.516715 0.427936 0.071584
0.550325 0.429152 0.072963
0.583988 0.430376 0.074346
0.617704 0.431609 0.075731
0.651472 0.432849 0.077120
0.685291 0.434096 0.078511
0.719159 0.435351 0.079904
0.753076 0.436614 0.081301
0.787040 0.437884 0.082700
0.821050 0.439161 0.084102
0.854694 0.440429 0.085489
0.887417 0.441663 0.086838
0.918103 0.442817 0.088103
0.918087 0.442695 0.088087
0.918072 0.442578 0.088072
0.918058 0.442466 0.088058
0.057396 0.449217 0.057396
0.057361 0.448937 0.057361
0.057326 0.448665 0.057326
0.057292 0.448399 0.057292
0.089694 0.449493 0.058612
0.122607 0.450614 0.059955
0.155589 0.451745 0.061301
0.188638 0.452885 0.062650
0.221752 0.454035 0.064003
0.254931 0.455193 0.065360
0.288172 0.456360 0.066720
0.321474 0.457535 0.068083
0.354837 0.458720 0.069450
0.388259 0.459912 0.070820
0.421738 0.461113 0.072193
0.455273 0.462323 0.073569
0.488864 0.463540 0.074948
0.522508 0.464766 0.076329
0.556205 0.466000 0.077714
0.589953 0.467241 0.079102
0.623752 0.468490 0.080493
0.657601 0.469747 0.081886
0.691498 0.471012 0.083282
0.725442 0.472283 0.084680
0.759432 0.473563 0.086082
0.793468 0.474849 0.087485
0.827549 0.476143 0.088892
0.861165 0.477422 0.090279
0.893792 0.478666 0.091626
0.922824 0.479765 0.092824
0.922810 0.479656 0.092810
0.922797 0.479553 0.092797
0.922784 0.479455 0.092784
0.062069 0.485789 0.062069
0.062035 0.485524 0.062035
0.062002 0.485265 0.062002
0.061970 0.485013 0.061970
0.094139 0.486111 0.063282
0.127173 0.487252 0.064632
0.160272 0.488402 0.065984
0.193435 0.489561 0.067340
0.226661 0.490729 0.068700
0.259948 0.491906 0.070063
0.293294 0.493091 0.071429
0.326699 0.494285 0.072798
0.360161 0.495488 0.074171
0.393680 0.496699 0.075546
0.427253 0.497918 0.076925
0.460880 0.499145 0.078306
0.494559 0.500381 0.079691
0.528290 0.501624 0.081078
0.562071 0.502875 0.082468
0.595901 0.504134 0.083861
0.629780 0.505401 0.085257
0.663705 0.506675 0.086655
0.697678 0.507957 0.088056
0.731695 0.509246 0.089459
0.765757 0.510542 0.090865
0.799862 0.511846 0.092273
0.834010 0.513156 0.093684
0.867587 0.514448 0.095072
0.900106 0.515701 0.096416
0.927549 0.516748 0.097549
0.927537 0.516653 0.097537
0.927526 0.516564 0.097526
0.927515 0.516480 0.097515
0.066745 0.522382 0.066745
0.066713 0.522131 0.066713
0.066682 0.521887 0.066682
0.066651 0.521650 0.066651
0.098634 0.522755 0.067958
0.131784 0.523916 0.069313
0.164995 0.525085 0.070673
0.198267 0.526263 0.072035
0.231599 0.527451 0.073401
0.264989 0.528646 0.074770
0.298436 0.529851 0.076142
0.331939 0.531064 0.077517
0.365497 0.532285 0.078896
0.399108 0.533515 0.080277
0.432771 0.534752 0.081661
0.466486 0.535998 0.083048
0.500250 0.537252 0.084438
0.534064 0.538514 0.085830
0.567926 0.539783 0.087226
0.601835 0.541060 0.088624
0.635790 0.542345 0.090024
0.669790 0.543637 0.091427
0.703835 0.544936 0.092833
0.737923 0.546243 0.094241
0.772054 0.547556 0.095652
0.806226 0.548877 0.097065
0.840440 0.550205 0.098480
0.873966 0.551510 0.099867
0.906364 0.552772 0.101208
0.932279 0.553769 0.102279
0.932269 0.553689 0.102269
0.932260 0.553615 0.102260
0.932251 0.553545 0.102251
0.071423 0.559000 0.071423
0.071393 0.558765 0.071393
0.071364 0.558536 0.071364
0.071336 0.558315 0.071336
0.103180 0.559430 0.072638
0.136439 0.560610 0.074001
0.169758 0.561799 0.075366
0.203135 0.562997 0.076735
0.236568 0.564204 0.078107
0.270057 0.565420 0.079482
0.303601 0.566644 0.080860
0.337197 0.567876 0.082241
0.370846 0.569116 0.083625
0.404546 0.570365 0.085012
0.438296 0.571622 0.086401
0.472094 0.572886 0.087794
0.505941 0.574159 0.089189
0.539835 0.575439 0.090587
0.573774 0.576727 0.091987
0.607759 0.578022 0.093390
0.641788 0.579325 0.094796
0.675860 0.580635 0.096204
0.709975 0.581953 0.097614
0.744132 0.583277 0.099027
0.778329 0.584609 0.100442
0.812566 0.585948 0.101860
0.846843 0.587293 0.103280
0.880309 0.588610 0.104666
0.912574 0.589882 0.106004
0.937015 0.590832 0.107015
0.937007 0.590767 0.107007
0.936999 0.590707 0.106999
0.936992 0.590652 0.106992
0.076106 0.595648 0.076106
0.076078 0.595429 0.076078
0.076051 0.595217 0.076051
0.076025 0.595011 0.076025
0.107775 0.596139 0.077325
0.141140 0.597339 0.078694
0.174561 0.598549 0.080066
0.208038 0.599768 0.081441
0.241568 0.600994 0.082819
0.275152 0.602230 0.084200
0.308788 0.603474 0.085583
0.342474 0.604726 0.086970
0.376211 0.605986 0.088360
0.409996 0.607254 0.089752
0.443829 0.608530 0.091147
0.477708 0.609814 0.092545
0.511634 0.611105 0.093945
0.545604 0.612404 0.095348
0.579619 0.613711 0.096754
0.613677 0.615025 0.098162
0.647777 0.616347 0.099572
0.681919 0.617675 0.100985
0.716102 0.619011 0.102400
0.750325 0.620354 0.103818
0.784587 0.621704 0.105237
0.818888 0.623060 0.106660
0.853227 0.624424 0.108084
0.886622 0.625753 0.109469
0.918741 0.627034 0.110802
0.941756 0.627940 0.111756
0.941750 0.627890 0.111750
0.941744 0.627845 0.111744
0.941739 0.627805 0.111739
0.080793 0.632331 0.080793
0.080767 0.632129 0.080767
0.080742 0.631933 0.080742
0.080718 0.631745 0.080718
0.112420 0.632886 0.082019
0.145885 0.634108 0.083394
0.179405 0.635338 0.084772
0.212977 0.636577 0.086152
0.246601 0.637825 0.087536
0.280276 0.639080 0.088923
0.314000 0.640344 0.090313
0.347773 0.641616 0.091705
0.381593 0.642896 0.093100
0.415460 0.644184 0.094498
0.449373 0.645480 0.095898
0.483331 0.646783 0.097301
0.517332 0.648094 0.098707
0.551377 0.649413 0.100115
0.585464 0.650738 0.101525
0.619592 0.652072 0.102938
0.653762 0.653412 0.104354
0.687971 0.654759 0.105771
0.722220 0.656114 0.107191
0.756508 0.657475 0.108613
0.790833 0.658843 0.110038
0.825196 0.660218 0.111464
0.859596 0.661600 0.112893
0.892911 0.662941 0.114277
0.924871 0.664231 0.115605
0.946503 0.665095 0.116503
0.946499 0.665060 0.116499
0.946495 0.665031 0.116495
0.946492 0.665006 0.116492
0.085485 0.669052 0.085485
0.085461 0.668867 0.085461
0.085439 0.668689 0.085439
0.085417 0.668518 0.085417
0.117114 0.669677 0.086719
0.150677 0.670920 0.088100
0.184290 0.672171 0.089484
0.217954 0.673431 0.090871
0.251668 0.674699 0.092261
0.285429 0.675975 0.093653
0.319238 0.677260 0.095048
0.353094 0.678552 0.096446
0.386995 0.679852 0.097847
0.420941 0.681160 0.099250
0.454931 0.682476 0.100656
0.488964 0.683799 0.102064
0.523039 0.685129 0.103474
0.557155 0.686467 0.104888
0.591312 0.687812 0.106303
0.625509 0.689165 0.107721
0.659746 0.690524 0.109141
0.694021 0.691891 0.110563
0.728334 0.693264 0.111988
0.762685 0.694644 0.113415
0.797072 0.696031 0.114844
0.831496 0.697424 0.116275
0.865955 0.698824 0.117708
0.899181 0.700177 0.119090
0.930971 0.701476 0.120413
0.951257 0.702299 0.121257
0.951255 0.702280 0.121255
0.951253 0.702267 0.121253
0.951252 0.702257 0.121252
0.090182 0.705816 0.090182
0.090161 0.705649 0.090161
0.090140 0.705489 0.090140
0.090121 0.705336 0.090121
0.121858 0.706514 0.091427
0.155513 0.707778 0.092814
0.189217 0.709051 0.094204
0.222969 0.710331 0.095597
0.256768 0.711621 0.096992
0.290614 0.712918 0.098390
0.324504 0.714223 0.099791
0.358440 0.715535 0.101194
0.392419 0.716856 0.102600
0.426441 0.718184 0.104009
0.460505 0.719520 0.105420
0.494610 0.720863 0.106833
0.528756 0.722213 0.108249
0.562942 0.723571 0.109667
0.597167 0.724936 0.111087
0.631431 0.726308 0.112509
0.665733 0.727686 0.113934
0.700072 0.729072 0.115361
0.734448 0.730464 0.116791
0.768861 0.731863 0.118222
0.803309 0.733269 0.119656
0.837792 0.734681 0.121091
0.872311 0.736099 0.122529
0.905439 0.737464 0.123909
0.937046 0.738771 0.125226
0.956017 0.739555 0.126017
0.956017 0.739552 0.126017
0.956017 0.739554 0.126017
0.956018 0.739560 0.126018
0.094885 0.742626 0.094885
0.094866 0.742478 0.094866
0.094848 0.742336 0.094848
0.094831 0.742201 0.094831
0.126652 0.743400 0.096143
0.160395 0.744686 0.097536
0.194186 0.745980 0.098932
0.228022 0.747282 0.100330
0.261904 0.748592 0.101731
0.295830 0.749911 0.103135
0.329799 0.751236 0.104541
0.363811 0.752570 0.105950
0.397866 0.753911 0.107361
0.431961 0.755260 0.108775
0.466097 0.756616 0.110191
0.500273 0.757979 0.111609
0.534488 0.759349 0.113029
0.568741 0.760727 0.114452
0.603033 0.762111 0.115878
0.637362 0.763503 0.117305
0.671727 0.764901 0.118735
0.706129 0.766305 0.120166
0.740567 0.767717 0.121600
0.775040 0.769135 0.123036
0.809548 0.770559 0.124474
0.844091 0.771990 0.125914
0.878667 0.773427 0.127356
0.911691 0.774804 0.128734
0.943103 0.776119 0.130045
0.960784 0.776865 0.130784
0.960786 0.776878 0.130786
0.960788 0.776895 0.130788
0.960791 0.776917 0.130791
0.099595 0.779486 0.099595
0.099578 0.779356 0.099578
0.099563 0.779233 0.099563
0.099548 0.779116 0.099548
0.131495 0.780339 0.100867
0.165323 0.781647 0.102266
0.199196 0.782962 0.103667
0.233114 0.784286 0.105072
0.267075 0.785618 0.106478
0.301079 0.786957 0.107887
0.335124 0.788304 0.109299
0.369210 0.789658 0.110713
0.403337 0.791020 0.112129
0.437504 0.792389 0.113548
0.471710 0.793765 0.114969
0.505954 0.795149 0.116392
0.540236 0.796539 0.117818
0.574555 0.797937 0.119246
0.608911 0.799341 0.120676
0.643304 0.800752 0.122108
0.677732 0.802170 0.123542
0.712196 0.803594 0.124978
0.746694 0.805024 0.126417
0.781228 0.806461 0.127857
0.815795 0.807905 0.129300
0.850396 0.809354 0.130744
0.885031 0.810810 0.132191
0.917942 0.812198 0.133566
0.949147 0.813520 0.134871
0.965558 0.814229 0.135558
0.965562 0.814258 0.135562
0.965566 0.814291 0.135566
0.965571 0.814328 0.135571
0.104311 0.816399 0.104311
0.104297 0.816288 0.104297
0.104284 0.816183 0.104284
0.104271 0.816085 0.104271
0.136386 0.817333 0.105600
0.170296 0.818663 0.107005
0.204250 0.820001 0.108412
0.238245 0.821346 0.109821
0.272283 0.822699 0.111233
0.306361 0.824059 0.112648
0.340480 0.825427 0.114064
0.374639 0.826803 0.115484
0.408836 0.828185 0.116905
0.443072 0.829575 0.118329
0.477345 0.830972 0.119755
0.511656 0.832375 0.121183
0.546004 0.833786 0.122614
0.580387 0.835203 0.124046
0.614807 0.836627 0.125481
0.649262 0.838058 0.126918
0.683752 0.839495 0.128357
0.718276 0.840939 0.129798
0.752835 0.842389 0.131241
0.787428 0.843845 0.132686
0.822054 0.845307 0.134133
0.856713 0.846775 0.135582
0.891406 0.848249 0.137033
0.924199 0.849649 0.138405
0.955185 0.850978 0.139702
0.970340 0.851650 0.140340
0.970345 0.851694 0.140345
0.970351 0.851743 0.140351
0.970358 0.851796 0.140358
0.109035 0.853366 0.109035
0.109023 0.853274 0.109023
0.109012 0.853189 0.109012
0.109002 0.853110 0.109002
0.141326 0.854386 0.110342
0.175315 0.855737 0.111752
0.209345 0.857097 0.113164
0.243417 0.858464 0.114579
0.277528 0.859838 0.115997
0.311679 0.861220 0.117416
0.345869 0.862609 0.118838
0.380097 0.864005 0.120263
0.414363 0.865408 0.121689
0.448666 0.866819 0.123118
0.483006 0.868236 0.124549
0.517382 0.869660 0.125982
0.551793 0.871091 0.127418
0.586240 0.872528 0.128855
0.620722 0.873972 0.130294
