library/cube/Midnight_Cinema_004.cube
# CINEGRADE LAB — Premium Cinematic LUT
# Title: Midnight Cinema
# Category: Cinematic Shadows
# Description: Crushed blacks with teal shadows and warm highlights for cinema-inspired images
# Mood: Dramatic, cinematic, bold
# Variant: 5
# Generated: 2026-05-21T16:12:13.514582
TITLE "Midnight Cinema"
LUT_3D_SIZE 5
0.000000 0.000000 0.000000
0.164022 0.006844 0.006844
0.414235 0.017285 0.017285
0.671457 0.028018 0.028018
0.866142 0.036142 0.036142
0.024700 0.193313 0.024700
0.188115 0.197513 0.031196
0.448616 0.206137 0.041790
0.713958 0.215313 0.052628
0.889772 0.221082 0.059772
0.062069 0.485789 0.062069
0.226661 0.490729 0.068700
0.494559 0.500381 0.079691
0.765757 0.510542 0.090865
0.927515 0.516480 0.097515
0.099595 0.779486 0.099595
0.267075 0.785618 0.106478
0.540236 0.796539 0.117818
0.815795 0.807905 0.129300
0.965571 0.814328 0.135571
0.121584 0.951584 0.121584
0.293814 0.958771 0.128771
0.571057 0.970339 0.140339
0.850389 0.981995 0.151995
0.987726 0.987726 0.157726
0.002955 0.002955 0.202784
0.166800 0.009695 0.202718
0.418170 0.020098 0.207030
0.676306 0.030793 0.212299
0.868755 0.038755 0.215458
0.027237 0.195032 0.206925
0.190643 0.199296 0.208783
0.451968 0.208018 0.215338
0.717954 0.217286 0.222652
0.892145 0.223052 0.226650
0.064440 0.487544 0.230830
0.229205 0.492590 0.234557
0.497681 0.502360 0.243072
0.769342 0.512631 0.252134
0.929812 0.518599 0.256919
0.101892 0.781488 0.260108
0.269743 0.787744 0.265304
0.543337 0.798785 0.275219
0.819275 0.810257 0.285487
0.967846 0.816711 0.290645
0.123853 0.953853 0.277309
0.296649 0.961049 0.283496
0.574265 0.972621 0.294164
0.853977 0.984281 0.304982
0.989942 0.989942 0.309820
0.007099 0.007099 0.487135
0.170826 0.013786 0.483615
0.423356 0.024194 0.484892
0.682409 0.034889 0.487457
0.872728 0.042728 0.488094
0.031118 0.198135 0.480960
0.194563 0.202494 0.480510
0.456708 0.211341 0.485063
0.723339 0.220722 0.490614
0.895972 0.226505 0.492978
0.068252 0.490784 0.498112
0.233228 0.495953 0.500355
0.502278 0.505855 0.507586
0.774401 0.516245 0.515515
0.933613 0.522253 0.519226
0.105687 0.785029 0.523044
0.273939 0.791418 0.527280
0.547963 0.802580 0.536330
0.824281 0.814160 0.545798
0.971647 0.820645 0.550133
0.127642 0.957642 0.537273
0.301029 0.964851 0.542709
0.579019 0.976428 0.552624
0.859121 0.988093 0.562672
0.993685 0.993685 0.566622
0.011206 0.011206 0.768968
0.174829 0.017844 0.762255
0.428481 0.028259 0.760739
0.688419 0.038955 0.760820
0.876678 0.046678 0.759144
0.034980 0.201256 0.753287
0.198481 0.205712 0.750727
0.461418 0.214682 0.753456
0.728671 0.224176 0.757404
0.899789 0.229977 0.758277
0.072054 0.494055 0.764278
0.237259 0.499347 0.765175
0.506866 0.509379 0.771239
0.779439 0.519886 0.778135
0.937409 0.525932 0.780856
0.109477 0.788606 0.785253
0.278150 0.795123 0.788606
0.552596 0.806404 0.796847
0.829292 0.818089 0.805556
0.975443 0.824599 0.809089
0.131422 0.961422 0.796689
0.305422 0.968647 0.801390
0.583788 0.980228 0.810552
0.864287 0.991898 0.819812
0.997418 0.997418 0.822835
0.012274 0.012274 0.842274
0.176049 0.019108 0.849108
0.430998 0.029746 0.859746
0.691980 0.040636 0.870636
0.878416 0.048416 0.878416
0.036528 0.202103 0.866528
0.200264 0.206817 0.873100
0.464107 0.216051 0.883891
0.732084 0.225779 0.894894
0.901835 0.231708 0.901835
0.074020 0.495529 0.904020
0.239577 0.501047 0.910757
0.509811 0.511295 0.921906
0.782900 0.521994 0.933216
0.939711 0.528145 0.939711
0.111732 0.790685 0.941732
0.280912 0.797395 0.948748
0.555829 0.808848 0.960217
0.832955 0.820687 0.971815
0.977930 0.827268 0.977930
0.133858 0.963858 0.963858
0.308540 0.971147 0.971147
0.587333 0.982780 0.982780
0.868286 0.994504 0.994504
1.000000 1.000000 1.000000
