library/cube/Midnight_Cinema_004.cube
# CINEGRADE LAB — Premium Cinematic LUT
# Title: Midnight Cinema
# Category: Cinematic Shadows
# Description: Crushed blacks with teal shadows and warm highlights for cinema-inspired images
# Mood: Dramatic, cinematic, bold
# Variant: 5
# Generated: 2026-05-21T16:12:13.514582
TITLE "Midnight Cinema"
LUT_3D_SIZE 9
0.000000 0.000000 0.000000
0.041923 0.001749 0.001749
0.164022 0.006844 0.006844
0.288179 0.012025 0.012025
0.414235 0.017285 0.017285
0.542041 0.022618 0.022618
0.671457 0.028018 0.028018
0.802294 0.033478 0.033478
0.866142 0.036142 0.036142
0.005952 0.046587 0.005952
0.044034 0.046761 0.007367
0.169342 0.050661 0.012433
0.296381 0.054719 0.017580
0.425012 0.058925 0.022805
0.555107 0.063273 0.028101
0.686542 0.067755 0.033462
0.818959 0.072353 0.038873
0.870937 0.073669 0.040937
0.024700 0.193313 0.024700
0.059962 0.193427 0.026004
0.188115 0.197513 0.031196
0.317706 0.201752 0.036460
0.448616 0.206137 0.041790
0.580735 0.210659 0.047181
0.713958 0.215313 0.052628
0.847539 0.220064 0.058101
0.889772 0.221082 0.059772
0.043387 0.339570 0.043387
0.076656 0.339739 0.044625
0.207191 0.344069 0.049934
0.338913 0.348546 0.055305
0.471723 0.353163 0.060733
0.605528 0.357914 0.066214
0.740244 0.362792 0.071744
0.874459 0.367734 0.077264
0.908618 0.368584 0.078618
0.062069 0.485789 0.062069
0.094139 0.486111 0.063282
0.226661 0.490729 0.068700
0.360161 0.495488 0.074171
0.494559 0.500381 0.079691
0.629780 0.505401 0.085257
0.765757 0.510542 0.090865
0.900106 0.515701 0.096416
0.927515 0.516480 0.097515
0.080793 0.632331 0.080793
0.112420 0.632886 0.082019
0.246601 0.637825 0.087536
0.381593 0.642896 0.093100
0.517332 0.648094 0.098707
0.653762 0.653412 0.104354
0.790833 0.658843 0.110038
0.924871 0.664231 0.115605
0.946492 0.665006 0.116492
0.099595 0.779486 0.099595
0.131495 0.780339 0.100867
0.267075 0.785618 0.106478
0.403337 0.791020 0.112129
0.540236 0.796539 0.117818
0.677732 0.802170 0.123542
0.815795 0.807905 0.129300
0.949147 0.813520 0.134871
0.965571 0.814328 0.135571
0.118474 0.927243 0.118474
0.151325 0.928485 0.119829
0.288114 0.934151 0.125532
0.425494 0.939923 0.131269
0.563439 0.945795 0.137039
0.701926 0.951763 0.142841
0.840943 0.957821 0.148674
0.973312 0.963665 0.154237
0.984761 0.964523 0.154761
0.121584 0.951584 0.121584
0.155987 0.953020 0.123020
0.293814 0.958771 0.128771
0.432174 0.964544 0.134544
0.571057 0.970339 0.140339
0.710461 0.976156 0.146156
0.850389 0.981995 0.151995
0.981473 0.987465 0.157465
0.987726 0.987726 0.157726
0.000869 0.000869 0.059620
0.042347 0.002563 0.058744
0.164778 0.007637 0.061383
0.289232 0.012798 0.064240
0.415553 0.018038 0.067305
0.543595 0.023352 0.070565
0.673218 0.028733 0.074013
0.804225 0.034174 0.077635
0.866759 0.036759 0.078513
0.006638 0.046843 0.057274
0.044369 0.047001 0.056517
0.169961 0.050914 0.059560
0.297253 0.054984 0.062804
0.426111 0.059202 0.066238
0.556405 0.063561 0.069853
0.688016 0.068054 0.073640
0.820555 0.072663 0.077578
0.871446 0.073938 0.078217
0.025289 0.193488 0.069233
0.060290 0.193600 0.068768
0.188682 0.197705 0.072322
0.318486 0.201962 0.076052
0.449585 0.206364 0.079948
0.581871 0.210904 0.084002
0.715241 0.215575 0.088206
0.848894 0.220340 0.092521
0.890227 0.221332 0.093078
0.043902 0.339712 0.082424
0.076996 0.339889 0.082250
0.207731 0.344242 0.086259
0.339632 0.348742 0.090421
0.472600 0.353382 0.094727
0.606546 0.358155 0.099169
0.741386 0.363053 0.103739
0.875624 0.368013 0.108371
0.909037 0.368847 0.108877
0.062529 0.485936 0.096748
0.094506 0.486275 0.096860
0.227196 0.490920 0.101270
0.360846 0.495705 0.105810
0.495378 0.500623 0.110474
0.630718 0.505668 0.115254
0.766803 0.510833 0.120142
0.901130 0.516011 0.125030
0.927909 0.516782 0.125498
0.081215 0.632515 0.112096
0.112826 0.633093 0.112486
0.247149 0.638061 0.117243
0.382269 0.643161 0.122111
0.518123 0.648386 0.127082
0.654658 0.653730 0.132150
0.791825 0.659186 0.137307
0.925803 0.664592 0.142390
0.946872 0.665364 0.142817
0.099992 0.779731 0.128353
0.131949 0.780612 0.129008
0.267651 0.785920 0.134061
0.404024 0.791351 0.139204
0.541026 0.796898 0.144432
0.678618 0.802554 0.149738
0.816772 0.808315 0.155117
0.950032 0.813946 0.160337
0.965944 0.814752 0.160699
0.118859 0.927581 0.145363
0.151835 0.928852 0.146275
0.288730 0.934544 0.151575
0.426211 0.940342 0.156947
0.564251 0.946239 0.162386
0.702832 0.952230 0.167885
0.841941 0.958310 0.173441
0.974192 0.964166 0.178740
0.985132 0.965018 0.179001
0.121956 0.951956 0.147117
0.156542 0.953395 0.148232
0.294465 0.959146 0.153688
0.432918 0.964919 0.159190
0.571893 0.970715 0.164735
0.711390 0.976532 0.170317
0.851414 0.982372 0.175934
0.982359 0.987833 0.181180
0.988068 0.988068 0.181205
0.002955 0.002955 0.202784
0.044020 0.004619 0.200953
0.166800 0.009695 0.202718
0.291568 0.014857 0.204748
0.418170 0.020098 0.207030
0.546462 0.025412 0.209550
0.676306 0.030793 0.212299
0.807493 0.036232 0.215262
0.868755 0.038755 0.215458
0.008620 0.048403 0.197413
0.046028 0.048567 0.195868
0.171917 0.052511 0.198192
0.299477 0.056610 0.200758
0.428572 0.060856 0.203553
0.559078 0.065242 0.206565
0.690874 0.069760 0.209785
0.823545 0.074392 0.213189
0.873380 0.075640 0.213277
0.027237 0.195032 0.206925
0.062002 0.195158 0.205816
0.190643 0.199296 0.208783
0.320670 0.203586 0.211961
0.451968 0.208018 0.215338
0.584429 0.212588 0.218905
0.717954 0.217286 0.222652
0.851685 0.222075 0.226535
0.892145 0.223052 0.226650
0.045827 0.341274 0.218119
0.078767 0.341472 0.217425
0.209710 0.345860 0.220960
0.341797 0.350394 0.224677
0.474931 0.355066 0.228566
0.609024 0.359870 0.232618
0.743994 0.364798 0.236822
0.878258 0.369781 0.241107
0.910944 0.370607 0.241257
0.064440 0.487544 0.230830
0.096341 0.487909 0.230526
0.229205 0.492590 0.234557
0.363010 0.497409 0.238742
0.497681 0.502360 0.243072
0.633146 0.507436 0.247539
0.769342 0.512631 0.252134
0.903649 0.517831 0.256740
0.929812 0.518599 0.256919
0.083117 0.634190 0.244887
0.114727 0.634799 0.244946
0.249196 0.639802 0.249400
0.384447 0.644935 0.253982
0.520420 0.650193 0.258684
0.657063 0.655567 0.263498
0.794330 0.661052 0.268416
0.928247 0.666479 0.273265
0.948774 0.667250 0.273447
0.101892 0.781488 0.260108
0.133917 0.782402 0.260499
0.269743 0.787744 0.265304
0.406230 0.793207 0.270214
0.543337 0.798785 0.275219
0.681027 0.804470 0.280312
0.819275 0.810257 0.285487
0.952441 0.815906 0.290500
0.967846 0.816711 0.290645
0.120761 0.929445 0.276277
0.153871 0.930748 0.276971
0.290875 0.936470 0.282062
0.428457 0.942295 0.287233
0.566595 0.948218 0.292476
0.705270 0.954233 0.297785
0.844472 0.960336 0.303153
0.976605 0.966204 0.308257
0.987035 0.967050 0.308306
0.123853 0.953853 0.277309
0.158631 0.955297 0.278232
0.296649 0.961049 0.283496
0.435196 0.966824 0.288808
0.574265 0.972621 0.294164
0.713856 0.978440 0.299557
0.853977 0.984281 0.304982
0.984782 0.989733 0.310023
0.989942 0.989942 0.309820
0.005032 0.005032 0.345283
0.045693 0.006666 0.342532
0.168816 0.011745 0.343457
0.293892 0.016908 0.344691
0.420771 0.022150 0.346220
0.549309 0.027464 0.348031
0.679370 0.032844 0.350109
0.810733 0.038282 0.352439
0.870745 0.040745 0.351981
0.010594 0.049965 0.337000
0.047690 0.050135 0.334698
0.173871 0.054109 0.336333
0.301693 0.058238 0.338247
0.431022 0.062512 0.340429
0.561735 0.066925 0.342865
0.693714 0.071469 0.345542
0.826510 0.076123 0.348435
0.875311 0.077346 0.347995
0.029180 0.196581 0.344163
0.063717 0.196721 0.342436
0.192603 0.200893 0.344841
0.322849 0.205214 0.347491
0.454342 0.209677 0.350373
0.586976 0.214276 0.353475
0.720654 0.219002 0.356784
0.854457 0.223815 0.360256
0.894060 0.224776 0.359947
0.047748 0.342843 0.353445
0.080543 0.343062 0.352252
0.211690 0.347485 0.355335
0.343960 0.352052 0.358628
0.477256 0.356756 0.362119
0.611493 0.361590 0.365798
0.746591 0.366547 0.369653
0.880877 0.371555 0.373607
0.912850 0.372373 0.373416
0.066347 0.489160 0.364615
0.098181 0.489551 0.363914
0.231215 0.494268 0.367582
0.365174 0.499121 0.371428
0.499981 0.504104 0.375441
0.635568 0.509211 0.379609
0.771874 0.514435 0.383923
0.906157 0.519658 0.388260
0.931713 0.520423 0.388160
0.085017 0.635873 0.377439
0.116634 0.636513 0.377182
0.251246 0.641551 0.381345
0.386626 0.646718 0.385654
0.522717 0.652007 0.390099
0.659467 0.657411 0.394670
0.796832 0.662925 0.399357
0.930685 0.668371 0.403980
0.950674 0.669142 0.403927
0.103790 0.783254 0.391670
0.135891 0.784201 0.391808
0.271839 0.789577 0.396376
0.408438 0.795072 0.401060
0.545649 0.800679 0.405850
0.683438 0.806392 0.410738
0.821778 0.812205 0.415713
0.954848 0.817872 0.420525
0.969747 0.818675 0.420456
0.122662 0.931317 0.407031
0.155912 0.932651 0.407515
0.293023 0.938402 0.412403
0.430707 0.944254 0.417378
0.568942 0.950203 0.422430
0.707711 0.956242 0.427551
0.847007 0.962367 0.432733
0.979018 0.968247 0.437642
0.988937 0.969087 0.437479
0.125748 0.955748 0.407360
0.160723 0.957198 0.408095
0.298837 0.962951 0.413169
0.437478 0.968727 0.418293
0.576640 0.974525 0.423460
0.716326 0.980345 0.428663
0.856546 0.986188 0.433895
0.987208 0.991631 0.438728
0.991815 0.991815 0.438293
0.007099 0.007099 0.487135
0.047366 0.008705 0.483498
0.170826 0.013786 0.483615
0.296206 0.018951 0.484085
0.423356 0.024194 0.484892
0.552135 0.029508 0.486021
0.682409 0.034889 0.487457
0.813943 0.040325 0.489180
0.872728 0.042728 0.488094
0.012562 0.051530 0.476051
0.049353 0.051706 0.473022
0.175822 0.055711 0.473995
0.303901 0.059869 0.475286
0.433460 0.064171 0.476881
0.564377 0.068610 0.478765
0.696536 0.073180 0.480924
0.829452 0.077856 0.483327
0.877238 0.079054 0.482383
0.031118 0.198135 0.480960
0.065436 0.198289 0.478642
0.194563 0.202494 0.480510
0.325024 0.206847 0.482655
0.456708 0.211341 0.485063
0.589512 0.215968 0.487721
0.723339 0.220722 0.490614
0.857209 0.225559 0.493693
0.895972 0.226505 0.492978
0.049666 0.344418 0.488412
0.082323 0.344659 0.486744
0.213671 0.349117 0.489395
0.346120 0.353717 0.492283
0.479576 0.358453 0.495396
0.613955 0.363317 0.498719
0.749179 0.368303 0.502241
0.883482 0.373333 0.505878
0.914754 0.374145 0.505361
0.068252 0.490784 0.498112
0.100026 0.491202 0.497032
0.233228 0.495953 0.500355
0.367336 0.500840 0.503877
0.502278 0.505855 0.507586
0.637987 0.510993 0.511469
0.774401 0.516245 0.515515
0.908655 0.521490 0.519594
0.933613 0.522253 0.519226
0.086916 0.637566 0.509759
0.118546 0.638236 0.509201
0.253299 0.643309 0.513087
0.388807 0.648508 0.517135
0.525013 0.653828 0.521334
0.661868 0.659262 0.525672
0.799332 0.664804 0.530137
0.933117 0.670270 0.534541
0.952573 0.671040 0.534258
0.105687 0.785029 0.523044
0.137871 0.786009 0.522940
0.273939 0.791418 0.527280
0.410649 0.796943 0.531747
0.547963 0.802580 0.536330
0.685848 0.808321 0.541017
0.824281 0.814160 0.545798
0.957253 0.819843 0.550414
0.971647 0.820645 0.550133
0.124563 0.933197 0.537629
0.157959 0.934563 0.537910
0.295176 0.940341 0.542601
0.432961 0.946220 0.547384
0.571292 0.952193 0.552248
0.710155 0.958256 0.557183
0.849545 0.964403 0.562180
0.981434 0.970294 0.566895
0.990838 0.971127 0.566519
0.127642 0.957642 0.537273
0.162819 0.959097 0.537822
0.301029 0.964851 0.542709
0.439763 0.970629 0.547646
0.579019 0.976428 0.552624
0.718801 0.982249 0.557636
0.859121 0.988093 0.562672
0.989639 0.993528 0.567293
0.993685 0.993685 0.566622
0.009157 0.009157 0.628358
0.049038 0.010735 0.623868
0.172830 0.015819 0.623209
0.298509 0.020986 0.622945
0.425926 0.026230 0.623060
0.554942 0.031545 0.623535
0.685425 0.036926 0.624356
0.817125 0.042360 0.625499
0.874706 0.044706 0.623811
0.014524 0.053097 0.614581
0.051020 0.053279 0.610854
0.177771 0.057315 0.611194
0.306103 0.061502 0.611889
0.435888 0.065833 0.612922
0.567004 0.070298 0.614278
0.699340 0.074893 0.615941
0.832371 0.079592 0.617878
0.879161 0.080766 0.616451
0.033051 0.199693 0.617331
0.067158 0.199862 0.614446
0.196522 0.204100 0.615801
0.327194 0.208485 0.617464
0.459067 0.213009 0.619421
0.592037 0.217665 0.621654
0.726011 0.222447 0.624150
0.859943 0.227306 0.626855
0.897882 0.228238 0.625752
0.051579 0.346000 0.623033
0.084107 0.346262 0.620911
0.215653 0.350755 0.623151
0.348278 0.355388 0.625653
0.481891 0.360155 0.628404
0.616410 0.365049 0.631389
0.751758 0.370064 0.634594
0.886072 0.375118 0.637929
0.916656 0.375922 0.637099
0.070154 0.492415 0.631330
0.101876 0.492860 0.629889
0.235242 0.497646 0.632883
0.369499 0.502567 0.636097
0.504573 0.507614 0.639517
0.640400 0.512781 0.643128
0.776923 0.518062 0.646917
0.911143 0.523329 0.650749
0.935512 0.524090 0.650124
0.088813 0.639267 0.641855
0.120464 0.639967 0.641011
0.255355 0.645074 0.644632
0.390988 0.650306 0.648431
0.527309 0.655657 0.652393
0.664269 0.661120 0.656507
0.801829 0.666689 0.660758
0.935543 0.672175 0.664951
0.954471 0.672944 0.664445
0.107582 0.786813 0.654237
0.139856 0.787825 0.653901
0.276043 0.793266 0.658022
0.412862 0.798823 0.662280
0.550278 0.804488 0.666661
0.688260 0.810256 0.671154
0.826786 0.816122 0.675745
0.959656 0.821821 0.680166
0.973546 0.822620 0.679677
0.126462 0.935084 0.668074
0.160011 0.936481 0.668159
0.297333 0.942288 0.672658
0.435217 0.948192 0.677253
0.573645 0.954190 0.681932
0.712603 0.960275 0.686684
0.852087 0.966443 0.691497
0.983850 0.972345 0.696016
0.992737 0.973170 0.695425
0.129533 0.959533 0.667049
0.164919 0.960994 0.667416
0.303223 0.966750 0.672116
0.442051 0.972528 0.676866
0.581402 0.978329 0.681655
0.721281 0.984151 0.686474
0.861701 0.989996 0.691312
0.992074 0.995422 0.695717
0.995553 0.995553 0.694803
0.011206 0.011206 0.768968
0.050711 0.012757 0.763660
0.174829 0.017844 0.762255
0.300801 0.023014 0.761288
0.428481 0.028259 0.760739
0.557730 0.033575 0.760589
0.688419 0.038955 0.760820
0.820278 0.044389 0.761409
0.876678 0.046678 0.759144
0.016480 0.054666 0.752605
0.052689 0.054856 0.748210
0.179718 0.058923 0.747943
0.308299 0.063139 0.748067
0.438305 0.067497 0.748564
0.569618 0.071989 0.749417
0.702127 0.076609 0.750607
0.835267 0.081331 0.752099
0.881080 0.082481 0.750209
0.034980 0.201256 0.753287
0.068885 0.201441 0.749861
0.198481 0.205712 0.750727
0.329361 0.210128 0.751930
0.461418 0.214682 0.753456
0.594552 0.219367 0.755286
0.728671 0.224176 0.757404
0.862659 0.229059 0.759751
0.899789 0.229977 0.758277
0.053490 0.347589 0.757319
0.085896 0.347872 0.754765
0.217636 0.352399 0.756612
0.350434 0.357066 0.758747
0.484201 0.361864 0.761154
0.618858 0.366788 0.763817
0.754328 0.371831 0.766719
0.888649 0.376907 0.769767
0.918556 0.377705 0.768638
0.072054 0.494055 0.764278
0.103732 0.494526 0.762494
0.237259 0.499347 0.765175
0.371661 0.504300 0.768095
0.506866 0.509379 0.771239
0.642810 0.514576 0.774591
0.779439 0.519886 0.778135
0.913622 0.525174 0.781730
0.937409 0.525932 0.780856
0.090708 0.640976 0.773735
0.122387 0.641707 0.772617
0.257414 0.646848 0.775986
0.393171 0.652112 0.779546
0.529604 0.657493 0.783282
0.666668 0.662985 0.787181
0.804324 0.668582 0.791226
0.937964 0.674086 0.795214
0.956368 0.674854 0.794490
0.109477 0.788606 0.785253
0.141846 0.789650 0.784695
0.278150 0.795123 0.788606
0.415078 0.800710 0.792661
0.552596 0.806404 0.796847
0.690674 0.812199 0.801150
0.829292 0.818089 0.805556
0.962058 0.823803 0.809786
0.975443 0.824599 0.809089
0.128360 0.936979 0.798370
0.162069 0.938407 0.798265
0.299494 0.944241 0.802576
0.437478 0.950171 0.806987
0.576001 0.956193 0.811483
0.715054 0.962300 0.816053
0.854633 0.968489 0.820682
0.986269 0.974400 0.825004
0.994635 0.975217 0.824196
0.131422 0.961422 0.796689
0.167023 0.962889 0.796876
0.305422 0.968647 0.801390
0.444343 0.974426 0.805953
0.583788 0.980228 0.810552
0.723765 0.986052 0.815175
0.864287 0.991898 0.819812
0.994513 0.997315 0.823996
0.997418 0.997418 0.822835
0.012274 0.012274 0.842274
0.051524 0.013912 0.843912
0.176071 0.019109 0.849109
0.302432 0.024382 0.854382
0.430464 0.029724 0.859724
0.560031 0.035131 0.865131
0.690975 0.040564 0.868441
0.823031 0.046038 0.871320
0.878310 0.048310 0.871133
0.017812 0.055621 0.847812
0.053837 0.055912 0.849166
0.181221 0.060091 0.853936
0.310089 0.064380 0.856463
0.440353 0.068806 0.859199
0.571897 0.073362 0.862130
0.704610 0.078041 0.865247
0.837887 0.082817 0.868514
0.882771 0.083974 0.868213
0.036520 0.202440 0.862494
0.070270 0.202679 0.861232
0.200131 0.207020 0.864122
0.331248 0.211501 0.867200
0.463518 0.216116 0.870452
0.596842 0.220858 0.873867
0.731129 0.225720 0.877433
0.865193 0.230650 0.881095
0.901551 0.231577 0.880775
0.055134 0.348921 0.873214
0.087457 0.349257 0.872323
0.219415 0.353846 0.875707
0.352408 0.358570 0.879244
0.486351 0.363423 0.882924
0.621164 0.368397 0.886735
0.756774 0.373487 0.890667
0.891115 0.378603 0.894626
0.920371 0.379410 0.894273
0.073781 0.495531 0.885236
0.105444 0.496052 0.884672
0.239151 0.500928 0.888459
0.373714 0.505932 0.892369
0.509064 0.511058 0.896390
0.645139 0.516299 0.900512
0.781885 0.521650 0.904726
0.916039 0.526971 0.908888
0.939262 0.527736 0.908469
0.092498 0.642590 0.898324
0.124228 0.643368 0.898041
0.259404 0.648556 0.902145
0.395295 0.653865 0.906340
0.531851 0.659287 0.910617
0.669027 0.664817 0.914967
0.806787 0.670449 0.919381
0.940356 0.675979 0.923651
0.958245 0.676751 0.923119
0.111314 0.790350 0.912239
0.143797 0.791437 0.912189
0.280225 0.796951 0.916522
0.417268 0.802576 0.920917
0.554893 0.808304 0.925367
0.693072 0.814131 0.929863
0.831788 0.820050 0.934396
0.964450 0.825783 0.938684
0.977334 0.826578 0.937974
0.130231 0.938855 0.926718
0.164111 0.940320 0.926852
0.301645 0.946185 0.931332
0.439731 0.952145 0.935848
0.578354 0.958193 0.940391
0.717504 0.964325 0.944953
0.857181 0.970536 0.949528
0.988689 0.976458 0.953744
0.996531 0.977267 0.952775
0.133300 0.963300 0.925545
0.169124 0.964777 0.925761
0.307619 0.970538 0.930249
0.446636 0.976320 0.934738
0.586178 0.982124 0.939224
0.726254 0.987950 0.943698
0.866880 0.993798 0.948156
0.996956 0.999206 0.952127
0.999282 0.999282 0.950714
0.012274 0.012274 0.842274
0.051176 0.013897 0.843897
0.176049 0.019108 0.849108
0.302703 0.024393 0.854393
0.430998 0.029746 0.859746
0.560799 0.035163 0.865163
0.691980 0.040636 0.870636
0.824232 0.046155 0.876155
0.878416 0.048416 0.878416
0.017758 0.055198 0.847758
0.053523 0.055506 0.849105
0.181189 0.059730 0.854296
0.310345 0.064095 0.859560
0.440868 0.068593 0.864889
0.572643 0.073218 0.870280
0.705564 0.077963 0.875728
0.838978 0.082799 0.881205
0.882959 0.083970 0.882959
0.036528 0.202103 0.866528
0.070137 0.202402 0.867795
0.200264 0.206817 0.873100
0.331621 0.211369 0.878467
0.464107 0.216051 0.883891
0.597624 0.220856 0.889368
0.732084 0.225779 0.894894
0.866227 0.230763 0.900416
0.901835 0.231708 0.901835
0.055266 0.348750 0.885266
0.087520 0.349145 0.886494
0.219700 0.353803 0.891904
0.352893 0.358592 0.897368
0.487017 0.363507 0.902880
0.621992 0.368541 0.908439
0.757749 0.373687 0.914040
0.892114 0.378852 0.919592
0.920741 0.379679 0.920741
0.074020 0.495529 0.904020
0.105684 0.496109 0.905250
0.239577 0.501047 0.910757
0.374308 0.506112 0.916310
0.509811 0.511295 0.921906
0.646026 0.516591 0.927543
0.782900 0.521994 0.933216
0.917032 0.527359 0.938784
0.939711 0.528145 0.939711
0.092831 0.642758 0.922831
0.124630 0.643592 0.924097
0.259963 0.648839 0.929695
0.395998 0.654203 0.935333
0.532687 0.659678 0.941009
0.669988 0.665258 0.946720
0.807865 0.670939 0.952464
0.941375 0.676508 0.958035
0.958769 0.677300 0.958769
0.111732 0.790685 0.941732
0.144347 0.791827 0.943066
0.280912 0.797395 0.948748
0.418083 0.803070 0.954466
0.555829 0.808848 0.960217
0.694125 0.814722 0.966001
0.832955 0.820687 0.971815
0.965529 0.826455 0.977376
0.977930 0.827268 0.977930
0.130729 0.939365 0.960729
0.164802 0.940882 0.962162
0.302459 0.946796 0.967927
0.440664 0.952801 0.973723
0.579404 0.958893 0.979550
0.718671 0.965068 0.985406
0.858466 0.971320 0.991291
0.989864 0.977273 0.996832
0.997201 0.978095 0.997201
0.133858 0.963858 0.963858
0.169929 0.965363 0.965363
0.308540 0.971147 0.971147
0.447674 0.976953 0.976953
0.587333 0.982780 0.982780
0.727532 0.988631 0.988631
0.868286 0.994504 0.994504
0.998236 0.999926 0.999926
1.000000 1.000000 1.000000
