library/cube/Midsommar_Haze_002.cube
# CINEGRADE LAB — Premium Cinematic LUT
# Title: Midsommar Haze
# Category: A24 Inspired
# Description: Artistic, unconventional, mood-driven looks inspired by A24 films
# Mood: Arthouse, unconventional, evocative
# Variant: 3
# Generated: 2026-05-21T16:12:45.586841
TITLE "Midsommar Haze"
LUT_3D_SIZE 5
0.000000 0.000000 0.000000
0.150525 0.011362 0.011582
0.359075 0.026999 0.027458
0.576766 0.043208 0.043846
0.753668 0.056267 0.056975
0.039620 0.194017 0.041167
0.193988 0.206082 0.052834
0.407293 0.222423 0.068802
0.629449 0.239295 0.085273
0.809545 0.252943 0.098465
0.091086 0.440042 0.092801
0.248789 0.452703 0.104533
0.466199 0.469626 0.120569
0.692209 0.487035 0.137099
0.873128 0.501146 0.150331
0.145974 0.696439 0.146132
0.306516 0.709449 0.157897
0.527416 0.726704 0.173966
0.756690 0.744399 0.190519
0.933883 0.758732 0.203757
0.195878 0.923237 0.192916
0.358796 0.935924 0.204680
0.582610 0.952283 0.220743
0.814594 0.968722 0.237280
0.982123 0.981642 0.250490
0.003914 0.004064 0.159507
0.154855 0.015454 0.171290
0.363920 0.031122 0.187357
0.582095 0.047361 0.203925
0.759342 0.060444 0.217222
0.043735 0.198326 0.201306
0.198459 0.210406 0.213136
0.412203 0.226763 0.229256
0.634772 0.243651 0.245869
0.815162 0.257309 0.259189
0.095393 0.444561 0.253446
0.253398 0.457220 0.265302
0.471182 0.474144 0.281451
0.697542 0.491551 0.298082
0.878362 0.505658 0.311404
0.150446 0.701083 0.307150
0.311245 0.714076 0.319000
0.532460 0.731316 0.335143
0.762029 0.748994 0.351758
0.938593 0.763306 0.365047
0.200481 0.927882 0.354175
0.363615 0.940333 0.365985
0.587693 0.956579 0.382083
0.819922 0.972891 0.398643
0.986119 0.985679 0.411865
0.008623 0.008939 0.350580
0.159979 0.020360 0.362595
0.369556 0.036061 0.378882
0.588212 0.052332 0.395656
0.765805 0.065441 0.409144
0.048661 0.203451 0.393106
0.203739 0.215547 0.405121
0.417920 0.231922 0.421415
0.640900 0.248826 0.438188
0.821494 0.262496 0.451654
0.100524 0.449896 0.445820
0.258831 0.462555 0.457816
0.476986 0.479481 0.474092
0.703693 0.496888 0.490837
0.884345 0.510990 0.504258
0.155752 0.706544 0.499943
0.316807 0.719522 0.511887
0.538335 0.736747 0.528110
0.768197 0.754409 0.544792
0.944011 0.768702 0.558134
0.205927 0.933146 0.547230
0.369276 0.945496 0.559087
0.593617 0.961618 0.575220
0.826088 0.977791 0.591800
0.990771 0.990437 0.605029
0.013565 0.014042 0.550284
0.165332 0.025494 0.562532
0.375414 0.041228 0.579040
0.594545 0.057531 0.596021
0.772480 0.070666 0.609699
0.053822 0.208801 0.593538
0.209250 0.220913 0.605739
0.423862 0.237306 0.622205
0.647247 0.254226 0.639136
0.828003 0.267908 0.652744
0.105891 0.455453 0.646822
0.264495 0.468112 0.658955
0.483017 0.485039 0.675355
0.710067 0.502445 0.692209
0.890494 0.516544 0.705724
0.161296 0.712222 0.701352
0.322602 0.725184 0.713385
0.544440 0.742394 0.729683
0.774590 0.760040 0.746426
0.949566 0.774313 0.759814
0.211610 0.938587 0.748882
0.375171 0.950831 0.760780
0.599771 0.966823 0.776939
0.832443 0.982850 0.793533
0.995530 0.995348 0.806759
0.018327 0.018943 0.741752
0.170495 0.030424 0.754214
0.381074 0.046190 0.770923
0.600670 0.062523 0.788092
0.778940 0.075683 0.801943
0.058793 0.213941 0.785672
0.214565 0.226068 0.798040
0.429600 0.242478 0.814662
0.653382 0.259413 0.831734
0.834274 0.273105 0.845470
0.111060 0.460793 0.839469
0.269957 0.473450 0.851724
0.488837 0.490377 0.868232
0.716224 0.507782 0.885182
0.896384 0.521876 0.898778
0.166635 0.717676 0.894356
0.328189 0.730622 0.906465
0.550330 0.747816 0.922826
0.780761 0.765444 0.939617
0.954845 0.779697 0.953040
0.217085 0.943780 0.942087
0.380853 0.955914 0.954015
0.605705 0.971774 0.970190
0.837972 0.987653 0.986785
1.000000 1.000000 1.000000
