library/cube/Midsommar_Haze_002.cube
# CINEGRADE LAB — Premium Cinematic LUT
# Title: Midsommar Haze
# Category: A24 Inspired
# Description: Artistic, unconventional, mood-driven looks inspired by A24 films
# Mood: Arthouse, unconventional, evocative
# Variant: 3
# Generated: 2026-05-21T16:12:45.586841
TITLE "Midsommar Haze"
LUT_3D_SIZE 33
0.000000 0.000000 0.000000
0.000000 0.000000 0.000000
0.005828 0.000441 0.000451
0.028304 0.002142 0.002187
0.051837 0.003921 0.004001
0.075954 0.005742 0.005858
0.100492 0.007593 0.007744
0.125367 0.009468 0.009654
0.150525 0.011362 0.011582
0.175930 0.013273 0.013526
0.201557 0.015199 0.015484
0.227386 0.017139 0.017454
0.253399 0.019090 0.019436
0.279584 0.021052 0.021428
0.305931 0.023025 0.023429
0.332431 0.025008 0.025439
0.359075 0.026999 0.027458
0.385857 0.028999 0.029483
0.412771 0.031007 0.031516
0.439811 0.033023 0.033556
0.466974 0.035047 0.035602
0.494254 0.037077 0.037655
0.521649 0.039114 0.039713
0.549154 0.041158 0.041777
0.576766 0.043208 0.043846
0.604483 0.045264 0.045920
0.632301 0.047326 0.047999
0.660218 0.049394 0.050083
0.688232 0.051468 0.052172
0.716340 0.053547 0.054265
0.744541 0.055631 0.056362
0.753055 0.056244 0.056968
0.753668 0.056267 0.056975
0.000000 0.000000 0.000000
0.000001 0.000000 0.000000
0.005849 0.000442 0.000451
0.028398 0.002146 0.002188
0.052007 0.003927 0.004003
0.076200 0.005751 0.005861
0.100816 0.007605 0.007748
0.125767 0.009483 0.009659
0.151002 0.011380 0.011588
0.176485 0.013294 0.013533
0.202188 0.015223 0.015492
0.228092 0.017165 0.017463
0.254181 0.019119 0.019446
0.280441 0.021084 0.021438
0.306863 0.023060 0.023441
0.333436 0.025045 0.025452
0.360153 0.027039 0.027471
0.387008 0.029042 0.029497
0.413994 0.031053 0.031531
0.441106 0.033071 0.033572
0.468340 0.035097 0.035619
0.495690 0.037130 0.037672
0.523154 0.039170 0.039731
0.550728 0.041217 0.041796
0.578409 0.043269 0.043866
0.606193 0.045328 0.045941
0.634078 0.047393 0.048021
0.662061 0.049463 0.050105
0.690141 0.051539 0.052195
0.718314 0.053621 0.054288
0.746580 0.055707 0.056387
0.755104 0.056321 0.056992
0.755706 0.056343 0.056999
0.004503 0.022294 0.004756
0.004508 0.022304 0.004756
0.010380 0.022756 0.005208
0.033005 0.024472 0.006947
0.056693 0.026266 0.008764
0.080966 0.028102 0.010623
0.105661 0.029968 0.012512
0.130693 0.031858 0.014424
0.156007 0.033767 0.016355
0.181569 0.035692 0.018301
0.207352 0.037633 0.020262
0.233334 0.039587 0.022235
0.259501 0.041553 0.024219
0.285839 0.043529 0.026213
0.312337 0.045517 0.028217
0.338987 0.047513 0.030230
0.365780 0.049519 0.032250
0.392710 0.051533 0.034278
0.419771 0.053555 0.036314
0.446957 0.055585 0.038356
0.474264 0.057622 0.040404
0.501687 0.059666 0.042459
0.529223 0.061717 0.044519
0.556869 0.063774 0.046585
0.584620 0.065838 0.048656
0.612474 0.067907 0.050733
0.640429 0.069982 0.052814
0.668481 0.072063 0.054900
0.696629 0.074150 0.056991
0.724869 0.076241 0.059086
0.753201 0.078338 0.061185
0.761740 0.078960 0.061791
0.762335 0.078991 0.061799
0.010002 0.049426 0.010533
0.010013 0.049447 0.010535
0.015908 0.049911 0.010988
0.038609 0.051641 0.012728
0.062375 0.053448 0.014547
0.086727 0.055298 0.016408
0.111501 0.057178 0.018299
0.136612 0.059081 0.020212
0.162006 0.061003 0.022145
0.187646 0.062942 0.024093
0.213507 0.064896 0.026055
0.239567 0.066863 0.028030
0.265812 0.068842 0.030016
0.292226 0.070832 0.032012
0.318801 0.072832 0.034017
0.345527 0.074842 0.036031
0.372395 0.076860 0.038053
0.399400 0.078887 0.040083
0.426534 0.080922 0.042120
0.453794 0.082964 0.044163
0.481174 0.085014 0.046213
0.508669 0.087070 0.048270
0.536277 0.089133 0.050331
0.563993 0.091202 0.052399
0.591814 0.093278 0.054471
0.619738 0.095359 0.056549
0.647761 0.097447 0.058632
0.675881 0.099539 0.060719
0.704097 0.101637 0.062811
0.732404 0.103741 0.064908
0.760802 0.105849 0.067008
0.769355 0.106481 0.067615
0.769944 0.106520 0.067623
0.015692 0.077402 0.016481
0.015709 0.077434 0.016483
0.021628 0.077910 0.016937
0.044403 0.079653 0.018679
0.068246 0.081474 0.020499
0.092675 0.083338 0.022362
0.117527 0.085231 0.024255
0.142716 0.087147 0.026170
0.168187 0.089083 0.028104
0.193905 0.091035 0.030054
0.219842 0.093002 0.032017
0.245979 0.094982 0.033994
0.272299 0.096974 0.035981
0.298790 0.098977 0.037979
0.325440 0.100990 0.039986
0.352240 0.103012 0.042001
0.379182 0.105043 0.044025
0.406260 0.107082 0.046056
0.433467 0.109129 0.048095
0.460799 0.111184 0.050140
0.488250 0.113245 0.052191
0.515816 0.115314 0.054249
0.543494 0.117389 0.056312
0.571279 0.119470 0.058381
0.599169 0.121558 0.060455
0.627161 0.123651 0.062534
0.655252 0.125749 0.064618
0.683440 0.127854 0.066707
0.711721 0.129963 0.068800
0.740094 0.132078 0.070898
0.768557 0.134197 0.073000
0.777124 0.134838 0.073607
0.777708 0.134887 0.073615
0.021520 0.105952 0.022539
0.021542 0.105996 0.022543
0.027485 0.106484 0.022998
0.050333 0.108240 0.024741
0.074251 0.110074 0.026563
0.098757 0.111950 0.028428
0.123685 0.113856 0.030322
0.148949 0.115786 0.032239
0.174497 0.117735 0.034174
0.200290 0.119700 0.036126
0.226303 0.121680 0.038091
0.252515 0.123672 0.040069
0.278910 0.125677 0.042058
0.305475 0.127692 0.044057
0.332198 0.129717 0.046065
0.359071 0.131752 0.048083
0.386086 0.133795 0.050108
0.413235 0.135846 0.052140
0.440514 0.137905 0.054180
0.467916 0.139972 0.056227
0.495437 0.142045 0.058280
0.523073 0.144126 0.060338
0.550820 0.146212 0.062403
0.578674 0.148305 0.064473
0.606631 0.150404 0.066549
0.634690 0.152508 0.068629
0.662848 0.154618 0.070715
0.691101 0.156734 0.072805
0.719447 0.158854 0.074899
0.747885 0.160980 0.076998
0.776411 0.163110 0.079101
0.784993 0.163761 0.079709
0.785571 0.163817 0.079718
0.027460 0.134951 0.028683
0.027488 0.135006 0.028687
0.033453 0.135505 0.029143
0.056373 0.137273 0.030888
0.080365 0.139120 0.032712
0.104945 0.141009 0.034578
0.129948 0.142928 0.036473
0.155287 0.144870 0.038392
0.180909 0.146831 0.040329
0.206777 0.148809 0.042282
0.232864 0.150801 0.044249
0.259150 0.152806 0.046228
0.285618 0.154823 0.048219
0.312255 0.156850 0.050219
0.339051 0.158887 0.052229
0.365995 0.160933 0.054248
0.393081 0.162988 0.056274
0.420301 0.165052 0.058309
0.447650 0.167122 0.060350
0.475122 0.169200 0.062398
0.502712 0.171285 0.064452
0.530416 0.173377 0.066512
0.558230 0.175475 0.068578
0.586150 0.177579 0.070649
0.614175 0.179689 0.072726
0.642299 0.181804 0.074808
0.670521 0.183925 0.076894
0.698839 0.186051 0.078986
0.727249 0.188183 0.081081
0.755750 0.190319 0.083181
0.784339 0.192460 0.085286
0.792934 0.193119 0.085894
0.793507 0.193184 0.085903
0.033497 0.164323 0.034896
0.033530 0.164387 0.034901
0.039518 0.164897 0.035357
0.062508 0.166678 0.037104
0.086572 0.168538 0.038929
0.111226 0.170439 0.040797
0.136302 0.172370 0.042694
0.161715 0.174324 0.044614
0.187410 0.176297 0.046552
0.213351 0.178287 0.048507
0.239511 0.180291 0.050475
0.265868 0.182308 0.052456
0.292408 0.184336 0.054448
0.319117 0.186375 0.056450
0.345983 0.188424 0.058461
0.372998 0.190482 0.060481
0.400154 0.192548 0.062509
0.427443 0.194623 0.064545
0.454860 0.196705 0.066587
0.482400 0.198794 0.068636
0.510057 0.200890 0.070692
0.537828 0.202992 0.072753
0.565708 0.205101 0.074821
0.593695 0.207216 0.076893
0.621784 0.209336 0.078971
0.649973 0.211462 0.081054
0.678259 0.213593 0.083142
0.706639 0.215730 0.085234
0.735112 0.217872 0.087331
0.763675 0.220018 0.089432
0.792326 0.222169 0.091538
0.800934 0.222836 0.092147
0.801501 0.222909 0.092156
0.039620 0.194017 0.041167
0.039659 0.194091 0.041172
0.045669 0.194611 0.041630
0.068728 0.196404 0.043378
0.092863 0.198275 0.045205
0.117588 0.200189 0.047074
0.142737 0.202131 0.048972
0.168221 0.204097 0.050894
0.193988 0.206082 0.052834
0.220001 0.208084 0.054790
0.246232 0.210099 0.056760
0.272660 0.212127 0.058742
0.299270 0.214167 0.060735
0.326049 0.216217 0.062738
0.352985 0.218277 0.064751
0.380069 0.220346 0.066772
0.407293 0.222423 0.068802
0.434650 0.224508 0.070838
0.462134 0.226601 0.072882
0.489741 0.228701 0.074932
0.517464 0.230807 0.076989
0.545300 0.232920 0.079052
0.573246 0.235039 0.081120
0.601296 0.237164 0.083194
0.629449 0.239295 0.085273
0.657701 0.241431 0.087357
0.686050 0.243573 0.089446
0.714493 0.245719 0.091539
0.743027 0.247870 0.093637
0.771650 0.250026 0.095740
0.800361 0.252187 0.097846
0.808983 0.252863 0.098456
0.809545 0.252943 0.098465
0.045823 0.223996 0.047489
0.045867 0.224080 0.047495
0.051899 0.224610 0.047954
0.075025 0.226414 0.049703
0.099230 0.228297 0.051531
0.124025 0.230222 0.053402
0.149244 0.232176 0.055302
0.174800 0.234153 0.057224
0.200637 0.236149 0.059166
0.226720 0.238162 0.061123
0.253020 0.240188 0.063094
0.279518 0.242227 0.065078
0.306198 0.244278 0.067072
0.333045 0.246338 0.069077
0.360049 0.248409 0.071091
0.387200 0.250488 0.073113
0.414491 0.252576 0.075144
0.441915 0.254672 0.077182
0.469465 0.256775 0.079227
0.497137 0.258885 0.081278
0.524925 0.261002 0.083336
0.552826 0.263125 0.085400
0.580835 0.265254 0.087469
0.608949 0.267388 0.089544
0.637164 0.269529 0.091624
0.665478 0.271675 0.093710
0.693888 0.273825 0.095799
0.722391 0.275981 0.097894
0.750985 0.278142 0.099993
0.779668 0.280307 0.102096
0.808438 0.282477 0.104203
0.817056 0.283160 0.104813
0.817605 0.283247 0.104823
0.052099 0.254233 0.053856
0.052148 0.254326 0.053863
0.058201 0.254866 0.054322
0.081394 0.256681 0.056073
0.105667 0.258575 0.057902
0.130532 0.260510 0.059774
0.155820 0.262475 0.061675
0.181444 0.264463 0.063599
0.207351 0.266470 0.065542
0.233502 0.268493 0.067501
0.259871 0.270530 0.069473
0.286437 0.272580 0.071458
0.313184 0.274640 0.073454
0.340098 0.276712 0.075460
0.367169 0.278792 0.077475
0.394387 0.280882 0.079498
0.421744 0.282980 0.081530
0.449233 0.285085 0.083569
0.476848 0.287198 0.085615
0.504584 0.289318 0.087668
0.532435 0.291444 0.089727
0.560399 0.293577 0.091792
0.588470 0.295715 0.093862
0.616646 0.297859 0.095938
0.644923 0.300009 0.098019
0.673297 0.302164 0.100105
0.701767 0.304324 0.102196
0.730330 0.306489 0.104292
0.758983 0.308658 0.106392
0.787725 0.310832 0.108496
0.816545 0.313011 0.110604
0.825047 0.313701 0.111214
0.825585 0.313795 0.111224
0.058444 0.284705 0.060264
0.058498 0.284807 0.060271
0.064572 0.285356 0.060731
0.087830 0.287182 0.062483
0.112170 0.289086 0.064314
0.137102 0.291032 0.066187
0.162458 0.293007 0.068089
0.188150 0.295005 0.070015
0.214125 0.297022 0.071959
0.240343 0.299056 0.073918
0.266780 0.301103 0.075892
0.293413 0.303162 0.077878
0.320226 0.305233 0.079875
0.347206 0.307314 0.081882
0.374342 0.309404 0.083898
0.401625 0.311503 0.085923
0.429046 0.313611 0.087956
0.456599 0.315726 0.089996
0.484277 0.317848 0.092043
0.512076 0.319977 0.094097
0.539990 0.322112 0.096157
0.568016 0.324254 0.098223
0.596148 0.326401 0.100294
0.624384 0.328555 0.102371
0.652721 0.330713 0.104453
0.681155 0.332877 0.106540
0.709684 0.335045 0.108632
0.738305 0.337219 0.110728
0.767016 0.339396 0.112829
0.795814 0.341579 0.114934
0.824546 0.343766 0.117043
0.833034 0.344463 0.117654
0.833561 0.344562 0.117664
0.064854 0.315395 0.066708
0.064914 0.315505 0.066716
0.071008 0.316062 0.067177
0.094330 0.317898 0.068930
0.118735 0.319812 0.070762
0.143733 0.321768 0.072636
0.169156 0.323753 0.074540
0.194915 0.325761 0.076466
0.220955 0.327788 0.078412
0.247240 0.329831 0.080373
0.273742 0.331887 0.082347
0.300441 0.333956 0.084334
0.327319 0.336037 0.086332
0.354364 0.338127 0.088341
0.381564 0.340227 0.090358
0.408910 0.342335 0.092384
0.436394 0.344451 0.094418
0.464010 0.346575 0.096459
0.491751 0.348706 0.098507
0.519611 0.350844 0.100562
0.547586 0.352988 0.102623
0.575672 0.355138 0.104689
0.603865 0.357294 0.106762
0.632160 0.359456 0.108840
0.660556 0.361623 0.110923
0.689048 0.363794 0.113011
0.717635 0.365971 0.115103
0.746313 0.368152 0.117200
0.775080 0.370338 0.119302
0.803935 0.372529 0.121408
0.832537 0.374723 0.123517
0.841011 0.375427 0.124128
0.841525 0.375532 0.124139
0.071325 0.346285 0.073187
0.071391 0.346403 0.073195
0.077505 0.346969 0.073656
0.100889 0.348814 0.075411
0.125359 0.350738 0.077244
0.150422 0.352703 0.079119
0.175910 0.354698 0.081024
0.201734 0.356715 0.082952
0.227839 0.358751 0.084898
0.254189 0.360803 0.086860
0.280756 0.362869 0.088836
0.307518 0.364947 0.090824
0.334460 0.367036 0.092823
0.361568 0.369135 0.094832
0.388831 0.371244 0.096851
0.416240 0.373361 0.098877
0.443786 0.375486 0.100912
0.471463 0.377618 0.102954
0.499265 0.379758 0.105003
0.527186 0.381904 0.107059
0.555221 0.384056 0.109121
0.583366 0.386214 0.111189
0.611617 0.388378 0.113262
0.639971 0.390548 0.115341
0.668424 0.392722 0.117424
0.696974 0.394902 0.119513
0.725617 0.397086 0.121606
0.754351 0.399275 0.123704
0.783174 0.401468 0.125807
0.812083 0.403666 0.127913
0.840513 0.405868 0.130023
0.848969 0.406577 0.130635
0.849470 0.406688 0.130645
0.077856 0.377365 0.079696
0.077926 0.377490 0.079705
0.084060 0.378063 0.080167
0.107506 0.379917 0.081923
0.132039 0.381850 0.083757
0.157166 0.383825 0.085633
0.182717 0.385828 0.087539
0.208605 0.387854 0.089468
0.234775 0.389899 0.091415
0.261188 0.391960 0.093378
0.287818 0.394034 0.095355
0.314643 0.396121 0.097344
0.341648 0.398218 0.099344
0.368818 0.400326 0.101354
0.396142 0.402442 0.103374
0.423612 0.404568 0.105401
0.451219 0.406701 0.107437
0.478956 0.408841 0.109480
0.506818 0.410988 0.111530
0.534797 0.413142 0.113587
0.562891 0.415302 0.115649
0.591094 0.417468 0.117718
0.619403 0.419640 0.119792
0.647814 0.421816 0.121871
0.676324 0.423998 0.123956
0.704929 0.426185 0.126045
0.733628 0.428377 0.128139
0.762417 0.430573 0.130238
0.791294 0.432773 0.132341
0.820189 0.434977 0.134448
0.848468 0.437186 0.136559
0.856903 0.437901 0.137170
0.857390 0.438016 0.137181
0.084444 0.408620 0.086235
0.084519 0.408752 0.086244
0.090672 0.409333 0.086707
0.114178 0.411196 0.088463
0.138773 0.413137 0.090299
0.163962 0.415120 0.092176
0.189576 0.417132 0.094083
0.215526 0.419167 0.096013
0.241758 0.421220 0.097961
0.268234 0.423289 0.099925
0.294926 0.425371 0.101903
0.321813 0.427466 0.103893
0.348878 0.429571 0.105894
0.376109 0.431686 0.107905
0.403494 0.433811 0.109925
0.431024 0.435944 0.111954
0.458691 0.438084 0.113990
0.486487 0.440232 0.116034
0.514406 0.442387 0.118085
0.542444 0.444548 0.120142
0.570595 0.446715 0.122205
0.598856 0.448888 0.124275
0.627221 0.451067 0.126349
0.655688 0.453251 0.128429
0.684253 0.455439 0.130515
0.712913 0.457633 0.132605
0.741665 0.459831 0.134699
0.770508 0.462034 0.136799
0.799438 0.464240 0.138902
0.828158 0.466451 0.141010
0.856395 0.468666 0.143121
0.864806 0.469386 0.143733
0.865278 0.469506 0.143743
0.091086 0.440042 0.092801
0.091165 0.440180 0.092811
0.097338 0.440768 0.093274
0.120902 0.442639 0.095031
0.145558 0.444588 0.096868
0.170808 0.446579 0.098746
0.196484 0.448599 0.100654
0.222495 0.450642 0.102584
0.248789 0.452703 0.104533
0.275325 0.454779 0.106498
0.302078 0.456869 0.108477
0.329025 0.458971 0.110468
0.356151 0.461084 0.112470
0.383441 0.463207 0.114482
0.410886 0.465339 0.116503
0.438474 0.467479 0.118532
0.466199 0.469626 0.120569
0.494053 0.471781 0.122614
0.522030 0.473943 0.124665
0.550124 0.476111 0.126723
0.578332 0.478285 0.128787
0.606648 0.480465 0.130857
0.635068 0.482650 0.132933
0.663590 0.484840 0.135013
0.692209 0.487035 0.137099
0.720923 0.489235 0.139190
0.749729 0.491439 0.141285
0.778624 0.493648 0.143385
0.807606 0.495861 0.145489
0.836100 0.498077 0.147597
0.864287 0.500298 0.149709
0.872673 0.501022 0.150321
0.873128 0.501146 0.150331
0.097780 0.471621 0.099393
0.097865 0.471765 0.099402
0.104055 0.472359 0.099866
0.127677 0.474238 0.101624
0.152392 0.476195 0.103462
0.177703 0.478193 0.105341
0.203438 0.480221 0.107249
0.229510 0.482271 0.109181
0.255864 0.484339 0.111131
0.282460 0.486423 0.113097
0.309272 0.488520 0.115076
0.336279 0.490629 0.117068
0.363463 0.492749 0.119070
0.390812 0.494878 0.121083
0.418314 0.497017 0.123105
0.445960 0.499164 0.125135
0.473742 0.501318 0.127173
0.501653 0.503479 0.129218
0.529686 0.505647 0.131270
0.557836 0.507822 0.133329
0.586099 0.510002 0.135393
0.614469 0.512188 0.137464
0.642944 0.514379 0.139540
0.671519 0.516575 0.141621
0.700191 0.518776 0.143707
0.728957 0.520982 0.145798
0.757815 0.523192 0.147894
0.786762 0.525406 0.149994
0.815795 0.527624 0.152099
0.844011 0.529846 0.154207
0.872140 0.532072 0.156320
0.880496 0.532801 0.156932
0.880936 0.532928 0.156942
0.104525 0.503349 0.106008
0.104614 0.503499 0.106018
0.110823 0.504099 0.106482
0.134502 0.505984 0.108241
0.159275 0.507948 0.110079
0.184644 0.509954 0.111959
0.210439 0.511988 0.113869
0.236570 0.514045 0.115801
0.262982 0.516120 0.117752
0.289637 0.518210 0.119718
0.316507 0.520314 0.121698
0.343572 0.522430 0.123691
0.370814 0.524556 0.125694
0.398220 0.526692 0.127707
0.425779 0.528837 0.129730
0.453481 0.530990 0.131760
0.481319 0.533150 0.133799
0.509285 0.535317 0.135845
0.537373 0.537491 0.137897
0.565578 0.539672 0.139957
0.593894 0.541858 0.142022
0.622318 0.544049 0.144093
0.650846 0.546246 0.146169
0.679473 0.548447 0.148251
0.708198 0.550654 0.150338
0.737016 0.552865 0.152429
0.765924 0.555080 0.154526
0.794922 0.557299 0.156626
0.823836 0.559523 0.158731
0.851884 0.561750 0.160840
0.879947 0.563980 0.162953
0.888272 0.564713 0.163565
0.888693 0.564843 0.163575
0.111319 0.535217 0.112646
0.111413 0.535372 0.112656
0.117639 0.535978 0.113121
0.141373 0.537870 0.114880
0.166204 0.539840 0.116719
0.191630 0.541852 0.118600
0.217483 0.543893 0.120510
0.243672 0.545956 0.122443
0.270141 0.548038 0.124394
0.296854 0.550134 0.126361
0.323781 0.552244 0.128342
0.350903 0.554366 0.130335
0.378201 0.556498 0.132339
0.405663 0.558640 0.134353
0.433278 0.560791 0.136376
0.461036 0.562949 0.138407
0.488928 0.565115 0.140447
0.516948 0.567288 0.142493
0.545090 0.569468 0.144546
0.573348 0.571653 0.146606
0.601718 0.573844 0.148671
0.630194 0.576041 0.150743
0.658774 0.578243 0.152820
0.687453 0.580449 0.154902
0.716228 0.582661 0.156989
0.745096 0.584876 0.159081
0.774055 0.587096 0.161178
0.803101 0.589320 0.163279
0.831735 0.591548 0.165384
0.859713 0.593780 0.167493
0.887703 0.596015 0.169606
0.895992 0.596750 0.170218
0.896396 0.596884 0.170228
0.118160 0.567219 0.119305
0.118258 0.567379 0.119315
0.124503 0.567990 0.119780
0.148291 0.569888 0.121540
0.173177 0.571865 0.123380
0.198660 0.573883 0.125261
0.224569 0.575929 0.127172
0.250815 0.577998 0.129106
0.277341 0.580085 0.131058
0.304110 0.582188 0.133026
0.331093 0.584303 0.135007
0.358270 0.586431 0.137001
0.385624 0.588568 0.139005
0.413141 0.590716 0.141020
0.440810 0.592872 0.143043
0.468622 0.595035 0.145075
0.496568 0.597206 0.147114
0.524642 0.599384 0.149161
0.552836 0.601569 0.151215
0.581147 0.603759 0.153275
0.609568 0.605955 0.155341
0.638095 0.608156 0.157413
0.666726 0.610363 0.159490
0.695455 0.612574 0.161573
0.724280 0.614790 0.163660
0.753197 0.617010 0.165753
0.782205 0.619234 0.167849
0.811300 0.621462 0.169950
0.839592 0.623694 0.172056
0.867493 0.625929 0.174165
0.895402 0.628168 0.176279
0.903653 0.628906 0.176890
0.904037 0.629042 0.176900
0.125048 0.599349 0.125984
0.125150 0.599513 0.125995
0.131412 0.600128 0.126460
0.155253 0.602032 0.128221
0.180194 0.604014 0.130061
0.205733 0.606037 0.131943
0.231697 0.608090 0.133854
0.257998 0.610164 0.135788
0.284579 0.612256 0.137741
0.311403 0.614364 0.139709
0.338442 0.616485 0.141691
0.365673 0.618617 0.143685
0.393081 0.620760 0.145690
0.420652 0.622912 0.147705
0.448375 0.625073 0.149729
0.476239 0.627241 0.151761
0.504238 0.629417 0.153801
0.532364 0.631599 0.155849
0.560610 0.633788 0.157903
0.588971 0.635983 0.159963
0.617443 0.638183 0.162029
0.646021 0.640389 0.164102
0.674701 0.642599 0.166179
0.703479 0.644814 0.168262
0.732353 0.647034 0.170350
0.761319 0.649258 0.172442
0.790374 0.651486 0.174539
0.819516 0.653717 0.176641
0.847403 0.655953 0.178746
0.875219 0.658192 0.180856
0.903038 0.660434 0.182969
0.911249 0.661175 0.183581
0.911613 0.661312 0.183590
0.131980 0.631599 0.132682
0.132087 0.631767 0.132693
0.138365 0.632386 0.133158
0.162259 0.634295 0.134920
0.187253 0.636282 0.136760
0.212846 0.638311 0.138643
0.238865 0.640368 0.140555
0.265220 0.642447 0.142489
0.291856 0.644545 0.144442
0.318733 0.646657 0.146411
0.345825 0.648782 0.148394
0.373110 0.650919 0.150388
0.400571 0.653066 0.152394
0.428195 0.655223 0.154409
0.455970 0.657388 0.156433
0.483886 0.659561 0.158466
0.511937 0.661741 0.160506
0.540113 0.663927 0.162554
0.568410 0.666120 0.164608
0.596821 0.668319 0.166669
0.625343 0.670523 0.168735
0.653970 0.672732 0.170808
0.682699 0.674946 0.172886
0.711525 0.677165 0.174969
0.740447 0.679388 0.177057
0.769460 0.681615 0.179149
0.798561 0.683846 0.181246
0.827442 0.686081 0.183348
0.855163 0.688319 0.185453
0.882885 0.690561 0.187563
0.910606 0.692806 0.189677
0.918773 0.693549 0.190288
0.919116 0.693688 0.190297
0.138956 0.663964 0.139398
0.139067 0.664135 0.139409
0.145361 0.664758 0.139874
0.169306 0.666672 0.141636
0.194353 0.668664 0.143478
0.219999 0.670697 0.145361
0.246071 0.672759 0.147273
0.272480 0.674842 0.149208
0.299168 0.676944 0.151162
0.326099 0.679060 0.153131
0.353243 0.681190 0.155114
0.380581 0.683331 0.157109
0.408094 0.685482 0.159114
0.435769 0.687643 0.161130
0.463595 0.689811 0.163155
0.491562 0.691988 0.165187
0.519663 0.694172 0.167228
0.547889 0.696362 0.169276
0.576235 0.698558 0.171330
0.604696 0.700760 0.173391
0.633266 0.702967 0.175458
0.661941 0.705180 0.177531
0.690717 0.707397 0.179609
0.719591 0.709618 0.181692
0.748559 0.711844 0.183780
0.777618 0.714074 0.185873
0.806766 0.716308 0.187970
0.835241 0.718546 0.190071
0.862865 0.720787 0.192177
0.890486 0.723031 0.194287
0.918100 0.725279 0.196400
0.926220 0.726023 0.197011
0.926541 0.726163 0.197020
0.145974 0.696439 0.146132
0.146089 0.696613 0.146142
0.152400 0.697239 0.146608
0.176394 0.699157 0.148370
0.201493 0.701153 0.150212
0.227191 0.703190 0.152095
0.253315 0.705256 0.154008
0.279776 0.707344 0.155943
0.306516 0.709449 0.157897
0.333499 0.711569 0.159867
0.360695 0.713703 0.161850
0.388083 0.715847 0.163845
0.415647 0.718002 0.165851
0.443373 0.720166 0.167867
0.471249 0.722338 0.169892
0.499266 0.724517 0.171925
0.527416 0.726704 0.173966
0.555691 0.728897 0.176014
0.584086 0.731097 0.178069
0.612594 0.733301 0.180130
0.641212 0.735512 0.182197
0.669934 0.737727 0.184269
0.698757 0.739947 0.186347
0.727677 0.742171 0.188430
0.756690 0.744399 0.190519
0.785795 0.746632 0.192611
0.814987 0.748868 0.194708
0.842987 0.751107 0.196810
0.870505 0.753351 0.198916
0.898016 0.755597 0.201025
0.925515 0.757846 0.203138
0.933585 0.758591 0.203749
0.933883 0.758732 0.203757
0.153033 0.729018 0.152881
0.153152 0.729195 0.152892
0.159479 0.729824 0.153357
0.183522 0.731745 0.155120
0.208671 0.733745 0.156962
0.234420 0.735785 0.158846
0.260595 0.737855 0.160759
0.287107 0.739946 0.162695
0.313899 0.742054 0.164649
0.340932 0.744178 0.166619
0.368178 0.746314 0.168602
0.395617 0.748462 0.170597
0.423231 0.750620 0.172604
0.451006 0.752787 0.174620
0.478931 0.754962 0.176645
0.506997 0.757144 0.178678
0.535195 0.759333 0.180719
0.563518 0.761529 0.182767
0.591960 0.763731 0.184822
0.620515 0.765938 0.186883
0.649179 0.768151 0.188950
0.677947 0.770368 0.191023
0.706816 0.772590 0.193101
0.735781 0.774816 0.195184
0.764839 0.777046 0.197272
0.793987 0.779281 0.199364
0.823223 0.781519 0.201462
0.850673 0.783760 0.203563
0.878078 0.786005 0.205668
0.905469 0.788253 0.207778
0.932845 0.790504 0.209891
0.940862 0.791249 0.210501
0.941137 0.791389 0.210509
0.160132 0.761697 0.159646
0.160255 0.761875 0.159657
0.166597 0.762506 0.160122
0.190689 0.764431 0.161885
0.215887 0.766434 0.163727
0.241686 0.768478 0.165611
0.267911 0.770550 0.167525
0.294473 0.772644 0.169461
0.321315 0.774755 0.171415
0.348397 0.776882 0.173385
0.375693 0.779021 0.175369
0.403181 0.781171 0.177364
0.430843 0.783331 0.179371
0.458667 0.785500 0.181387
0.486640 0.787678 0.183412
0.514753 0.789863 0.185445
0.542998 0.792054 0.187486
0.571368 0.794252 0.189534
0.599857 0.796456 0.191589
