library/cube/Midsommar_Haze_002.cube
# CINEGRADE LAB — Premium Cinematic LUT
# Title: Midsommar Haze
# Category: A24 Inspired
# Description: Artistic, unconventional, mood-driven looks inspired by A24 films
# Mood: Arthouse, unconventional, evocative
# Variant: 3
# Generated: 2026-05-21T16:12:45.586841
TITLE "Midsommar Haze"
LUT_3D_SIZE 9
0.000000 0.000000 0.000000
0.051837 0.003921 0.004001
0.150525 0.011362 0.011582
0.253399 0.019090 0.019436
0.359075 0.026999 0.027458
0.466974 0.035047 0.035602
0.576766 0.043208 0.043846
0.688232 0.051468 0.052172
0.753668 0.056267 0.056975
0.015692 0.077402 0.016481
0.068246 0.081474 0.020499
0.168187 0.089083 0.028104
0.272299 0.096974 0.035981
0.379182 0.105043 0.044025
0.488250 0.113245 0.052191
0.599169 0.121558 0.060455
0.711721 0.129963 0.068800
0.777708 0.134887 0.073615
0.039620 0.194017 0.041167
0.092863 0.198275 0.045205
0.193988 0.206082 0.052834
0.299270 0.214167 0.060735
0.407293 0.222423 0.068802
0.517464 0.230807 0.076989
0.629449 0.239295 0.085273
0.743027 0.247870 0.093637
0.809545 0.252943 0.098465
0.064854 0.315395 0.066708
0.118735 0.319812 0.070762
0.220955 0.327788 0.078412
0.327319 0.336037 0.086332
0.436394 0.344451 0.094418
0.547586 0.352988 0.102623
0.660556 0.361623 0.110923
0.775080 0.370338 0.119302
0.841525 0.375532 0.124139
0.091086 0.440042 0.092801
0.145558 0.444588 0.096868
0.248789 0.452703 0.104533
0.356151 0.461084 0.112470
0.466199 0.469626 0.120569
0.578332 0.478285 0.128787
0.692209 0.487035 0.137099
0.807606 0.495861 0.145489
0.873128 0.501146 0.150331
0.118160 0.567219 0.119305
0.173177 0.571865 0.123380
0.277341 0.580085 0.131058
0.385624 0.588568 0.139005
0.496568 0.597206 0.147114
0.609568 0.605955 0.155341
0.724280 0.614790 0.163660
0.839592 0.623694 0.172056
0.904037 0.629042 0.176900
0.145974 0.696439 0.146132
0.201493 0.701153 0.150212
0.306516 0.709449 0.157897
0.415647 0.718002 0.165851
0.527416 0.726704 0.173966
0.641212 0.735512 0.182197
0.756690 0.744399 0.190519
0.870505 0.753351 0.198916
0.933883 0.758732 0.203757
0.174447 0.827332 0.173219
0.230429 0.832085 0.177301
0.336243 0.840424 0.184989
0.446153 0.849016 0.192945
0.558678 0.857751 0.201061
0.673204 0.866586 0.209291
0.789383 0.875495 0.217611
0.900335 0.884462 0.226005
0.962311 0.889847 0.230840
0.195878 0.923237 0.192916
0.252270 0.927950 0.196994
0.358796 0.935924 0.204680
0.469406 0.944071 0.212632
0.582610 0.952283 0.220743
0.697789 0.960510 0.228967
0.814594 0.968722 0.237280
0.921844 0.976899 0.245665
0.982123 0.981642 0.250490
0.001705 0.001771 0.069543
0.053617 0.005698 0.073589
0.152436 0.013147 0.081213
0.255440 0.020882 0.089111
0.361243 0.028798 0.097174
0.469265 0.036853 0.105359
0.579175 0.045022 0.113642
0.690755 0.053288 0.122006
0.756249 0.058092 0.126845
0.017441 0.079227 0.086169
0.070065 0.083304 0.090229
0.170127 0.090919 0.097873
0.274360 0.098816 0.105789
0.381359 0.106890 0.113871
0.490541 0.115099 0.122073
0.601570 0.123416 0.130372
0.714227 0.131827 0.138750
0.780268 0.136754 0.143597
0.041419 0.195908 0.110989
0.094727 0.200169 0.115064
0.195964 0.207980 0.122728
0.301357 0.216069 0.130664
0.409488 0.224329 0.138763
0.519764 0.232717 0.146983
0.631850 0.241208 0.155297
0.745525 0.249786 0.163691
0.812092 0.254860 0.168547
0.066700 0.317343 0.136650
0.120641 0.321761 0.140736
0.222965 0.329739 0.148416
0.329431 0.337989 0.156367
0.438606 0.346406 0.164481
0.549894 0.354944 0.172714
0.662957 0.363580 0.181040
0.777571 0.372297 0.189445
0.843978 0.377490 0.194305
0.092976 0.442037 0.162847
0.147503 0.446582 0.166942
0.250829 0.454696 0.174634
0.358286 0.463077 0.182597
0.468426 0.471619 0.190720
0.580648 0.480277 0.198962
0.694610 0.489027 0.207296
0.810090 0.497852 0.215706
0.875494 0.503135 0.220567
0.120092 0.569250 0.189441
0.175159 0.573892 0.193540
0.279411 0.582111 0.201240
0.387781 0.590592 0.209209
0.498809 0.599227 0.217339
0.611891 0.607974 0.225584
0.726681 0.616806 0.233921
0.841934 0.625707 0.242333
0.906289 0.631052 0.247192
0.147942 0.698495 0.216344
0.203508 0.703204 0.220443
0.308613 0.711496 0.228147
0.417823 0.720045 0.236118
0.529669 0.728743 0.244249
0.643540 0.737546 0.252494
0.759091 0.746429 0.260829
0.872739 0.755376 0.269238
0.935994 0.760752 0.274091
0.176450 0.829403 0.243493
0.232475 0.834149 0.247589
0.338363 0.842483 0.255292
0.448347 0.851068 0.263261
0.560943 0.859798 0.271388
0.675537 0.868626 0.279628
0.791782 0.877529 0.287957
0.902435 0.886490 0.296359
0.964254 0.891867 0.301201
0.197909 0.925304 0.263236
0.254340 0.929927 0.267324
0.360934 0.937876 0.275020
0.471611 0.945997 0.282981
0.584880 0.954181 0.291099
0.700121 0.962378 0.299329
0.816986 0.970559 0.307647
0.923800 0.978702 0.316036
0.983890 0.983416 0.320863
0.003914 0.004064 0.159507
0.055903 0.007997 0.163609
0.154855 0.015454 0.171290
0.257990 0.023198 0.179241
0.363920 0.031122 0.187357
0.472065 0.039185 0.195593
0.582095 0.047361 0.203925
0.693789 0.055635 0.212337
0.759342 0.060444 0.217222
0.019701 0.081577 0.176318
0.072396 0.085659 0.180429
0.172581 0.093280 0.188123
0.276934 0.101184 0.196088
0.384052 0.109265 0.204217
0.493347 0.117480 0.212465
0.604486 0.125803 0.220807
0.717250 0.134220 0.229229
0.783345 0.139151 0.234116
0.043735 0.198326 0.201306
0.097109 0.202590 0.205426
0.198459 0.210406 0.213136
0.303964 0.218499 0.221115
0.412203 0.226763 0.229256
0.522584 0.235155 0.237516
0.634772 0.243651 0.245869
0.748544 0.252233 0.254299
0.815162 0.257309 0.259189
0.069069 0.319819 0.227116
0.123070 0.324238 0.231243
0.225498 0.332219 0.238963
0.332067 0.340472 0.246952
0.441343 0.348890 0.255102
0.552728 0.357431 0.263369
0.665884 0.366069 0.271729
0.780588 0.374787 0.280164
0.846940 0.379981 0.285054
0.095393 0.444561 0.253446
0.149976 0.449105 0.257575
0.253398 0.457220 0.265302
0.360950 0.465602 0.273296
0.471182 0.474144 0.281451
0.583493 0.482802 0.289721
0.697542 0.491551 0.298082
0.813104 0.500376 0.306519
0.878362 0.505658 0.311404
0.122554 0.571811 0.280153
0.177672 0.576451 0.284281
0.282013 0.584668 0.292010
0.390470 0.593147 0.300006
0.501584 0.601781 0.308160
0.614747 0.610526 0.316430
0.729617 0.619355 0.324788
0.844777 0.628255 0.333221
0.909037 0.633595 0.338098
0.150446 0.701083 0.307150
0.206059 0.705788 0.311273
0.311245 0.714076 0.319000
0.420536 0.722621 0.326993
0.532460 0.731316 0.335143
0.646406 0.740115 0.343406
0.762029 0.748994 0.351758
0.875465 0.757936 0.360182
0.938593 0.763306 0.365047
0.178992 0.832007 0.334375
0.235060 0.836747 0.338490
0.341024 0.845075 0.346210
0.451080 0.853655 0.354195
0.563748 0.862379 0.362336
0.678411 0.871201 0.370589
0.794722 0.880098 0.378929
0.905016 0.889053 0.387340
0.966673 0.894423 0.392190
0.200481 0.927882 0.354175
0.256952 0.932411 0.358277
0.363615 0.940333 0.365985
0.474359 0.948426 0.373956
0.587693 0.956579 0.382083
0.702997 0.964744 0.390320
0.819922 0.972891 0.398643
0.926224 0.980998 0.407036
0.986119 0.985679 0.411865
0.006232 0.006465 0.253662
0.058298 0.010405 0.257823
0.157381 0.017871 0.265561
0.260646 0.025623 0.273568
0.366702 0.033556 0.281738
0.474971 0.041626 0.290027
0.585119 0.049810 0.298409
0.696927 0.058092 0.306870
0.762540 0.062907 0.311801
0.022070 0.084035 0.270664
0.074835 0.088123 0.274827
0.175142 0.095751 0.282573
0.279616 0.103662 0.290588
0.386851 0.111749 0.298765
0.496260 0.119970 0.307059
0.607509 0.128300 0.315447
0.720378 0.136722 0.323911
0.786528 0.141657 0.328839
0.046161 0.200853 0.295824
0.099600 0.205120 0.299991
0.201062 0.212941 0.307746
0.306678 0.221038 0.315770
0.415025 0.229307 0.323953
0.525512 0.237703 0.332254
0.637801 0.246202 0.340646
0.751670 0.254788 0.349114
0.818303 0.259866 0.354039
0.071547 0.322404 0.321787
0.125609 0.326824 0.325955
0.228141 0.334807 0.333715
0.334812 0.343063 0.341743
0.444188 0.351484 0.349930
0.555669 0.360026 0.358232
0.668919 0.368666 0.366625
0.783712 0.377386 0.375092
0.849998 0.382580 0.380011
0.097921 0.447193 0.348251
0.152559 0.451737 0.352415
0.256078 0.459852 0.360177
0.363724 0.468234 0.368204
0.474048 0.476777 0.376389
0.586448 0.485435 0.384689
0.700582 0.494184 0.393078
0.816226 0.503008 0.401540
0.881325 0.508288 0.406449
0.125127 0.574480 0.375072
0.180297 0.579117 0.379230
0.284726 0.587333 0.386988
0.393270 0.595811 0.395011
0.504468 0.604443 0.403191
0.617713 0.613186 0.411484
0.732661 0.622013 0.419864
0.847714 0.630910 0.428317
0.911875 0.636247 0.433212
0.153062 0.703778 0.402165
0.208722 0.708479 0.406313
0.313989 0.716764 0.414063
0.423360 0.725305 0.422076
0.535361 0.733996 0.430246
0.649382 0.742791 0.438527
0.765077 0.751666 0.446895
0.878281 0.760604 0.455333
0.941277 0.765969 0.460211
0.181647 0.834718 0.429466
0.237758 0.839452 0.433600
0.343796 0.847775 0.441337
0.453926 0.856349 0.449338
0.566664 0.865067 0.457492
0.681396 0.873884 0.465758
0.797772 0.882775 0.474108
0.907682 0.891723 0.482528
0.969174 0.897085 0.487384
0.203166 0.930484 0.449323
0.259677 0.934991 0.453437
0.366408 0.942885 0.461157
0.477220 0.950948 0.469138
0.590618 0.959070 0.477273
0.705985 0.967202 0.485517
0.822969 0.975313 0.493844
0.928729 0.983383 0.502240
0.988425 0.988032 0.507071
0.008623 0.008939 0.350580
0.060765 0.012886 0.354799
0.159979 0.020360 0.362595
0.263373 0.028120 0.370658
0.369556 0.036061 0.378882
0.477946 0.044140 0.387223
0.588212 0.052332 0.395656
0.700134 0.060621 0.404166
0.765805 0.065441 0.409144
0.024512 0.086566 0.367772
0.077349 0.090658 0.371988
0.177776 0.098294 0.379786
0.282370 0.106211 0.387852
0.389721 0.114305 0.396077
0.499243 0.122533 0.404418
0.610601 0.130869 0.412850
0.723575 0.139297 0.421358
0.789779 0.144236 0.426327
0.048661 0.203451 0.393106
0.102165 0.207722 0.397320
0.203739 0.215547 0.405121
0.309465 0.223649 0.413189
0.417920 0.231922 0.421415
0.528510 0.240323 0.429757
0.640900 0.248826 0.438188
0.754866 0.257416 0.446693
0.821494 0.262496 0.451654
0.074100 0.325060 0.419223
0.128223 0.329481 0.423432
0.230857 0.337467 0.431232
0.337630 0.345725 0.439298
0.447105 0.354149 0.447522
0.558682 0.362693 0.455859
0.672024 0.371335 0.464285
0.786907 0.380057 0.472784
0.853117 0.385251 0.477732
0.100524 0.449896 0.445820
0.155217 0.454439 0.450020
0.258831 0.462555 0.457816
0.366570 0.470938 0.465876
0.476986 0.479481 0.474092
0.589474 0.488139 0.482421
0.703693 0.496888 0.490837
0.819415 0.505712 0.499325
0.884345 0.510990 0.504258
0.127775 0.577220 0.472756
0.182996 0.581855 0.476944
0.287512 0.590069 0.484730
0.396143 0.598545 0.492779
0.507425 0.607176 0.500984
0.620751 0.615916 0.509300
0.735777 0.624742 0.517702
0.850708 0.633636 0.526174
0.914767 0.638970 0.531088
0.155752 0.706544 0.499943
0.211459 0.711240 0.504115
0.316807 0.719522 0.511887
0.426257 0.728060 0.519922
0.538335 0.736747 0.528110
0.652431 0.745538 0.536409
0.768197 0.754409 0.544792
0.881150 0.763342 0.553244
0.944011 0.768702 0.558134
0.184376 0.837499 0.527319
0.240530 0.842227 0.531471
0.346642 0.850544 0.539225
0.456845 0.859113 0.547240
0.569654 0.867825 0.555408
0.684453 0.876636 0.563685
0.800895 0.885520 0.572045
0.910397 0.894462 0.580472
0.971719 0.899818 0.585334
0.205927 0.933146 0.547230
0.262477 0.937630 0.551357
0.369276 0.945496 0.559087
0.480154 0.953529 0.567078
0.593617 0.961618 0.575220
0.709045 0.969715 0.583469
0.826088 0.977791 0.591800
0.931279 0.985823 0.600198
0.990771 0.990437 0.605029
0.011070 0.011468 0.449586
0.063288 0.015421 0.453864
0.162632 0.022904 0.461717
0.266155 0.030673 0.469837
0.372463 0.038622 0.478115
0.480974 0.046709 0.486509
0.591357 0.054909 0.494993
0.703392 0.063205 0.503552
0.769122 0.068031 0.508576
0.027012 0.089151 0.466970
0.079918 0.093249 0.471239
0.180467 0.100891 0.479089
0.285179 0.108816 0.487204
0.392646 0.116916 0.495478
0.502280 0.125150 0.503866
0.613746 0.133492 0.512343
0.726824 0.141926 0.520894
0.793082 0.146870 0.525903
0.051217 0.206104 0.492477
0.104786 0.210378 0.496738
0.206472 0.218208 0.504585
0.312307 0.226314 0.512697
0.420869 0.234592 0.520966
0.531563 0.242997 0.529347
0.644052 0.251504 0.537818
0.758114 0.260097 0.546360
0.824731 0.265180 0.551355
0.076711 0.327770 0.518747
0.130893 0.332193 0.522997
0.233629 0.340181 0.530837
0.340504 0.348442 0.538941
0.450076 0.356867 0.547201
0.561750 0.365414 0.555573
0.675183 0.374058 0.564032
0.790154 0.382781 0.572562
0.856279 0.387976 0.577539
0.103184 0.452653 0.545477
0.157932 0.457196 0.549713
0.261640 0.465312 0.557542
0.369473 0.473695 0.565634
0.479979 0.482238 0.573881
0.592555 0.490896 0.582238
0.706858 0.499645 0.590681
0.822548 0.508468 0.599194
0.887405 0.513746 0.604150
0.130481 0.580013 0.572526
0.185753 0.584645 0.576743
0.290356 0.592858 0.584557
0.399072 0.601333 0.592632
0.510437 0.609961 0.600862
0.623844 0.618700 0.609200
0.738948 0.627523 0.617623
0.853742 0.636415 0.626114
0.917695 0.641745 0.631044
0.158500 0.709362 0.599805
0.214254 0.714054 0.604001
0.319681 0.722332 0.611795
0.429210 0.730866 0.619850
0.541365 0.739549 0.628057
0.655534 0.748337 0.636372
0.771371 0.757203 0.644770
0.884056 0.766132 0.653235
0.946777 0.771487 0.658136
0.187163 0.840332 0.627254
0.243360 0.845053 0.631423
0.349545 0.853365 0.639193
0.459820 0.861928 0.647222
0.572699 0.870635 0.655403
0.687566 0.879440 0.663690
0.804072 0.888318 0.672059
0.913146 0.897254 0.680493
0.974294 0.902602 0.685360
0.208745 0.935850 0.647217
0.265335 0.940311 0.651355
0.372200 0.948148 0.659096
0.483144 0.956149 0.667094
0.596671 0.964206 0.675242
0.712160 0.972268 0.683496
0.829262 0.980307 0.691830
0.933858 0.988300 0.700229
0.993143 0.992880 0.705059
0.013565 0.014042 0.550284
0.065858 0.018002 0.554622
0.165332 0.025494 0.562532
0.268982 0.033271 0.570707
0.375414 0.041228 0.579040
0.484046 0.049323 0.587486
0.594545 0.057531 0.596021
0.706692 0.065835 0.604628
0.772480 0.070666 0.609699
0.029559 0.091782 0.567859
0.082535 0.095885 0.572181
0.183203 0.103534 0.580083
0.288033 0.111465 0.588248
0.395615 0.119572 0.596570
0.505360 0.127812 0.605004
0.616934 0.136160 0.613525
0.730115 0.144601 0.622119
0.796427 0.149548 0.627169
0.053822 0.208801 0.593538
0.107455 0.213078 0.597847
0.209250 0.220913 0.605739
0.315195 0.229024 0.613894
0.423862 0.237306 0.622205
0.534659 0.245715 0.630627
0.647247 0.254226 0.639136
0.761405 0.262823 0.647714
0.828003 0.267908 0.652744
0.079368 0.330524 0.619960
0.133609 0.334948 0.624251
0.236448 0.342939 0.632131
0.343423 0.351202 0.640273
0.453093 0.359630 0.648568
0.564861 0.368179 0.656974
0.678386 0.376824 0.665465
0.793444 0.385549 0.674025
0.859474 0.390744 0.679031
0.105891 0.455453 0.646822
0.160694 0.459995 0.651092
0.264495 0.468112 0.658955
0.372421 0.476496 0.667078
0.483017 0.485039 0.675355
0.595680 0.493697 0.683740
0.710067 0.502445 0.692209
0.825714 0.511268 0.700746
0.890494 0.516544 0.705724
0.133234 0.582849 0.673982
0.188556 0.587478 0.678228
0.293245 0.595690 0.686069
0.402046 0.604162 0.694170
0.513495 0.612789 0.702422
0.626981 0.621526 0.710783
0.742162 0.630347 0.719226
0.856805 0.639236 0.727735
0.920649 0.644563 0.732681
0.161296 0.712222 0.701352
0.217096 0.716910 0.705570
0.322602 0.725184 0.713385
0.432209 0.733715 0.721459
0.544440 0.742394 0.729683
0.658682 0.751178 0.738014
0.774590 0.760040 0.746426
0.886988 0.768965 0.754903
0.949566 0.774313 0.759814
0.189998 0.843206 0.728870
0.246237 0.847921 0.733056
0.352495 0.856228 0.740841
0.462841 0.864785 0.748883
0.575789 0.873486 0.757075
0.690723 0.882285 0.765372
0.807293 0.891157 0.773748
0.915916 0.900086 0.782188
0.976887 0.905427 0.787060
0.211610 0.938587 0.748882
0.268239 0.943023 0.753031
0.375171 0.950831 0.760780
0.486181 0.958800 0.768785
0.599771 0.966823 0.776939
0.715321 0.974850 0.785197
0.832443 0.982850 0.793533
0.936457 0.990804 0.801931
0.995530 0.995348 0.806759
0.016101 0.016655 0.652412
0.068469 0.020621 0.656808
0.168071 0.028122 0.664776
0.271847 0.035907 0.673006
0.378403 0.043873 0.681393
0.487154 0.051976 0.689890
0.597769 0.060191 0.698475
0.710027 0.068502 0.707131
0.775873 0.073339 0.712247
0.032147 0.094450 0.670177
0.085192 0.098559 0.674551
0.185978 0.106215 0.682504
0.290926 0.114152 0.690718
0.398622 0.122266 0.699087
0.508477 0.130512 0.707567
0.620158 0.138866 0.716133
0.733442 0.147312 0.724768
0.799807 0.152264 0.729858
0.056466 0.211535 0.696027
0.110163 0.215816 0.700381
0.212068 0.223655 0.708318
0.318121 0.231771 0.716517
0.426894 0.240058 0.724869
0.537792 0.248471 0.733330
0.650479 0.256986 0.741876
0.764731 0.265587 0.750491
0.831304 0.270673 0.755554
0.082066 0.333314 0.722599
0.136367 0.337740 0.726930
0.239306 0.345734 0.734848
0.346380 0.353999 0.743026
0.456148 0.362429 0.751357
0.568009 0.370980 0.759797
0.681625 0.379627 0.768319
0.796771 0.388354 0.776909
0.862695 0.393549 0.781942
0.108638 0.458290 0.749589
0.163496 0.462831 0.753894
0.267390 0.470948 0.761789
0.375407 0.479332 0.769943
0.486093 0.487875 0.778248
0.598842 0.496533 0.786661
0.713313 0.505282 0.795155
0.828905 0.514104 0.803716
0.893606 0.519378 0.808715
0.136028 0.585720 0.776857
0.191399 0.590347 0.781131
0.296174 0.598557 0.788999
0.405060 0.607028 0.797124
0.516590 0.615653 0.805400
0.630156 0.624387 0.813781
0.745413 0.633206 0.822243
0.859891 0.642093 0.830770
0.923623 0.647416 0.835731
0.164131 0.715118 0.804315
0.219977 0.719801 0.808555
0.325562 0.728072 0.816390
0.435247 0.736599 0.824483
0.547553 0.745274 0.832724
0.661868 0.754053 0.841069
0.777845 0.762911 0.849494
0.889939 0.771832 0.857982
0.952371 0.777175 0.862902
0.192872 0.846115 0.831900
0.249154 0.850824 0.836102
0.355484 0.859125 0.843901
0.465901 0.867677 0.851955
0.578918 0.876372 0.860158
0.693918 0.885164 0.868463
0.810551 0.894030 0.876846
0.918703 0.902953 0.885291
0.979492 0.908287 0.890166
0.214516 0.941350 0.851958
0.271183 0.945761 0.856117
0.378182 0.953538 0.863874
0.489256 0.961475 0.871885
0.602909 0.969463 0.880043
0.718519 0.977453 0.888303
0.835366 0.985415 0.896640
0.939067 0.993328 0.905037
0.997926 0.997836 0.909861
0.018327 0.018943 0.741752
0.070768 0.022916 0.746197
0.170495 0.030424 0.754214
0.274397 0.038217 0.762491
0.381074 0.046190 0.770923
0.489942 0.054300 0.779465
0.600670 0.062523 0.788092
0.713038 0.070841 0.796788
0.778940 0.075683 0.801943
0.034420 0.096792 0.759678
0.087533 0.100905 0.764096
0.188436 0.108567 0.772092
0.293498 0.116511 0.780348
0.401307 0.124631 0.788758
0.511271 0.132883 0.797276
0.623056 0.141242 0.805878
0.736441 0.149694 0.814549
0.802859 0.154649 0.819672
0.058793 0.213941 0.785672
0.112552 0.218224 0.790065
0.214565 0.226068 0.798040
0.320724 0.234187 0.806275
0.429600 0.242478 0.814662
0.540599 0.250895 0.823156
0.653382 0.259413 0.831734
0.767727 0.268017 0.840378
0.834274 0.273105 0.845470
0.084442 0.335774 0.812370
0.138800 0.340200 0.816735
0.241839 0.348196 0.824686
0.349011 0.356463 0.832895
0.458874 0.364895 0.841255
0.570828 0.373448 0.849722
0.684532 0.382096 0.858270
0.799764 0.390824 0.866884
0.865582 0.396019 0.871940
0.111060 0.460793 0.839469
0.165971 0.465333 0.843801
0.269957 0.473450 0.851724
0.378064 0.481834 0.859903
0.488837 0.490377 0.868232
0.601671 0.499035 0.876667
0.716224 0.507782 0.885182
0.831766 0.516604 0.893761
0.896384 0.521876 0.898778
0.138492 0.588256 0.866827
0.193913 0.592880 0.871123
0.298772 0.601088 0.879013
0.407741 0.609557 0.887158
0.519351 0.618180 0.895452
0.632995 0.626911 0.903850
0.748327 0.635728 0.912327
0.862647 0.644612 0.920867
0.926264 0.649931 0.925840
0.166635 0.717676 0.894356
0.222526 0.722355 0.898613
0.328189 0.730622 0.906465
0.437949 0.739145 0.914572
0.550330 0.747816 0.922826
0.664716 0.756591 0.931183
0.780761 0.765444 0.939617
0.892562 0.774360 0.948113
0.954845 0.779697 0.953040
0.195412 0.848686 0.921995
0.251735 0.853388 0.926208
0.358136 0.861683 0.934018
0.468623 0.870229 0.942082
0.581708 0.878918 0.950291
0.696772 0.887704 0.958602
0.813468 0.896564 0.966990
0.921163 0.905480 0.975437
0.981771 0.910806 0.980313
0.217085 0.943780 0.942087
0.273790 0.948167 0.946252
0.380853 0.955914 0.954015
0.491991 0.963820 0.962030
0.605705 0.971774 0.970190
0.721374 0.979728 0.978450
0.837972 0.987653 0.986785
0.941358 0.995527 0.995180
1.000000 1.000000 1.000000
