library/cube/Modern_Cinema_003.cube
# CINEGRADE LAB — Premium Cinematic LUT
# Title: Modern Cinema
# Category: Teal & Orange Modern
# Description: Complementary colors with modern cinematic teal and orange grading
# Mood: Blockbuster, cinematic, contemporary
# Variant: 4
# Generated: 2026-05-21T16:12:59.157347
TITLE "Modern Cinema"
LUT_3D_SIZE 5
0.000950 0.016532 0.014862
0.139805 0.016699 0.015236
0.398457 0.019007 0.017718
0.670669 0.021713 0.020570
0.836515 0.022852 0.021828
0.011002 0.200107 0.019133
0.162964 0.200517 0.020186
0.441954 0.203231 0.023458
0.731124 0.206333 0.027035
0.898225 0.207653 0.028749
0.028009 0.501244 0.031155
0.189870 0.501974 0.032801
0.483890 0.505159 0.036738
0.783881 0.508724 0.040897
0.946937 0.510321 0.042937
0.045704 0.801592 0.044506
0.214763 0.803099 0.046670
0.519407 0.807152 0.051164
0.824508 0.811524 0.055771
0.979692 0.813735 0.058024
0.057643 0.979450 0.052536
0.231732 0.982294 0.055142
0.543586 0.987391 0.060072
0.850252 0.992404 0.064978
0.994538 0.994762 0.067280
0.002019 0.016904 0.211595
0.142353 0.017151 0.210736
0.403320 0.019550 0.212044
0.677482 0.022340 0.213756
0.843753 0.023536 0.213889
0.012121 0.200461 0.211799
0.165217 0.200961 0.211753
0.445948 0.203774 0.213970
0.736546 0.206966 0.216519
0.903395 0.208347 0.217206
0.029183 0.501624 0.220183
0.191882 0.502463 0.220831
0.487157 0.505760 0.223799
0.787880 0.509425 0.227001
0.950308 0.511095 0.228075
0.046944 0.802173 0.230210
0.216596 0.803799 0.231435
0.522100 0.807969 0.235001
0.827478 0.812441 0.238674
0.981674 0.814724 0.239970
0.058963 0.980479 0.235075
0.233449 0.983325 0.236740
0.545877 0.988426 0.240719
0.852591 0.993434 0.244647
0.995658 0.995766 0.245924
0.003627 0.017829 0.502861
0.145400 0.018150 0.500174
0.408616 0.020636 0.499730
0.684668 0.023505 0.499744
0.851294 0.024754 0.498209
0.013769 0.201362 0.497071
0.167964 0.201948 0.495390
0.450379 0.204854 0.496033
0.742353 0.208133 0.497047
0.908879 0.209569 0.496212
0.030877 0.502549 0.500077
0.194384 0.503493 0.499235
0.490865 0.506898 0.500754
0.792264 0.510657 0.502522
0.954019 0.512394 0.502160
0.048695 0.803296 0.505162
0.218914 0.805034 0.504977
0.525241 0.809315 0.507147
0.830859 0.813882 0.509415
0.984035 0.816230 0.509277
0.060783 0.982000 0.505280
0.235647 0.984844 0.505524
0.548628 0.989946 0.508064
0.855378 0.994947 0.510513
0.997212 0.997251 0.510243
0.005237 0.018767 0.792832
0.148411 0.019162 0.788360
0.413815 0.021733 0.786205
0.691702 0.024680 0.784560
0.858616 0.025981 0.781394
0.015420 0.202283 0.781188
0.170681 0.202954 0.777908
0.454729 0.205952 0.777008
0.748017 0.209315 0.776515
0.914166 0.210805 0.774182
0.032574 0.503503 0.778924
0.196862 0.504550 0.776617
0.494507 0.508060 0.776704
0.796528 0.511911 0.777054
0.957570 0.513714 0.775266
0.050450 0.804451 0.779132
0.221214 0.806301 0.777547
0.528332 0.810690 0.778324
0.834158 0.815347 0.779185
0.986286 0.817759 0.777605
0.062604 0.983516 0.774511
0.237833 0.986358 0.773325
0.551347 0.991461 0.774409
0.858131 0.996453 0.775352
0.998722 0.998729 0.773497
0.006015 0.018887 0.933196
0.150599 0.019400 0.934934
0.418173 0.022095 0.938407
0.697878 0.025157 0.941803
0.865046 0.026540 0.943084
0.016376 0.202527 0.940019
0.172706 0.203315 0.940997
0.458363 0.206432 0.943815
0.752822 0.209902 0.946504
0.918675 0.211469 0.946817
0.033675 0.503885 0.949866
0.198740 0.505055 0.950043
0.497525 0.508688 0.952134
0.800134 0.512645 0.954018
0.960438 0.514526 0.953304
0.051672 0.805102 0.956498
0.222974 0.807074 0.955856
0.530861 0.811579 0.957177
0.836875 0.816333 0.958198
0.987935 0.818811 0.956415
0.063927 0.984526 0.953473
0.239512 0.987372 0.951986
0.553549 0.992480 0.952477
0.860369 0.997468 0.952566
0.999717 0.999717 0.949632
