library/cube/Modern_Cinema_003.cube
# CINEGRADE LAB — Premium Cinematic LUT
# Title: Modern Cinema
# Category: Teal & Orange Modern
# Description: Complementary colors with modern cinematic teal and orange grading
# Mood: Blockbuster, cinematic, contemporary
# Variant: 4
# Generated: 2026-05-21T16:12:59.157347
TITLE "Modern Cinema"
LUT_3D_SIZE 9
0.000950 0.016532 0.014862
0.016088 0.015705 0.014142
0.139805 0.016699 0.015236
0.267333 0.017801 0.016429
0.398457 0.019007 0.017718
0.532970 0.020312 0.019100
0.670669 0.021713 0.020570
0.810660 0.023194 0.022114
0.836515 0.022852 0.021828
0.002706 0.048289 0.013621
0.018697 0.047565 0.013038
0.148556 0.048749 0.014354
0.281757 0.050034 0.015761
0.418102 0.051417 0.017256
0.557397 0.052893 0.018834
0.699454 0.054458 0.020493
0.842024 0.056075 0.022194
0.866775 0.055809 0.022004
0.011002 0.200107 0.019133
0.027738 0.199314 0.018673
0.162964 0.200517 0.020186
0.301097 0.201824 0.021783
0.441954 0.203231 0.023458
0.585354 0.204736 0.025210
0.731124 0.206333 0.027035
0.874687 0.207948 0.028857
0.898225 0.207653 0.028749
0.019429 0.350956 0.024977
0.036824 0.350173 0.024637
0.176708 0.351460 0.026335
0.319097 0.352855 0.028107
0.463820 0.354352 0.029952
0.610713 0.355949 0.031865
0.759310 0.357636 0.033839
0.902557 0.359297 0.035756
0.924819 0.359041 0.035727
0.028009 0.501244 0.031155
0.045982 0.500542 0.030932
0.189870 0.501974 0.032801
0.335891 0.503514 0.034737
0.483890 0.505159 0.036738
0.633716 0.506904 0.038800
0.783881 0.508724 0.040897
0.925984 0.510480 0.042893
0.946937 0.510321 0.042937
0.036761 0.651344 0.037667
0.055238 0.650786 0.037556
0.202528 0.652414 0.039582
0.351613 0.654151 0.041668
0.502353 0.655992 0.043812
0.654613 0.657934 0.046009
0.805476 0.659926 0.048211
0.945400 0.661811 0.050262
0.965047 0.661799 0.050372
0.045704 0.801592 0.044506
0.064617 0.801230 0.044501
0.214763 0.803099 0.046670
0.366402 0.805074 0.048892
0.519407 0.807152 0.051164
0.673662 0.809329 0.053483
0.824508 0.811524 0.055771
0.961318 0.813563 0.057854
0.979692 0.813735 0.058024
0.054588 0.947286 0.051396
0.073897 0.947582 0.051511
0.226433 0.950076 0.053827
0.380191 0.952609 0.056186
0.535066 0.955179 0.058584
0.690957 0.957784 0.061018
0.841268 0.960314 0.063380
0.974143 0.962577 0.065475
0.991315 0.962963 0.065696
0.057643 0.979450 0.052536
0.077259 0.979770 0.052727
0.231732 0.982294 0.055142
0.387202 0.984835 0.057591
0.543586 0.987391 0.060072
0.700806 0.989961 0.062581
0.850252 0.992404 0.064978
0.978477 0.994499 0.067040
0.994538 0.994762 0.067280
0.001215 0.016447 0.065469
0.016443 0.015637 0.064592
0.140817 0.016656 0.065541
0.268951 0.017783 0.066592
0.400636 0.019012 0.067740
0.535662 0.020339 0.068983
0.673831 0.021761 0.070317
0.814151 0.023261 0.071724
0.839899 0.022931 0.071296
0.002988 0.048232 0.063706
0.019059 0.047524 0.062976
0.149494 0.048733 0.064155
0.283226 0.050041 0.065427
0.420058 0.051446 0.066788
0.559797 0.052943 0.068235
0.702257 0.054529 0.069764
0.845000 0.056163 0.071334
0.869633 0.055909 0.071009
0.011298 0.200018 0.068724
0.028105 0.199246 0.068125
0.163833 0.200475 0.069508
0.302426 0.201808 0.070977
0.443701 0.203240 0.072526
0.587481 0.204769 0.074152
0.733593 0.206389 0.075853
0.877166 0.208021 0.077547
0.900578 0.207741 0.077311
0.019741 0.350864 0.074102
0.037198 0.350104 0.073631
0.177515 0.351420 0.075205
0.320298 0.352842 0.076855
0.465378 0.354366 0.078578
0.612591 0.355989 0.080371
0.761389 0.357700 0.082224
0.904570 0.359380 0.084018
0.926701 0.359141 0.083865
0.028338 0.501172 0.079839
0.046365 0.500496 0.079491
0.190622 0.501958 0.081241
0.336978 0.503528 0.083059
0.485277 0.505201 0.084943
0.635370 0.506974 0.086888
0.785642 0.508818 0.088868
0.927570 0.510593 0.090741
0.948391 0.510453 0.090665
0.037108 0.651316 0.085930
0.055632 0.650785 0.085699
0.203234 0.652445 0.087610
0.352599 0.654212 0.089581
0.503588 0.656083 0.091610
0.656067 0.658052 0.093693
0.806958 0.660069 0.095778
0.946608 0.661972 0.097707
0.966123 0.661980 0.097699
0.046070 0.801625 0.092364
0.065023 0.801293 0.092241
0.215430 0.803193 0.094298
0.367300 0.805199 0.096406
0.520510 0.807307 0.098565
0.674943 0.809511 0.100769
0.825755 0.811730 0.102940
0.962202 0.813786 0.104900
0.980450 0.813979 0.104950
0.054983 0.947546 0.098866
0.074324 0.947848 0.098864
0.227074 0.950352 0.101066
0.381021 0.952894 0.103310
0.536061 0.955472 0.105592
0.692097 0.958084 0.107910
0.842331 0.960619 0.110151
0.974766 0.962879 0.112118
0.991820 0.963268 0.112215
0.058054 0.979716 0.099609
0.077698 0.980036 0.099682
0.232344 0.982563 0.101980
0.387970 0.985106 0.104312
0.544490 0.987663 0.106673
0.701833 0.990234 0.109062
0.851182 0.992675 0.111333
0.978905 0.994762 0.113261
0.994862 0.995022 0.113371
0.002019 0.016904 0.211595
0.017334 0.016108 0.210244
0.142353 0.017151 0.210736
0.271085 0.018300 0.211337
0.403320 0.019550 0.212044
0.538852 0.020898 0.212852
0.677482 0.022340 0.213756
0.818113 0.023857 0.214740
0.843753 0.023536 0.213889
0.003803 0.048710 0.208263
0.019951 0.048017 0.207086
0.150953 0.049248 0.207834
0.285206 0.050579 0.208681
0.422516 0.052004 0.209624
0.562691 0.053521 0.210659
0.705546 0.055126 0.211781
0.848445 0.056774 0.212947
0.872956 0.056530 0.212220
0.012121 0.200461 0.211799
0.028997 0.199707 0.210778
0.165217 0.200961 0.211753
0.304262 0.202318 0.212818
0.445948 0.203774 0.213970
0.590100 0.205325 0.215205
0.736546 0.206966 0.216519
0.880112 0.208614 0.217826
0.903395 0.208347 0.217206
0.020574 0.351298 0.215776
0.038091 0.350560 0.214904
0.178834 0.351903 0.216090
0.322003 0.353352 0.217356
0.467432 0.354901 0.218701
0.614958 0.356548 0.220119
0.763946 0.358281 0.221599
0.907048 0.359978 0.223020
0.929045 0.359754 0.222498
0.029183 0.501624 0.220183
0.047263 0.500972 0.219453
0.191882 0.502463 0.220831
0.338565 0.504060 0.222281
0.487157 0.505760 0.223799
0.637511 0.507559 0.225383
0.787880 0.509425 0.227001
0.929621 0.511217 0.228512
0.950308 0.511095 0.228075
0.037968 0.651806 0.225003
0.056536 0.651302 0.224404
0.204443 0.652991 0.225955
0.354081 0.654787 0.227570
0.505313 0.656686 0.229243
0.658006 0.658682 0.230973
0.808916 0.660721 0.232704
0.948281 0.662641 0.234274
0.967664 0.662668 0.233911
0.046944 0.802173 0.230210
0.065935 0.801868 0.229730
0.216596 0.803799 0.231435
0.368691 0.805834 0.233193
0.522100 0.807969 0.235001
0.676708 0.810200 0.236856
0.827478 0.812441 0.238674
0.963552 0.814513 0.240275
0.981674 0.814724 0.239970
0.055880 0.948309 0.235522
0.075253 0.948616 0.235167
0.228209 0.951128 0.237019
0.382340 0.953677 0.238913
0.537541 0.956262 0.240843
0.693719 0.958881 0.242809
0.843871 0.961417 0.244692
0.975858 0.963673 0.246292
0.992794 0.964063 0.246025
0.058963 0.980479 0.235075
0.078632 0.980797 0.234795
0.233449 0.983325 0.236740
0.389224 0.985868 0.238716
0.545877 0.988426 0.240719
0.703339 0.990997 0.242746
0.852591 0.993434 0.244647
0.979804 0.995510 0.246194
0.995658 0.995766 0.245924
0.002823 0.017365 0.357392
0.018224 0.016583 0.355572
0.143881 0.017649 0.355613
0.273203 0.018820 0.355770
0.405980 0.020092 0.356039
0.542010 0.021460 0.356417
0.681094 0.022921 0.356898
0.822022 0.024455 0.357462
0.847551 0.024144 0.356192
0.004618 0.049192 0.352510
0.020843 0.048514 0.350891
0.152403 0.049767 0.351212
0.287171 0.051119 0.351640
0.424951 0.052565 0.352169
0.565555 0.054102 0.352796
0.708799 0.055725 0.353516
0.851837 0.057388 0.354283
0.876227 0.057154 0.353158
0.012945 0.200909 0.354581
0.029888 0.200173 0.353142
0.166594 0.201452 0.353712
0.306083 0.202833 0.354379
0.448174 0.204312 0.355138
0.592691 0.205885 0.355985
0.739466 0.207548 0.356916
0.883008 0.209210 0.357839
0.906162 0.208956 0.356839
0.021408 0.351739 0.357172
0.038985 0.351023 0.355904
0.180145 0.352393 0.356704
0.323695 0.353867 0.357591
0.469467 0.355442 0.358559
0.617301 0.357113 0.359606
0.766469 0.358867 0.360717
0.909481 0.360581 0.361768
0.931344 0.360372 0.360878
0.030030 0.502083 0.360262
0.048160 0.501455 0.359153
0.193136 0.502975 0.360162
0.340140 0.504599 0.361246
0.489019 0.506326 0.362403
0.639629 0.508149 0.363626
0.790087 0.510038 0.364886
0.931631 0.511847 0.366035
0.952184 0.511742 0.365240
0.038828 0.652305 0.363821
0.057440 0.651826 0.362857
0.205647 0.653545 0.364051
0.355553 0.655370 0.365310
0.507022 0.657295 0.366630
0.659925 0.659318 0.368008
0.810847 0.661379 0.369385
0.949918 0.663316 0.370599
0.969169 0.663360 0.369881
0.047819 0.802730 0.367809
0.066848 0.802452 0.366974
0.217757 0.804413 0.368328
0.370073 0.806476 0.369736
0.523677 0.808639 0.371196
0.678455 0.810895 0.372701
0.829179 0.813158 0.374166
0.964873 0.815245 0.375407
0.982869 0.815474 0.374745
0.056777 0.949072 0.371936
0.076181 0.949385 0.371228
0.229341 0.951904 0.372730
0.383651 0.954461 0.374273
0.539011 0.957053 0.375852
0.695327 0.959677 0.377463
0.845395 0.962216 0.378987
0.976926 0.964468 0.380219
0.993745 0.964859 0.379585
0.059873 0.981240 0.370299
0.079567 0.981557 0.369664
0.234549 0.984085 0.371255
0.390472 0.986629 0.372873
0.547257 0.989187 0.374516
0.704836 0.991758 0.376179
0.853989 0.994191 0.377708
0.980689 0.996257 0.378870
0.996441 0.996509 0.378215
0.003627 0.017829 0.502861
0.019114 0.017061 0.500579
0.145400 0.018150 0.500174
0.275303 0.019343 0.499892
0.408616 0.020636 0.499730
0.545136 0.022024 0.499682
0.684668 0.023505 0.499744
0.825877 0.025055 0.499894
0.851294 0.024754 0.498209
0.005434 0.049678 0.496449
0.021734 0.049014 0.494393
0.153845 0.050290 0.494293
0.289120 0.051663 0.494305
0.427364 0.053129 0.494425
0.568391 0.054685 0.494649
0.712017 0.056327 0.494971
0.855178 0.058004 0.495342
0.879445 0.057780 0.493823
0.013769 0.201362 0.497071
0.030779 0.200644 0.495219
0.167964 0.201948 0.495390
0.307891 0.203353 0.495663
0.450379 0.204854 0.496033
0.595256 0.206449 0.496496
0.742353 0.208133 0.497047
0.885855 0.209810 0.497590
0.908879 0.209569 0.496212
0.022243 0.352186 0.498291
0.039878 0.351491 0.496631
0.181450 0.352888 0.497050
0.325374 0.354388 0.497560
0.471483 0.355988 0.498156
0.619620 0.357682 0.498834
0.768957 0.359458 0.499578
0.911868 0.361188 0.500262
0.933598 0.360995 0.499007
0.030877 0.502549 0.500077
0.049058 0.501945 0.498593
0.194384 0.503493 0.499235
0.341703 0.505145 0.499957
0.490865 0.506898 0.500754
0.641726 0.508746 0.501620
0.792264 0.510657 0.502522
0.933601 0.512482 0.503311
0.954019 0.512394 0.502160
0.039689 0.652811 0.502385
0.058344 0.652358 0.501059
0.206845 0.654107 0.501897
0.357014 0.655960 0.502803
0.508717 0.657912 0.503772
0.661826 0.659960 0.504799
0.812752 0.662043 0.505823
0.951519 0.663996 0.506680
0.970640 0.664059 0.505608
0.048695 0.803296 0.505162
0.067760 0.803044 0.503972
0.218914 0.805034 0.504977
0.371446 0.807126 0.506037
0.525241 0.809315 0.507147
0.680186 0.811598 0.508304
0.830859 0.813882 0.509415
0.966164 0.815983 0.510297
0.984035 0.816230 0.509277
0.057676 0.949837 0.508106
0.077109 0.950155 0.507046
0.230469 0.952682 0.508199
0.384955 0.955246 0.509390
0.540469 0.957844 0.510617
0.696921 0.960474 0.511873
0.846903 0.963015 0.513036
0.977972 0.965262 0.513897
0.994675 0.965654 0.512894
0.060783 0.982000 0.505280
0.080502 0.982316 0.504289
0.235647 0.984844 0.505524
0.391714 0.987389 0.506784
0.548628 0.989946 0.508064
0.706323 0.992517 0.509360
0.855378 0.994947 0.510513
0.981558 0.997002 0.511287
0.997212 0.997251 0.510243
0.004432 0.018296 0.648007
0.020003 0.017543 0.645268
0.146910 0.018655 0.644422
0.277387 0.019869 0.643707
0.411228 0.021183 0.643117
0.548232 0.022592 0.642649
0.688204 0.024091 0.642297
0.829679 0.025658 0.642037
0.854982 0.025366 0.639942
0.006250 0.050167 0.640082
0.022624 0.049518 0.637595
0.155279 0.050816 0.637078
0.291054 0.052210 0.636679
0.429755 0.053696 0.636395
0.571197 0.055272 0.636220
0.715199 0.056932 0.636149
0.858467 0.058623 0.636128
0.882610 0.058408 0.634218
0.014594 0.201820 0.639272
0.031669 0.201120 0.637012
0.169326 0.202449 0.636788
0.309684 0.203877 0.636670
0.452564 0.205401 0.636655
0.597795 0.207017 0.636737
0.745209 0.208722 0.636913
0.888653 0.210413 0.637078
0.911547 0.210185 0.635326
0.023079 0.352640 0.639137
0.040771 0.351966 0.637088
0.182748 0.353389 0.637130
0.327040 0.354915 0.637266
0.473481 0.356539 0.637493
0.621914 0.358257 0.637805
0.771412 0.360054 0.638185
0.914210 0.361800 0.638504
0.935807 0.361622 0.636886
0.031725 0.503022 0.639631
0.049956 0.502442 0.637774
0.195626 0.504018 0.638053
0.343255 0.505697 0.638415
0.492694 0.507475 0.638854
0.643801 0.509349 0.639365
0.794411 0.511281 0.639911
0.935530 0.513123 0.640342
0.955814 0.513052 0.638835
0.040551 0.653326 0.640698
0.059249 0.652898 0.639011
0.208038 0.654676 0.639496
0.358466 0.656556 0.640050
0.510397 0.658535 0.640669
0.663707 0.660609 0.641346
0.814632 0.662713 0.642019
0.953086 0.664682 0.642518
0.972076 0.664763 0.641092
0.049572 0.803869 0.642269
0.068673 0.803645 0.640727
0.220066 0.805664 0.641383
0.372811 0.807783 0.642095
0.526793 0.809999 0.642857
0.681901 0.812307 0.643664
0.832518 0.814611 0.644421
0.967427 0.816727 0.644942
0.985174 0.816992 0.643564
0.058575 0.950603 0.644034
0.078038 0.950926 0.642622
0.231592 0.953460 0.643425
0.386251 0.956031 0.644265
0.541917 0.958636 0.645138
0.698502 0.961272 0.646038
0.848395 0.963814 0.646837
0.978996 0.966057 0.647326
0.995585 0.966449 0.645952
0.061693 0.982759 0.640018
0.081437 0.983073 0.638670
0.236741 0.985602 0.639548
0.392950 0.988147 0.640447
0.549991 0.990705 0.641363
0.707802 0.993275 0.642288
0.856759 0.995701 0.643062
0.982415 0.997746 0.643443
0.997972 0.997991 0.642005
0.005237 0.018767 0.792832
0.020891 0.018028 0.789641
0.148411 0.019162 0.788360
0.279454 0.020399 0.787216
0.413815 0.021733 0.786205
0.551296 0.023162 0.785321
0.691702 0.024680 0.784560
0.833427 0.026262 0.783894
0.858616 0.025981 0.781394
0.007066 0.050660 0.783413
0.023514 0.050026 0.780499
0.156705 0.051345 0.779570
0.292972 0.052760 0.778765
0.432124 0.054267 0.778081
0.573975 0.055861 0.777511
0.718347 0.057540 0.777051
0.861705 0.059244 0.776641
0.885724 0.059039 0.774345
0.015420 0.202283 0.781188
0.032559 0.201601 0.778524
0.170681 0.202954 0.777908
0.311463 0.204405 0.777404
0.454729 0.205952 0.777008
0.600307 0.207590 0.776713
0.748017 0.209315 0.776515
0.891404 0.211020 0.776306
0.914166 0.210805 0.774182
0.023915 0.353099 0.779710
0.041664 0.352447 0.777277
0.184040 0.353896 0.776945
0.328693 0.355447 0.776711
0.475460 0.357096 0.776572
0.624185 0.358837 0.776521
0.773834 0.360654 0.776539
0.916508 0.362416 0.776494
0.937971 0.362253 0.774517
0.032574 0.503503 0.778924
0.050853 0.502946 0.776698
0.196862 0.504550 0.776617
0.344796 0.506255 0.776621
0.494507 0.508060 0.776704
0.645854 0.509958 0.776862
0.796528 0.511911 0.777054
0.937420 0.513768 0.777128
0.957570 0.513714 0.775266
0.041413 0.653848 0.778759
0.060154 0.653446 0.776715
0.209227 0.655252 0.776848
0.359907 0.657160 0.777052
0.512063 0.659165 0.777321
0.665569 0.661264 0.777650
0.816487 0.663390 0.777971
0.954619 0.665373 0.778114
0.973479 0.665472 0.776333
0.050450 0.804451 0.779132
0.069587 0.804253 0.777238
0.221214 0.806301 0.777547
0.374167 0.808448 0.777911
0.528332 0.810690 0.778324
0.683601 0.813022 0.778782
0.834158 0.815347 0.779185
0.968662 0.817477 0.779343
0.986286 0.817759 0.777605
0.059474 0.951369 0.779720
0.078966 0.951698 0.777956
0.232712 0.954239 0.778408
0.387540 0.956817 0.778896
0.543355 0.959428 0.779414
0.700071 0.962069 0.779956
0.849873 0.964614 0.780391
0.979999 0.966851 0.780504
0.996475 0.967244 0.778755
0.062604 0.983516 0.774511
0.082372 0.983828 0.772805
0.237833 0.986358 0.773325
0.394181 0.988903 0.773861
0.551347 0.991461 0.774409
0.709272 0.994031 0.774961
0.858131 0.996453 0.775352
0.983259 0.998488 0.775335
0.998722 0.998729 0.773497
0.005817 0.019016 0.897227
0.021569 0.018307 0.896383
0.149709 0.019479 0.897346
0.281325 0.020751 0.898337
0.416213 0.022120 0.899351
0.554176 0.023581 0.900386
0.695022 0.025131 0.901437
0.836994 0.026740 0.902475
0.862078 0.026479 0.901571
0.007708 0.050982 0.895259
0.024242 0.050375 0.894325
0.157975 0.051729 0.895277
0.294739 0.053177 0.896247
0.434346 0.054715 0.897233
0.576611 0.056340 0.898230
0.721357 0.058047 0.899235
0.864798 0.059774 0.900186
0.888701 0.059588 0.899149
0.016113 0.202619 0.899265
0.033328 0.201966 0.898228
0.171919 0.203354 0.899143
0.313129 0.204839 0.900070
0.456783 0.206417 0.901003
0.602712 0.208085 0.901941
0.750669 0.209838 0.902877
0.894041 0.211566 0.903704
0.916680 0.211370 0.902523
0.024656 0.353469 0.902851
0.042469 0.352846 0.901707
0.185247 0.354331 0.902573
0.330264 0.355915 0.903441
0.477359 0.357595 0.904310
0.626377 0.359367 0.905175
0.776174 0.361211 0.906017
0.918720 0.362994 0.906704
0.940054 0.362853 0.905372
0.033357 0.503923 0.906015
0.051692 0.503397 0.904760
0.198040 0.505035 0.905562
0.346279 0.506774 0.906360
0.496263 0.508610 0.907151
0.647852 0.510538 0.907930
0.798587 0.512517 0.908657
0.939245 0.514394 0.909181
0.959266 0.514360 0.907693
0.042233 0.654334 0.908752
0.061021 0.653963 0.907380
0.210377 0.655803 0.908105
0.361310 0.657743 0.908818
0.513690 0.659779 0.909516
0.667394 0.661906 0.910196
0.818301 0.664056 0.910790
0.956105 0.666057 0.911127
0.974838 0.666176 0.909475
0.051302 0.805015 0.911052
0.070479 0.804847 0.909556
0.222340 0.806927 0.910189
0.375500 0.809104 0.910802
0.529847 0.811375 0.911393
0.685275 0.813735 0.911959
0.835770 0.816082 0.912400
0.969865 0.818226 0.912528
0.987368 0.818527 0.910703
0.060361 0.952123 0.912681
0.079883 0.952459 0.911065
0.233819 0.955010 0.911600
0.388815 0.957596 0.912106
0.544777 0.960215 0.912580
0.701624 0.962864 0.913018
0.851335 0.965411 0.913289
0.980981 0.967644 0.913180
0.997346 0.968038 0.911166
0.063510 0.984266 0.907705
0.083302 0.984578 0.905930
0.238918 0.987110 0.906324
0.395405 0.989656 0.906681
0.552695 0.992215 0.906998
0.710734 0.994786 0.907272
0.859496 0.997204 0.907338
0.984091 0.999228 0.906951
0.999464 0.999465 0.904718
0.006015 0.018887 0.933196
0.021855 0.018199 0.933177
0.150599 0.019400 0.934934
0.282773 0.020700 0.936679
0.418173 0.022095 0.938407
0.556605 0.023582 0.940117
0.697878 0.025157 0.941803
0.840073 0.026787 0.943436
0.865046 0.026540 0.943084
0.007940 0.050898 0.933842
0.024552 0.050312 0.933601
0.158813 0.051693 0.935214
0.296061 0.053168 0.936807
0.436110 0.054731 0.938377
0.578776 0.056379 0.939921
0.723885 0.058109 0.941436
0.867387 0.059854 0.942856
0.891169 0.059682 0.942250
0.016376 0.202527 0.940019
0.033659 0.201898 0.939547
0.172706 0.203315 0.940997
0.314332 0.204827 0.942421
0.458363 0.206432 0.943815
0.604632 0.208126 0.945178
0.752822 0.209902 0.946504
0.896164 0.211649 0.947682
0.918675 0.211469 0.946817
0.024947 0.353393 0.945354
0.042819 0.352796 0.944653
0.185988 0.354311 0.945933
0.331358 0.355925 0.947181
0.478772 0.357632 0.948394
0.628074 0.359431 0.949570
0.778007 0.361299 0.950689
0.920412 0.363100 0.951616
0.941614 0.362976 0.950494
0.033675 0.503885 0.949866
0.052061 0.503386 0.948940
0.198740 0.505055 0.950043
0.347276 0.506824 0.951108
0.497525 0.508688 0.952134
0.649349 0.510643 0.953119
0.800134 0.512645 0.954018
0.940548 0.514540 0.954680
0.960438 0.514526 0.953304
0.042577 0.654351 0.953576
0.061409 0.654008 0.952425
0.211041 0.655879 0.953345
0.362221 0.657849 0.954223
0.514819 0.659913 0.955056
0.668714 0.662068 0.955844
0.819603 0.664241 0.956515
0.957071 0.666259 0.956898
0.975676 0.666396 0.955271
0.051672 0.805102 0.956498
0.070885 0.804963 0.955124
0.222974 0.807074 0.955856
0.376336 0.809280 0.956541
0.530861 0.811579 0.957177
0.686445 0.813965 0.957764
0.836875 0.816333 0.958198
0.970551 0.818492 0.958291
0.987935 0.818811 0.956415
0.060759 0.952389 0.958435
0.080312 0.952732 0.956853
0.234434 0.955293 0.957400
0.389594 0.957887 0.957893
0.545701 0.960514 0.958332
0.702676 0.963169 0.958715
0.852295 0.965720 0.958907
0.981455 0.967949 0.958695
0.997711 0.968345 0.956566
0.063927 0.984526 0.953473
0.083744 0.984838 0.951654
0.239512 0.987372 0.951986
0.396135 0.989920 0.952261
0.553549 0.992480 0.952477
0.711702 0.995052 0.952635
0.860369 0.997468 0.952566
0.984430 0.999482 0.952024
0.999717 0.999717 0.949632
