library/cube/Modern_Voice_004.cube
# CINEGRADE LAB — Premium Cinematic LUT
# Title: Modern Voice
# Category: Clean Creator Economy
# Description: Bright, clean, approachable, modern aesthetic for content creators
# Mood: Fresh, bright, friendly
# Variant: 5
# Generated: 2026-05-21T16:12:38.977207
TITLE "Modern Voice"
LUT_3D_SIZE 9
0.120649 0.122648 0.150191
0.211204 0.126426 0.153970
0.308851 0.130501 0.158045
0.410682 0.134750 0.162294
0.515549 0.139126 0.166670
0.622819 0.143602 0.171146
0.732085 0.148161 0.175705
0.843066 0.152792 0.180336
0.882924 0.154456 0.181999
0.133697 0.224766 0.163239
0.224252 0.228545 0.167018
0.321898 0.232619 0.171092
0.423729 0.236868 0.175341
0.528597 0.241244 0.179717
0.635866 0.245720 0.184193
0.745133 0.250280 0.188753
0.856114 0.254911 0.193384
0.895971 0.256574 0.195047
0.147557 0.333241 0.177099
0.238112 0.337020 0.180878
0.335758 0.341094 0.184952
0.437589 0.345344 0.189201
0.542456 0.349719 0.193577
0.649726 0.354196 0.198053
0.758993 0.358755 0.202613
0.869974 0.363386 0.207244
0.909831 0.365049 0.208907
0.161890 0.445421 0.191432
0.252445 0.449199 0.195211
0.350091 0.453274 0.199285
0.451922 0.457523 0.203534
0.556790 0.461899 0.207910
0.664059 0.466375 0.212386
0.773326 0.470934 0.216946
0.884307 0.475565 0.221577
0.924165 0.477228 0.223240
0.176564 0.560268 0.206106
0.267119 0.564047 0.209885
0.364766 0.568121 0.213959
0.466597 0.572371 0.218209
0.571464 0.576746 0.222584
0.678733 0.581222 0.227060
0.788000 0.585782 0.231620
0.898981 0.590413 0.236251
0.938839 0.592076 0.237914
0.191507 0.677216 0.221049
0.282061 0.680995 0.224827
0.379708 0.685069 0.228902
0.481539 0.689319 0.233151
0.586406 0.693694 0.237527
0.693676 0.698170 0.242003
0.802943 0.702730 0.246562
0.913923 0.707361 0.251193
0.953781 0.709024 0.252856
0.206671 0.795903 0.236213
0.297226 0.799681 0.239992
0.394873 0.803756 0.244066
0.496704 0.808005 0.248316
0.601571 0.812381 0.252691
0.708841 0.816857 0.257168
0.818107 0.821417 0.261727
0.929088 0.826048 0.266358
0.968946 0.827711 0.268021
0.222026 0.916076 0.251568
0.312580 0.919855 0.255346
0.410227 0.923930 0.259421
0.512058 0.928179 0.263670
0.616925 0.932555 0.268046
0.724195 0.937031 0.272522
0.833462 0.941590 0.277082
0.944442 0.946221 0.281713
0.984300 0.947884 0.283376
0.227360 0.957827 0.256902
0.317915 0.961606 0.260681
0.415562 0.965680 0.264755
0.517393 0.969929 0.269005
0.622260 0.974305 0.273380
0.729530 0.978781 0.277857
0.838796 0.983341 0.282416
0.949777 0.987972 0.287047
0.989635 0.989635 0.288710
0.121926 0.123924 0.237763
0.212480 0.127703 0.241542
0.310127 0.131777 0.245617
0.411958 0.136026 0.249866
0.516825 0.140402 0.254242
0.624095 0.144878 0.258718
0.733362 0.149438 0.263277
0.844342 0.154069 0.267908
0.884200 0.155732 0.269571
0.134973 0.226042 0.250811
0.225528 0.229821 0.254590
0.323175 0.233895 0.258664
0.425006 0.238145 0.262913
0.529873 0.242520 0.267289
0.637142 0.246996 0.271765
0.746409 0.251556 0.276325
0.857390 0.256187 0.280956
0.897248 0.257850 0.282619
0.148833 0.334517 0.264671
0.239388 0.338296 0.268450
0.337034 0.342371 0.272524
0.438865 0.346620 0.276773
0.543733 0.350996 0.281149
0.651002 0.355472 0.285625
0.760269 0.360031 0.290185
0.871250 0.364662 0.294816
0.911108 0.366325 0.296479
0.163166 0.446697 0.279004
0.253721 0.450475 0.282783
0.351368 0.454550 0.286857
0.453199 0.458799 0.291106
0.558066 0.463175 0.295482
0.665335 0.467651 0.299958
0.774602 0.472210 0.304518
0.885583 0.476841 0.309149
0.925441 0.478505 0.310812
0.177840 0.561544 0.293678
0.268395 0.565323 0.297457
0.366042 0.569398 0.301531
0.467873 0.573647 0.305781
0.572740 0.578023 0.310156
0.680010 0.582499 0.314633
0.789276 0.587058 0.319192
0.900257 0.591689 0.323823
0.940115 0.593352 0.325486
0.192783 0.678492 0.308621
0.283337 0.682271 0.312399
0.380984 0.686346 0.316474
0.482815 0.690595 0.320723
0.587682 0.694971 0.325099
0.694952 0.699447 0.329575
0.804219 0.704006 0.334134
0.915199 0.708637 0.338765
0.955057 0.710300 0.340429
0.207947 0.797179 0.323785
0.298502 0.800958 0.327564
0.396149 0.805032 0.331638
0.497980 0.809281 0.335888
0.602847 0.813657 0.340263
0.710117 0.818133 0.344740
0.819383 0.822693 0.349299
0.930364 0.827324 0.353930
0.970222 0.828987 0.355593
0.223302 0.917353 0.339140
0.313857 0.921131 0.342919
0.411503 0.925206 0.346993
0.513334 0.929455 0.351242
0.618201 0.933831 0.355618
0.725471 0.938307 0.360094
0.834738 0.942866 0.364654
0.945719 0.947497 0.369285
0.985576 0.949160 0.370948
0.228637 0.959103 0.344474
0.319191 0.962882 0.348253
0.416838 0.966956 0.352328
0.518669 0.971205 0.356577
0.623536 0.975581 0.360953
0.730806 0.980057 0.365429
0.840072 0.984617 0.369988
0.951053 0.989248 0.374619
0.990911 0.990911 0.376282
0.123289 0.125287 0.331318
0.213843 0.129066 0.335097
0.311490 0.133140 0.339171
0.413321 0.137390 0.343421
0.518188 0.141765 0.347796
0.625458 0.146242 0.352273
0.734725 0.150801 0.356832
0.845705 0.155432 0.361463
0.885563 0.157095 0.363126
0.136337 0.227406 0.344366
0.226891 0.231184 0.348145
0.324538 0.235259 0.352219
0.426369 0.239508 0.356468
0.531236 0.243884 0.360844
0.638506 0.248360 0.365320
0.747773 0.252919 0.369880
0.858753 0.257550 0.374511
0.898611 0.259213 0.376174
0.150196 0.335881 0.358226
0.240751 0.339659 0.362004
0.338398 0.343734 0.366079
0.440229 0.347983 0.370328
0.545096 0.352359 0.374704
0.652366 0.356835 0.379180
0.761632 0.361394 0.383740
0.872613 0.366025 0.388370
0.912471 0.367689 0.390034
0.164530 0.448060 0.372559
0.255084 0.451839 0.376338
0.352731 0.455913 0.380412
0.454562 0.460162 0.384661
0.559429 0.464538 0.389037
0.666699 0.469014 0.393513
0.775966 0.473574 0.398073
0.886946 0.478205 0.402704
0.926804 0.479868 0.404367
0.179204 0.562908 0.387233
0.269758 0.566686 0.391012
0.367405 0.570761 0.395086
0.469236 0.575010 0.399335
0.574103 0.579386 0.403711
0.681373 0.583862 0.408187
0.790640 0.588421 0.412747
0.901620 0.593052 0.417378
0.941478 0.594716 0.419041
0.194146 0.679856 0.402175
0.284701 0.683634 0.405954
0.382347 0.687709 0.410029
0.484178 0.691958 0.414278
0.589046 0.696334 0.418654
0.696315 0.700810 0.423130
0.805582 0.705369 0.427689
0.916563 0.710000 0.432320
0.956421 0.711664 0.433983
0.209311 0.798542 0.417340
0.299865 0.802321 0.421119
0.397512 0.806395 0.425193
0.499343 0.810645 0.429442
0.604210 0.815021 0.433818
0.711480 0.819497 0.438294
0.820747 0.824056 0.442854
0.931727 0.828687 0.447485
0.971585 0.830350 0.449148
0.224665 0.918716 0.432695
0.315220 0.922495 0.436473
0.412867 0.926569 0.440548
0.514698 0.930818 0.444797
0.619565 0.935194 0.449173
0.726835 0.939670 0.453649
0.836101 0.944230 0.458208
0.947082 0.948861 0.462839
0.986940 0.950524 0.464503
0.230000 0.960466 0.438029
0.320554 0.964245 0.441808
0.418201 0.968320 0.445882
0.520032 0.972569 0.450131
0.624899 0.976945 0.454507
0.732169 0.981421 0.458983
0.841436 0.985980 0.463543
0.952416 0.990611 0.468174
0.992274 0.992274 0.469837
0.124707 0.126705 0.428602
0.215261 0.130483 0.432381
0.312908 0.134558 0.436455
0.414739 0.138807 0.440704
0.519606 0.143183 0.445080
0.626876 0.147659 0.449556
0.736143 0.152219 0.454116
0.847123 0.156850 0.458747
0.886981 0.158513 0.460410
0.137754 0.228823 0.441650
0.228309 0.232602 0.445428
0.325956 0.236676 0.449503
0.427787 0.240926 0.453752
0.532654 0.245301 0.458128
0.639923 0.249777 0.462604
0.749190 0.254337 0.467163
0.860171 0.258968 0.471794
0.900029 0.260631 0.473457
0.151614 0.337298 0.455510
0.242169 0.341077 0.459288
0.339815 0.345152 0.463363
0.441646 0.349401 0.467612
0.546514 0.353777 0.471988
0.653783 0.358253 0.476464
0.763050 0.362812 0.481023
0.874031 0.367443 0.485654
0.913889 0.369106 0.487317
0.165947 0.449478 0.469843
0.256502 0.453256 0.473621
0.354149 0.457331 0.477696
0.455980 0.461580 0.481945
0.560847 0.465956 0.486321
0.668116 0.470432 0.490797
0.777383 0.474991 0.495356
0.888364 0.479622 0.499987
0.928222 0.481286 0.501651
0.180621 0.564325 0.484517
0.271176 0.568104 0.488295
0.368823 0.572178 0.492370
0.470654 0.576428 0.496619
0.575521 0.580804 0.500995
0.682791 0.585280 0.505471
0.792057 0.589839 0.510031
0.903038 0.594470 0.514661
0.942896 0.596133 0.516325
0.195564 0.681273 0.499459
0.286118 0.685052 0.503238
0.383765 0.689126 0.507312
0.485596 0.693376 0.511562
0.590463 0.697752 0.515937
0.697733 0.702228 0.520414
0.807000 0.706787 0.524973
0.917980 0.711418 0.529604
0.957838 0.713081 0.531267
0.210728 0.799960 0.514624
0.301283 0.803739 0.518402
0.398930 0.807813 0.522477
0.500761 0.812062 0.526726
0.605628 0.816438 0.531102
0.712898 0.820914 0.535578
0.822164 0.825474 0.540138
0.933145 0.830105 0.544769
0.973003 0.831768 0.546432
0.226083 0.920134 0.529978
0.316638 0.923912 0.533757
0.414284 0.927987 0.537832
0.516115 0.932236 0.542081
0.620982 0.936612 0.546457
0.728252 0.941088 0.550933
0.837519 0.945647 0.555492
0.948500 0.950278 0.560123
0.988357 0.951941 0.561786
0.231418 0.961884 0.535313
0.321972 0.965663 0.539092
0.419619 0.969737 0.543166
0.521450 0.973986 0.547415
0.626317 0.978362 0.551791
0.733587 0.982838 0.556267
0.842853 0.987398 0.560827
0.953834 0.992029 0.565458
0.993692 0.993692 0.567121
0.126164 0.128163 0.528644
0.216719 0.131941 0.532423
0.314366 0.136016 0.536497
0.416197 0.140265 0.540746
0.521064 0.144641 0.545122
0.628334 0.149117 0.549598
0.737600 0.153676 0.554158
0.848581 0.158307 0.558789
0.888439 0.159971 0.560452
0.139212 0.230281 0.541692
0.229767 0.234060 0.545470
0.327413 0.238134 0.549545
0.429244 0.242383 0.553794
0.534112 0.246759 0.558170
0.641381 0.251235 0.562646
0.750648 0.255795 0.567206
0.861629 0.260426 0.571836
0.901486 0.262089 0.573500
0.153072 0.338756 0.555552
0.243627 0.342535 0.559330
0.341273 0.346609 0.563405
0.443104 0.350859 0.567654
0.547971 0.355234 0.572030
0.655241 0.359711 0.576506
0.764508 0.364270 0.581065
0.875488 0.368901 0.585696
0.915346 0.370564 0.587360
0.167405 0.450936 0.569885
0.257960 0.454714 0.573663
0.355606 0.458789 0.577738
0.457437 0.463038 0.581987
0.562305 0.467414 0.586363
0.669574 0.471890 0.590839
0.778841 0.476449 0.595399
0.889822 0.481080 0.600030
0.929680 0.482743 0.601693
0.182079 0.565783 0.584559
0.272634 0.569562 0.588338
0.370281 0.573636 0.592412
0.472112 0.577886 0.596661
0.576979 0.582261 0.601037
0.684248 0.586737 0.605513
0.793515 0.591297 0.610073
0.904496 0.595928 0.614704
0.944354 0.597591 0.616367
0.197022 0.682731 0.599501
0.287576 0.686510 0.603280
0.385223 0.690584 0.607355
0.487054 0.694834 0.611604
0.591921 0.699209 0.615980
0.699191 0.703685 0.620456
0.808458 0.708245 0.625015
0.919438 0.712876 0.629646
0.959296 0.714539 0.631309
0.212186 0.801418 0.614666
0.302741 0.805196 0.618445
0.400388 0.809271 0.622519
0.502219 0.813520 0.626768
0.607086 0.817896 0.631144
0.714355 0.822372 0.635620
0.823622 0.826932 0.640180
0.934603 0.831563 0.644811
0.974461 0.833226 0.646474
0.227541 0.921591 0.630021
0.318095 0.925370 0.633799
0.415742 0.929445 0.637874
0.517573 0.933694 0.642123
0.622440 0.938070 0.646499
0.729710 0.942546 0.650975
0.838977 0.947105 0.655534
0.949957 0.951736 0.660165
0.989815 0.953399 0.661828
0.232875 0.963342 0.635355
0.323430 0.967121 0.639134
0.421077 0.971195 0.643208
0.522908 0.975444 0.647457
0.627775 0.979820 0.651833
0.735045 0.984296 0.656309
0.844311 0.988856 0.660869
0.955292 0.993487 0.665500
0.995150 0.995150 0.667163
0.127654 0.129653 0.630892
0.218209 0.133431 0.634670
0.315856 0.137506 0.638745
0.417687 0.141755 0.642994
0.522554 0.146131 0.647370
0.629824 0.150607 0.651846
0.739090 0.155166 0.656405
0.850071 0.159797 0.661036
0.889929 0.161461 0.662699
0.140702 0.231771 0.643939
0.231257 0.235550 0.647718
0.328903 0.239624 0.651792
0.430734 0.243873 0.656042
0.535602 0.248249 0.660417
0.642871 0.252725 0.664893
0.752138 0.257285 0.669453
0.863119 0.261916 0.674084
0.902976 0.263579 0.675747
0.154562 0.340246 0.657799
0.245117 0.344025 0.661578
0.342763 0.348099 0.665652
0.444594 0.352349 0.669901
0.549461 0.356724 0.674277
0.656731 0.361201 0.678753
0.765998 0.365760 0.683313
0.876978 0.370391 0.687944
0.916836 0.372054 0.689607
0.168895 0.452426 0.672132
0.259450 0.456204 0.675911
0.357096 0.460279 0.679985
0.458927 0.464528 0.684235
0.563795 0.468904 0.688610
0.671064 0.473380 0.693087
0.780331 0.477939 0.697646
0.891312 0.482570 0.702277
0.931170 0.484233 0.703940
0.183569 0.567273 0.686806
0.274124 0.571052 0.690585
0.371771 0.575126 0.694660
0.473602 0.579376 0.698909
0.578469 0.583751 0.703285
0.685738 0.588227 0.707761
0.795005 0.592787 0.712320
0.905986 0.597418 0.716951
0.945844 0.599081 0.718614
0.198512 0.684221 0.701749
0.289066 0.688000 0.705527
0.386713 0.692074 0.709602
0.488544 0.696324 0.713851
0.593411 0.700699 0.718227
0.700681 0.705175 0.722703
0.809948 0.709735 0.727263
0.920928 0.714366 0.731893
0.960786 0.716029 0.733557
0.213676 0.802908 0.716913
0.304231 0.806686 0.720692
0.401878 0.810761 0.724767
0.503709 0.815010 0.729016
0.608576 0.819386 0.733392
0.715845 0.823862 0.737868
0.825112 0.828422 0.742427
0.936093 0.833053 0.747058
0.975951 0.834716 0.748721
0.229031 0.923081 0.732268
0.319585 0.926860 0.736047
0.417232 0.930935 0.740121
0.519063 0.935184 0.744370
0.623930 0.939560 0.748746
0.731200 0.944036 0.753222
0.840467 0.948595 0.757782
0.951447 0.953226 0.762413
0.991305 0.954889 0.764076
0.234365 0.964832 0.737602
0.324920 0.968611 0.741381
0.422567 0.972685 0.745456
0.524398 0.976934 0.749705
0.629265 0.981310 0.754081
0.736535 0.985786 0.758557
0.845801 0.990346 0.763116
0.956782 0.994977 0.767747
0.996640 0.996640 0.769410
0.129171 0.131170 0.734984
0.219726 0.134948 0.738762
0.317373 0.139023 0.742837
0.419204 0.143272 0.747086
0.524071 0.147648 0.751462
0.631340 0.152124 0.755938
0.740607 0.156683 0.760497
0.851588 0.161314 0.765128
0.891446 0.162977 0.766791
0.142219 0.233288 0.748031
0.232774 0.237067 0.751810
0.330420 0.241141 0.755884
0.432251 0.245390 0.760134
0.537118 0.249766 0.764509
0.644388 0.254242 0.768986
0.753655 0.258802 0.773545
0.864635 0.263433 0.778176
0.904493 0.265096 0.779839
0.156079 0.341763 0.761891
0.246633 0.345542 0.765670
0.344280 0.349616 0.769744
0.446111 0.353865 0.773993
0.550978 0.358241 0.778369
0.658248 0.362717 0.782845
0.767515 0.367277 0.787405
0.878495 0.371908 0.792036
0.918353 0.373571 0.793699
0.170412 0.453942 0.776224
0.260967 0.457721 0.780003
0.358613 0.461796 0.784077
0.460444 0.466045 0.788327
0.565311 0.470421 0.792702
0.672581 0.474897 0.797179
0.781848 0.479456 0.801738
0.892829 0.484087 0.806369
0.932686 0.485750 0.808032
0.185086 0.568790 0.790898
0.275641 0.572569 0.794677
0.373287 0.576643 0.798752
0.475118 0.580892 0.803001
0.579986 0.585268 0.807377
0.687255 0.589744 0.811853
0.796522 0.594304 0.816412
0.907503 0.598935 0.821043
0.947360 0.600598 0.822706
0.200029 0.685738 0.805841
0.290583 0.689517 0.809619
0.388230 0.693591 0.813694
0.490061 0.697840 0.817943
0.594928 0.702216 0.822319
0.702198 0.706692 0.826795
0.811465 0.711252 0.831355
0.922445 0.715883 0.835986
0.962303 0.717546 0.837649
0.215193 0.804425 0.821005
0.305748 0.808203 0.824784
0.403394 0.812278 0.828859
0.505225 0.816527 0.833108
0.610093 0.820903 0.837484
0.717362 0.825379 0.841960
0.826629 0.829938 0.846519
0.937610 0.834569 0.851150
0.977468 0.836233 0.852813
0.230548 0.924598 0.836360
0.321102 0.928377 0.840139
0.418749 0.932451 0.844213
0.520580 0.936701 0.848462
0.625447 0.941076 0.852838
0.732717 0.945553 0.857314
0.841984 0.950112 0.861874
0.952964 0.954743 0.866505
0.992822 0.956406 0.868168
0.235882 0.966349 0.841695
0.326437 0.970127 0.845473
0.424084 0.974202 0.849548
0.525915 0.978451 0.853797
0.630782 0.982827 0.858173
0.738051 0.987303 0.862649
0.847318 0.991862 0.867208
0.958299 0.996493 0.871839
0.998157 0.998157 0.873502
0.130711 0.132710 0.840666
0.221266 0.136488 0.844444
0.318913 0.140563 0.848519
0.420744 0.144812 0.852768
0.525611 0.149188 0.857144
0.632881 0.153664 0.861620
0.742147 0.158223 0.866179
0.853128 0.162854 0.870810
0.892986 0.164518 0.872473
0.143759 0.234828 0.853713
0.234314 0.238607 0.857492
0.331960 0.242681 0.861566
0.433791 0.246930 0.865816
0.538658 0.251306 0.870191
0.645928 0.255782 0.874667
0.755195 0.260342 0.879227
0.866176 0.264973 0.883858
0.906033 0.266636 0.885521
0.157619 0.343303 0.867573
0.248173 0.347082 0.871352
0.345820 0.351156 0.875426
0.447651 0.355406 0.879675
0.552518 0.359781 0.884051
0.659788 0.364257 0.888527
0.769055 0.368817 0.893087
0.880035 0.373448 0.897718
0.919893 0.375111 0.899381
0.171952 0.455483 0.881906
0.262507 0.459261 0.885685
0.360153 0.463336 0.889759
0.461984 0.467585 0.894009
0.566852 0.471961 0.898384
0.674121 0.476437 0.902861
0.783388 0.480996 0.907420
0.894369 0.485627 0.912051
0.934226 0.487290 0.913714
0.186626 0.570330 0.896580
0.277181 0.574109 0.900359
0.374827 0.578183 0.904433
0.476658 0.582432 0.908683
0.581526 0.586808 0.913059
0.688795 0.591284 0.917535
0.798062 0.595844 0.922094
0.909043 0.600475 0.926725
0.948901 0.602138 0.928388
0.201569 0.687278 0.911523
0.292123 0.691057 0.915301
0.389770 0.695131 0.919376
0.491601 0.699380 0.923625
0.596468 0.703756 0.928001
0.703738 0.708232 0.932477
0.813005 0.712792 0.937037
0.923985 0.717423 0.941667
0.963843 0.719086 0.943331
0.216733 0.805965 0.926687
0.307288 0.809743 0.930466
0.404934 0.813818 0.934541
0.506766 0.818067 0.938790
0.611633 0.822443 0.943166
0.718902 0.826919 0.947642
0.828169 0.831478 0.952201
0.939150 0.836109 0.956832
0.979008 0.837773 0.958495
0.232088 0.926138 0.942042
0.322642 0.929917 0.945821
0.420289 0.933992 0.949895
0.522120 0.938241 0.954144
0.626987 0.942617 0.958520
0.734257 0.947093 0.962996
0.843524 0.951652 0.967556
0.954504 0.956283 0.972187
0.994362 0.957946 0.973850
0.237422 0.967889 0.947376
0.327977 0.971667 0.951155
0.425624 0.975742 0.955230
0.527455 0.979991 0.959479
0.632322 0.984367 0.963855
0.739591 0.988843 0.968331
0.848858 0.993403 0.972890
0.959839 0.998033 0.977521
0.999697 0.999697 0.979184
0.131015 0.133013 0.861481
0.221569 0.136792 0.865260
0.319216 0.140866 0.869334
0.421047 0.145115 0.873584
0.525914 0.149491 0.877959
0.633184 0.153967 0.882436
0.742451 0.158527 0.886995
0.853431 0.163158 0.891626
0.893289 0.164821 0.893289
0.144062 0.235131 0.874529
0.234617 0.238910 0.878307
0.332264 0.242984 0.882382
0.434095 0.247234 0.886631
0.538962 0.251609 0.891007
0.646232 0.256086 0.895483
0.755498 0.260645 0.900043
0.866479 0.265276 0.904674
0.906337 0.266939 0.906337
0.157922 0.343606 0.888389
0.248477 0.347385 0.892167
0.346124 0.351460 0.896242
0.447955 0.355709 0.900491
0.552822 0.360085 0.904867
0.660091 0.364561 0.909343
0.769358 0.369120 0.913902
0.880339 0.373751 0.918533
0.920197 0.375414 0.920197
0.172255 0.455786 0.902722
0.262810 0.459564 0.906501
0.360457 0.463639 0.910575
0.462288 0.467888 0.914824
0.567155 0.472264 0.919200
0.674425 0.476740 0.923676
0.783691 0.481300 0.928236
0.894672 0.485931 0.932867
0.934530 0.487594 0.934530
0.186930 0.570633 0.917396
0.277484 0.574412 0.921175
0.375131 0.578487 0.925249
0.476962 0.582736 0.929498
0.581829 0.587112 0.933874
0.689099 0.591588 0.938350
0.798365 0.596147 0.942910
0.909346 0.600778 0.947541
0.949204 0.602441 0.949204
0.201872 0.687581 0.932338
0.292427 0.691360 0.936117
0.390073 0.695435 0.940192
0.491904 0.699684 0.944441
0.596771 0.704060 0.948817
0.704041 0.708536 0.953293
0.813308 0.713095 0.957852
0.924288 0.717726 0.962483
0.964146 0.719389 0.964146
0.217037 0.806268 0.947503
0.307591 0.810047 0.951282
0.405238 0.814121 0.955356
0.507069 0.818370 0.959605
0.611936 0.822746 0.963981
0.719206 0.827222 0.968457
0.828473 0.831782 0.973017
0.939453 0.836413 0.977648
0.979311 0.838076 0.979311
0.232391 0.926442 0.962858
0.322946 0.930220 0.966636
0.420592 0.934295 0.970711
0.522423 0.938544 0.974960
0.627291 0.942920 0.979336
0.734560 0.947396 0.983812
0.843827 0.951955 0.988371
0.954808 0.956586 0.993002
0.994666 0.958250 0.994666
0.237726 0.968192 0.968192
0.328280 0.971971 0.971971
0.425927 0.976045 0.976045
0.527758 0.980294 0.980294
0.632625 0.984670 0.984670
0.739895 0.989146 0.989146
0.849162 0.993706 0.993706
0.960142 0.998337 0.998337
1.000000 1.000000 1.000000
