library/cube/Modern_Voice_004.cube
# CINEGRADE LAB — Premium Cinematic LUT
# Title: Modern Voice
# Category: Clean Creator Economy
# Description: Bright, clean, approachable, modern aesthetic for content creators
# Mood: Fresh, bright, friendly
# Variant: 5
# Generated: 2026-05-21T16:12:38.977207
TITLE "Modern Voice"
LUT_3D_SIZE 33
0.120649 0.122648 0.150191
0.142262 0.123550 0.151093
0.164678 0.124485 0.152029
0.187697 0.125445 0.152989
0.211204 0.126426 0.153970
0.235122 0.127424 0.154968
0.259395 0.128437 0.155981
0.283982 0.129463 0.157007
0.308851 0.130501 0.158045
0.333975 0.131549 0.159093
0.359333 0.132607 0.160151
0.384907 0.133675 0.161218
0.410682 0.134750 0.162294
0.436644 0.135833 0.163377
0.462783 0.136924 0.164468
0.489087 0.138022 0.165565
0.515549 0.139126 0.166670
0.542160 0.140236 0.167780
0.568912 0.141353 0.168896
0.595801 0.142475 0.170018
0.622819 0.143602 0.171146
0.649961 0.144735 0.172278
0.677222 0.145872 0.173416
0.704599 0.147015 0.174558
0.732085 0.148161 0.175705
0.759679 0.149313 0.176857
0.787376 0.150469 0.178012
0.815173 0.151629 0.179172
0.843066 0.152792 0.180336
0.871053 0.153960 0.181504
0.882924 0.154456 0.181999
0.882924 0.154456 0.181999
0.882924 0.154456 0.181999
0.123793 0.147249 0.153335
0.145406 0.148151 0.154237
0.167821 0.149087 0.155172
0.190840 0.150047 0.156132
0.214347 0.151028 0.157113
0.238265 0.152026 0.158111
0.262538 0.153039 0.159124
0.287125 0.154065 0.160150
0.311994 0.155103 0.161188
0.337118 0.156151 0.162236
0.362476 0.157209 0.163294
0.388050 0.158276 0.164362
0.413825 0.159352 0.165437
0.439787 0.160435 0.166520
0.465926 0.161526 0.167611
0.492231 0.162623 0.168709
0.518692 0.163728 0.169813
0.545303 0.164838 0.170923
0.572056 0.165954 0.172040
0.598944 0.167076 0.173162
0.625962 0.168204 0.174289
0.653104 0.169336 0.175422
0.680366 0.170474 0.176559
0.707742 0.171616 0.177701
0.735229 0.172763 0.178848
0.762822 0.173915 0.180000
0.790519 0.175070 0.181156
0.818316 0.176230 0.182315
0.846209 0.177394 0.183479
0.874196 0.178562 0.184647
0.886067 0.179057 0.185143
0.886067 0.179057 0.185143
0.886067 0.179057 0.185143
0.127029 0.172579 0.156571
0.148642 0.173481 0.157473
0.171057 0.174416 0.158408
0.194077 0.175377 0.159369
0.217584 0.176358 0.160350
0.241501 0.177356 0.161348
0.265775 0.178369 0.162361
0.290362 0.179395 0.163387
0.315230 0.180432 0.164424
0.340355 0.181481 0.165473
0.365713 0.182539 0.166531
0.391287 0.183606 0.167598
0.417061 0.184682 0.168673
0.443024 0.185765 0.169757
0.469162 0.186856 0.170847
0.495467 0.187953 0.171945
0.521929 0.189057 0.173049
0.548539 0.190168 0.174160
0.575292 0.191284 0.175276
0.602180 0.192406 0.176398
0.629198 0.193534 0.177525
0.656341 0.194666 0.178658
0.683602 0.195804 0.179796
0.710978 0.196946 0.180938
0.738465 0.198093 0.182085
0.766059 0.199244 0.183236
0.793756 0.200400 0.184392
0.821552 0.201560 0.185552
0.849446 0.202724 0.186716
0.877433 0.203892 0.187884
0.889304 0.204387 0.188379
0.889304 0.204387 0.188379
0.889304 0.204387 0.188379
0.130335 0.198454 0.159877
0.151948 0.199356 0.160779
0.174363 0.200291 0.161714
0.197383 0.201251 0.162675
0.220890 0.202232 0.163656
0.244807 0.203230 0.164654
0.269081 0.204243 0.165667
0.293668 0.205269 0.166693
0.318536 0.206307 0.167730
0.343661 0.207355 0.168779
0.369019 0.208413 0.169837
0.394593 0.209481 0.170904
0.420367 0.210556 0.171979
0.446330 0.211639 0.173063
0.472468 0.212730 0.174153
0.498773 0.213828 0.175251
0.525235 0.214932 0.176355
0.551845 0.216042 0.177466
0.578598 0.217159 0.178582
0.605486 0.218281 0.179704
0.632504 0.219408 0.180831
0.659647 0.220541 0.181964
0.686908 0.221678 0.183102
0.714284 0.222821 0.184244
0.741771 0.223967 0.185391
0.769365 0.225119 0.186542
0.797062 0.226275 0.187698
0.824858 0.227435 0.188858
0.852752 0.228598 0.190022
0.880739 0.229766 0.191190
0.892610 0.230262 0.191685
0.892610 0.230262 0.191685
0.892610 0.230262 0.191685
0.133697 0.224766 0.163239
0.155310 0.225668 0.164141
0.177725 0.226603 0.165076
0.200745 0.227564 0.166037
0.224252 0.228545 0.167018
0.248169 0.229543 0.168016
0.272443 0.230556 0.169029
0.297030 0.231582 0.170054
0.321898 0.232619 0.171092
0.347022 0.233668 0.172141
0.372381 0.234726 0.173199
0.397955 0.235793 0.174266
0.423729 0.236868 0.175341
0.449692 0.237952 0.176425
0.475830 0.239042 0.177515
0.502135 0.240140 0.178613
0.528597 0.241244 0.179717
0.555207 0.242355 0.180828
0.581960 0.243471 0.181944
0.608848 0.244593 0.183066
0.635866 0.245720 0.184193
0.663008 0.246853 0.185326
0.690270 0.247990 0.186463
0.717646 0.249133 0.187606
0.745133 0.250280 0.188753
0.772727 0.251431 0.189904
0.800424 0.252587 0.191060
0.828220 0.253747 0.192220
0.856114 0.254911 0.193384
0.884101 0.256079 0.194552
0.895971 0.256574 0.195047
0.895971 0.256574 0.195047
0.895971 0.256574 0.195047
0.137106 0.251445 0.166648
0.158719 0.252347 0.167550
0.181134 0.253283 0.168485
0.204153 0.254243 0.169446
0.227660 0.255224 0.170426
0.251578 0.256222 0.171424
0.275851 0.257235 0.172437
0.300439 0.258261 0.173463
0.325307 0.259299 0.174501
0.350431 0.260347 0.175549
0.375789 0.261405 0.176608
0.401363 0.262472 0.177675
0.427138 0.263548 0.178750
0.453101 0.264631 0.179834
0.479239 0.265722 0.180924
0.505544 0.266819 0.182022
0.532005 0.267924 0.183126
0.558616 0.269034 0.184236
0.585369 0.270150 0.185353
0.612257 0.271272 0.186475
0.639275 0.272400 0.187602
0.666417 0.273532 0.188735
0.693679 0.274670 0.189872
0.721055 0.275812 0.191015
0.748542 0.276959 0.192162
0.776136 0.278111 0.193313
0.803832 0.279266 0.194469
0.831629 0.280426 0.195629
0.859522 0.281590 0.196793
0.887510 0.282758 0.197960
0.899380 0.283253 0.198456
0.899380 0.283253 0.198456
0.899380 0.283253 0.198456
0.140555 0.278442 0.170097
0.162168 0.279343 0.170999
0.184583 0.280279 0.171934
0.207603 0.281239 0.172895
0.231110 0.282220 0.173876
0.255028 0.283218 0.174874
0.279301 0.284231 0.175887
0.303888 0.285257 0.176913
0.328757 0.286295 0.177950
0.353881 0.287343 0.178999
0.379239 0.288401 0.180057
0.404813 0.289468 0.181124
0.430588 0.290544 0.182199
0.456550 0.291627 0.183283
0.482688 0.292718 0.184374
0.508993 0.293816 0.185471
0.535455 0.294920 0.186575
0.562065 0.296030 0.187686
0.588818 0.297146 0.188802
0.615707 0.298268 0.189924
0.642724 0.299396 0.191051
0.669867 0.300528 0.192184
0.697128 0.301666 0.193322
0.724504 0.302808 0.194464
0.751991 0.303955 0.195611
0.779585 0.305107 0.196762
0.807282 0.306262 0.197918
0.835078 0.307422 0.199078
0.862972 0.308586 0.200242
0.890959 0.309754 0.201410
0.902830 0.310249 0.201905
0.902830 0.310249 0.201905
0.902830 0.310249 0.201905
0.144040 0.305717 0.173582
0.165653 0.306618 0.174484
0.188068 0.307554 0.175419
0.211088 0.308514 0.176380
0.234595 0.309495 0.177361
0.258512 0.310493 0.178359
0.282786 0.311506 0.179372
0.307373 0.312532 0.180398
0.332241 0.313570 0.181435
0.357366 0.314618 0.182484
0.382724 0.315676 0.183542
0.408298 0.316743 0.184609
0.434072 0.317819 0.185684
0.460035 0.318902 0.186768
0.486173 0.319993 0.187858
0.512478 0.321091 0.188956
0.538940 0.322195 0.190060
0.565550 0.323305 0.191171
0.592303 0.324422 0.192287
0.619191 0.325544 0.193409
0.646209 0.326671 0.194536
0.673351 0.327804 0.195669
0.700613 0.328941 0.196807
0.727989 0.330083 0.197949
0.755476 0.331230 0.199096
0.783070 0.332382 0.200247
0.810767 0.333538 0.201403
0.838563 0.334697 0.202563
0.866457 0.335861 0.203727
0.894444 0.337029 0.204895
0.906315 0.337524 0.205390
0.906315 0.337524 0.205390
0.906315 0.337524 0.205390
0.147557 0.333241 0.177099
0.169170 0.334143 0.178001
0.191585 0.335078 0.178936
0.214604 0.336039 0.179897
0.238112 0.337020 0.180878
0.262029 0.338018 0.181876
0.286302 0.339031 0.182888
0.310890 0.340057 0.183914
0.335758 0.341094 0.184952
0.360882 0.342143 0.186000
0.386240 0.343201 0.187059
0.411814 0.344268 0.188126
0.437589 0.345344 0.189201
0.463552 0.346427 0.190285
0.489690 0.347518 0.191375
0.515995 0.348615 0.192473
0.542456 0.349719 0.193577
0.569067 0.350830 0.194688
0.595820 0.351946 0.195804
0.622708 0.353068 0.196926
0.649726 0.354196 0.198053
0.676868 0.355328 0.199186
0.704130 0.356466 0.200323
0.731506 0.357608 0.201466
0.758993 0.358755 0.202613
0.786587 0.359906 0.203764
0.814283 0.361062 0.204920
0.842080 0.362222 0.206080
0.869974 0.363386 0.207244
0.897961 0.364554 0.208411
0.909831 0.365049 0.208907
0.909831 0.365049 0.208907
0.909831 0.365049 0.208907
0.151103 0.360992 0.180645
0.172716 0.361894 0.181546
0.195131 0.362829 0.182482
0.218150 0.363790 0.183442
0.241657 0.364770 0.184423
0.265575 0.365768 0.185421
0.289848 0.366781 0.186434
0.314435 0.367807 0.187460
0.339304 0.368845 0.188498
0.364428 0.369893 0.189546
0.389786 0.370952 0.190604
0.415360 0.372019 0.191671
0.441135 0.373094 0.192747
0.467097 0.374178 0.193830
0.493236 0.375268 0.194921
0.519540 0.376366 0.196019
0.546002 0.377470 0.197123
0.572613 0.378580 0.198233
0.599366 0.379697 0.199350
0.626254 0.380819 0.200472
0.653272 0.381946 0.201599
0.680414 0.383079 0.202731
0.707675 0.384216 0.203869
0.735052 0.385359 0.205011
0.762539 0.386506 0.206158
0.790132 0.387657 0.207310
0.817829 0.388813 0.208465
0.845626 0.389973 0.209625
0.873519 0.391137 0.210789
0.901506 0.392304 0.211957
0.913377 0.392800 0.212452
0.913377 0.392800 0.212452
0.913377 0.392800 0.212452
0.154675 0.388949 0.184217
0.176288 0.389851 0.185119
0.198703 0.390786 0.186054
0.221722 0.391747 0.187014
0.245229 0.392728 0.187995
0.269147 0.393726 0.188993
0.293420 0.394738 0.190006
0.318007 0.395764 0.191032
0.342876 0.396802 0.192070
0.368000 0.397851 0.193118
0.393358 0.398909 0.194176
0.418932 0.399976 0.195244
0.444707 0.401051 0.196319
0.470669 0.402135 0.197402
0.496808 0.403225 0.198493
0.523113 0.404323 0.199591
0.549574 0.405427 0.200695
0.576185 0.406538 0.201805
0.602938 0.407654 0.202922
0.629826 0.408776 0.204044
0.656844 0.409903 0.205171
0.683986 0.411036 0.206304
0.711248 0.412173 0.207441
0.738624 0.413316 0.208583
0.766111 0.414463 0.209730
0.793704 0.415614 0.210882
0.821401 0.416770 0.212038
0.849198 0.417930 0.213197
0.877091 0.419094 0.214361
0.905078 0.420261 0.215529
0.916949 0.420757 0.216025
0.916949 0.420757 0.216025
0.916949 0.420757 0.216025
0.158271 0.417096 0.187813
0.179884 0.417998 0.188715
0.202299 0.418934 0.189650
0.225319 0.419894 0.190611
0.248826 0.420875 0.191592
0.272743 0.421873 0.192590
0.297017 0.422886 0.193603
0.321604 0.423912 0.194629
0.346472 0.424950 0.195666
0.371597 0.425998 0.196715
0.396955 0.427056 0.197773
0.422529 0.428123 0.198840
0.448303 0.429199 0.199915
0.474266 0.430282 0.200999
0.500404 0.431373 0.202089
0.526709 0.432470 0.203187
0.553171 0.433575 0.204291
0.579781 0.434685 0.205402
0.606534 0.435801 0.206518
0.633422 0.436923 0.207640
0.660440 0.438051 0.208767
0.687583 0.439183 0.209900
0.714844 0.440321 0.211038
0.742220 0.441463 0.212180
0.769707 0.442610 0.213327
0.797301 0.443762 0.214478
0.824998 0.444917 0.215634
0.852794 0.446077 0.216794
0.880688 0.447241 0.217958
0.908675 0.448409 0.219126
0.920546 0.448904 0.219621
0.920546 0.448904 0.219621
0.920546 0.448904 0.219621
0.161890 0.445421 0.191432
0.183503 0.446322 0.192334
0.205918 0.447258 0.193269
0.228938 0.448218 0.194230
0.252445 0.449199 0.195211
0.276362 0.450197 0.196209
0.300636 0.451210 0.197222
0.325223 0.452236 0.198248
0.350091 0.453274 0.199285
0.375216 0.454322 0.200334
0.400574 0.455380 0.201392
0.426148 0.456447 0.202459
0.451922 0.457523 0.203534
0.477885 0.458606 0.204618
0.504023 0.459697 0.205708
0.530328 0.460795 0.206806
0.556790 0.461899 0.207910
0.583400 0.463009 0.209021
0.610153 0.464126 0.210137
0.637041 0.465248 0.211259
0.664059 0.466375 0.212386
0.691201 0.467507 0.213519
0.718463 0.468645 0.214657
0.745839 0.469787 0.215799
0.773326 0.470934 0.216946
0.800920 0.472086 0.218097
0.828617 0.473241 0.219253
0.856413 0.474401 0.220413
0.884307 0.475565 0.221577
0.912294 0.476733 0.222745
0.924165 0.477228 0.223240
0.924165 0.477228 0.223240
0.924165 0.477228 0.223240
0.165530 0.473910 0.195072
0.187143 0.474811 0.195974
0.209558 0.475747 0.196909
0.232578 0.476707 0.197870
0.256085 0.477688 0.198851
0.280002 0.478686 0.199849
0.304276 0.479699 0.200862
0.328863 0.480725 0.201888
0.353731 0.481763 0.202925
0.378856 0.482811 0.203974
0.404214 0.483869 0.205032
0.429788 0.484936 0.206099
0.455562 0.486012 0.207174
0.481525 0.487095 0.208258
0.507663 0.488186 0.209348
0.533968 0.489284 0.210446
0.560430 0.490388 0.211550
0.587040 0.491498 0.212661
0.613793 0.492614 0.213777
0.640681 0.493736 0.214899
0.667699 0.494864 0.216026
0.694842 0.495996 0.217159
0.722103 0.497134 0.218297
0.749479 0.498276 0.219439
0.776966 0.499423 0.220586
0.804560 0.500575 0.221737
0.832257 0.501730 0.222893
0.860053 0.502890 0.224053
0.887947 0.504054 0.225217
0.915934 0.505222 0.226385
0.927805 0.505717 0.226880
0.927805 0.505717 0.226880
0.927805 0.505717 0.226880
0.169190 0.502553 0.198732
0.190803 0.503455 0.199634
0.213218 0.504390 0.200569
0.236237 0.505351 0.201530
0.259745 0.506332 0.202511
0.283662 0.507330 0.203509
0.307935 0.508342 0.204521
0.332523 0.509368 0.205547
0.357391 0.510406 0.206585
0.382515 0.511454 0.207633
0.407873 0.512513 0.208692
0.433447 0.513580 0.209759
0.459222 0.514655 0.210834
0.485185 0.515739 0.211918
0.511323 0.516829 0.213008
0.537628 0.517927 0.214106
0.564089 0.519031 0.215210
0.590700 0.520142 0.216320
0.617453 0.521258 0.217437
0.644341 0.522380 0.218559
0.671359 0.523507 0.219686
0.698501 0.524640 0.220819
0.725763 0.525777 0.221956
0.753139 0.526920 0.223099
0.780626 0.528067 0.224246
0.808220 0.529218 0.225397
0.835916 0.530374 0.226553
0.863713 0.531534 0.227713
0.891606 0.532698 0.228877
0.919594 0.533865 0.230044
0.931464 0.534361 0.230540
0.931464 0.534361 0.230540
0.931464 0.534361 0.230540
0.172868 0.531342 0.202410
0.194481 0.532244 0.203312
0.216896 0.533179 0.204247
0.239916 0.534140 0.205208
0.263423 0.535120 0.206189
0.287341 0.536118 0.207187
0.311614 0.537131 0.208200
0.336201 0.538157 0.209226
0.361070 0.539195 0.210263
0.386194 0.540243 0.211312
0.411552 0.541301 0.212370
0.437126 0.542369 0.213437
0.462901 0.543444 0.214513
0.488863 0.544528 0.215596
0.515002 0.545618 0.216687
0.541306 0.546716 0.217784
0.567768 0.547820 0.218888
0.594379 0.548930 0.219999
0.621131 0.550047 0.221115
0.648020 0.551169 0.222237
0.675038 0.552296 0.223365
0.702180 0.553429 0.224497
0.729441 0.554566 0.225635
0.756817 0.555709 0.226777
0.784304 0.556856 0.227924
0.811898 0.558007 0.229075
0.839595 0.559163 0.230231
0.867391 0.560323 0.231391
0.895285 0.561487 0.232555
0.923272 0.562654 0.233723
0.935143 0.563150 0.234218
0.935143 0.563150 0.234218
0.935143 0.563150 0.234218
0.176564 0.560268 0.206106
0.198177 0.561170 0.207008
0.220592 0.562105 0.207943
0.243612 0.563066 0.208904
0.267119 0.564047 0.209885
0.291037 0.565045 0.210883
0.315310 0.566058 0.211896
0.339897 0.567084 0.212922
0.364766 0.568121 0.213959
0.389890 0.569170 0.215008
0.415248 0.570228 0.216066
0.440822 0.571295 0.217133
0.466597 0.572371 0.218209
0.492559 0.573454 0.219292
0.518697 0.574545 0.220383
0.545002 0.575642 0.221480
0.571464 0.576746 0.222584
0.598074 0.577857 0.223695
0.624827 0.578973 0.224811
0.651716 0.580095 0.225933
0.678733 0.581222 0.227060
0.705876 0.582355 0.228193
0.733137 0.583493 0.229331
0.760513 0.584635 0.230473
0.788000 0.585782 0.231620
0.815594 0.586933 0.232771
0.843291 0.588089 0.233927
0.871087 0.589249 0.235087
0.898981 0.590413 0.236251
0.926968 0.591581 0.237419
0.938839 0.592076 0.237914
0.938839 0.592076 0.237914
0.938839 0.592076 0.237914
0.180277 0.589325 0.209819
0.201890 0.590227 0.210721
0.224305 0.591162 0.211656
0.247324 0.592123 0.212616
0.270831 0.593104 0.213597
0.294749 0.594102 0.214595
0.319022 0.595114 0.215608
0.343609 0.596140 0.216634
0.368478 0.597178 0.217672
0.393602 0.598226 0.218720
0.418960 0.599285 0.219778
0.444534 0.600352 0.220846
0.470309 0.601427 0.221921
0.496272 0.602511 0.223004
0.522410 0.603601 0.224095
0.548715 0.604699 0.225193
0.575176 0.605803 0.226297
0.601787 0.606913 0.227407
0.628540 0.608030 0.228524
0.655428 0.609152 0.229646
0.682446 0.610279 0.230773
0.709588 0.611412 0.231906
0.736850 0.612549 0.233043
0.764226 0.613692 0.234186
0.791713 0.614839 0.235332
0.819306 0.615990 0.236484
0.847003 0.617146 0.237640
0.874800 0.618306 0.238800
0.902693 0.619470 0.239963
0.930680 0.620637 0.241131
0.942551 0.621133 0.241627
0.942551 0.621133 0.241627
0.942551 0.621133 0.241627
0.184005 0.618506 0.213547
0.205618 0.619407 0.214449
0.228033 0.620343 0.215384
0.251053 0.621303 0.216345
0.274560 0.622284 0.217326
0.298478 0.623282 0.218324
0.322751 0.624295 0.219337
0.347338 0.625321 0.220363
0.372207 0.626359 0.221400
0.397331 0.627407 0.222449
0.422689 0.628465 0.223507
0.448263 0.629532 0.224574
0.474038 0.630608 0.225650
0.500000 0.631691 0.226733
0.526138 0.632782 0.227824
0.552443 0.633880 0.228921
0.578905 0.634984 0.230025
0.605515 0.636094 0.231136
0.632268 0.637210 0.232252
0.659157 0.638332 0.233374
0.686174 0.639460 0.234501
0.713317 0.640592 0.235634
0.740578 0.641730 0.236772
0.767954 0.642872 0.237914
0.795441 0.644019 0.239061
0.823035 0.645171 0.240212
0.850732 0.646326 0.241368
0.878528 0.647486 0.242528
0.906422 0.648650 0.243692
0.934409 0.649818 0.244860
0.946280 0.650313 0.245355
0.946280 0.650313 0.245355
0.946280 0.650313 0.245355
0.187749 0.647804 0.217291
0.209362 0.648706 0.218193
0.231777 0.649642 0.219128
0.254796 0.650602 0.220088
0.278303 0.651583 0.221069
0.302221 0.652581 0.222067
0.326494 0.653594 0.223080
0.351081 0.654620 0.224106
0.375950 0.655658 0.225144
0.401074 0.656706 0.226192
0.426432 0.657764 0.227250
0.452006 0.658831 0.228318
0.477781 0.659907 0.229393
0.503743 0.660990 0.230476
0.529882 0.662081 0.231567
0.556187 0.663178 0.232665
0.582648 0.664283 0.233769
0.609259 0.665393 0.234879
0.636012 0.666509 0.235996
0.662900 0.667631 0.237118
0.689918 0.668759 0.238245
0.717060 0.669891 0.239378
0.744322 0.671029 0.240515
0.771698 0.672171 0.241657
0.799185 0.673318 0.242804
0.826778 0.674470 0.243956
0.854475 0.675625 0.245112
0.882272 0.676785 0.246271
0.910165 0.677949 0.247435
0.938152 0.679117 0.248603
0.950023 0.679612 0.249099
0.950023 0.679612 0.249099
0.950023 0.679612 0.249099
0.191507 0.677216 0.221049
0.213120 0.678118 0.221950
0.235535 0.679053 0.222886
0.258554 0.680014 0.223846
0.282061 0.680995 0.224827
0.305979 0.681993 0.225825
0.330252 0.683006 0.226838
0.354839 0.684032 0.227864
0.379708 0.685069 0.228902
0.404832 0.686118 0.229950
0.430190 0.687176 0.231008
0.455764 0.688243 0.232075
0.481539 0.689319 0.233151
0.507501 0.690402 0.234234
0.533640 0.691493 0.235325
0.559944 0.692590 0.236423
0.586406 0.693694 0.237527
0.613017 0.694805 0.238637
0.639770 0.695921 0.239754
0.666658 0.697043 0.240876
0.693676 0.698170 0.242003
0.720818 0.699303 0.243136
0.748080 0.700441 0.244273
0.775456 0.701583 0.245415
0.802943 0.702730 0.246562
0.830536 0.703881 0.247714
0.858233 0.705037 0.248870
0.886030 0.706197 0.250029
0.913923 0.707361 0.251193
0.941910 0.708529 0.252361
0.953781 0.709024 0.252856
0.953781 0.709024 0.252856
0.953781 0.709024 0.252856
0.195279 0.706736 0.224820
0.216891 0.707638 0.225722
0.239307 0.708573 0.226658
0.262326 0.709534 0.227618
0.285833 0.710515 0.228599
0.309751 0.711513 0.229597
0.334024 0.712526 0.230610
0.358611 0.713552 0.231636
0.383480 0.714589 0.232674
0.408604 0.715638 0.233722
0.433962 0.716696 0.234780
0.459536 0.717763 0.235847
0.485311 0.718838 0.236923
0.511273 0.719922 0.238006
0.537412 0.721013 0.239097
0.563716 0.722110 0.240194
0.590178 0.723214 0.241299
0.616789 0.724325 0.242409
0.643541 0.725441 0.243525
0.670430 0.726563 0.244647
0.697448 0.727690 0.245775
0.724590 0.728823 0.246907
0.751851 0.729961 0.248045
0.779228 0.731103 0.249187
0.806714 0.732250 0.250334
0.834308 0.733401 0.251486
0.862005 0.734557 0.252641
0.889802 0.735717 0.253801
0.917695 0.736881 0.254965
0.945682 0.738049 0.256133
0.957553 0.738544 0.256628
0.957553 0.738544 0.256628
0.957553 0.738544 0.256628
0.199064 0.736360 0.228605
0.220676 0.737262 0.229507
0.243092 0.738197 0.230443
0.266111 0.739158 0.231403
0.289618 0.740138 0.232384
0.313536 0.741136 0.233382
0.337809 0.742149 0.234395
0.362396 0.743175 0.235421
0.387265 0.744213 0.236459
0.412389 0.745261 0.237507
0.437747 0.746320 0.238565
0.463321 0.747387 0.239632
0.489096 0.748462 0.240708
0.515058 0.749546 0.241791
0.541197 0.750636 0.242882
0.567501 0.751734 0.243979
0.593963 0.752838 0.245084
0.620574 0.753948 0.246194
0.647327 0.755065 0.247310
0.674215 0.756187 0.248432
0.701233 0.757314 0.249560
0.728375 0.758447 0.250692
0.755636 0.759584 0.251830
0.783013 0.760727 0.252972
0.810499 0.761874 0.254119
0.838093 0.763025 0.255271
0.865790 0.764181 0.256426
0.893587 0.765341 0.257586
0.921480 0.766505 0.258750
0.949467 0.767672 0.259918
0.961338 0.768168 0.260413
0.961338 0.768168 0.260413
0.961338 0.768168 0.260413
0.202861 0.766083 0.232403
0.224474 0.766985 0.233305
0.246889 0.767921 0.234240
0.269909 0.768881 0.235201
0.293416 0.769862 0.236182
0.317334 0.770860 0.237180
0.341607 0.771873 0.238193
0.366194 0.772899 0.239219
0.391063 0.773936 0.240256
0.416187 0.774985 0.241305
0.441545 0.776043 0.242363
0.467119 0.777110 0.243430
0.492894 0.778186 0.244506
0.518856 0.779269 0.245589
0.544994 0.780360 0.246680
0.571299 0.781457 0.247777
0.597761 0.782562 0.248881
0.624372 0.783672 0.249992
0.651124 0.784788 0.251108
0.678013 0.785910 0.252230
0.705030 0.787038 0.253357
0.732173 0.788170 0.254490
0.759434 0.789308 0.255628
0.786810 0.790450 0.256770
0.814297 0.791597 0.257917
0.841891 0.792748 0.259068
0.869588 0.793904 0.260224
0.897384 0.795064 0.261384
0.925278 0.796228 0.262548
0.953265 0.797396 0.263716
0.965136 0.797891 0.264211
0.965136 0.797891 0.264211
0.965136 0.797891 0.264211
0.206671 0.795903 0.236213
0.228284 0.796805 0.237115
0.250699 0.797740 0.238050
0.273719 0.798701 0.239011
0.297226 0.799681 0.239992
0.321144 0.800680 0.240990
0.345417 0.801692 0.242003
0.370004 0.802718 0.243029
0.394873 0.803756 0.244066
0.419997 0.804804 0.245115
0.445355 0.805863 0.246173
0.470929 0.806930 0.247240
0.496704 0.808005 0.248316
0.522666 0.809089 0.249399
0.548805 0.810179 0.250490
0.575109 0.811277 0.251587
0.601571 0.812381 0.252691
0.628182 0.813491 0.253802
0.654934 0.814608 0.254918
0.681823 0.815730 0.256040
0.708841 0.816857 0.257168
0.735983 0.817990 0.258300
0.763244 0.819127 0.259438
0.790620 0.820270 0.260580
0.818107 0.821417 0.261727
0.845701 0.822568 0.262878
0.873398 0.823724 0.264034
0.901194 0.824884 0.265194
0.929088 0.826048 0.266358
0.957075 0.827215 0.267526
0.968946 0.827711 0.268021
0.968946 0.827711 0.268021
0.968946 0.827711 0.268021
0.210493 0.825815 0.240035
0.232106 0.826717 0.240937
0.254521 0.827652 0.241872
0.277541 0.828613 0.242833
0.301048 0.829594 0.243814
0.324966 0.830592 0.244812
0.349239 0.831605 0.245825
0.373826 0.832630 0.246851
0.398694 0.833668 0.247888
0.423819 0.834717 0.248937
0.449177 0.835775 0.249995
0.474751 0.836842 0.251062
0.500525 0.837917 0.252137
0.526488 0.839001 0.253221
0.552626 0.840091 0.254312
0.578931 0.841189 0.255409
0.605393 0.842293 0.256513
0.632003 0.843404 0.257624
0.658756 0.844520 0.258740
0.685644 0.845642 0.259862
0.712662 0.846769 0.260989
0.739805 0.847902 0.262122
0.767066 0.849039 0.263260
0.794442 0.850182 0.264402
0.821929 0.851329 0.265549
0.849523 0.852480 0.266700
0.877220 0.853636 0.267856
0.905016 0.854796 0.269016
0.932910 0.855960 0.270180
0.960897 0.857128 0.271348
0.972768 0.857623 0.271843
0.972768 0.857623 0.271843
0.972768 0.857623 0.271843
0.214327 0.855817 0.243868
0.235939 0.856718 0.244770
0.258355 0.857654 0.245706
0.281374 0.858614 0.246666
0.304881 0.859595 0.247647
0.328799 0.860593 0.248645
0.353072 0.861606 0.249658
0.377659 0.862632 0.250684
0.402528 0.863670 0.251722
0.427652 0.864718 0.252770
0.453010 0.865776 0.253828
0.478584 0.866843 0.254895
0.504359 0.867919 0.255971
0.530321 0.869002 0.257054
0.556460 0.870093 0.258145
0.582764 0.871191 0.259242
0.609226 0.872295 0.260347
0.635837 0.873405 0.261457
0.662590 0.874522 0.262573
