library/cube/Modern_Voice_004.cube
# CINEGRADE LAB — Premium Cinematic LUT
# Title: Modern Voice
# Category: Clean Creator Economy
# Description: Bright, clean, approachable, modern aesthetic for content creators
# Mood: Fresh, bright, friendly
# Variant: 5
# Generated: 2026-05-21T16:12:38.977207
TITLE "Modern Voice"
LUT_3D_SIZE 5
0.120649 0.122648 0.150191
0.308851 0.130501 0.158045
0.515549 0.139126 0.166670
0.732085 0.148161 0.175705
0.882924 0.154456 0.181999
0.147557 0.333241 0.177099
0.335758 0.341094 0.184952
0.542456 0.349719 0.193577
0.758993 0.358755 0.202613
0.909831 0.365049 0.208907
0.176564 0.560268 0.206106
0.364766 0.568121 0.213959
0.571464 0.576746 0.222584
0.788000 0.585782 0.231620
0.938839 0.592076 0.237914
0.206671 0.795903 0.236213
0.394873 0.803756 0.244066
0.601571 0.812381 0.252691
0.818107 0.821417 0.261727
0.968946 0.827711 0.268021
0.227360 0.957827 0.256902
0.415562 0.965680 0.264755
0.622260 0.974305 0.273380
0.838796 0.983341 0.282416
0.989635 0.989635 0.288710
0.123289 0.125287 0.331318
0.311490 0.133140 0.339171
0.518188 0.141765 0.347796
0.734725 0.150801 0.356832
0.885563 0.157095 0.363126
0.150196 0.335881 0.358226
0.338398 0.343734 0.366079
0.545096 0.352359 0.374704
0.761632 0.361394 0.383740
0.912471 0.367689 0.390034
0.179204 0.562908 0.387233
0.367405 0.570761 0.395086
0.574103 0.579386 0.403711
0.790640 0.588421 0.412747
0.941478 0.594716 0.419041
0.209311 0.798542 0.417340
0.397512 0.806395 0.425193
0.604210 0.815021 0.433818
0.820747 0.824056 0.442854
0.971585 0.830350 0.449148
0.230000 0.960466 0.438029
0.418201 0.968320 0.445882
0.624899 0.976945 0.454507
0.841436 0.985980 0.463543
0.992274 0.992274 0.469837
0.126164 0.128163 0.528644
0.314366 0.136016 0.536497
0.521064 0.144641 0.545122
0.737600 0.153676 0.554158
0.888439 0.159971 0.560452
0.153072 0.338756 0.555552
0.341273 0.346609 0.563405
0.547971 0.355234 0.572030
0.764508 0.364270 0.581065
0.915346 0.370564 0.587360
0.182079 0.565783 0.584559
0.370281 0.573636 0.592412
0.576979 0.582261 0.601037
0.793515 0.591297 0.610073
0.944354 0.597591 0.616367
0.212186 0.801418 0.614666
0.400388 0.809271 0.622519
0.607086 0.817896 0.631144
0.823622 0.826932 0.640180
0.974461 0.833226 0.646474
0.232875 0.963342 0.635355
0.421077 0.971195 0.643208
0.627775 0.979820 0.651833
0.844311 0.988856 0.660869
0.995150 0.995150 0.667163
0.129171 0.131170 0.734984
0.317373 0.139023 0.742837
0.524071 0.147648 0.751462
0.740607 0.156683 0.760497
0.891446 0.162977 0.766791
0.156079 0.341763 0.761891
0.344280 0.349616 0.769744
0.550978 0.358241 0.778369
0.767515 0.367277 0.787405
0.918353 0.373571 0.793699
0.185086 0.568790 0.790898
0.373287 0.576643 0.798752
0.579986 0.585268 0.807377
0.796522 0.594304 0.816412
0.947360 0.600598 0.822706
0.215193 0.804425 0.821005
0.403394 0.812278 0.828859
0.610093 0.820903 0.837484
0.826629 0.829938 0.846519
0.977468 0.836233 0.852813
0.235882 0.966349 0.841695
0.424084 0.974202 0.849548
0.630782 0.982827 0.858173
0.847318 0.991862 0.867208
0.998157 0.998157 0.873502
0.131015 0.133013 0.861481
0.319216 0.140866 0.869334
0.525914 0.149491 0.877959
0.742451 0.158527 0.886995
0.893289 0.164821 0.893289
0.157922 0.343606 0.888389
0.346124 0.351460 0.896242
0.552822 0.360085 0.904867
0.769358 0.369120 0.913902
0.920197 0.375414 0.920197
0.186930 0.570633 0.917396
0.375131 0.578487 0.925249
0.581829 0.587112 0.933874
0.798365 0.596147 0.942910
0.949204 0.602441 0.949204
0.217037 0.806268 0.947503
0.405238 0.814121 0.955356
0.611936 0.822746 0.963981
0.828473 0.831782 0.973017
0.979311 0.838076 0.979311
0.237726 0.968192 0.968192
0.425927 0.976045 0.976045
0.632625 0.984670 0.984670
0.849162 0.993706 0.993706
1.000000 1.000000 1.000000
