library/cube/Modern_Cinema_003.cube
# CINEGRADE LAB — Premium Cinematic LUT
# Title: Modern Cinema
# Category: Teal & Orange Modern
# Description: Complementary colors with modern cinematic teal and orange grading
# Mood: Blockbuster, cinematic, contemporary
# Variant: 4
# Generated: 2026-05-21T16:12:59.157347
TITLE "Modern Cinema"
LUT_3D_SIZE 33
0.000950 0.016532 0.014862
0.000934 0.016259 0.014616
0.000920 0.015988 0.014373
0.000908 0.015721 0.014132
0.016088 0.015705 0.014142
0.046648 0.015943 0.014406
0.077457 0.016188 0.014676
0.108510 0.016441 0.014953
0.139805 0.016699 0.015236
0.171338 0.016965 0.015525
0.203106 0.017237 0.015820
0.235106 0.017516 0.016121
0.267333 0.017801 0.016429
0.299785 0.018093 0.016742
0.332459 0.018391 0.017062
0.365351 0.018696 0.017387
0.398457 0.019007 0.017718
0.431776 0.019324 0.018055
0.465303 0.019647 0.018398
0.499035 0.019977 0.018746
0.532970 0.020312 0.019100
0.567104 0.020653 0.019459
0.601434 0.021001 0.019824
0.635957 0.021354 0.020195
0.670669 0.021713 0.020570
0.705569 0.022078 0.020951
0.740563 0.022446 0.021336
0.775544 0.022818 0.021723
0.810660 0.023194 0.022114
0.829467 0.023306 0.022241
0.831846 0.023153 0.022102
0.834195 0.023001 0.021964
0.836515 0.022852 0.021828
0.000903 0.015624 0.014045
0.000892 0.015361 0.013808
0.000882 0.015101 0.013573
0.000873 0.014843 0.013340
0.016265 0.014840 0.013361
0.047239 0.015095 0.013640
0.078454 0.015356 0.013925
0.109907 0.015624 0.014215
0.141593 0.015899 0.014513
0.173510 0.016180 0.014816
0.205655 0.016468 0.015125
0.238023 0.016763 0.015440
0.270612 0.017063 0.015762
0.303419 0.017370 0.016089
0.336440 0.017683 0.016422
0.369671 0.018003 0.016760
0.403111 0.018329 0.017105
0.436756 0.018660 0.017455
0.470602 0.018998 0.017810
0.504646 0.019341 0.018171
0.538886 0.019691 0.018538
0.573318 0.020046 0.018910
0.607940 0.020407 0.019287
0.642747 0.020774 0.019670
0.677738 0.021147 0.020057
0.712909 0.021525 0.020450
0.748076 0.021905 0.020846
0.783235 0.022288 0.021243
0.818517 0.022676 0.021644
0.837353 0.022798 0.021779
0.839634 0.022651 0.021646
0.841885 0.022507 0.021514
0.844108 0.022364 0.021383
0.000870 0.014750 0.013256
0.000862 0.014497 0.013026
0.000856 0.014246 0.012799
0.000851 0.013998 0.012574
0.016449 0.014008 0.012607
0.047825 0.014278 0.012900
0.079434 0.014556 0.013199
0.111272 0.014840 0.013504
0.143338 0.015130 0.013815
0.175626 0.015427 0.014133
0.208135 0.015730 0.014456
0.240860 0.016039 0.014785
0.273799 0.016355 0.015119
0.306948 0.016677 0.015460
0.340305 0.017005 0.015806
0.373865 0.017339 0.016157
0.407626 0.017679 0.016515
0.441586 0.018025 0.016878
0.475739 0.018376 0.017246
0.510085 0.018734 0.017619
0.544619 0.019097 0.017998
0.579339 0.019466 0.018382
0.614241 0.019841 0.018772
0.649323 0.020221 0.019166
0.684581 0.020607 0.019566
0.720014 0.020998 0.019971
0.755312 0.021389 0.020376
0.790628 0.021784 0.020783
0.826055 0.022183 0.021194
0.844910 0.022313 0.021336
0.847093 0.022174 0.021209
0.849248 0.022036 0.021082
0.851373 0.021901 0.020958
0.000850 0.013908 0.012493
0.000846 0.013664 0.012272
0.000844 0.013423 0.012053
0.000843 0.013185 0.011836
0.016639 0.013207 0.011879
0.048404 0.013494 0.012187
0.080394 0.013787 0.012500
0.112607 0.014086 0.012819
0.145039 0.014392 0.013144
0.177687 0.014703 0.013475
0.210548 0.015022 0.013811
0.243619 0.015346 0.014153
0.276896 0.015676 0.014501
0.310376 0.016012 0.014855
0.344057 0.016355 0.015214
0.377934 0.016703 0.015578
0.412006 0.017057 0.015948
0.446268 0.017417 0.016324
0.480719 0.017782 0.016704
0.515355 0.018154 0.017090
0.550172 0.018530 0.017481
0.585169 0.018913 0.017877
0.620342 0.019301 0.018279
0.655687 0.019694 0.018685
0.691204 0.020093 0.019096
0.726887 0.020497 0.019512
0.762270 0.020898 0.019926
0.797724 0.021303 0.020343
0.833275 0.021713 0.020763
0.852140 0.021852 0.020913
0.854227 0.021720 0.020791
0.856285 0.021589 0.020670
0.858315 0.021461 0.020551
0.002706 0.048289 0.013621
0.002705 0.048038 0.013406
0.002706 0.047790 0.013194
0.002708 0.047545 0.012984
0.018697 0.047565 0.013038
0.050837 0.047851 0.013358
0.083196 0.048144 0.013684
0.115770 0.048443 0.014016
0.148556 0.048749 0.014354
0.181551 0.049061 0.014697
0.214751 0.049379 0.015046
0.248154 0.049704 0.015401
0.281757 0.050034 0.015761
0.315556 0.050371 0.016127
0.349549 0.050714 0.016498
0.383732 0.051062 0.016874
0.418102 0.051417 0.017256
0.452657 0.051777 0.017642
0.487393 0.052143 0.018034
0.522307 0.052515 0.018432
0.557397 0.052893 0.018834
0.592660 0.053276 0.019241
0.628092 0.053664 0.019653
0.663691 0.054058 0.020071
0.699454 0.054458 0.020493
0.735319 0.054861 0.020918
0.770798 0.055262 0.021340
0.806368 0.055666 0.021765
0.842024 0.056075 0.022194
0.860889 0.056211 0.022351
0.862879 0.056075 0.022234
0.864841 0.055941 0.022118
0.866775 0.055809 0.022004
0.004769 0.086358 0.014968
0.004771 0.086100 0.014761
0.004775 0.085845 0.014555
0.004780 0.085593 0.014353
0.020954 0.085609 0.014416
0.053458 0.085895 0.014749
0.086173 0.086187 0.015088
0.119096 0.086486 0.015433
0.152224 0.086791 0.015783
0.185554 0.087103 0.016138
0.219083 0.087421 0.016500
0.252808 0.087745 0.016866
0.286725 0.088075 0.017238
0.320832 0.088412 0.017616
0.355126 0.088754 0.017998
0.389603 0.089103 0.018386
0.424262 0.089458 0.018779
0.459098 0.089818 0.019177
0.494108 0.090184 0.019581
0.529291 0.090556 0.019989
0.564643 0.090934 0.020402
0.600162 0.091317 0.020820
0.635843 0.091706 0.021243
0.671686 0.092101 0.021671
0.707686 0.092501 0.022103
0.743659 0.092903 0.022538
0.779247 0.093302 0.022968
0.814914 0.093706 0.023401
0.850655 0.094113 0.023838
0.869510 0.094247 0.024001
0.871405 0.094107 0.023888
0.873271 0.093969 0.023778
0.875110 0.093833 0.023669
0.006839 0.124346 0.016336
0.006844 0.124082 0.016135
0.006851 0.123821 0.015937
0.006859 0.123564 0.015741
0.023214 0.123577 0.015815
0.056069 0.123864 0.016160
0.089128 0.124156 0.016512
0.122389 0.124456 0.016869
0.155848 0.124762 0.017231
0.189502 0.125074 0.017599
0.223347 0.125393 0.017972
0.257382 0.125718 0.018350
0.291603 0.126049 0.018734
0.326007 0.126387 0.019123
0.360591 0.126730 0.019517
0.395352 0.127080 0.019917
0.430288 0.127436 0.020321
0.465395 0.127797 0.020730
0.500670 0.128165 0.021144
0.536111 0.128538 0.021564
0.571715 0.128917 0.021988
0.607480 0.129302 0.022416
0.643401 0.129693 0.022850
0.679477 0.130089 0.023288
0.715705 0.130490 0.023731
0.751745 0.130892 0.024173
0.787422 0.131291 0.024611
0.823166 0.131694 0.025052
0.858973 0.132100 0.025496
0.877809 0.132233 0.025665
0.879609 0.132090 0.025558
0.881382 0.131949 0.025452
0.883128 0.131811 0.025348
0.008916 0.162260 0.017724
0.008925 0.161992 0.017531
0.008935 0.161727 0.017339
0.008946 0.161465 0.017150
0.025475 0.161477 0.017234
0.058670 0.161765 0.017592
0.092062 0.162059 0.017955
0.125649 0.162360 0.018324
0.159427 0.162668 0.018699
0.193394 0.162982 0.019078
0.227545 0.163303 0.019463
0.261880 0.163630 0.019854
0.296393 0.163963 0.020249
0.331083 0.164303 0.020649
0.365947 0.164648 0.021055
0.400982 0.165000 0.021465
0.436184 0.165358 0.021881
0.471552 0.165722 0.022301
0.507082 0.166092 0.022726
0.542771 0.166468 0.023156
0.578618 0.166849 0.023590
0.614618 0.167237 0.024029
0.650770 0.167630 0.024473
0.687070 0.168028 0.024922
0.723516 0.168432 0.025375
0.759580 0.168834 0.025823
0.795327 0.169233 0.026269
0.831129 0.169636 0.026717
0.866982 0.170043 0.027169
0.885790 0.170175 0.027344
0.887498 0.170030 0.027241
0.889178 0.169888 0.027141
0.890831 0.169749 0.027041
0.011002 0.200107 0.019133
0.011014 0.199835 0.018947
0.011027 0.199567 0.018762
0.011041 0.199303 0.018580
0.027738 0.199314 0.018673
0.061262 0.199605 0.019043
0.094976 0.199902 0.019419
0.128877 0.200206 0.019800
0.162964 0.200517 0.020186
0.197232 0.200834 0.020578
0.231679 0.201157 0.020974
0.266302 0.201487 0.021376
0.301097 0.201824 0.021783
0.336063 0.202166 0.022194
0.371197 0.202515 0.022611
0.406494 0.202870 0.023032
0.441954 0.203231 0.023458
0.477572 0.203598 0.023889
0.513347 0.203972 0.024325
0.549275 0.204351 0.024765
0.585354 0.204736 0.025210
0.621581 0.205126 0.025660
0.657953 0.205523 0.026114
0.694468 0.205925 0.026572
0.731124 0.206333 0.027035
0.767168 0.206734 0.027490
0.802965 0.207135 0.027943
0.838806 0.207539 0.028398
0.874687 0.207948 0.028857
0.893458 0.208080 0.029038
0.895074 0.207935 0.028940
0.896663 0.207792 0.028844
0.898225 0.207653 0.028749
0.013095 0.237894 0.020563
0.013110 0.237620 0.020383
0.013127 0.237350 0.020206
0.013145 0.237084 0.020031
0.030004 0.237096 0.020133
0.063845 0.237391 0.020515
0.097870 0.237692 0.020903
0.132075 0.237999 0.021296
0.166459 0.238314 0.021694
0.201018 0.238635 0.022097
0.235749 0.238962 0.022504
0.270650 0.239296 0.022917
0.305718 0.239637 0.023335
0.340949 0.239983 0.023758
0.376342 0.240336 0.024185
0.411893 0.240696 0.024618
0.447599 0.241061 0.025054
0.483459 0.241432 0.025496
0.519468 0.241810 0.025942
0.555626 0.242193 0.026393
0.591928 0.242583 0.026848
0.628372 0.242978 0.027307
0.664956 0.243379 0.027771
0.701677 0.243786 0.028240
0.738533 0.244198 0.028712
0.774511 0.244600 0.029172
0.810340 0.245003 0.029632
0.846202 0.245409 0.030095
0.882092 0.245820 0.030559
0.900818 0.245953 0.030746
0.902343 0.245809 0.030653
0.903843 0.245667 0.030562
0.905316 0.245528 0.030472
0.015197 0.275627 0.022013
0.015216 0.275352 0.021841
0.015236 0.275081 0.021670
0.015257 0.274814 0.021502
0.032274 0.274829 0.021614
0.066421 0.275128 0.022008
0.100745 0.275434 0.022407
0.135243 0.275747 0.022811
0.169914 0.276066 0.023221
0.204753 0.276392 0.023635
0.239758 0.276724 0.024054
0.274927 0.277063 0.024478
0.310256 0.277409 0.024907
0.345743 0.277761 0.025340
0.381385 0.278119 0.025779
0.417179 0.278483 0.026221
0.453123 0.278854 0.026669
0.489214 0.279230 0.027121
0.525450 0.279613 0.027577
0.561827 0.280002 0.028038
0.598343 0.280397 0.028503
0.634996 0.280798 0.028972
0.671782 0.281204 0.029446
0.708701 0.281616 0.029924
0.745748 0.282034 0.030406
0.781615 0.282437 0.030871
0.817457 0.282842 0.031337
0.853321 0.283252 0.031806
0.889201 0.283665 0.032277
0.907874 0.283800 0.032469
0.909311 0.283658 0.032381
0.910722 0.283518 0.032294
0.912107 0.283381 0.032209
0.017308 0.313312 0.023485
0.017330 0.313038 0.023319
0.017354 0.312767 0.023155
0.017378 0.312501 0.022994
0.034547 0.312520 0.023115
0.068989 0.312824 0.023521
0.103602 0.313136 0.023932
0.138383 0.313454 0.024347
0.173330 0.313780 0.024768
0.208439 0.314111 0.025193
0.243708 0.314450 0.025623
0.279135 0.314795 0.026058
0.314715 0.315146 0.026498
0.350448 0.315504 0.026942
0.386330 0.315868 0.027390
0.422358 0.316239 0.027844
0.458529 0.316615 0.028301
0.494843 0.316998 0.028763
0.531294 0.317387 0.029230
0.567882 0.317783 0.029700
0.604603 0.318184 0.030175
0.641456 0.318591 0.030654
0.678436 0.319004 0.031138
0.715543 0.319422 0.031625
0.752661 0.319845 0.032115
0.788483 0.320250 0.032585
0.824320 0.320659 0.033058
0.860168 0.321072 0.033532
0.896021 0.321489 0.034009
0.914633 0.321627 0.034206
0.915983 0.321487 0.034123
0.917307 0.321351 0.034041
0.918606 0.321217 0.033961
0.019429 0.350956 0.024977
0.019454 0.350683 0.024818
0.019481 0.350415 0.024661
0.019509 0.350151 0.024507
0.036824 0.350173 0.024637
0.071551 0.350485 0.025054
0.106442 0.350803 0.025476
0.141495 0.351128 0.025903
0.176708 0.351460 0.026335
0.212077 0.351799 0.026771
0.247600 0.352144 0.027212
0.283274 0.352496 0.027657
0.319097 0.352855 0.028107
0.355066 0.353219 0.028562
0.391177 0.353591 0.029021
0.427430 0.353968 0.029484
0.463820 0.354352 0.029952
0.500346 0.354742 0.030424
0.537005 0.355138 0.030900
0.573795 0.355541 0.031381
0.610713 0.355949 0.031865
0.647756 0.356363 0.032354
0.684922 0.356783 0.032847
0.722209 0.357209 0.033343
0.759310 0.357636 0.033839
0.795120 0.358046 0.034315
0.830935 0.358459 0.034794
0.866749 0.358876 0.035274
0.902557 0.359297 0.035756
0.921099 0.359440 0.035958
0.922364 0.359304 0.035880
0.923604 0.359171 0.035803
0.924819 0.359041 0.035727
0.021558 0.388566 0.026490
0.021588 0.388296 0.026338
0.021618 0.388030 0.026188
0.021649 0.387769 0.026040
0.039106 0.387797 0.026180
0.074107 0.388116 0.026608
0.109266 0.388442 0.027041
0.144581 0.388775 0.027479
0.180050 0.389114 0.027921
0.215669 0.389461 0.028368
0.251436 0.389814 0.028820
0.287348 0.390174 0.029276
0.323403 0.390540 0.029736
0.359598 0.390913 0.030201
0.395931 0.391292 0.030670
0.432399 0.391677 0.031144
0.468999 0.392069 0.031621
0.505729 0.392467 0.032103
0.542587 0.392871 0.032589
0.579569 0.393282 0.033079
0.616675 0.393698 0.033573
0.653900 0.394121 0.034071
0.691244 0.394549 0.034573
0.728703 0.394983 0.035078
0.765752 0.395414 0.035579
0.801532 0.395829 0.036061
0.837306 0.396248 0.036545
0.873069 0.396670 0.037031
0.908815 0.397096 0.037518
0.927280 0.397243 0.037725
0.928461 0.397111 0.037651
0.929618 0.396983 0.037579
0.930751 0.396858 0.037508
0.023698 0.426146 0.028024
0.023731 0.425880 0.027879
0.023765 0.425618 0.027736
0.023800 0.425361 0.027595
0.041392 0.425395 0.027743
0.076657 0.425723 0.028183
0.112075 0.426058 0.028627
0.147642 0.426399 0.029075
0.183357 0.426748 0.029528
0.219216 0.427103 0.029986
0.255217 0.427464 0.030448
0.291358 0.427833 0.030914
0.327636 0.428208 0.031384
0.364049 0.428589 0.031859
0.400593 0.428977 0.032338
0.437267 0.429372 0.032821
0.474068 0.429772 0.033309
0.510993 0.430179 0.033800
0.548041 0.430592 0.034295
0.585209 0.431012 0.034795
0.622494 0.431437 0.035298
0.659894 0.431868 0.035805
0.697406 0.432306 0.036316
0.735030 0.432749 0.036830
0.771990 0.433185 0.037336
0.807724 0.433606 0.037823
0.843440 0.434030 0.038312
0.879134 0.434457 0.038803
0.914801 0.434889 0.039295
0.933181 0.435041 0.039507
0.934281 0.434915 0.039437
0.935357 0.434793 0.039370
0.936410 0.434674 0.039303
0.025848 0.463704 0.029579
0.025884 0.463442 0.029441
0.025922 0.463186 0.029305
0.025961 0.462934 0.029170
0.043684 0.462975 0.029327
0.079203 0.463312 0.029778
0.114869 0.463657 0.030232
0.150678 0.464008 0.030691
0.186629 0.464365 0.031155
0.222720 0.464730 0.031622
0.258946 0.465101 0.032094
0.295306 0.465479 0.032571
0.331798 0.465864 0.033051
0.368419 0.466255 0.033536
0.405166 0.466653 0.034025
0.442038 0.467057 0.034517
0.479031 0.467467 0.035014
0.516143 0.467884 0.035515
0.553372 0.468307 0.036019
0.590716 0.468735 0.036528
0.628173 0.469171 0.037040
0.665739 0.469612 0.037556
0.703413 0.470059 0.038076
0.741193 0.470512 0.038599
0.778032 0.470953 0.039109
0.813701 0.471380 0.039601
0.849342 0.471810 0.040095
0.884950 0.472244 0.040590
0.920521 0.472682 0.041087
0.938810 0.472841 0.041303
0.939831 0.472721 0.041238
0.940828 0.472606 0.041175
0.941803 0.472493 0.041113
0.028009 0.501244 0.031155
0.028049 0.500989 0.031024
0.028090 0.500738 0.030894
0.028133 0.500492 0.030766
0.045982 0.500542 0.030932
0.081745 0.500890 0.031393
0.117649 0.501244 0.031858
0.153691 0.501605 0.032327
0.189870 0.501974 0.032801
0.226181 0.502349 0.033279
0.262623 0.502730 0.033761
0.299194 0.503119 0.034247
0.335891 0.503514 0.034737
0.372711 0.503915 0.035231
0.409653 0.504323 0.035730
0.446713 0.504738 0.036232
0.483890 0.505159 0.036738
0.521181 0.505586 0.037248
0.558584 0.506019 0.037761
0.596096 0.506458 0.038279
0.633716 0.506904 0.038800
0.671441 0.507356 0.039324
0.709269 0.507813 0.039852
0.747198 0.508277 0.040384
0.783881 0.508724 0.040897
0.819469 0.509158 0.041394
0.855018 0.509595 0.041893
0.890525 0.510036 0.042392
0.925984 0.510480 0.042893
0.944174 0.510646 0.043113
0.945117 0.510534 0.043053
0.946038 0.510425 0.042994
0.946937 0.510321 0.042937
0.030180 0.538773 0.032752
0.030224 0.538524 0.032627
0.030269 0.538281 0.032504
0.030315 0.538042 0.032383
0.048286 0.538101 0.032558
0.084284 0.538460 0.033029
0.120417 0.538825 0.033504
0.156682 0.539198 0.033983
0.193078 0.539577 0.034467
0.229602 0.539964 0.034955
0.266251 0.540357 0.035446
0.303024 0.540756 0.035942
0.339917 0.541162 0.036442
0.376928 0.541575 0.036946
0.414055 0.541994 0.037453
0.451296 0.542420 0.037965
0.488649 0.542852 0.038480
0.526111 0.543290 0.038998
0.563679 0.543735 0.039521
0.601352 0.544186 0.040047
0.639128 0.544642 0.040576
0.677004 0.545105 0.041109
0.714979 0.545574 0.041646
0.753049 0.546049 0.042186
0.789543 0.546502 0.042702
0.825034 0.546943 0.043204
0.860475 0.547388 0.043706
0.895864 0.547836 0.044209
0.931195 0.548287 0.044714
0.949280 0.548461 0.044938
0.950148 0.548357 0.044882
0.950995 0.548257 0.044828
0.951820 0.548161 0.044775
0.032362 0.576296 0.034370
0.032410 0.576055 0.034251
0.032459 0.575820 0.034135
0.032509 0.575589 0.034021
0.050596 0.575658 0.034203
0.086819 0.576029 0.034685
0.123172 0.576406 0.035170
0.159652 0.576791 0.035659
0.196257 0.577182 0.036153
0.232984 0.577580 0.036650
0.269832 0.577985 0.037151
0.306797 0.578397 0.037657
0.343878 0.578815 0.038166
0.381072 0.579240 0.038678
0.418377 0.579671 0.039195
0.455790 0.580108 0.039715
0.493310 0.580552 0.040239
0.530935 0.581003 0.040767
0.568661 0.581459 0.041298
0.606488 0.581922 0.041832
0.644412 0.582391 0.042370
0.682432 0.582865 0.042912
0.720546 0.583346 0.043456
0.758751 0.583833 0.044004
0.795026 0.584292 0.044523
0.830403 0.584741 0.045028
0.865721 0.585194 0.045534
0.900976 0.585650 0.046041
0.936163 0.586109 0.046549
0.954136 0.586291 0.046777
0.954932 0.586196 0.046725
0.955707 0.586105 0.046675
0.956461 0.586018 0.046627
0.034556 0.613818 0.036008
0.034607 0.613586 0.035896
0.034660 0.613359 0.035786
0.034714 0.613138 0.035679
0.052914 0.613218 0.035870
0.089353 0.613601 0.036361
0.125916 0.613991 0.036856
0.162601 0.614389 0.037355
0.199406 0.614793 0.037858
0.236328 0.615203 0.038365
0.273366 0.615621 0.038875
0.310515 0.616045 0.039390
0.347776 0.616476 0.039908
0.385144 0.616913 0.040430
0.422619 0.617357 0.040955
0.460197 0.617808 0.041484
0.497878 0.618264 0.042017
0.535657 0.618727 0.042553
0.573534 0.619196 0.043092
0.611507 0.619672 0.043635
0.649572 0.620153 0.044181
0.687729 0.620640 0.044731
0.725975 0.621134 0.045283
0.764309 0.621633 0.045839
0.800335 0.622099 0.046359
0.835582 0.622557 0.046868
0.870761 0.623018 0.047378
0.905866 0.623482 0.047888
0.940895 0.623949 0.048398
0.958750 0.624139 0.048630
0.959476 0.624054 0.048583
0.960181 0.623973 0.048537
0.960867 0.623896 0.048493
0.036761 0.651344 0.037667
0.036817 0.651122 0.037562
0.036873 0.650905 0.037458
0.036931 0.650694 0.037357
0.055238 0.650786 0.037556
0.091884 0.651182 0.038057
0.128650 0.651586 0.038561
0.165532 0.651996 0.039070
0.202528 0.652414 0.039582
0.239637 0.652838 0.040098
0.276855 0.653269 0.040618
0.314182 0.653707 0.041141
0.351613 0.654151 0.041668
0.389149 0.654602 0.042199
0.426785 0.655059 0.042733
0.464521 0.655522 0.043271
0.502353 0.655992 0.043812
0.540281 0.656469 0.044356
0.578301 0.656951 0.044904
0.616413 0.657439 0.045455
0.654613 0.657934 0.046009
0.692900 0.658435 0.046566
0.731272 0.658941 0.047126
0.769727 0.659454 0.047690
0.805476 0.659926 0.048211
0.840578 0.660393 0.048723
0.875603 0.660863 0.049236
0.910545 0.661336 0.049749
0.945400 0.661811 0.050262
0.963131 0.662011 0.050497
0.963789 0.661937 0.050454
0.964427 0.661866 0.050413
0.965047 0.661799 0.050372
0.038978 0.688880 0.039346
0.039038 0.688669 0.039247
0.039098 0.688463 0.039151
0.039160 0.688262 0.039056
0.057571 0.688366 0.039263
0.094415 0.688777 0.039773
0.131374 0.689195 0.040287
0.168444 0.689619 0.040804
0.205623 0.690051 0.041326
0.242910 0.690489 0.041851
0.280302 0.690934 0.042380
0.317797 0.691386 0.042912
0.355393 0.691844 0.043447
0.393087 0.692309 0.043987
0.430878 0.692780 0.044529
0.468763 0.693257 0.045075
0.506741 0.693741 0.045624
0.544810 0.694231 0.046177
0.582966 0.694727 0.046732
0.621210 0.695230 0.047291
0.659538 0.695738 0.047853
0.697949 0.696253 0.048418
0.736440 0.696773 0.048986
0.775011 0.697299 0.049557
0.810457 0.697779 0.050078
0.845400 0.698255 0.050593
0.880255 0.698734 0.051109
0.915018 0.699216 0.051624
0.949686 0.699700 0.052139
0.967286 0.699910 0.052377
0.967880 0.699847 0.052339
0.968454 0.699787 0.052302
0.969010 0.699731 0.052266
0.041208 0.726430 0.041046
0.041271 0.726230 0.040954
0.041336 0.726036 0.040863
0.041402 0.725847 0.040774
0.059911 0.725964 0.040989
0.096945 0.726390 0.041508
0.134089 0.726822 0.042032
0.171339 0.727261 0.042558
0.208693 0.727708 0.043089
0.246151 0.728161 0.043622
0.283708 0.728620 0.044160
0.321364 0.729086 0.044700
0.359116 0.729559 0.045245
0.396962 0.730039 0.045792
0.434900 0.730524 0.046343
0.472928 0.731016 0.046897
0.511044 0.731515 0.047454
0.549246 0.732019 0.048014
0.587533 0.732530 0.048578
0.625902 0.733047 0.049144
0.664351 0.733570 0.049713
0.702880 0.734098 0.050286
0.741485 0.734633 0.050861
0.780165 0.735173 0.051439
0.815285 0.735660 0.051961
0.850053 0.736146 0.052478
0.884724 0.736634 0.052996
0.919295 0.737126 0.053513
0.953761 0.737620 0.054031
0.971226 0.737840 0.054272
0.971757 0.737788 0.054237
0.972270 0.737740 0.054204
0.972765 0.737696 0.054172
0.043450 0.763999 0.042766
0.043517 0.763812 0.042680
0.043586 0.763629 0.042595
0.043656 0.763453 0.042513
0.062259 0.763584 0.042735
0.099475 0.764025 0.043264
0.136796 0.764473 0.043796
0.174218 0.764927 0.044331
0.211740 0.765389 0.044870
0.249359 0.765857 0.045413
0.287075 0.766332 0.045958
0.324884 0.766813 0.046507
0.362785 0.767301 0.047060
0.400775 0.767796 0.047615
0.438853 0.768297 0.048174
0.477017 0.768804 0.048736
0.515265 0.769317 0.049301
0.553595 0.769837 0.049869
0.592005 0.770362 0.050439
0.630493 0.770894 0.051013
0.669058 0.771432 0.051590
0.707698 0.771975 0.052170
0.746410 0.772525 0.052752
0.785194 0.773080 0.053337
0.819966 0.773574 0.053859
0.854545 0.774070 0.054378
0.889019 0.774568 0.054898
0.923384 0.775069 0.055417
0.957636 0.775573 0.055936
0.974960 0.775804 0.056179
0.975431 0.775764 0.056149
0.975885 0.775728 0.056120
0.976323 0.775696 0.056092
0.045704 0.801592 0.044506
0.045775 0.801417 0.044426
0.045848 0.801248 0.044347
0.045922 0.801084 0.044271
0.064617 0.801230 0.044501
0.102006 0.801687 0.045038
0.139495 0.802151 0.045579
0.177082 0.802621 0.046123
0.214763 0.803099 0.046670
0.252538 0.803583 0.047221
0.290404 0.804073 0.047775
0.328359 0.804571 0.048332
0.366402 0.805074 0.048892
0.404530 0.805584 0.049456
0.442741 0.806101 0.050022
0.481034 0.806624 0.050592
0.519407 0.807152 0.051164
0.557858 0.807687 0.051740
0.596386 0.808229 0.052318
0.634987 0.808776 0.052899
0.673662 0.809329 0.053483
0.712408 0.809888 0.054069
0.751222 0.810452 0.054659
0.790021 0.811021 0.055249
0.824508 0.811524 0.055771
0.858885 0.812030 0.056292
0.893149 0.812539 0.056813
0.927294 0.813050 0.057334
0.961318 0.813563 0.057854
0.978496 0.813805 0.058100
0.978911 0.813778 0.058073
0.979309 0.813755 0.058048
0.979692 0.813735 0.058024
0.047951 0.838836 0.046245
0.048028 0.838689 0.046172
0.048105 0.838547 0.046101
0.048184 0.838410 0.046031
0.066966 0.838584 0.046269
0.104522 0.839071 0.046815
0.142173 0.839563 0.047365
0.179916 0.840062 0.047918
0.217751 0.840568 0.048474
0.255674 0.841080 0.049034
0.293684 0.841598 0.049596
0.331779 0.842122 0.050162
0.369957 0.842653 0.050730
0.408217 0.843189 0.051302
0.446556 0.843732 0.051877
0.484972 0.844280 0.052454
0.523465 0.844835 0.053034
0.562032 0.845395 0.053617
0.600671 0.845961 0.054203
0.639381 0.846532 0.054792
0.678160 0.847110 0.055383
0.717006 0.847692 0.055977
0.755919 0.848280 0.056573
0.794632 0.848870 0.057168
0.828913 0.849391 0.057691
0.863075 0.849914 0.058214
0.897115 0.850440 0.058737
0.931029 0.850968 0.059259
0.964812 0.851497 0.059780
0.981841 0.851757 0.060029
0.982202 0.851749 0.060006
0.982548 0.851744 0.059985
0.982879 0.851743 0.059965
0.050162 0.875179 0.047955
0.050246 0.875099 0.047891
0.050330 0.875022 0.047828
0.050416 0.874949 0.047766
0.069283 0.875187 0.048014
0.107000 0.875737 0.048571
0.144807 0.876293 0.049132
0.182702 0.876853 0.049695
0.220684 0.877419 0.050262
0.258750 0.877990 0.050831
0.296899 0.878566 0.051404
0.335129 0.879147 0.051979
0.373438 0.879733 0.052557
0.411824 0.880323 0.053138
0.450285 0.880919 0.053722
0.488821 0.881519 0.054308
0.527428 0.882124 0.054897
0.566106 0.882734 0.055489
0.604853 0.883348 0.056084
