library/cube/Mood_Grid_000.cube
# CINEGRADE LAB — Premium Cinematic LUT
# Title: Mood Grid
# Category: Dark Instagram Mood
# Description: Desaturated, crushed blacks, cool tones for social media aesthetics
# Mood: Moody, cool, modern
# Variant: 1
# Generated: 2026-05-21T16:12:35.644642
TITLE "Mood Grid"
LUT_3D_SIZE 33
0.030000 0.030000 0.040000
0.030000 0.030000 0.040000
0.030000 0.030000 0.040000
0.030000 0.030000 0.040000
0.033950 0.030000 0.040000
0.060642 0.030000 0.040000
0.087355 0.030000 0.040000
0.114089 0.030000 0.040000
0.140844 0.030000 0.040000
0.167618 0.030000 0.040000
0.194413 0.030000 0.040000
0.221228 0.030000 0.040000
0.248063 0.030000 0.040000
0.274917 0.030000 0.040000
0.301790 0.030000 0.040000
0.328682 0.030000 0.040000
0.355594 0.030131 0.040000
0.382523 0.032406 0.040000
0.409471 0.034682 0.040000
0.436438 0.036958 0.040000
0.463422 0.039234 0.040000
0.490424 0.041511 0.042070
0.517443 0.043789 0.044369
0.544480 0.046067 0.046668
0.571533 0.048346 0.048967
0.598604 0.050626 0.051265
0.625691 0.052906 0.053563
0.652795 0.055186 0.055861
0.679915 0.057468 0.058158
0.707050 0.059749 0.060456
0.734202 0.062031 0.062753
0.749333 0.063297 0.064021
0.749574 0.063305 0.064017
0.030000 0.030000 0.040000
0.030000 0.030000 0.040000
0.030000 0.030000 0.040000
0.030000 0.030000 0.040000
0.033995 0.030000 0.040000
0.060722 0.030000 0.040000
0.087469 0.030000 0.040000
0.114237 0.030000 0.040000
0.141025 0.030000 0.040000
0.167833 0.030000 0.040000
0.194660 0.030000 0.040000
0.221507 0.030000 0.040000
0.248373 0.030000 0.040000
0.275258 0.030000 0.040000
0.302162 0.030000 0.040000
0.329084 0.030000 0.040000
0.356025 0.030146 0.040000
0.382983 0.032422 0.040000
0.409960 0.034698 0.040000
0.436954 0.036975 0.040000
0.463966 0.039252 0.040000
0.490995 0.041530 0.042060
0.518041 0.043809 0.044359
0.545104 0.046088 0.046657
0.572183 0.048368 0.048956
0.599279 0.050648 0.051254
0.626390 0.052929 0.053551
0.653518 0.055211 0.055849
0.680661 0.057493 0.058146
0.707820 0.059775 0.060443
0.734995 0.062058 0.062740
0.750135 0.063324 0.064008
0.750369 0.063332 0.064004
0.030000 0.030000 0.040000
0.030000 0.030000 0.040000
0.030000 0.030000 0.040000
0.030000 0.030000 0.040000
0.034039 0.030000 0.040000
0.060800 0.030000 0.040000
0.087581 0.030000 0.040000
0.114382 0.030000 0.040000
0.141202 0.030000 0.040000
0.168042 0.030000 0.040000
0.194901 0.030000 0.040000
0.221779 0.030000 0.040000
0.248676 0.030000 0.040000
0.275591 0.030000 0.040000
0.302524 0.030000 0.040000
0.329476 0.030000 0.040000
0.356445 0.030160 0.040000
0.383432 0.032437 0.040000
0.410436 0.034714 0.040000
0.437458 0.036992 0.040000
0.464496 0.039270 0.040000
0.491551 0.041549 0.042051
0.518623 0.043829 0.044349
0.545711 0.046109 0.046647
0.572815 0.048389 0.048945
0.599935 0.050670 0.051243
0.627070 0.052952 0.053540
0.654221 0.055234 0.055837
0.681388 0.057517 0.058134
0.708569 0.059800 0.060430
0.735765 0.062084 0.062727
0.750914 0.063350 0.063995
0.751141 0.063358 0.063991
0.030000 0.030000 0.040000
0.030000 0.030000 0.040000
0.030000 0.030000 0.040000
0.030000 0.030000 0.040000
0.036135 0.030000 0.040000
0.062930 0.030000 0.040000
0.089745 0.030000 0.040000
0.116579 0.030000 0.040000
0.143432 0.030000 0.040000
0.170304 0.030000 0.040000
0.197194 0.030000 0.040000
0.224103 0.030000 0.040000
0.251030 0.030000 0.040000
0.277975 0.032241 0.040000
0.304938 0.034518 0.040000
0.331919 0.036796 0.040000
0.358916 0.039074 0.040000
0.385931 0.041353 0.040000
0.412963 0.043632 0.040000
0.440012 0.045912 0.040000
0.467077 0.048193 0.041857
0.494158 0.050473 0.044155
0.521255 0.052755 0.046453
0.548368 0.055037 0.048750
0.575497 0.057319 0.051048
0.602641 0.059602 0.053345
0.629800 0.061886 0.055642
0.656974 0.064170 0.057938
0.684163 0.066454 0.060235
0.711366 0.068739 0.062531
0.738584 0.071025 0.064826
0.753742 0.072293 0.066094
0.753963 0.072301 0.066090
0.030000 0.041425 0.040000
0.030000 0.041431 0.040000
0.030000 0.041437 0.040000
0.030000 0.042063 0.040000
0.043710 0.044339 0.040000
0.070540 0.046617 0.040000
0.097389 0.048894 0.040000
0.124257 0.051173 0.040000
0.151144 0.053452 0.040000
0.178048 0.055731 0.040000
0.204971 0.058011 0.040000
0.231912 0.060292 0.040000
0.258871 0.062573 0.040000
0.285847 0.064855 0.040000
0.312841 0.067137 0.040000
0.339851 0.069420 0.040000
0.366878 0.071703 0.040395
0.393922 0.073987 0.042694
0.420982 0.076271 0.044992
0.448059 0.078556 0.047289
0.475151 0.080841 0.049587
0.502259 0.083127 0.051884
0.529383 0.085414 0.054181
0.556522 0.087700 0.056478
0.583676 0.089987 0.058774
0.610845 0.092275 0.061070
0.638029 0.094563 0.063366
0.665226 0.096852 0.065662
0.692439 0.099141 0.067958
0.719665 0.101430 0.070253
0.746905 0.103720 0.072548
0.762073 0.104992 0.073815
0.762289 0.105004 0.073811
0.030000 0.074001 0.040000
0.030000 0.074011 0.040000
0.030000 0.074022 0.040000
0.030000 0.074652 0.040000
0.051301 0.076934 0.040000
0.078165 0.079217 0.040000
0.105048 0.081500 0.040000
0.131949 0.083784 0.040000
0.158868 0.086068 0.040000
0.185805 0.088353 0.040000
0.212760 0.090638 0.040000
0.239732 0.092924 0.040000
0.266721 0.095210 0.040000
0.293727 0.097497 0.041232
0.320750 0.099784 0.043530
0.347790 0.102072 0.045828
0.374846 0.104360 0.048126
0.401917 0.106648 0.050423
0.429005 0.108937 0.052720
0.456109 0.111227 0.055017
0.483227 0.113517 0.057314
0.510362 0.115807 0.059610
0.537511 0.118098 0.061906
0.564675 0.120389 0.064202
0.591853 0.122681 0.066498
0.619046 0.124973 0.068793
0.646253 0.127265 0.071089
0.673474 0.129558 0.073384
0.700708 0.131851 0.075678
0.727956 0.134145 0.077973
0.755218 0.136439 0.080267
0.770395 0.137714 0.081534
0.770607 0.137729 0.081530
0.030000 0.106607 0.040000
0.030000 0.106622 0.040000
0.030000 0.106637 0.040000
0.032029 0.107272 0.040000
0.058909 0.109559 0.040000
0.085806 0.111847 0.040000
0.112722 0.114135 0.040000
0.139655 0.116424 0.040000
0.166606 0.118713 0.040000
0.193574 0.121003 0.040000
0.220559 0.123293 0.042069
0.247561 0.125583 0.044367
0.274580 0.127874 0.046665
0.301615 0.130166 0.048962
0.328667 0.132458 0.051260
0.355734 0.134750 0.053557
0.382817 0.137043 0.055853
0.409916 0.139336 0.058150
0.437031 0.141629 0.060446
0.464160 0.143923 0.062742
0.491305 0.146218 0.065038
0.518464 0.148512 0.067334
0.545637 0.150807 0.069629
0.572825 0.153103 0.071924
0.600027 0.155399 0.074219
0.627243 0.157695 0.076514
0.654472 0.159991 0.078808
0.681715 0.162288 0.081102
0.708971 0.164585 0.083396
0.736240 0.166883 0.085690
0.763522 0.169181 0.087984
0.778708 0.170460 0.089250
0.778915 0.170478 0.089246
0.032245 0.139243 0.040000
0.032256 0.139262 0.040000
0.032267 0.139280 0.040000
0.039620 0.139920 0.040000
0.066532 0.142212 0.040000
0.093462 0.144504 0.040000
0.120409 0.146798 0.040607
0.147373 0.149091 0.042906
0.174355 0.151385 0.045203
0.201353 0.153679 0.047501
0.228368 0.155974 0.049799
0.255399 0.158269 0.052096
0.282446 0.160565 0.054393
0.309510 0.162861 0.056689
0.336589 0.165157 0.058986
0.363684 0.167454 0.061282
0.390793 0.169751 0.063578
0.417918 0.172048 0.065874
0.445058 0.174346 0.068169
0.472213 0.176644 0.070465
0.499382 0.178942 0.072760
0.526565 0.181241 0.075054
0.553762 0.183540 0.077349
0.580973 0.185840 0.079643
0.608198 0.188139 0.081938
0.635435 0.190439 0.084232
0.662686 0.192740 0.086525
0.689950 0.195040 0.088819
0.717227 0.197341 0.091112
0.744516 0.199642 0.093405
0.771817 0.201944 0.095698
0.787012 0.203226 0.096964
0.787213 0.203247 0.096959
0.039837 0.171907 0.040824
0.039850 0.171929 0.040821
0.039863 0.171952 0.040818
0.047226 0.172595 0.041444
0.074170 0.174892 0.043742
0.101131 0.177189 0.046040
0.128109 0.179487 0.048338
0.155103 0.181785 0.050635
0.182114 0.184083 0.052932
0.209142 0.186382 0.055229
0.236186 0.188681 0.057526
0.263245 0.190980 0.059822
0.290320 0.193280 0.062118
0.317411 0.195580 0.064414
0.344516 0.197881 0.066710
0.371637 0.200182 0.069005
0.398773 0.202483 0.071300
0.425923 0.204784 0.073595
0.453087 0.207086 0.075890
0.480266 0.209388 0.078184
0.507459 0.211690 0.080479
0.534665 0.213993 0.082773
0.561885 0.216296 0.085067
0.589118 0.218599 0.087360
0.616364 0.220902 0.089654
0.643623 0.223206 0.091947
0.670894 0.225509 0.094240
0.698178 0.227813 0.096533
0.725474 0.230118 0.098826
0.752782 0.232422 0.101119
0.780102 0.234727 0.103411
0.795304 0.236012 0.104676
0.795500 0.236035 0.104671
0.047444 0.204597 0.048555
0.047459 0.204623 0.048552
0.047474 0.204649 0.048549
0.054848 0.205296 0.049174
0.081822 0.207598 0.051471
0.108813 0.209899 0.053768
0.135821 0.212201 0.056065
0.162845 0.214503 0.058362
0.189885 0.216806 0.060658
0.216940 0.219109 0.062954
0.244012 0.221412 0.065250
0.271098 0.223716 0.067545
0.298200 0.226019 0.069841
0.325317 0.228324 0.072136
0.352449 0.230628 0.074431
0.379595 0.232933 0.076725
0.406755 0.235237 0.079020
0.433929 0.237543 0.081314
0.461117 0.239848 0.083608
0.488319 0.242154 0.085902
0.515534 0.244460 0.088195
0.542763 0.246766 0.090489
0.570004 0.249072 0.092782
0.597258 0.251378 0.095075
0.624525 0.253685 0.097368
0.651804 0.255992 0.099661
0.679095 0.258299 0.101953
0.706398 0.260607 0.104245
0.733712 0.262914 0.106538
0.761038 0.265222 0.108830
0.788376 0.267530 0.111121
0.803585 0.268817 0.112386
0.803776 0.268843 0.112381
0.055066 0.237314 0.056284
0.055083 0.237343 0.056280
0.055101 0.237372 0.056277
0.062484 0.238023 0.056901
0.089488 0.240328 0.059198
0.116508 0.242634 0.061494
0.143545 0.244940 0.063790
0.170597 0.247246 0.066085
0.197665 0.249553 0.068381
0.224748 0.251859 0.070676
0.251846 0.254166 0.072971
0.278959 0.256474 0.075266
0.306086 0.258781 0.077561
0.333228 0.261089 0.079855
0.360385 0.263397 0.082149
0.387555 0.265705 0.084443
0.414739 0.268014 0.086737
0.441936 0.270322 0.089030
0.469147 0.272631 0.091324
0.496371 0.274940 0.093617
0.523608 0.277249 0.095910
0.550858 0.279559 0.098203
0.578120 0.281868 0.100495
0.605394 0.284178 0.102788
0.632680 0.286488 0.105080
0.659978 0.288798 0.107372
0.687288 0.291108 0.109664
0.714609 0.293418 0.111956
0.741941 0.295729 0.114247
0.769284 0.298039 0.116539
0.796638 0.300350 0.118830
0.811854 0.301640 0.120095
0.812040 0.301668 0.120089
0.062703 0.270054 0.064009
0.062722 0.270087 0.064005
0.062741 0.270119 0.064001
0.070133 0.270773 0.064626
0.097166 0.273082 0.066921
0.124215 0.275392 0.069217
0.151279 0.277702 0.071512
0.178359 0.280012 0.073807
0.205454 0.282322 0.076101
0.232563 0.284632 0.078396
0.259687 0.286943 0.080690
0.286825 0.289254 0.082984
0.313977 0.291565 0.085278
0.341144 0.293876 0.087572
0.368324 0.296187 0.089865
0.395517 0.298499 0.092159
0.422724 0.300810 0.094452
0.449944 0.303122 0.096745
0.477176 0.305434 0.099037
0.504422 0.307746 0.101330
0.531679 0.310059 0.103622
0.558949 0.312371 0.105914
0.586231 0.314684 0.108206
0.613524 0.316996 0.110498
0.640829 0.319309 0.112790
0.668145 0.321622 0.115082
0.695473 0.323935 0.117373
0.722811 0.326248 0.119664
0.750160 0.328561 0.121955
0.777519 0.330874 0.124246
0.804889 0.333187 0.126537
0.820110 0.334480 0.127801
0.820290 0.334509 0.127796
0.070353 0.302819 0.071732
0.070374 0.302854 0.071728
0.070395 0.302889 0.071724
0.077796 0.303546 0.072347
0.104857 0.305859 0.074642
0.131933 0.308172 0.076937
0.159024 0.310485 0.079231
0.186130 0.312799 0.081525
0.213251 0.315112 0.083819
0.240385 0.317426 0.086113
0.267534 0.319740 0.088407
0.294697 0.322054 0.090700
0.321873 0.324368 0.092993
0.349063 0.326683 0.095286
0.376265 0.328997 0.097579
0.403481 0.331312 0.099872
0.430710 0.333626 0.102164
0.457951 0.335941 0.104457
0.485204 0.338256 0.106749
0.512470 0.340571 0.109041
0.539747 0.342886 0.111333
0.567036 0.345201 0.113624
0.594336 0.347517 0.115916
0.621648 0.349832 0.118207
0.648971 0.352147 0.120498
0.676304 0.354463 0.122789
0.703648 0.356778 0.125080
0.731003 0.359093 0.127371
0.758367 0.361409 0.129662
0.785742 0.363724 0.131952
0.813126 0.366040 0.134242
0.828353 0.367334 0.135507
0.828527 0.367365 0.135501
0.078017 0.335605 0.079452
0.078039 0.335643 0.079448
0.078061 0.335680 0.079443
0.085471 0.336340 0.080066
0.112559 0.338656 0.082361
0.139662 0.340973 0.084655
0.166779 0.343289 0.086948
0.193910 0.345606 0.089242
0.221055 0.347923 0.091535
0.248214 0.350240 0.093828
0.275387 0.352557 0.096121
0.302573 0.354874 0.098414
0.329772 0.357191 0.100707
0.356984 0.359508 0.102999
0.384209 0.361826 0.105291
0.411446 0.364143 0.107583
0.438695 0.366460 0.109875
0.465957 0.368778 0.112167
0.493230 0.371095 0.114459
0.520515 0.373413 0.116750
0.547811 0.375731 0.119041
0.575118 0.378048 0.121332
0.602436 0.380366 0.123623
0.629765 0.382684 0.125914
0.657105 0.385001 0.128205
0.684455 0.387319 0.130496
0.711814 0.389637 0.132786
0.739184 0.391954 0.135076
0.766563 0.394272 0.137366
0.793952 0.396589 0.139657
0.821350 0.398907 0.141947
0.836582 0.400203 0.143210
0.836750 0.400235 0.143205
0.085693 0.368412 0.087170
0.085716 0.368452 0.087165
0.085740 0.368492 0.087160
0.093157 0.369155 0.087783
0.120271 0.371474 0.090077
0.147400 0.373793 0.092370
0.174542 0.376113 0.094663
0.201698 0.378433 0.096956
0.228867 0.380752 0.099249
0.256049 0.383072 0.101541
0.283245 0.385392 0.103834
0.310453 0.387712 0.106126
0.337674 0.390032 0.108418
0.364908 0.392351 0.110710
0.392153 0.394671 0.113001
0.419411 0.396991 0.115293
0.446680 0.399311 0.117584
0.473961 0.401631 0.119875
0.501253 0.403951 0.122166
0.528556 0.406271 0.124457
0.555870 0.408591 0.126748
0.583195 0.410911 0.129039
0.610530 0.413231 0.131329
0.637875 0.415550 0.133620
0.665230 0.417870 0.135910
0.692595 0.420190 0.138200
0.719970 0.422509 0.140490
0.747354 0.424829 0.142780
0.774747 0.427148 0.145070
0.802149 0.429468 0.147360
0.829559 0.431787 0.149649
0.844796 0.433085 0.150913
0.844958 0.433118 0.150907
0.093380 0.401239 0.094885
0.093405 0.401282 0.094880
0.093429 0.401324 0.094875
0.100855 0.401988 0.095498
0.127994 0.404310 0.097791
0.155147 0.406633 0.100083
0.182313 0.408955 0.102376
0.209492 0.411277 0.104668
0.236685 0.413600 0.106960
0.263890 0.415922 0.109252
0.291107 0.418244 0.111544
0.318337 0.420567 0.113836
0.345579 0.422889 0.116127
0.372833 0.425211 0.118418
0.400098 0.427533 0.120710
0.427375 0.429856 0.123001
0.454663 0.432178 0.125291
0.481963 0.434500 0.127582
0.509273 0.436822 0.129873
0.536593 0.439144 0.132163
0.563924 0.441466 0.134454
0.591265 0.443788 0.136744
0.618616 0.446109 0.139034
0.645977 0.448431 0.141324
0.673347 0.450753 0.143614
0.700726 0.453074 0.145904
0.728114 0.455395 0.148193
0.755512 0.457717 0.150483
0.782917 0.460038 0.152772
0.810332 0.462359 0.155062
0.837754 0.464679 0.157351
0.852994 0.465978 0.158614
0.853150 0.466012 0.158609
0.101078 0.434085 0.102599
0.101104 0.434129 0.102593
0.101130 0.434173 0.102588
0.108563 0.434840 0.103210
0.135726 0.437164 0.105503
0.162902 0.439489 0.107795
0.190092 0.441814 0.110087
0.217293 0.444139 0.112378
0.244508 0.446463 0.114670
0.271734 0.448788 0.116961
0.298973 0.451113 0.119253
0.326223 0.453437 0.121544
0.353485 0.455762 0.123835
0.380759 0.458086 0.126125
0.408043 0.460410 0.128416
0.435338 0.462735 0.130707
0.462645 0.465059 0.132997
0.489961 0.467383 0.135287
0.517288 0.469707 0.137578
0.544625 0.472030 0.139868
0.571972 0.474354 0.142158
0.599328 0.476678 0.144447
0.626694 0.479001 0.146737
0.654069 0.481324 0.149027
0.681453 0.483647 0.151316
0.708846 0.485970 0.153606
0.736247 0.488293 0.155895
0.763657 0.490616 0.158184
0.791074 0.492938 0.160474
0.818500 0.495260 0.162763
0.845933 0.497582 0.165052
0.861176 0.498882 0.166315
0.861325 0.498917 0.166309
0.108787 0.466948 0.110310
0.108814 0.466994 0.110304
0.108840 0.467040 0.110299
0.116280 0.467708 0.110921
0.143467 0.470035 0.113213
0.170666 0.472362 0.115504
0.197877 0.474689 0.117795
0.225100 0.477016 0.120087
0.252336 0.479343 0.122378
0.279583 0.481669 0.124669
0.306841 0.483996 0.126959
0.334111 0.486322 0.129250
0.361392 0.488649 0.131541
0.388684 0.490975 0.133831
0.415987 0.493301 0.136121
0.443300 0.495627 0.138411
0.470623 0.497953 0.140701
0.497956 0.500279 0.142991
0.525299 0.502604 0.145281
0.552651 0.504930 0.147571
0.580013 0.507255 0.149860
0.607384 0.509580 0.152150
0.634764 0.511905 0.154439
0.662152 0.514229 0.156729
0.689549 0.516554 0.159018
0.716954 0.518878 0.161307
0.744367 0.521202 0.163596
0.771788 0.523525 0.165885
0.799217 0.525849 0.168174
0.826653 0.528172 0.170463
0.854096 0.530495 0.172752
0.869341 0.531796 0.174015
0.869484 0.531830 0.174009
0.116504 0.499827 0.118019
0.116532 0.499875 0.118013
0.116560 0.499922 0.118008
0.124007 0.500592 0.118630
0.151215 0.502921 0.120921
0.178436 0.505250 0.123212
0.205668 0.507579 0.125503
0.232912 0.509908 0.127793
0.260168 0.512236 0.130084
0.287434 0.514565 0.132374
0.314712 0.516893 0.134665
0.342001 0.519221 0.136955
0.369300 0.521549 0.139245
0.396609 0.523877 0.141535
0.423929 0.526205 0.143825
0.451258 0.528532 0.146115
0.478597 0.530859 0.148404
0.505946 0.533187 0.150694
0.533304 0.535513 0.152983
0.560671 0.537840 0.155273
0.588047 0.540166 0.157562
0.615431 0.542493 0.159851
0.642824 0.544819 0.162140
0.670225 0.547144 0.164429
0.697633 0.549470 0.166718
0.725050 0.551795 0.169007
0.752474 0.554120 0.171296
0.779906 0.556444 0.173585
0.807344 0.558769 0.175873
0.834789 0.561093 0.178162
0.862241 0.563416 0.180451
0.877488 0.564717 0.181714
0.877625 0.564752 0.181708
0.124231 0.532722 0.125727
0.124260 0.532770 0.125721
0.124288 0.532819 0.125715
0.131741 0.533490 0.126337
0.158971 0.535821 0.128627
0.186212 0.538151 0.130918
0.213465 0.540482 0.133208
0.240728 0.542812 0.135499
0.268003 0.545143 0.137789
0.295288 0.547473 0.140079
0.322584 0.549803 0.142369
0.349890 0.552132 0.144659
0.377207 0.554462 0.146948
0.404533 0.556791 0.149238
0.431868 0.559120 0.151527
0.459213 0.561448 0.153817
0.486568 0.563777 0.156106
0.513931 0.566105 0.158395
0.541303 0.568433 0.160685
0.568683 0.570761 0.162974
0.596072 0.573088 0.165263
0.623469 0.575415 0.167552
0.650874 0.577742 0.169840
0.678286 0.580068 0.172129
0.705706 0.582395 0.174418
0.733133 0.584720 0.176707
0.760567 0.587046 0.178995
0.788008 0.589371 0.181284
0.815456 0.591696 0.183572
0.842909 0.594021 0.185861
0.870369 0.596345 0.188149
0.885617 0.597646 0.189412
0.885747 0.597681 0.189407
0.131966 0.565630 0.133433
0.131995 0.565680 0.133427
0.132024 0.565729 0.133421
0.139483 0.566401 0.134042
0.166733 0.568733 0.136332
0.193994 0.571066 0.138622
0.221266 0.573398 0.140913
0.248548 0.575730 0.143202
0.275841 0.578061 0.145492
0.303144 0.580392 0.147782
0.330457 0.582723 0.150071
0.357780 0.585054 0.152361
0.385112 0.587385 0.154650
0.412454 0.589715 0.156940
0.439805 0.592045 0.159229
0.467165 0.594375 0.161518
0.494533 0.596704 0.163807
0.521910 0.599033 0.166096
0.549295 0.601362 0.168385
0.576688 0.603690 0.170674
0.604089 0.606018 0.172963
0.631497 0.608346 0.175251
0.658913 0.610673 0.177540
0.686336 0.613000 0.179828
0.713766 0.615327 0.182117
0.741203 0.617654 0.184406
0.768646 0.619979 0.186694
0.796095 0.622305 0.188982
0.823551 0.624630 0.191271
0.851012 0.626955 0.193559
0.878479 0.629279 0.195847
0.893727 0.630580 0.197110
0.893850 0.630615 0.197105
0.139709 0.598551 0.141137
0.139738 0.598601 0.141131
0.139767 0.598651 0.141125
0.147232 0.599324 0.141746
0.174501 0.601658 0.144036
0.201781 0.603991 0.146326
0.229071 0.606325 0.148615
0.256371 0.608658 0.150905
0.283681 0.610990 0.153194
0.311001 0.613322 0.155484
0.338330 0.615654 0.157773
0.365669 0.617986 0.160062
0.393016 0.620318 0.162351
0.420373 0.622649 0.164640
0.447738 0.624979 0.166929
0.475111 0.627310 0.169218
0.502493 0.629640 0.171507
0.529882 0.631969 0.173796
0.557279 0.634299 0.176084
0.584684 0.636628 0.178373
0.612096 0.638956 0.180662
0.639515 0.641284 0.182950
0.666941 0.643612 0.185239
0.694374 0.645939 0.187527
0.721813 0.648266 0.189815
0.749258 0.650593 0.192104
0.776709 0.652919 0.194392
0.804166 0.655245 0.196680
0.831628 0.657570 0.198969
0.859096 0.659895 0.201257
0.886569 0.662219 0.203545
0.901818 0.663520 0.204808
0.901933 0.663554 0.204803
0.147458 0.631483 0.148840
0.147488 0.631534 0.148834
0.147517 0.631585 0.148828
0.154987 0.632258 0.149449
0.182275 0.634593 0.151739
0.209572 0.636927 0.154028
0.236880 0.639261 0.156317
0.264196 0.641595 0.158607
0.291523 0.643929 0.160896
0.318858 0.646262 0.163185
0.346203 0.648594 0.165474
0.373556 0.650927 0.167763
0.400918 0.653259 0.170052
0.428288 0.655590 0.172340
0.455666 0.657922 0.174629
0.483052 0.660252 0.176918
0.510446 0.662583 0.179206
0.537847 0.664913 0.181495
0.565255 0.667242 0.183783
0.592671 0.669572 0.186072
0.620093 0.671900 0.188360
0.647522 0.674229 0.190649
0.674957 0.676556 0.192937
0.702398 0.678884 0.195225
0.729845 0.681211 0.197514
0.757298 0.683537 0.199802
0.784756 0.685863 0.202090
0.812220 0.688189 0.204378
0.839688 0.690514 0.206667
0.867162 0.692838 0.208955
0.894640 0.695162 0.211243
0.909888 0.696462 0.212506
0.909996 0.696496 0.212501
0.155213 0.664426 0.156542
0.155243 0.664477 0.156536
0.155273 0.664528 0.156530
0.162748 0.665202 0.157151
0.190052 0.667537 0.159440
0.217367 0.669872 0.161729
0.244690 0.672207 0.164018
0.272023 0.674542 0.166307
0.299365 0.676876 0.168596
0.326715 0.679209 0.170885
0.354074 0.681542 0.173174
0.381441 0.683875 0.175462
0.408816 0.686207 0.177751
0.436199 0.688539 0.180039
0.463589 0.690871 0.182328
0.490987 0.693202 0.184616
0.518392 0.695532 0.186905
0.545804 0.697862 0.189193
0.573223 0.700192 0.191482
0.600648 0.702521 0.193770
0.628079 0.704850 0.196058
0.655516 0.707178 0.198347
0.682960 0.709505 0.200635
0.710409 0.711833 0.202923
0.737863 0.714159 0.205211
0.765322 0.716485 0.207500
0.792787 0.718811 0.209788
0.820256 0.721136 0.212076
0.847730 0.723461 0.214364
0.875208 0.725784 0.216652
0.902690 0.728108 0.218941
0.917936 0.729407 0.220204
0.918038 0.729439 0.220199
0.162973 0.697378 0.164243
0.163004 0.697429 0.164237
0.163033 0.697480 0.164231
0.170513 0.698154 0.164851
0.197834 0.700490 0.167140
0.225164 0.702825 0.169429
0.252503 0.705161 0.171718
0.279851 0.707495 0.174007
0.307207 0.709830 0.176295
0.334571 0.712163 0.178584
0.361943 0.714497 0.180873
0.389323 0.716829 0.183161
0.416710 0.719162 0.185450
0.444105 0.721494 0.187738
0.471507 0.723825 0.190026
0.498915 0.726156 0.192315
0.526331 0.728486 0.194603
0.553752 0.730816 0.196891
0.581180 0.733146 0.199180
0.608614 0.735475 0.201468
0.636054 0.737803 0.203756
0.663499 0.740131 0.206044
0.690949 0.742458 0.208333
0.718405 0.744785 0.210621
0.745865 0.747111 0.212909
0.773330 0.749436 0.215197
0.800800 0.751761 0.217485
0.828274 0.754086 0.219774
0.855752 0.756409 0.222062
0.883233 0.758732 0.224350
0.910719 0.761055 0.226638
0.925963 0.762353 0.227902
0.926058 0.762384 0.227897
0.170739 0.730338 0.171943
0.170769 0.730389 0.171937
0.170798 0.730439 0.171931
0.178282 0.731113 0.172551
0.205619 0.733449 0.174840
0.232964 0.735785 0.177129
0.260317 0.738120 0.179417
0.287679 0.740455 0.181706
0.315048 0.742789 0.183994
0.342425 0.745123 0.186283
0.369810 0.747456 0.188571
0.397201 0.749789 0.190860
0.424600 0.752121 0.193148
0.452006 0.754453 0.195436
0.479418 0.756784 0.197725
0.506836 0.759115 0.200013
0.534261 0.761445 0.202301
0.561691 0.763774 0.204589
0.589127 0.766103 0.206877
0.616569 0.768431 0.209166
0.644016 0.770759 0.211454
0.671468 0.773086 0.213742
0.698924 0.775413 0.216030
0.726386 0.777739 0.218319
0.753851 0.780064 0.220607
0.781321 0.782389 0.222895
0.808795 0.784713 0.225183
0.836273 0.787036 0.227472
0.863754 0.789359 0.229760
0.891238 0.791681 0.232048
0.918726 0.794002 0.234337
0.933968 0.795299 0.235600
0.934055 0.795329 0.235596
0.178508 0.763304 0.179642
0.178538 0.763355 0.179636
0.178567 0.763405 0.179630
0.186054 0.764079 0.180250
0.213406 0.766415 0.182539
0.240765 0.768750 0.184827
0.268132 0.771086 0.187116
0.295506 0.773420 0.189404
0.322888 0.775754 0.191693
0.350277 0.778088 0.193981
0.377673 0.780420 0.196269
0.405075 0.782753 0.198558
0.432485 0.785085 0.200846
0.459900 0.787416 0.203134
0.487321 0.789746 0.205422
0.514749 0.792076 0.207711
0.542182 0.794406 0.209999
0.569620 0.796734 0.212287
0.597063 0.799062 0.214575
0.624512 0.801390 0.216863
