library/cube/Mood_Grid_000.cube
# CINEGRADE LAB — Premium Cinematic LUT
# Title: Mood Grid
# Category: Dark Instagram Mood
# Description: Desaturated, crushed blacks, cool tones for social media aesthetics
# Mood: Moody, cool, modern
# Variant: 1
# Generated: 2026-05-21T16:12:35.644642
TITLE "Mood Grid"
LUT_3D_SIZE 9
0.030000 0.030000 0.040000
0.033950 0.030000 0.040000
0.140844 0.030000 0.040000
0.248063 0.030000 0.040000
0.355594 0.030131 0.040000
0.463422 0.039234 0.040000
0.571533 0.048346 0.048967
0.679915 0.057468 0.058158
0.749574 0.063305 0.064017
0.030000 0.041425 0.040000
0.043710 0.044339 0.040000
0.151144 0.053452 0.040000
0.258871 0.062573 0.040000
0.366878 0.071703 0.040395
0.475151 0.080841 0.049587
0.583676 0.089987 0.058774
0.692439 0.099141 0.067958
0.762289 0.105004 0.073811
0.039837 0.171907 0.040824
0.074170 0.174892 0.043742
0.182114 0.184083 0.052932
0.290320 0.193280 0.062118
0.398773 0.202483 0.071300
0.507459 0.211690 0.080479
0.616364 0.220902 0.089654
0.725474 0.230118 0.098826
0.795500 0.236035 0.104671
0.070353 0.302819 0.071732
0.104857 0.305859 0.074642
0.213251 0.315112 0.083819
0.321873 0.324368 0.092993
0.430710 0.333626 0.102164
0.539747 0.342886 0.111333
0.648971 0.352147 0.120498
0.758367 0.361409 0.129662
0.828527 0.367365 0.135501
0.101078 0.434085 0.102599
0.135726 0.437164 0.105503
0.244508 0.446463 0.114670
0.353485 0.455762 0.123835
0.462645 0.465059 0.132997
0.571972 0.474354 0.142158
0.681453 0.483647 0.151316
0.791074 0.492938 0.160474
0.861325 0.498917 0.166309
0.131966 0.565630 0.133433
0.166733 0.568733 0.136332
0.275841 0.578061 0.145492
0.385112 0.587385 0.154650
0.494533 0.596704 0.163807
0.604089 0.606018 0.172963
0.713766 0.615327 0.182117
0.823551 0.624630 0.191271
0.893850 0.630615 0.197105
0.162973 0.697378 0.164243
0.197834 0.700490 0.167140
0.307207 0.709830 0.176295
0.416710 0.719162 0.185450
0.526331 0.728486 0.194603
0.636054 0.737803 0.203756
0.745865 0.747111 0.212909
0.855752 0.756409 0.222062
0.926058 0.762384 0.227897
0.194055 0.829253 0.195038
0.228984 0.832358 0.197935
0.338560 0.841693 0.207088
0.448235 0.851017 0.216241
0.557993 0.860331 0.225394
0.667822 0.869632 0.234547
0.777706 0.878922 0.243701
0.887633 0.888200 0.252856
0.957903 0.894149 0.258695
0.214038 0.913670 0.214664
0.249004 0.916744 0.217565
0.358718 0.926050 0.226719
0.468498 0.935342 0.235874
0.578330 0.944622 0.245030
0.688200 0.953887 0.254187
0.798093 0.963138 0.263345
0.907997 0.972374 0.272504
0.978187 0.978279 0.278349
0.030000 0.030000 0.040000
0.034931 0.030000 0.040000
0.141882 0.030000 0.045340
0.249155 0.030000 0.054541
0.356737 0.031119 0.063737
0.464612 0.040224 0.072928
0.572768 0.049338 0.082115
0.681190 0.058461 0.091298
0.750870 0.064300 0.097148
0.030000 0.042414 0.043041
0.044699 0.045330 0.045960
0.152184 0.054444 0.055156
0.259960 0.063567 0.064346
0.368012 0.072699 0.073533
0.476327 0.081839 0.082716
0.584891 0.090987 0.091895
0.693689 0.100141 0.101070
0.763556 0.106005 0.106916
0.040826 0.172920 0.073967
0.075175 0.175906 0.076877
0.183165 0.185098 0.086058
0.291413 0.194296 0.095235
0.399905 0.203499 0.104409
0.508627 0.212707 0.113580
0.617564 0.221919 0.122748
0.726704 0.231136 0.131913
0.796744 0.237053 0.137752
0.071357 0.303851 0.104846
0.105874 0.306891 0.107748
0.214307 0.316144 0.116918
0.322966 0.325400 0.126085
0.431836 0.334658 0.135249
0.540903 0.343917 0.144410
0.650154 0.353178 0.153570
0.759574 0.362439 0.162727
0.829743 0.368394 0.168561
0.102092 0.435131 0.135687
0.136752 0.438209 0.138584
0.245567 0.447507 0.147745
0.354575 0.456804 0.156904
0.463762 0.466100 0.166060
0.573113 0.475394 0.175215
0.682615 0.484686 0.184369
0.792254 0.493975 0.193521
0.862510 0.499952 0.199353
0.132988 0.566685 0.166499
0.167764 0.569786 0.169394
0.276900 0.579111 0.178548
0.386195 0.588433 0.187701
0.495637 0.597750 0.196853
0.605211 0.607062 0.206004
0.714904 0.616368 0.215155
0.824700 0.625669 0.224305
0.895001 0.631651 0.230136
0.163999 0.698436 0.197291
0.198866 0.701544 0.200185
0.308261 0.710881 0.209336
0.417783 0.720210 0.218486
0.527419 0.729532 0.227636
0.637154 0.738845 0.236785
0.746975 0.748149 0.245935
0.856867 0.757444 0.255086
0.927171 0.763415 0.260919
0.195081 0.830309 0.228072
0.230014 0.833410 0.230967
0.339607 0.842741 0.240117
0.449294 0.852061 0.249267
0.559062 0.861370 0.258417
0.668897 0.870667 0.267568
0.778785 0.879953 0.276720
0.888712 0.889226 0.285873
0.958975 0.895170 0.291711
0.215059 0.914715 0.247689
0.250027 0.917784 0.250587
0.359752 0.927086 0.259739
0.469539 0.936374 0.268893
0.579374 0.945648 0.278047
0.689245 0.954908 0.287203
0.799136 0.964154 0.296360
0.909034 0.973385 0.305519
0.979214 0.979284 0.311363
0.030000 0.030000 0.137546
0.037978 0.030000 0.140437
0.144989 0.030000 0.149611
0.252318 0.030000 0.158781
0.359953 0.034210 0.167947
0.467878 0.043318 0.177109
0.576081 0.052435 0.186267
0.684546 0.061561 0.195423
0.754249 0.067402 0.201247
0.030000 0.045506 0.147271
0.047764 0.048424 0.150161
0.155303 0.057541 0.159328
0.263130 0.066668 0.168491
0.371229 0.075802 0.177650
0.479588 0.084945 0.186807
0.588192 0.094095 0.195960
0.697027 0.103252 0.205111
0.766914 0.109117 0.210934
0.043897 0.176040 0.178100
0.078265 0.179027 0.180984
0.186302 0.188221 0.190140
0.294594 0.197421 0.199292
0.403127 0.206626 0.208442
0.511887 0.215835 0.217590
0.620859 0.225049 0.226736
0.730030 0.234266 0.235880
0.800084 0.240184 0.241698
0.074451 0.306993 0.208893
0.108984 0.310033 0.211773
0.217458 0.319287 0.220920
0.326155 0.328544 0.230065
0.435060 0.337802 0.239208
0.544159 0.347062 0.248350
0.653437 0.356323 0.257490
0.762882 0.365584 0.266630
0.833062 0.371539 0.272447
0.105205 0.438290 0.239659
0.139877 0.441367 0.242537
0.248727 0.450665 0.251678
0.357767 0.459961 0.260818
0.466982 0.469257 0.269957
0.576359 0.478550 0.279095
0.685883 0.487841 0.288233
0.795541 0.497129 0.297370
0.865804 0.503104 0.303188
0.136114 0.569854 0.270406
0.170900 0.572953 0.273284
0.280065 0.582277 0.282422
0.389386 0.591598 0.291559
0.498851 0.600913 0.300697
0.608444 0.610223 0.309834
0.718152 0.619527 0.318972
0.827961 0.628826 0.328110
0.898264 0.634805 0.333931
0.167134 0.701610 0.301144
0.202009 0.704716 0.304023
0.311427 0.714050 0.313161
0.420968 0.723377 0.322299
0.530620 0.732695 0.331437
0.640368 0.742006 0.340577
0.750199 0.751307 0.349717
0.860097 0.760599 0.358859
0.930399 0.766566 0.364684
0.198222 0.833483 0.331881
0.233159 0.836580 0.334765
0.342768 0.845907 0.343904
0.452469 0.855223 0.353045
0.562247 0.864529 0.362187
0.672088 0.873822 0.371331
0.781980 0.883103 0.380477
0.891907 0.892372 0.389625
0.962164 0.898312 0.395458
0.218198 0.917880 0.351465
0.253169 0.920945 0.354355
0.362903 0.930241 0.363500
0.472698 0.939525 0.372647
0.582537 0.948794 0.381797
0.692409 0.958050 0.390948
0.802297 0.967291 0.400102
0.912189 0.976516 0.409259
0.982358 0.982410 0.415102
0.030000 0.030000 0.241859
0.041028 0.030000 0.244719
0.148098 0.030000 0.253862
0.255483 0.030000 0.263001
0.363170 0.037302 0.272137
0.471145 0.046413 0.281271
0.579393 0.055533 0.290401
0.687901 0.064662 0.299530
0.757627 0.070506 0.305329
0.030000 0.048600 0.251482
0.050832 0.051519 0.254343
0.158424 0.060640 0.263481
0.266300 0.069769 0.272617
0.374446 0.078906 0.281750
0.482848 0.088051 0.290881
0.591492 0.097204 0.300010
0.700364 0.106363 0.309137
0.770270 0.112230 0.314938
0.046972 0.179161 0.282216
0.081356 0.182148 0.285074
0.189441 0.191345 0.294205
0.297777 0.200546 0.303333
0.406350 0.209753 0.312460
0.515146 0.218964 0.321585
0.624152 0.228179 0.330709
0.733354 0.237397 0.339833
0.803423 0.243316 0.345632
0.077547 0.310136 0.312925
0.112095 0.313175 0.315782
0.220611 0.322431 0.324907
0.329345 0.331688 0.334031
0.438284 0.340947 0.343154
0.547413 0.350207 0.352277
0.656720 0.359468 0.361399
0.766189 0.368729 0.370521
0.836379 0.374683 0.376321
0.108319 0.441448 0.343617
0.143004 0.444525 0.346475
0.251889 0.453822 0.355598
0.360960 0.463118 0.364720
0.470203 0.472413 0.373842
0.579604 0.481706 0.382964
0.689150 0.490996 0.392086
0.798825 0.500283 0.401210
0.869094 0.506256 0.407014
0.139241 0.573023 0.374301
0.174038 0.576120 0.377163
0.283231 0.585443 0.386285
0.392577 0.594762 0.395408
0.502063 0.604075 0.404531
0.611675 0.613384 0.413656
0.721398 0.622686 0.422782
0.831219 0.631982 0.431909
0.901523 0.637959 0.437719
0.170270 0.704784 0.404987
0.205153 0.707887 0.407853
0.314592 0.717218 0.416978
0.424153 0.726542 0.426104
0.533820 0.735858 0.435232
0.643581 0.745165 0.444361
0.753420 0.754463 0.453493
0.863324 0.763752 0.462627
0.933623 0.769716 0.468445
0.201362 0.836656 0.435682
0.236305 0.839749 0.438555
0.345929 0.849072 0.447686
0.455643 0.858385 0.456818
0.565430 0.867686 0.465952
0.675278 0.876975 0.475090
0.785172 0.886252 0.484229
0.895098 0.895517 0.493372
0.965348 0.901452 0.499202
0.221336 0.921043 0.455235
0.256310 0.924103 0.458118
0.366054 0.933396 0.467257
0.475855 0.942674 0.476398
0.585698 0.951939 0.485543
0.695569 0.961190 0.494691
0.805455 0.970426 0.503842
0.915340 0.979646 0.512997
0.985498 0.985534 0.518840
0.030000 0.030000 0.346151
0.044081 0.030000 0.348980
0.151209 0.030000 0.358091
0.258650 0.031290 0.367201
0.366388 0.040395 0.376308
0.474411 0.049510 0.385414
0.582705 0.058633 0.394518
0.691255 0.067764 0.403620
0.761003 0.073610 0.409394
0.030000 0.051694 0.355672
0.053903 0.054616 0.358506
0.161547 0.063739 0.367616
0.269472 0.072871 0.376725
0.377664 0.082011 0.385832
0.486109 0.091159 0.394938
0.594792 0.100313 0.404043
0.703700 0.109475 0.413148
0.773625 0.115343 0.418926
0.050048 0.182283 0.386314
0.084451 0.185271 0.389148
0.192581 0.194469 0.398253
0.300960 0.203672 0.407358
0.409573 0.212880 0.416462
0.518406 0.222093 0.425566
0.627445 0.231309 0.434669
0.736676 0.240529 0.443773
0.806760 0.246448 0.449553
0.080646 0.313279 0.416941
0.115208 0.316318 0.419777
0.223764 0.325574 0.428880
0.332535 0.334832 0.437983
0.441507 0.344092 0.447087
0.550667 0.353352 0.456191
0.660000 0.362613 0.465295
0.769493 0.371874 0.474400
0.839693 0.377828 0.480185
0.111434 0.444607 0.447562
0.146132 0.447682 0.450401
0.255050 0.456979 0.459505
0.364152 0.466275 0.468610
0.473422 0.475569 0.477716
0.582848 0.484861 0.486822
0.692414 0.494150 0.495930
0.802107 0.503436 0.505040
0.872381 0.509408 0.510832
0.142370 0.576192 0.478185
0.177176 0.579287 0.481031
0.286396 0.588608 0.490138
0.395767 0.597925 0.499246
0.505274 0.607237 0.508357
0.614904 0.616543 0.517469
0.724641 0.625844 0.526583
0.834473 0.635138 0.535700
0.904780 0.641112 0.541501
0.173407 0.707957 0.508820
0.208297 0.711057 0.511674
0.317758 0.720386 0.520787
0.427336 0.729707 0.529902
0.537019 0.739020 0.539019
0.646791 0.748324 0.548140
0.756638 0.757619 0.557263
0.866548 0.766904 0.566389
0.936843 0.772864 0.572201
0.204502 0.839827 0.539476
0.239450 0.842916 0.542339
0.349090 0.852236 0.551461
0.458815 0.861545 0.560585
0.568611 0.870842 0.569713
0.678464 0.880127 0.578844
0.788360 0.889400 0.587978
0.898285 0.898660 0.597117
0.968528 0.904590 0.602943
0.224475 0.924205 0.558999
0.259450 0.927260 0.561876
0.369204 0.936548 0.571009
0.479011 0.945822 0.580146
0.588856 0.955082 0.589287
0.698727 0.964328 0.598431
0.808608 0.973559 0.607581
0.918487 0.982774 0.616735
0.988633 0.988656 0.622577
0.030000 0.030000 0.450421
0.047137 0.030000 0.453220
0.154323 0.030000 0.462301
0.261818 0.034381 0.471381
0.369608 0.043489 0.480460
0.477679 0.052607 0.489539
0.586017 0.061733 0.498616
0.694608 0.070867 0.507693
0.764379 0.076715 0.513442
0.030000 0.054790 0.459844
0.056976 0.057713 0.462650
0.164672 0.066839 0.471733
0.272646 0.075974 0.480816
0.380883 0.085117 0.489898
0.489370 0.094267 0.498980
0.598092 0.103424 0.508061
0.707035 0.112588 0.517143
0.776977 0.118458 0.522900
0.053127 0.185405 0.490395
0.087547 0.188394 0.493204
0.195723 0.197594 0.502286
0.304145 0.206799 0.511368
0.412796 0.216009 0.520450
0.521665 0.225222 0.529532
0.630737 0.234440 0.538615
0.739997 0.243660 0.547699
0.810094 0.249580 0.553462
0.083746 0.316422 0.520942
0.118323 0.319461 0.523756
0.226918 0.328718 0.532839
0.335725 0.337977 0.541922
0.444731 0.347236 0.551007
0.553920 0.356497 0.560093
0.663280 0.365758 0.569180
0.772796 0.375019 0.578269
0.843005 0.380972 0.584039
0.114551 0.447766 0.551493
0.149261 0.450840 0.554315
0.258213 0.460136 0.563401
0.367344 0.469431 0.572489
0.476642 0.478725 0.581579
0.586090 0.488016 0.590670
0.695677 0.497304 0.599764
0.805387 0.506589 0.608861
0.875666 0.512559 0.614641
0.145499 0.579360 0.582058
0.180315 0.582453 0.584888
0.289562 0.591773 0.593981
0.398957 0.601088 0.603076
0.508485 0.610398 0.612173
0.618131 0.619702 0.621274
0.727883 0.629001 0.630377
0.837725 0.638292 0.639484
0.908032 0.644264 0.645276
0.176544 0.711129 0.612645
0.211441 0.714226 0.615486
0.320923 0.723552 0.624588
0.430519 0.732871 0.633692
0.540216 0.742181 0.642800
0.649999 0.751482 0.651912
0.759854 0.760773 0.661027
0.869768 0.770055 0.670147
0.940060 0.776012 0.675953
0.207643 0.842998 0.643262
0.242595 0.846082 0.646117
0.352249 0.855399 0.655230
0.461986 0.864704 0.664347
0.571790 0.873997 0.673468
0.681648 0.883278 0.682594
0.791546 0.892546 0.691724
0.901469 0.901801 0.700859
0.971704 0.907727 0.706682
0.227613 0.927366 0.662759
0.262590 0.930416 0.665630
0.372353 0.939699 0.674758
0.482165 0.948969 0.683890
0.592012 0.958224 0.693027
0.701882 0.967464 0.702170
0.811758 0.976690 0.711318
0.921629 0.985900 0.720471
0.991764 0.991777 0.726314
0.030000 0.030000 0.554671
0.050196 0.030000 0.557439
0.157439 0.030000 0.566491
0.264988 0.037473 0.575543
0.372828 0.046585 0.584594
0.480946 0.055705 0.593645
0.589329 0.064834 0.602697
0.697960 0.073971 0.611749
0.767752 0.079821 0.617475
0.030000 0.057886 0.563996
0.060051 0.060811 0.566775
0.167799 0.069941 0.575832
0.275821 0.079078 0.584889
0.384103 0.088223 0.593947
0.492630 0.097376 0.603005
0.601391 0.106535 0.612064
0.710369 0.115701 0.621124
0.780329 0.121572 0.626860
0.056208 0.188528 0.594459
0.090645 0.191518 0.597245
0.198867 0.200719 0.606303
0.307330 0.209926 0.615362
0.416020 0.219137 0.624423
0.524924 0.228352 0.633485
0.634027 0.237571 0.642548
0.743316 0.246793 0.651614
0.813427 0.252712 0.657358
0.086848 0.319565 0.624928
0.121440 0.322605 0.627722
0.230074 0.331862 0.636784
0.338916 0.341121 0.645848
0.447954 0.350381 0.654914
0.557172 0.359642 0.663983
0.666558 0.368903 0.673054
0.776096 0.378164 0.682127
0.846314 0.384117 0.687883
0.117670 0.450924 0.655412
0.152391 0.453997 0.658216
0.261376 0.463293 0.667285
0.370537 0.472588 0.676357
0.479860 0.481880 0.685431
0.589331 0.491170 0.694509
0.698937 0.500457 0.703589
0.808663 0.509741 0.712674
0.878947 0.515709 0.718442
0.148629 0.582527 0.685920
0.183454 0.585618 0.688736
0.292729 0.594937 0.697814
0.402146 0.604250 0.706896
0.511694 0.613559 0.715982
0.621357 0.622861 0.725071
0.731122 0.632157 0.734164
0.840974 0.641446 0.743262
0.911282 0.647415 0.749045
0.179682 0.714300 0.716460
0.214585 0.717394 0.719290
0.324087 0.726718 0.728381
0.433701 0.736033 0.737476
0.543411 0.745340 0.746575
0.653204 0.754638 0.755678
0.763067 0.763927 0.764787
0.872984 0.773205 0.773900
0.943272 0.779158 0.779701
0.210783 0.846167 0.747042
0.245740 0.849247 0.749888
0.355408 0.858560 0.758994
0.465156 0.867861 0.768104
0.574967 0.877150 0.777219
0.684829 0.886427 0.786340
0.794728 0.895691 0.795466
0.904649 0.904941 0.804598
0.974875 0.910862 0.810419
0.230750 0.930525 0.766514
0.265730 0.933570 0.769379
0.375500 0.942849 0.778503
0.485317 0.952113 0.787631
0.595166 0.961364 0.796766
0.705033 0.970599 0.805907
0.814905 0.979819 0.815054
0.924767 0.989024 0.824207
0.994889 0.994895 0.830051
0.030000 0.030000 0.658899
0.053258 0.030000 0.661639
0.160557 0.031461 0.670662
0.268159 0.040567 0.679685
0.376050 0.049681 0.688709
0.484215 0.058804 0.697735
0.592640 0.067936 0.706761
0.701312 0.077076 0.715789
0.771125 0.082927 0.721491
0.030000 0.060984 0.668130
0.063129 0.063911 0.670883
0.170928 0.073043 0.679914
0.278997 0.082183 0.688946
0.387323 0.091331 0.697980
0.495891 0.100486 0.707015
0.604689 0.109647 0.716051
0.713701 0.118815 0.725090
0.783678 0.124688 0.730807
0.059292 0.191651 0.698507
0.093746 0.194642 0.701269
0.202011 0.203845 0.710304
0.310516 0.213054 0.719342
0.419244 0.222266 0.728381
0.528182 0.231483 0.737423
0.637317 0.240702 0.746468
0.746634 0.249925 0.755515
0.816757 0.255845 0.761243
0.089952 0.322709 0.728900
0.124558 0.325748 0.731673
0.233230 0.335006 0.740716
0.342108 0.344266 0.749761
0.451177 0.353526 0.758810
0.560424 0.362787 0.767861
0.669834 0.372049 0.776916
0.779394 0.381309 0.785975
0.849621 0.387261 0.791716
0.120790 0.454082 0.759318
0.155523 0.457154 0.762105
0.264539 0.466450 0.771158
0.373729 0.475744 0.780214
0.483078 0.485036 0.789274
0.592571 0.494325 0.798337
0.702196 0.503610 0.807405
0.811938 0.512893 0.816478
0.882226 0.518860 0.822235
0.151761 0.585695 0.789771
0.186595 0.588784 0.792573
0.295895 0.598100 0.801638
0.405335 0.607412 0.810708
0.514902 0.616718 0.819782
0.624581 0.626019 0.828860
0.734358 0.635312 0.837944
0.844220 0.644599 0.847033
0.914527 0.650565 0.852809
0.182820 0.717471 0.820267
0.217730 0.720561 0.823086
0.327252 0.729882 0.832167
0.436881 0.739195 0.841252
0.546605 0.748499 0.850343
0.656408 0.757794 0.859439
0.766276 0.767079 0.868541
0.876197 0.776354 0.877649
0.946481 0.782302 0.883446
0.213924 0.849335 0.850815
0.248884 0.852411 0.853654
0.358566 0.861720 0.862752
0.468324 0.871017 0.871856
0.578142 0.880302 0.880966
0.688008 0.889574 0.890083
0.797906 0.898834 0.899206
0.907824 0.908080 0.908335
0.978042 0.913996 0.914155
0.233888 0.933682 0.870264
0.268868 0.936723 0.873125
0.378646 0.945997 0.882244
0.488467 0.955257 0.891370
0.598317 0.964502 0.900503
0.708182 0.973732 0.909642
0.818048 0.982947 0.918789
0.927901 0.992146 0.927943
0.998010 0.998012 0.933788
0.030000 0.030000 0.725387
0.055224 0.030000 0.728109
0.162577 0.033437 0.737114
0.270230 0.042544 0.746121
0.378168 0.051661 0.755128
0.486378 0.060787 0.764138
0.594845 0.069921 0.773149
0.703555 0.079063 0.782162
0.773387 0.084916 0.787851
0.030812 0.062965 0.734561
0.065106 0.065894 0.737298
0.172953 0.075028 0.746313
0.281067 0.084170 0.755330
0.389435 0.093320 0.764349
0.498043 0.102477 0.773370
0.606876 0.111640 0.782394
0.715920 0.120809 0.791420
0.785913 0.126683 0.797125
0.061270 0.193657 0.764885
0.095739 0.196648 0.767633
0.204048 0.205852 0.776655
0.312591 0.215062 0.785680
0.421355 0.224275 0.794707
0.530326 0.233492 0.803737
0.639491 0.242712 0.812770
0.748834 0.251935 0.821807
0.818968 0.257856 0.827525
0.091946 0.324733 0.795233
0.126565 0.327771 0.797994
0.235274 0.337029 0.807025
0.344184 0.346289 0.816060
0.453284 0.355549 0.825098
0.562557 0.364810 0.834140
0.671991 0.374071 0.843186
0.781571 0.383331 0.852236
0.851805 0.389281 0.857969
0.122796 0.456119 0.825613
0.157539 0.459189 0.828389
0.266586 0.468484 0.837433
0.375803 0.477777 0.846480
0.485175 0.487067 0.855531
0.594690 0.496355 0.864588
0.704332 0.505639 0.873648
0.814088 0.514920 0.882714
0.884379 0.520885 0.888466
0.153774 0.587738 0.856034
0.188616 0.590825 0.858828
0.297941 0.600139 0.867886
0.407402 0.609449 0.876948
0.516987 0.618753 0.886016
0.626680 0.628051 0.895089
0.736469 0.637342 0.904168
0.846339 0.646626 0.913252
0.916646 0.652589 0.919025
0.184838 0.719516 0.886505
0.219753 0.722603 0.889319
0.329293 0.731921 0.898394
0.438938 0.741231 0.907474
0.548673 0.750531 0.916561
0.658485 0.759823 0.925654
0.768359 0.769104 0.934753
0.878282 0.778375 0.943858
0.948560 0.784320 0.949653
0.215942 0.851376 0.917036
0.250905 0.854449 0.919871
0.360599 0.863753 0.928965
0.470366 0.873046 0.938067
0.580190 0.882326 0.947175
0.690058 0.891594 0.956290
0.799956 0.900849 0.965412
0.909870 0.910090 0.974541
0.980079 0.916001 0.980361
0.235900 0.935712 0.936474
0.270881 0.938748 0.939333
0.380666 0.948017 0.948451
0.490490 0.957272 0.957576
0.600339 0.966512 0.966709
0.710201 0.975737 0.975849
0.820060 0.984946 0.984997
0.929903 0.994140 0.994152
1.000000 1.000000 1.000000
