library/cube/Mood_Grid_000.cube
# CINEGRADE LAB — Premium Cinematic LUT
# Title: Mood Grid
# Category: Dark Instagram Mood
# Description: Desaturated, crushed blacks, cool tones for social media aesthetics
# Mood: Moody, cool, modern
# Variant: 1
# Generated: 2026-05-21T16:12:35.644642
TITLE "Mood Grid"
LUT_3D_SIZE 5
0.030000 0.030000 0.040000
0.140844 0.030000 0.040000
0.355594 0.030131 0.040000
0.571533 0.048346 0.048967
0.749574 0.063305 0.064017
0.039837 0.171907 0.040824
0.182114 0.184083 0.052932
0.398773 0.202483 0.071300
0.616364 0.220902 0.089654
0.795500 0.236035 0.104671
0.101078 0.434085 0.102599
0.244508 0.446463 0.114670
0.462645 0.465059 0.132997
0.681453 0.483647 0.151316
0.861325 0.498917 0.166309
0.162973 0.697378 0.164243
0.307207 0.709830 0.176295
0.526331 0.728486 0.194603
0.745865 0.747111 0.212909
0.926058 0.762384 0.227897
0.214038 0.913670 0.214664
0.358718 0.926050 0.226719
0.578330 0.944622 0.245030
0.798093 0.963138 0.263345
0.978187 0.978279 0.278349
0.030000 0.030000 0.137546
0.144989 0.030000 0.149611
0.359953 0.034210 0.167947
0.576081 0.052435 0.186267
0.754249 0.067402 0.201247
0.043897 0.176040 0.178100
0.186302 0.188221 0.190140
0.403127 0.206626 0.208442
0.620859 0.225049 0.226736
0.800084 0.240184 0.241698
0.105205 0.438290 0.239659
0.248727 0.450665 0.251678
0.466982 0.469257 0.269957
0.685883 0.487841 0.288233
0.865804 0.503104 0.303188
0.167134 0.701610 0.301144
0.311427 0.714050 0.313161
0.530620 0.732695 0.331437
0.750199 0.751307 0.349717
0.930399 0.766566 0.364684
0.218198 0.917880 0.351465
0.362903 0.930241 0.363500
0.582537 0.948794 0.381797
0.802297 0.967291 0.400102
0.982358 0.982410 0.415102
0.030000 0.030000 0.346151
0.151209 0.030000 0.358091
0.366388 0.040395 0.376308
0.582705 0.058633 0.394518
0.761003 0.073610 0.409394
0.050048 0.182283 0.386314
0.192581 0.194469 0.398253
0.409573 0.212880 0.416462
0.627445 0.231309 0.434669
0.806760 0.246448 0.449553
0.111434 0.444607 0.447562
0.255050 0.456979 0.459505
0.473422 0.475569 0.477716
0.692414 0.494150 0.495930
0.872381 0.509408 0.510832
0.173407 0.707957 0.508820
0.317758 0.720386 0.520787
0.537019 0.739020 0.539019
0.756638 0.757619 0.557263
0.936843 0.772864 0.572201
0.224475 0.924205 0.558999
0.369204 0.936548 0.571009
0.588856 0.955082 0.589287
0.808608 0.973559 0.607581
0.988633 0.988656 0.622577
0.030000 0.030000 0.554671
0.157439 0.030000 0.566491
0.372828 0.046585 0.584594
0.589329 0.064834 0.602697
0.767752 0.079821 0.617475
0.056208 0.188528 0.594459
0.198867 0.200719 0.606303
0.416020 0.219137 0.624423
0.634027 0.237571 0.642548
0.813427 0.252712 0.657358
0.117670 0.450924 0.655412
0.261376 0.463293 0.667285
0.479860 0.481880 0.685431
0.698937 0.500457 0.703589
0.878947 0.515709 0.718442
0.179682 0.714300 0.716460
0.324087 0.726718 0.728381
0.543411 0.745340 0.746575
0.763067 0.763927 0.764787
0.943272 0.779158 0.779701
0.230750 0.930525 0.766514
0.375500 0.942849 0.778503
0.595166 0.961364 0.796766
0.814905 0.979819 0.815054
0.994889 0.994895 0.830051
0.030000 0.030000 0.725387
0.162577 0.033437 0.737114
0.378168 0.051661 0.755128
0.594845 0.069921 0.773149
0.773387 0.084916 0.787851
0.061270 0.193657 0.764885
0.204048 0.205852 0.776655
0.421355 0.224275 0.794707
0.639491 0.242712 0.812770
0.818968 0.257856 0.827525
0.122796 0.456119 0.825613
0.266586 0.468484 0.837433
0.485175 0.487067 0.855531
0.704332 0.505639 0.873648
0.884379 0.520885 0.888466
0.184838 0.719516 0.886505
0.329293 0.731921 0.898394
0.548673 0.750531 0.916561
0.768359 0.769104 0.934753
0.948560 0.784320 0.949653
0.235900 0.935712 0.936474
0.380666 0.948017 0.948451
0.600339 0.966512 0.966709
0.820060 0.984946 0.984997
1.000000 1.000000 1.000000
