library/cube/Moonlight_Glow_001.cube
# CINEGRADE LAB — Premium Cinematic LUT
# Title: Moonlight Glow
# Category: A24 Inspired
# Description: Artistic, unconventional, mood-driven looks inspired by A24 films
# Mood: Arthouse, unconventional, evocative
# Variant: 2
# Generated: 2026-05-21T16:12:45.173425
TITLE "Moonlight Glow"
LUT_3D_SIZE 5
0.000000 0.000000 0.000000
0.157972 0.010557 0.010760
0.368051 0.024500 0.024915
0.587206 0.038945 0.039518
0.772507 0.051060 0.051699
0.036467 0.198288 0.037885
0.198436 0.209552 0.048724
0.413275 0.224194 0.062962
0.636897 0.239299 0.077641
0.825397 0.252007 0.089880
0.082686 0.443435 0.084209
0.248114 0.455283 0.095107
0.467056 0.470490 0.109405
0.694525 0.486115 0.124135
0.883714 0.499279 0.136412
0.131990 0.698814 0.132035
0.300366 0.711002 0.142964
0.522798 0.726528 0.157291
0.753531 0.742427 0.172041
0.939089 0.755806 0.184324
0.177933 0.930235 0.175053
0.348788 0.941942 0.185981
0.574146 0.956608 0.200304
0.807596 0.971319 0.215040
0.983748 0.983327 0.227297
0.003582 0.003718 0.165824
0.161986 0.014301 0.176793
0.372580 0.028273 0.191146
0.592218 0.042745 0.205935
0.777880 0.054883 0.218290
0.040234 0.202252 0.204365
0.202574 0.213529 0.215373
0.417852 0.228185 0.229769
0.641887 0.243302 0.244593
0.830602 0.256019 0.256966
0.086630 0.447605 0.251212
0.252373 0.459449 0.262239
0.471689 0.474655 0.276655
0.699509 0.490277 0.291491
0.888592 0.503434 0.303860
0.136087 0.703105 0.299426
0.304731 0.715274 0.310444
0.527480 0.730783 0.324848
0.758507 0.746664 0.339663
0.943448 0.760022 0.351999
0.182154 0.934381 0.342696
0.353235 0.945997 0.353672
0.578858 0.960555 0.368031
0.812554 0.975144 0.382792
0.987416 0.987027 0.395062
0.007824 0.008111 0.361429
0.166659 0.018722 0.372635
0.377765 0.032724 0.387213
0.597883 0.047225 0.402212
0.783904 0.059386 0.414763
0.044676 0.206894 0.400713
0.207383 0.218184 0.411911
0.423099 0.232855 0.426484
0.647543 0.247986 0.441471
0.836443 0.260714 0.453993
0.091259 0.452451 0.448146
0.257315 0.464293 0.459316
0.477003 0.479498 0.473862
0.705171 0.495118 0.488814
0.894084 0.508270 0.501285
0.140878 0.708073 0.496789
0.309788 0.720225 0.507902
0.532851 0.735717 0.522389
0.764171 0.751581 0.537273
0.948387 0.764919 0.549663
0.187077 0.939154 0.540327
0.358381 0.950673 0.551352
0.584268 0.965113 0.565747
0.818206 0.979572 0.580529
0.991618 0.991319 0.592806
0.012277 0.012708 0.565800
0.171536 0.023347 0.577244
0.383147 0.037378 0.592047
0.603739 0.051908 0.607256
0.790115 0.064094 0.620001
0.049329 0.211736 0.605827
0.212399 0.223040 0.617214
0.428546 0.237727 0.631963
0.653395 0.252871 0.647112
0.842449 0.265608 0.659779
0.096100 0.457495 0.653842
0.262466 0.469335 0.665152
0.482520 0.484539 0.679824
0.711030 0.500156 0.694888
0.899719 0.513303 0.707455
0.145881 0.713233 0.702900
0.315053 0.725369 0.714105
0.538426 0.740844 0.728669
0.770035 0.756690 0.743615
0.953443 0.770007 0.756052
0.192212 0.944084 0.746687
0.363738 0.955499 0.757755
0.589883 0.969817 0.772178
0.824060 0.984139 0.786973
0.995911 0.995746 0.799248
0.016630 0.017189 0.764707
0.176307 0.027855 0.776373
0.388414 0.041915 0.791384
0.609472 0.056472 0.806789
0.796196 0.068682 0.819713
0.053877 0.216457 0.805425
0.217304 0.227773 0.816986
0.433874 0.242474 0.831896
0.659120 0.257631 0.847191
0.848301 0.270378 0.859991
0.100831 0.462410 0.853972
0.267500 0.474247 0.865409
0.487914 0.489449 0.880194
0.716761 0.505063 0.895356
0.905182 0.518204 0.908008
0.150770 0.718259 0.903402
0.320199 0.730377 0.914685
0.543876 0.745835 0.929314
0.775767 0.761662 0.944312
0.958310 0.774958 0.956785
0.197229 0.948854 0.947399
0.368971 0.960163 0.958498
0.595370 0.974355 0.972937
0.829781 0.988537 0.987736
1.000000 1.000000 1.000000
