library/cube/Moonlight_Glow_001.cube
# CINEGRADE LAB — Premium Cinematic LUT
# Title: Moonlight Glow
# Category: A24 Inspired
# Description: Artistic, unconventional, mood-driven looks inspired by A24 films
# Mood: Arthouse, unconventional, evocative
# Variant: 2
# Generated: 2026-05-21T16:12:45.173425
TITLE "Moonlight Glow"
LUT_3D_SIZE 33
0.000000 0.000000 0.000000
0.000000 0.000000 0.000000
0.011559 0.000775 0.000791
0.034535 0.002314 0.002362
0.058375 0.003909 0.003989
0.082747 0.005538 0.005650
0.107515 0.007192 0.007335
0.132606 0.008866 0.009040
0.157972 0.010557 0.010760
0.183578 0.012262 0.012495
0.209402 0.013979 0.014241
0.235424 0.015709 0.015998
0.261628 0.017449 0.017765
0.288002 0.019199 0.019541
0.314536 0.020957 0.021325
0.341222 0.022724 0.023117
0.368051 0.024500 0.024915
0.395017 0.026282 0.026721
0.422115 0.028072 0.028532
0.449339 0.029869 0.030350
0.476685 0.031672 0.032173
0.504148 0.033482 0.034002
0.531724 0.035297 0.035836
0.559412 0.037118 0.037675
0.587206 0.038945 0.039518
0.615104 0.040777 0.041366
0.643104 0.042615 0.043219
0.671203 0.044457 0.045075
0.699399 0.046305 0.046936
0.727690 0.048157 0.048801
0.756073 0.050014 0.050669
0.771879 0.051039 0.051693
0.772507 0.051060 0.051699
0.000234 0.001288 0.000248
0.000235 0.001289 0.000248
0.011832 0.002066 0.001039
0.034883 0.003607 0.002611
0.058801 0.005206 0.004239
0.083250 0.006838 0.005901
0.108096 0.008495 0.007587
0.133265 0.010172 0.009292
0.158708 0.011866 0.011014
0.184392 0.013574 0.012749
0.210293 0.015295 0.014496
0.236391 0.017027 0.016254
0.262671 0.018770 0.018022
0.289121 0.020523 0.019799
0.315731 0.022285 0.021583
0.342491 0.024055 0.023376
0.369394 0.025833 0.025175
0.396433 0.027619 0.026982
0.423604 0.029411 0.028794
0.450900 0.031211 0.030613
0.478316 0.033017 0.032437
0.505850 0.034829 0.034266
0.533497 0.036648 0.036101
0.561254 0.038472 0.037940
0.589117 0.040302 0.039785
0.617083 0.042137 0.041633
0.645151 0.043977 0.043486
0.673317 0.045822 0.045344
0.701579 0.047673 0.047205
0.729935 0.049528 0.049070
0.758382 0.051387 0.050940
0.774219 0.052413 0.051964
0.774836 0.052435 0.051970
0.004880 0.026830 0.005154
0.004885 0.026842 0.005154
0.016525 0.027631 0.005947
0.039654 0.029186 0.007520
0.063651 0.030798 0.009150
0.088181 0.032443 0.010813
0.113108 0.034113 0.012501
0.138357 0.035803 0.014208
0.163880 0.037510 0.015931
0.189644 0.039231 0.017668
0.215625 0.040965 0.019416
0.241802 0.042710 0.021176
0.268161 0.044466 0.022945
0.294689 0.046231 0.024723
0.321375 0.048006 0.026510
0.348212 0.049788 0.028303
0.375192 0.051579 0.030104
0.402307 0.053377 0.031912
0.429553 0.055182 0.033726
0.456923 0.056994 0.035546
0.484414 0.058812 0.037371
0.512021 0.060636 0.039202
0.539740 0.062466 0.041038
0.567568 0.064302 0.042879
0.595503 0.066144 0.044724
0.623540 0.067990 0.046574
0.651677 0.069842 0.048429
0.679912 0.071699 0.050287
0.708243 0.073560 0.052150
0.736666 0.075427 0.054017
0.765181 0.077298 0.055887
0.781051 0.078334 0.056912
0.781661 0.078364 0.056918
0.009842 0.054011 0.010365
0.009853 0.054035 0.010367
0.021534 0.054836 0.011161
0.044740 0.056405 0.012735
0.068815 0.058030 0.014366
0.093424 0.059688 0.016031
0.118430 0.061372 0.017720
0.143758 0.063075 0.019429
0.169361 0.064795 0.021153
0.195203 0.066529 0.022892
0.221262 0.068276 0.024642
0.247517 0.070034 0.026403
0.273953 0.071803 0.028174
0.300558 0.073581 0.029953
0.327321 0.075368 0.031741
0.354233 0.077163 0.033536
0.381288 0.078966 0.035339
0.408478 0.080777 0.037148
0.435797 0.082594 0.038963
0.463241 0.084418 0.040784
0.490804 0.086248 0.042611
0.518483 0.088085 0.044443
0.546274 0.089927 0.046280
0.574173 0.091775 0.048123
0.602177 0.093628 0.049969
0.630284 0.095486 0.051821
0.658490 0.097350 0.053676
0.686793 0.099218 0.055536
0.715190 0.101091 0.057400
0.743681 0.102969 0.059268
0.772262 0.104851 0.061139
0.788164 0.105897 0.062165
0.788767 0.105937 0.062172
0.014964 0.081966 0.015715
0.014980 0.082000 0.015718
0.026702 0.082814 0.016513
0.049983 0.084396 0.018089
0.074135 0.086034 0.019721
0.098822 0.087706 0.021388
0.123905 0.089402 0.023078
0.149312 0.091119 0.024788
0.174991 0.092852 0.026514
0.200911 0.094599 0.028254
0.227047 0.096358 0.030006
0.253378 0.098129 0.031768
0.279890 0.099910 0.033540
0.306570 0.101701 0.035321
0.333408 0.103500 0.037111
0.360395 0.105308 0.038907
0.387524 0.107123 0.040711
0.414787 0.108946 0.042521
0.442178 0.110775 0.044338
0.469694 0.112611 0.046161
0.497329 0.114453 0.047989
0.525078 0.116302 0.049822
0.552939 0.118155 0.051661
0.580907 0.120015 0.053504
0.608980 0.121880 0.055352
0.637155 0.123749 0.057205
0.665428 0.125624 0.059061
0.693798 0.127504 0.060922
0.722262 0.129388 0.062787
0.750818 0.131277 0.064656
0.779464 0.133170 0.066529
0.795398 0.134226 0.067555
0.795995 0.134274 0.067563
0.020205 0.110465 0.021160
0.020225 0.110510 0.021163
0.031988 0.111336 0.021959
0.055343 0.112930 0.023537
0.079571 0.114581 0.025171
0.104333 0.116266 0.026839
0.129493 0.117975 0.028531
0.154975 0.119704 0.030243
0.180731 0.121450 0.031970
0.206727 0.123209 0.033711
0.232938 0.124981 0.035464
0.259344 0.126764 0.037228
0.285931 0.128558 0.039002
0.312685 0.130361 0.040784
0.339596 0.132172 0.042574
0.366656 0.133992 0.044372
0.393857 0.135819 0.046178
0.421192 0.137653 0.047989
0.448655 0.139494 0.049807
0.476241 0.141342 0.051631
0.503946 0.143196 0.053460
0.531764 0.145055 0.055295
0.559694 0.146921 0.057135
0.587730 0.148791 0.058979
0.615871 0.150667 0.060829
0.644112 0.152548 0.062682
0.672452 0.154434 0.064540
0.700887 0.156324 0.066402
0.729416 0.158220 0.068268
0.758036 0.160119 0.070138
0.786745 0.162023 0.072012
0.802711 0.163089 0.073039
0.803302 0.163145 0.073047
0.025543 0.139394 0.026678
0.025569 0.139450 0.026682
0.037370 0.140287 0.027479
0.060798 0.141894 0.029058
0.085100 0.143557 0.030694
0.109937 0.145254 0.032363
0.135172 0.146976 0.034057
0.160729 0.148717 0.035769
0.186560 0.150475 0.037498
0.212630 0.152247 0.039241
0.238915 0.154031 0.040995
0.265394 0.155826 0.042760
0.292054 0.157631 0.044535
0.318881 0.159446 0.046319
0.345865 0.161269 0.048111
0.372996 0.163100 0.049910
0.400268 0.164939 0.051716
0.427673 0.166785 0.053529
0.455206 0.168637 0.055348
0.482861 0.170496 0.057173
0.510634 0.172361 0.059004
0.538521 0.174231 0.060840
0.566518 0.176108 0.062681
0.594621 0.177989 0.064526
0.622828 0.179876 0.066377
0.651135 0.181768 0.068232
0.679539 0.183664 0.070091
0.708039 0.185565 0.071954
0.736631 0.187470 0.073821
0.765314 0.189380 0.075692
0.794086 0.191294 0.077567
0.810083 0.192369 0.078595
0.810667 0.192434 0.078603
0.030967 0.168684 0.032256
0.030998 0.168750 0.032261
0.042838 0.169598 0.033059
0.066337 0.171217 0.034639
0.090711 0.172893 0.036276
0.115622 0.174602 0.037947
0.140930 0.176336 0.039642
0.166561 0.178089 0.041356
0.192464 0.179858 0.043086
0.218607 0.181641 0.044830
0.244965 0.183437 0.046586
0.271517 0.185244 0.048352
0.298248 0.187061 0.050128
0.325146 0.188886 0.051913
0.352200 0.190721 0.053706
0.379402 0.192563 0.055507
0.406743 0.194413 0.057314
0.434217 0.196270 0.059128
0.461819 0.198133 0.060949
0.489542 0.200003 0.062775
0.517383 0.201878 0.064607
0.545336 0.203760 0.066444
0.573399 0.205647 0.068286
0.601568 0.207539 0.070132
0.629839 0.209436 0.071984
0.658211 0.211338 0.073840
0.686679 0.213244 0.075700
0.715241 0.215155 0.077564
0.743896 0.217071 0.079432
0.772641 0.218990 0.081304
0.801474 0.220914 0.083180
0.817477 0.221998 0.084208
0.818048 0.222070 0.084217
0.036467 0.198288 0.037885
0.036503 0.198364 0.037890
0.048381 0.199223 0.038690
0.071950 0.200854 0.040271
0.096396 0.202541 0.041909
0.121378 0.204261 0.043581
0.146758 0.206006 0.045278
0.172461 0.207771 0.046993
0.198436 0.209552 0.048724
0.224651 0.211346 0.050469
0.251079 0.213153 0.052226
0.277702 0.214971 0.053994
0.304504 0.216798 0.055772
0.331472 0.218635 0.057558
0.358595 0.220481 0.059352
0.385866 0.222334 0.061154
0.413275 0.224194 0.062962
0.440817 0.226061 0.064778
0.468486 0.227935 0.066599
0.496276 0.229815 0.068426
0.524182 0.231701 0.070259
0.552201 0.233593 0.072097
0.580329 0.235490 0.073940
0.608562 0.237392 0.075788
0.636897 0.239299 0.077641
0.665331 0.241210 0.079497
0.693862 0.243127 0.081358
0.722486 0.245047 0.083224
0.751202 0.246972 0.085093
0.780008 0.248901 0.086966
0.808900 0.250835 0.088842
0.824836 0.251927 0.089871
0.825397 0.252007 0.089880
0.042038 0.228171 0.043559
0.042079 0.228256 0.043565
0.053994 0.229126 0.044365
0.077631 0.230768 0.045948
0.102147 0.232466 0.047587
0.127200 0.234197 0.049260
0.152651 0.235954 0.050958
0.178424 0.237729 0.052674
0.204470 0.239521 0.054407
0.230755 0.241326 0.056153
0.257253 0.243143 0.057911
0.283945 0.244972 0.059680
0.310815 0.246810 0.061459
0.337852 0.248657 0.063246
0.365043 0.250513 0.065041
0.392381 0.252376 0.066844
0.419858 0.254247 0.068654
0.447466 0.256124 0.070470
0.475201 0.258008 0.072293
0.503056 0.259898 0.074121
0.531027 0.261794 0.075955
0.559110 0.263695 0.077794
0.587302 0.265602 0.079638
0.615598 0.267513 0.081487
0.643995 0.269430 0.083341
0.672491 0.271351 0.085198
0.701083 0.273276 0.087060
0.729768 0.275206 0.088926
0.758544 0.277140 0.090796
0.787408 0.279079 0.092670
0.816352 0.281021 0.094548
0.832199 0.282121 0.095577
0.832749 0.282208 0.095586
0.047674 0.258306 0.049272
0.047720 0.258401 0.049278
0.059672 0.259280 0.050079
0.083376 0.260933 0.051664
0.107961 0.262642 0.053304
0.133082 0.264384 0.054979
0.158603 0.266151 0.056677
0.184445 0.267936 0.058395
0.210560 0.269738 0.060129
0.236913 0.271554 0.061876
0.263480 0.273382 0.063636
0.290240 0.275220 0.065406
0.317178 0.277069 0.067185
0.344282 0.278926 0.068974
0.371540 0.280792 0.070770
0.398944 0.282665 0.072574
0.426486 0.284545 0.074385
0.454160 0.286432 0.076202
0.481959 0.288326 0.078026
0.509878 0.290225 0.079855
0.537913 0.292130 0.081690
0.566059 0.294041 0.083530
0.594313 0.295956 0.085375
0.622670 0.297877 0.087224
0.651129 0.299802 0.089079
0.679685 0.301732 0.090937
0.708337 0.303667 0.092800
0.737081 0.305606 0.094667
0.765916 0.307548 0.096538
0.794839 0.309495 0.098413
0.823722 0.311445 0.100291
0.839558 0.312554 0.101321
0.840096 0.312647 0.101330
0.053372 0.288673 0.055021
0.053423 0.288776 0.055028
0.065411 0.289665 0.055830
0.089181 0.291327 0.057415
0.113832 0.293047 0.059057
0.139022 0.294799 0.060732
0.164610 0.296576 0.062432
0.190520 0.298372 0.064151
0.216703 0.300184 0.065886
0.243124 0.302009 0.067635
0.269757 0.303847 0.069395
0.296584 0.305695 0.071166
0.323589 0.307553 0.072947
0.350758 0.309420 0.074736
0.378082 0.311295 0.076533
0.405551 0.313177 0.078338
0.433157 0.315067 0.080150
0.460895 0.316963 0.081969
0.488757 0.318866 0.083793
0.516739 0.320774 0.085623
0.544836 0.322688 0.087459
0.573043 0.324607 0.089300
0.601358 0.326532 0.091146
0.629776 0.328461 0.092996
0.658295 0.330395 0.094851
0.686911 0.332333 0.096711
0.715621 0.334276 0.098575
0.744424 0.336223 0.100442
0.773316 0.338174 0.102314
0.802296 0.340129 0.104189
0.831084 0.342087 0.106068
0.846906 0.343202 0.107099
0.847431 0.343302 0.107108
0.059129 0.319253 0.060803
0.059184 0.319364 0.060810
0.071207 0.320262 0.061613
0.095041 0.321934 0.063199
0.119759 0.323663 0.064842
0.145015 0.325425 0.066519
0.170670 0.327212 0.068219
0.196646 0.329017 0.069939
0.222895 0.330838 0.071675
0.249382 0.332673 0.073425
0.276082 0.334520 0.075186
0.302974 0.336378 0.076958
0.330043 0.338245 0.078740
0.357277 0.340121 0.080530
0.384665 0.342005 0.082329
0.412198 0.343896 0.084135
0.439867 0.345794 0.085947
0.467667 0.347699 0.087767
0.495592 0.349610 0.089592
0.523635 0.351527 0.091423
0.551793 0.353450 0.093260
0.580061 0.355377 0.095101
0.608436 0.357310 0.096948
0.636913 0.359247 0.098799
0.665490 0.361189 0.100655
0.694164 0.363136 0.102516
0.722932 0.365087 0.104380
0.751792 0.367041 0.106249
0.780741 0.369000 0.108121
0.809776 0.370962 0.109997
0.838433 0.372928 0.111876
0.854236 0.374050 0.112908
0.854748 0.374155 0.112917
0.064940 0.350031 0.066615
0.065001 0.350150 0.066622
0.077058 0.351056 0.067426
0.100956 0.352738 0.069013
0.125738 0.354476 0.070657
0.151059 0.356248 0.072334
0.176779 0.358043 0.074036
0.202821 0.359858 0.075757
0.229135 0.361688 0.077494
0.255687 0.363532 0.079245
0.282450 0.365387 0.081007
0.309407 0.367254 0.082780
0.336540 0.369129 0.084563
0.363837 0.371014 0.086354
0.391288 0.372906 0.088153
0.418883 0.374806 0.089960
0.446614 0.376713 0.091774
0.474475 0.378626 0.093594
0.502461 0.380545 0.095420
0.530564 0.382470 0.097252
0.558782 0.384400 0.099089
0.587109 0.386336 0.100932
0.615543 0.388276 0.102779
0.644078 0.390221 0.104631
0.672713 0.392171 0.106488
0.701444 0.394125 0.108349
0.730268 0.396083 0.110214
0.759184 0.398045 0.112083
0.788188 0.400011 0.113956
0.817276 0.401980 0.115833
0.845763 0.403953 0.117713
0.861543 0.405082 0.118744
0.862040 0.405192 0.118754
0.070805 0.380995 0.072454
0.070870 0.381121 0.072462
0.082961 0.382035 0.073266
0.106921 0.383726 0.074854
0.131766 0.385473 0.076499
0.157151 0.387253 0.078178
0.182935 0.389057 0.079881
0.209041 0.390880 0.081603
0.235419 0.392719 0.083340
0.262034 0.394571 0.085092
0.288861 0.396435 0.086855
0.315881 0.398310 0.088629
0.343076 0.400194 0.090412
0.370436 0.402086 0.092205
0.397948 0.403987 0.094005
0.425604 0.405894 0.095812
0.453396 0.407809 0.097627
0.481317 0.409730 0.099447
0.509362 0.411656 0.101274
0.537525 0.413589 0.103107
0.565801 0.415527 0.104945
0.594186 0.417470 0.106788
0.622677 0.419417 0.108636
0.651270 0.421370 0.110489
0.679961 0.423327 0.112347
0.708748 0.425287 0.114208
0.737627 0.427252 0.116074
0.766597 0.429221 0.117944
0.795656 0.431194 0.119817
0.824616 0.433170 0.121694
0.853067 0.435150 0.123575
0.868820 0.436284 0.124607
0.869302 0.436399 0.124616
0.076721 0.412133 0.078319
0.076791 0.412266 0.078328
0.088915 0.413188 0.079132
0.112935 0.414887 0.080721
0.137843 0.416642 0.082367
0.163290 0.418430 0.084047
0.189137 0.420243 0.085750
0.215305 0.422074 0.087473
0.241746 0.423921 0.089212
0.268423 0.425781 0.090964
0.295313 0.427653 0.092728
0.322393 0.429535 0.094503
0.349650 0.431426 0.096287
0.377070 0.433327 0.098080
0.404643 0.435234 0.099881
0.432359 0.437150 0.101689
0.460210 0.439071 0.103504
0.488190 0.441000 0.105326
0.516294 0.442934 0.107154
0.544514 0.444873 0.108987
0.572848 0.446818 0.110826
0.601290 0.448768 0.112670
0.629837 0.450722 0.114518
0.658486 0.452681 0.116372
0.687232 0.454645 0.118230
0.716073 0.456612 0.120092
0.745007 0.458584 0.121958
0.774031 0.460559 0.123828
0.803142 0.462538 0.125702
0.831932 0.464520 0.127580
0.860341 0.466506 0.129461
0.876062 0.467645 0.130493
0.876529 0.467765 0.130503
0.082686 0.443435 0.084209
0.082760 0.443575 0.084217
0.094916 0.444503 0.085022
0.118996 0.446210 0.086612
0.143965 0.447973 0.088259
0.169474 0.449769 0.089939
0.195382 0.451589 0.091644
0.221612 0.453428 0.093367
0.248114 0.455283 0.095107
0.274852 0.457150 0.096860
0.301802 0.459029 0.098625
0.328943 0.460919 0.100400
0.356260 0.462818 0.102185
0.383740 0.464725 0.103979
0.411372 0.466640 0.105781
0.439146 0.468562 0.107590
0.467056 0.470490 0.109405
0.495094 0.472425 0.111228
0.523254 0.474366 0.113056
0.551532 0.476312 0.114890
0.579921 0.478264 0.116729
0.608419 0.480220 0.118574
0.637022 0.482181 0.120423
0.665725 0.484146 0.122277
0.694525 0.486115 0.124135
0.723420 0.488089 0.125998
0.752407 0.490066 0.127865
0.781484 0.492048 0.129736
0.810647 0.494032 0.131610
0.839220 0.496020 0.133488
0.867579 0.498012 0.135370
0.883263 0.499156 0.136402
0.883714 0.499279 0.136412
0.088698 0.474892 0.090120
0.088776 0.475038 0.090129
0.100965 0.475973 0.090935
0.125103 0.477688 0.092526
0.150131 0.479458 0.094173
0.175700 0.481261 0.095854
0.201669 0.483088 0.097560
0.227959 0.484934 0.099284
0.254521 0.486796 0.101024
0.281319 0.488670 0.102778
0.308329 0.490556 0.104544
0.335529 0.492453 0.106320
0.362905 0.494358 0.108105
0.390443 0.496272 0.109900
0.418132 0.498193 0.111702
0.445964 0.500122 0.113511
0.473931 0.502057 0.115328
0.502026 0.503998 0.117151
0.530242 0.505945 0.118980
0.558575 0.507897 0.120814
0.587020 0.509855 0.122654
0.615573 0.511817 0.124499
0.644229 0.513783 0.126349
0.672985 0.515755 0.128203
0.701839 0.517730 0.130062
0.730787 0.519709 0.131925
0.759826 0.521692 0.133793
0.788953 0.523678 0.135664
0.818167 0.525668 0.137539
0.846475 0.527662 0.139417
0.874776 0.529658 0.141299
0.890418 0.530806 0.142332
0.890852 0.530934 0.142341
0.094756 0.506496 0.096053
0.094839 0.506647 0.096062
0.107058 0.507589 0.096869
0.131254 0.509310 0.098460
0.156340 0.511087 0.100108
0.181968 0.512897 0.101790
0.207996 0.514731 0.103496
0.234345 0.516584 0.105221
0.260966 0.518452 0.106962
0.287823 0.520333 0.108717
0.314891 0.522225 0.110483
0.342149 0.524128 0.112260
0.369583 0.526040 0.114046
0.397178 0.527959 0.115841
0.424924 0.529887 0.117644
0.452812 0.531821 0.119454
0.480835 0.533762 0.121271
0.508985 0.535709 0.123094
0.537256 0.537662 0.124924
0.565644 0.539620 0.126759
0.594143 0.541583 0.128599
0.622749 0.543550 0.130444
0.651458 0.545522 0.132295
0.680267 0.547499 0.134150
0.709172 0.549479 0.136009
0.738171 0.551463 0.137872
0.767261 0.553451 0.139740
0.796439 0.555443 0.141611
0.825471 0.557438 0.143487
0.853691 0.559436 0.145366
0.881926 0.561437 0.147248
0.897523 0.562589 0.148280
0.897939 0.562719 0.148289
0.100858 0.538240 0.102006
0.100945 0.538396 0.102016
0.113195 0.539343 0.102822
0.137447 0.541071 0.104415
0.162591 0.542854 0.106063
0.188277 0.544670 0.107746
0.214362 0.546510 0.109452
0.240769 0.548369 0.111178
0.267448 0.550243 0.112920
0.294362 0.552130 0.114675
0.321487 0.554029 0.116442
0.348802 0.555937 0.118219
0.376292 0.557854 0.120006
0.403943 0.559780 0.121801
0.431745 0.561713 0.123605
0.459689 0.563653 0.125415
0.487766 0.565599 0.127233
0.515971 0.567552 0.129056
0.544296 0.569510 0.130886
0.572737 0.571473 0.132722
0.601288 0.573440 0.134563
0.629947 0.575413 0.136408
0.658708 0.577390 0.138259
0.687568 0.579371 0.140114
0.716524 0.581356 0.141974
0.745574 0.583345 0.143838
0.774713 0.585337 0.145706
0.803941 0.587333 0.147578
0.832713 0.589333 0.149453
0.860864 0.591335 0.151332
0.889025 0.593340 0.153215
0.904572 0.594496 0.154247
0.904969 0.594629 0.154256
0.107003 0.570115 0.107978
0.107094 0.570276 0.107988
0.119375 0.571228 0.108795
0.143681 0.572962 0.110388
0.168882 0.574751 0.112037
0.194624 0.576573 0.113720
0.220766 0.578419 0.115427
0.247230 0.580283 0.117153
0.273965 0.582163 0.118896
0.300936 0.584056 0.120651
0.328117 0.585959 0.122419
0.355488 0.587873 0.124196
0.383033 0.589796 0.125984
0.410739 0.591727 0.127780
0.438595 0.593665 0.129583
0.466593 0.595610 0.131395
0.494724 0.597561 0.133212
0.522981 0.599518 0.135037
0.551359 0.601481 0.136867
0.579852 0.603448 0.138703
0.608456 0.605421 0.140544
0.637165 0.607398 0.142390
0.665977 0.609379 0.144241
0.694888 0.611365 0.146097
0.723894 0.613354 0.147957
0.752992 0.615347 0.149821
0.782181 0.617343 0.151689
0.811456 0.619343 0.153561
0.839914 0.621346 0.155436
0.867988 0.623352 0.157316
0.896068 0.625361 0.159199
0.911559 0.626520 0.160231
0.911937 0.626656 0.160240
0.113190 0.602116 0.113968
0.113285 0.602281 0.113977
0.125595 0.603238 0.114785
0.149956 0.604977 0.116378
0.175211 0.606772 0.118028
0.201009 0.608599 0.119712
0.227207 0.610451 0.121419
0.253726 0.612320 0.123146
0.280516 0.614205 0.124889
0.307542 0.616102 0.126645
0.334778 0.618011 0.128413
0.362204 0.619930 0.130191
0.389803 0.621857 0.131979
0.417563 0.623792 0.133775
0.445473 0.625735 0.135579
0.473523 0.627685 0.137391
0.501707 0.629640 0.139209
0.530016 0.631602 0.141034
0.558446 0.633569 0.142864
0.586990 0.635541 0.144700
0.615644 0.637517 0.146542
0.644404 0.639498 0.148388
0.673265 0.641483 0.150240
0.702225 0.643473 0.152095
0.731280 0.645466 0.153955
0.760427 0.647462 0.155820
0.789663 0.649462 0.157688
0.818985 0.651466 0.159560
0.847071 0.653472 0.161436
0.875059 0.655482 0.163315
0.903049 0.657494 0.165198
0.918480 0.658655 0.166231
0.918838 0.658792 0.166239
0.119417 0.634237 0.119974
0.119517 0.634405 0.119984
0.131855 0.635367 0.120792
0.156269 0.637111 0.122386
0.181578 0.638911 0.124036
0.207430 0.640743 0.125720
0.233683 0.642599 0.127428
0.260257 0.644473 0.129156
0.287101 0.646362 0.130899
0.314181 0.648264 0.132655
0.341471 0.650177 0.134423
0.368950 0.652100 0.136202
0.396602 0.654032 0.137990
0.424414 0.655972 0.139787
0.452377 0.657919 0.141591
0.480479 0.659872 0.143403
0.508714 0.661832 0.145222
0.537075 0.663797 0.147047
0.565555 0.665768 0.148877
0.594149 0.667743 0.150714
0.622853 0.669723 0.152555
0.651662 0.671708 0.154402
0.680572 0.673697 0.156254
0.709580 0.675689 0.158110
0.738682 0.677686 0.159970
0.767876 0.679685 0.161834
0.797159 0.681689 0.163703
0.826283 0.683695 0.165575
0.854177 0.685704 0.167451
0.882071 0.687716 0.169330
0.909964 0.689731 0.171213
0.925330 0.690895 0.172245
0.925667 0.691034 0.172254
0.125684 0.666472 0.125997
0.125788 0.666643 0.126007
0.138155 0.667609 0.126815
0.162620 0.669357 0.128409
0.187982 0.671161 0.130060
0.213887 0.672998 0.131744
0.240193 0.674858 0.133453
0.266820 0.676736 0.135181
0.293718 0.678630 0.136924
0.320851 0.680536 0.138681
0.348193 0.682453 0.140449
0.375724 0.684380 0.142228
0.403429 0.686315 0.144017
0.431293 0.688259 0.145814
0.459306 0.690209 0.147619
0.487460 0.692166 0.149431
0.515745 0.694129 0.151249
0.544155 0.696098 0.153075
0.572685 0.698072 0.154906
0.601328 0.700051 0.156742
0.630080 0.702034 0.158584
0.658937 0.704022 0.160431
0.687895 0.706013 0.162282
0.716950 0.708009 0.164138
0.746099 0.710008 0.165999
0.775339 0.712010 0.167863
0.804668 0.714016 0.169732
0.833432 0.716025 0.171604
0.861228 0.718036 0.173480
0.889021 0.720051 0.175359
0.916807 0.722068 0.177242
0.932103 0.723234 0.178274
0.932419 0.723373 0.178282
0.131990 0.698814 0.132035
0.132097 0.698989 0.132045
0.144491 0.699958 0.132853
0.169007 0.701710 0.134447
0.194421 0.703518 0.136099
0.220379 0.705359 0.137783
0.246737 0.707223 0.139492
0.273417 0.709105 0.141220
0.300366 0.711002 0.142964
0.327551 0.712911 0.144721
0.354945 0.714832 0.146490
0.382527 0.716762 0.148269
0.410283 0.718701 0.150058
0.438197 0.720648 0.151855
0.466261 0.722601 0.153660
0.494464 0.724561 0.155472
0.522798 0.726528 0.157291
0.551258 0.728499 0.159117
0.579836 0.730476 0.160948
0.608527 0.732457 0.162784
0.637327 0.734443 0.164626
0.666231 0.736433 0.166473
0.695235 0.738428 0.168325
0.724336 0.740425 0.170181
0.753531 0.742427 0.172041
0.782816 0.744431 0.173906
0.812189 0.746439 0.175774
0.840529 0.748450 0.177647
0.868220 0.750464 0.179523
0.895904 0.752480 0.181402
0.923575 0.754499 0.183285
0.938796 0.755666 0.184316
0.939089 0.755806 0.184324
0.138333 0.731261 0.138087
0.138444 0.731438 0.138097
0.150865 0.732410 0.138905
0.175431 0.734165 0.140500
0.200896 0.735977 0.142152
0.226904 0.737821 0.143837
0.253314 0.739688 0.145546
0.280044 0.741573 0.147274
0.307045 0.743473 0.149018
0.334281 0.745386 0.150776
0.361725 0.747310 0.152545
0.389358 0.749243 0.154324
0.417163 0.751184 0.156113
0.445127 0.753134 0.157910
0.473239 0.755090 0.159715
0.501491 0.757053 0.161528
0.529874 0.759021 0.163347
0.558381 0.760995 0.165172
0.587006 0.762974 0.167003
0.615745 0.764958 0.168840
0.644591 0.766946 0.170682
0.673541 0.768938 0.172529
0.702591 0.770934 0.174381
0.731737 0.772934 0.176237
0.760976 0.774937 0.178097
0.790306 0.776944 0.179961
0.819722 0.778953 0.181830
0.847571 0.780966 0.183702
0.875149 0.782981 0.185578
0.902713 0.784999 0.187457
0.930261 0.787019 0.189340
0.945403 0.788186 0.190371
0.945672 0.788326 0.190378
0.144712 0.763805 0.144153
0.144827 0.763984 0.144163
0.157275 0.764959 0.144971
0.181889 0.766717 0.146566
0.207404 0.768531 0.148218
0.233463 0.770378 0.149903
0.259922 0.772248 0.151613
0.286703 0.774136 0.153341
0.313754 0.776039 0.155085
0.341039 0.777954 0.156843
0.368532 0.779881 0.158612
0.396214 0.781816 0.160392
0.424068 0.783760 0.162181
0.452081 0.785712 0.163978
0.480241 0.787670 0.165783
0.508541 0.789635 0.167596
0.536971 0.791606 0.169415
0.565525 0.793581 0.171240
0.594196 0.795562 0.173072
