library/cube/Moonlight_Glow_001.cube
# CINEGRADE LAB — Premium Cinematic LUT
# Title: Moonlight Glow
# Category: A24 Inspired
# Description: Artistic, unconventional, mood-driven looks inspired by A24 films
# Mood: Arthouse, unconventional, evocative
# Variant: 2
# Generated: 2026-05-21T16:12:45.173425
TITLE "Moonlight Glow"
LUT_3D_SIZE 9
0.000000 0.000000 0.000000
0.058375 0.003909 0.003989
0.157972 0.010557 0.010760
0.261628 0.017449 0.017765
0.368051 0.024500 0.024915
0.476685 0.031672 0.032173
0.587206 0.038945 0.039518
0.699399 0.046305 0.046936
0.772507 0.051060 0.051699
0.014964 0.081966 0.015715
0.074135 0.086034 0.019721
0.174991 0.092852 0.026514
0.279890 0.099910 0.033540
0.387524 0.107123 0.040711
0.497329 0.114453 0.047989
0.608980 0.121880 0.055352
0.722262 0.129388 0.062787
0.795995 0.134274 0.067563
0.036467 0.198288 0.037885
0.096396 0.202541 0.041909
0.198436 0.209552 0.048724
0.304504 0.216798 0.055772
0.413275 0.224194 0.062962
0.524182 0.231701 0.070259
0.636897 0.239299 0.077641
0.751202 0.246972 0.085093
0.825397 0.252007 0.089880
0.059129 0.319253 0.060803
0.119759 0.323663 0.064842
0.222895 0.330838 0.071675
0.330043 0.338245 0.078740
0.439867 0.345794 0.085947
0.551793 0.353450 0.093260
0.665490 0.361189 0.100655
0.780741 0.369000 0.108121
0.854748 0.374155 0.112917
0.082686 0.443435 0.084209
0.143965 0.447973 0.088259
0.248114 0.455283 0.095107
0.356260 0.462818 0.102185
0.467056 0.470490 0.109405
0.579921 0.478264 0.116729
0.694525 0.486115 0.124135
0.810647 0.494032 0.131610
0.883714 0.499279 0.136412
0.107003 0.570115 0.107978
0.168882 0.574751 0.112037
0.273965 0.582163 0.118896
0.383033 0.589796 0.125984
0.494724 0.597561 0.133212
0.608456 0.605421 0.140544
0.723894 0.613354 0.147957
0.839914 0.621346 0.155436
0.911937 0.626656 0.160240
0.131990 0.698814 0.132035
0.194421 0.703518 0.136099
0.300366 0.711002 0.142964
0.410283 0.718701 0.150058
0.522798 0.726528 0.157291
0.637327 0.734443 0.164626
0.753531 0.742427 0.172041
0.868220 0.750464 0.179523
0.939089 0.755806 0.184324
0.157577 0.829170 0.156324
0.220518 0.833911 0.160389
0.327256 0.841435 0.167257
0.437953 0.849170 0.174353
0.551226 0.857027 0.181587
0.666484 0.864968 0.188921
0.783390 0.872971 0.196335
0.895502 0.881022 0.203813
0.964854 0.886367 0.208609
0.177933 0.930235 0.175053
0.241333 0.934773 0.179116
0.348788 0.941942 0.185981
0.460190 0.949251 0.193074
0.574146 0.956608 0.200304
0.690061 0.963973 0.207633
0.807596 0.971319 0.215040
0.916246 0.978627 0.222510
0.983748 0.983327 0.227297
0.001589 0.001651 0.073643
0.060047 0.005565 0.077680
0.159776 0.012220 0.084498
0.263562 0.019119 0.091548
0.370112 0.026176 0.098742
0.478869 0.033355 0.106043
0.589508 0.040635 0.113429
0.701816 0.048001 0.120887
0.774989 0.052760 0.125688
0.016595 0.083673 0.089513
0.075843 0.087745 0.093562
0.176821 0.094568 0.100397
0.281841 0.101632 0.107464
0.389591 0.108850 0.114674
0.499510 0.116185 0.121990
0.611271 0.123616 0.129390
0.724659 0.131129 0.136861
0.798452 0.136019 0.141670
0.038144 0.200060 0.111824
0.098144 0.204315 0.115886
0.200298 0.211329 0.122739
0.306476 0.218579 0.129822
0.415356 0.225978 0.137048
0.526368 0.233488 0.144378
0.639184 0.241089 0.151792
0.753586 0.248765 0.159275
0.827796 0.253801 0.164092
0.060849 0.321081 0.134867
0.121546 0.325491 0.138940
0.224786 0.332668 0.145806
0.332037 0.340076 0.152903
0.441961 0.347626 0.160141
0.553983 0.355283 0.167482
0.667774 0.363023 0.174906
0.783114 0.370835 0.182397
0.857078 0.375989 0.187218
0.084447 0.445308 0.158383
0.145787 0.449845 0.162463
0.250032 0.457154 0.169340
0.358274 0.464688 0.176445
0.469161 0.472360 0.183691
0.582116 0.480133 0.191040
0.696805 0.487983 0.198469
0.813010 0.495899 0.205966
0.885953 0.501144 0.210787
0.108803 0.572023 0.182248
0.170737 0.576656 0.186332
0.275909 0.584066 0.193215
0.385064 0.591696 0.200325
0.496840 0.599458 0.207576
0.610654 0.607315 0.214927
0.726171 0.615246 0.222358
0.842138 0.623235 0.229856
0.914062 0.628540 0.234675
0.133825 0.700747 0.206385
0.196308 0.705446 0.210469
0.302334 0.712925 0.217354
0.412331 0.720620 0.224466
0.524925 0.728442 0.231717
0.639528 0.736353 0.239067
0.755804 0.744332 0.246496
0.870340 0.752364 0.253990
0.941075 0.757701 0.258803
0.159444 0.831117 0.230739
0.222433 0.835852 0.234820
0.329246 0.843370 0.241703
0.440016 0.851099 0.248813
0.553361 0.858949 0.256059
0.668688 0.866883 0.263404
0.785659 0.874880 0.270827
0.897496 0.882924 0.278314
0.966678 0.888262 0.283117
0.179827 0.932105 0.249518
0.243270 0.936624 0.253591
0.350795 0.943769 0.260468
0.462263 0.951052 0.267570
0.576285 0.958383 0.274807
0.692263 0.965719 0.282143
0.809858 0.973035 0.289555
0.918103 0.980311 0.297029
0.985399 0.984982 0.301818
0.003582 0.003718 0.165824
0.062125 0.007639 0.169918
0.161986 0.014301 0.176793
0.265903 0.021208 0.183898
0.372580 0.028273 0.191146
0.481460 0.035459 0.198499
0.592218 0.042745 0.205935
0.704640 0.050118 0.213442
0.777880 0.054883 0.218290
0.018634 0.085799 0.181882
0.077961 0.089876 0.185984
0.179062 0.096705 0.192871
0.284202 0.103775 0.199987
0.392070 0.110998 0.207245
0.502103 0.118339 0.214608
0.613974 0.125775 0.222053
0.727467 0.133294 0.229567
0.801322 0.138187 0.234417
0.040234 0.202252 0.204365
0.100307 0.206510 0.208474
0.202574 0.213529 0.215373
0.308864 0.220783 0.222501
0.417852 0.228185 0.229769
0.528969 0.235699 0.237140
0.641887 0.243302 0.244593
0.756387 0.250982 0.252114
0.830602 0.256019 0.256966
0.062988 0.323330 0.227561
0.123751 0.327742 0.231676
0.227096 0.334920 0.238582
0.334449 0.342330 0.245718
0.444474 0.349882 0.252992
0.556593 0.357540 0.260369
0.670477 0.365282 0.267826
0.785907 0.373094 0.275350
0.859812 0.378249 0.280201
0.086630 0.447605 0.251212
0.148032 0.452140 0.255328
0.252373 0.459449 0.262239
0.360709 0.466983 0.269378
0.471689 0.474655 0.276655
0.584733 0.482426 0.284033
0.699509 0.490277 0.291491
0.815796 0.498191 0.299014
0.888592 0.503434 0.303860
0.111027 0.574355 0.275192
0.173018 0.578985 0.279307
0.278279 0.586393 0.286218
0.387521 0.594021 0.293357
0.499383 0.601781 0.300633
0.613279 0.609636 0.308008
0.728874 0.617563 0.315462
0.844760 0.625550 0.322980
0.916581 0.630852 0.327818
0.136087 0.703105 0.299426
0.198623 0.707799 0.303535
0.304731 0.715274 0.310444
0.414808 0.722965 0.317578
0.527480 0.730783 0.324848
0.642159 0.738690 0.332217
0.758507 0.746664 0.339663
0.872852 0.754692 0.347173
0.943448 0.760022 0.351999
0.161742 0.833490 0.323858
0.224779 0.838218 0.327959
0.331667 0.845730 0.334860
0.442511 0.853453 0.341985
0.555927 0.861298 0.349246
0.671323 0.869226 0.356605
0.788361 0.877216 0.364039
0.899872 0.885253 0.371535
0.968879 0.890584 0.376346
0.182154 0.934381 0.342696
0.245642 0.938878 0.346783
0.353235 0.945997 0.353672
0.464771 0.953253 0.360785
0.578858 0.960555 0.368031
0.694899 0.967861 0.375374
0.812554 0.975144 0.382792
0.920332 0.982387 0.390271
0.987416 0.987027 0.395062
0.005670 0.005883 0.262227
0.064297 0.009809 0.266381
0.164290 0.016479 0.273314
0.268337 0.023394 0.280476
0.375141 0.030466 0.287779
0.484143 0.037659 0.295185
0.595020 0.044953 0.302674
0.707556 0.052332 0.310230
0.780862 0.057102 0.315126
0.020770 0.088021 0.278480
0.080175 0.092103 0.282635
0.181398 0.098938 0.289575
0.286658 0.106014 0.296742
0.394644 0.113243 0.304049
0.504790 0.120590 0.311459
0.616771 0.128031 0.318950
0.730369 0.135555 0.326508
0.804285 0.140452 0.331400
0.042422 0.204541 0.301138
0.102567 0.208802 0.305296
0.204946 0.215824 0.312241
0.311347 0.223082 0.319414
0.420444 0.230488 0.326725
0.531666 0.238005 0.334138
0.644684 0.245612 0.341631
0.759281 0.253295 0.349190
0.833495 0.258334 0.354079
0.065224 0.325676 0.324491
0.126053 0.330088 0.328648
0.229502 0.337269 0.335595
0.336959 0.344680 0.342770
0.447082 0.352234 0.350082
0.559298 0.359893 0.357494
0.673275 0.367637 0.364986
0.788795 0.375450 0.372542
0.862631 0.380605 0.377423
0.088911 0.449996 0.348278
0.150374 0.454531 0.352431
0.254811 0.461839 0.359377
0.363242 0.469374 0.366549
0.474314 0.477045 0.373858
0.587447 0.484816 0.381266
0.702308 0.492666 0.388752
0.818677 0.500580 0.396302
0.891313 0.505821 0.401172
0.113350 0.576783 0.372376
0.175398 0.581410 0.376521
0.280747 0.588815 0.383462
0.390076 0.596441 0.390628
0.502022 0.604199 0.397930
0.616000 0.612052 0.405329
0.731674 0.619977 0.412806
0.847464 0.627960 0.420345
0.919178 0.633259 0.425201
0.138449 0.705558 0.396707
0.201037 0.710247 0.400841
0.307226 0.717719 0.407773
0.417383 0.725406 0.414929
0.530133 0.733219 0.422220
0.644887 0.741122 0.429607
0.761307 0.749091 0.437070
0.875443 0.757114 0.444594
0.945896 0.762439 0.449433
0.164140 0.835957 0.421217
0.227225 0.840679 0.425337
0.334188 0.848186 0.432256
0.445105 0.855903 0.439397
0.558592 0.863741 0.446672
0.674057 0.871663 0.454043
0.791160 0.879646 0.461488
0.902323 0.887678 0.468993
0.971150 0.893001 0.473811
0.184582 0.936741 0.440113
0.248113 0.941216 0.444214
0.355775 0.948309 0.451115
0.467378 0.955537 0.458237
0.581530 0.962809 0.465492
0.697634 0.970083 0.472842
0.815348 0.977333 0.480265
0.922631 0.984541 0.487746
0.989499 0.989149 0.492539
0.007824 0.008111 0.361429
0.066535 0.012044 0.365643
0.166659 0.018722 0.372635
0.270835 0.025644 0.379854
0.377765 0.032724 0.387213
0.486889 0.039924 0.394672
0.597883 0.047225 0.402212
0.710533 0.054611 0.409819
0.783904 0.059386 0.414763
0.022972 0.090308 0.377877
0.082455 0.094394 0.382087
0.183798 0.101235 0.389079
0.289178 0.108317 0.396298
0.397280 0.115553 0.403655
0.507539 0.122904 0.411112
0.619628 0.130352 0.418649
0.733332 0.137880 0.426251
0.807309 0.142781 0.431185
0.044676 0.206894 0.400713
0.104892 0.211158 0.404918
0.207383 0.218184 0.411911
0.313895 0.225446 0.419129
0.423099 0.232855 0.426484
0.534425 0.240376 0.433938
0.647543 0.247986 0.441471
0.762237 0.255672 0.449069
0.836443 0.260714 0.453993
0.067526 0.328085 0.424222
0.128422 0.332498 0.428421
0.231974 0.339680 0.435410
0.339532 0.347094 0.442623
0.449755 0.354649 0.449973
0.562067 0.362310 0.457422
0.676136 0.370055 0.464947
0.791745 0.377869 0.472535
0.865502 0.383024 0.477447
0.091259 0.452451 0.448146
0.152783 0.456985 0.452335
0.257315 0.464293 0.459316
0.365840 0.471827 0.466522
0.477003 0.479498 0.473862
0.590225 0.487269 0.481300
0.705171 0.495118 0.488814
0.821537 0.503031 0.496390
0.894084 0.508270 0.501285
0.115740 0.579273 0.472361
0.177844 0.583897 0.476536
0.283281 0.591301 0.483506
0.392697 0.598925 0.490699
0.504726 0.606680 0.498027
0.618785 0.614530 0.505450
0.734538 0.622453 0.512949
0.850219 0.630434 0.520508
0.921822 0.635728 0.525383
0.140878 0.708073 0.496789
0.203517 0.712758 0.500947
0.309788 0.720225 0.507902
0.420024 0.727908 0.515079
0.532851 0.735717 0.522389
0.647679 0.743615 0.529794
0.764171 0.751581 0.537273
0.878080 0.759599 0.544811
0.948387 0.764919 0.549663
0.166605 0.838486 0.521375
0.229738 0.843202 0.525513
0.336775 0.850703 0.532449
0.447765 0.858414 0.539606
0.561322 0.866246 0.546895
0.676855 0.874161 0.554277
0.794023 0.882139 0.561732
0.904818 0.890163 0.569245
0.973461 0.895479 0.574070
0.187077 0.939154 0.540327
0.250652 0.943607 0.544441
0.358381 0.950673 0.551352
0.470052 0.957872 0.558484
0.584268 0.965113 0.565747
0.700433 0.972355 0.573102
0.818206 0.979572 0.580529
0.924971 0.986744 0.588013
0.991618 0.991319 0.592806
0.010029 0.010389 0.462754
0.068823 0.014329 0.467028
0.169077 0.021014 0.474079
0.273382 0.027944 0.481355
0.380437 0.035031 0.488769
0.489681 0.042239 0.496282
0.600793 0.049546 0.503874
0.713554 0.056939 0.511531
0.786992 0.061720 0.516522
0.025226 0.092644 0.479398
0.084785 0.096735 0.483662
0.186249 0.103582 0.490707
0.291748 0.110670 0.497976
0.399965 0.117911 0.505383
0.510336 0.125268 0.512888
0.622533 0.132721 0.520470
0.736340 0.140255 0.528116
0.810378 0.145159 0.533092
0.046981 0.209295 0.502410
0.107269 0.213562 0.506664
0.209871 0.220592 0.513703
0.316492 0.227858 0.520966
0.425803 0.235271 0.528364
0.537232 0.242795 0.535860
0.650450 0.250409 0.543433
0.765240 0.258098 0.551068
0.839431 0.263141 0.556028
0.069880 0.330542 0.526076
0.130841 0.334956 0.530317
0.234496 0.342141 0.537346
0.342155 0.349555 0.544598
0.452477 0.357113 0.551985
0.564884 0.364775 0.559469
0.679045 0.372521 0.567028
0.794742 0.380337 0.574648
0.868411 0.385492 0.579589
0.093658 0.454954 0.550135
0.155243 0.459486 0.554360
0.259870 0.466795 0.561376
0.368488 0.474329 0.568614
0.479741 0.481999 0.575986
0.593050 0.489770 0.583453
0.708081 0.497618 0.590994
0.824422 0.505530 0.598595
0.896889 0.510768 0.603514
0.118181 0.581811 0.574465
0.180341 0.586432 0.578670
0.285865 0.593833 0.585669
0.395367 0.601455 0.592889
0.507480 0.609209 0.600241
0.621619 0.617056 0.607688
0.737450 0.624976 0.615207
0.853008 0.632954 0.622786
0.924498 0.638245 0.627678
0.143358 0.710634 0.598988
0.206049 0.715315 0.603170
0.312400 0.722778 0.610148
0.422715 0.730457 0.617345
0.535618 0.738262 0.624674
0.650520 0.746156 0.632096
0.767083 0.754116 0.639590
0.880750 0.762130 0.647142
0.950905 0.767444 0.652004
0.169122 0.841061 0.623648
0.232302 0.845771 0.627805
0.339412 0.853266 0.634757
0.450474 0.860971 0.641928
0.564102 0.868797 0.649229
0.679702 0.876706 0.656623
0.796935 0.884677 0.664087
0.907341 0.892695 0.671607
0.975797 0.898004 0.676437
0.189623 0.941605 0.642653
0.253242 0.946034 0.646779
0.361039 0.953072 0.653701
0.472775 0.960242 0.660841
0.587055 0.967452 0.668111
0.703282 0.974661 0.675471
0.821114 0.981843 0.682900
0.927336 0.988979 0.690385
0.993758 0.993521 0.695178
0.012277 0.012708 0.565800
0.071153 0.016654 0.570135
0.171536 0.023347 0.577244
0.275968 0.030284 0.584578
0.383147 0.037378 0.592047
0.492512 0.044593 0.599613
0.603739 0.051908 0.607256
0.716613 0.059308 0.614963
0.790115 0.064094 0.620001
0.027521 0.095020 0.582640
0.087157 0.099116 0.586957
0.188741 0.105969 0.594055
0.294357 0.113063 0.601376
0.402689 0.120309 0.608831
0.513171 0.127672 0.616383
0.625476 0.135130 0.624011
0.739386 0.142669 0.631700
0.813484 0.147578 0.636717
0.049329 0.211736 0.605827
0.109687 0.216006 0.610129
0.212399 0.223040 0.617214
0.319129 0.230309 0.624522
0.428546 0.237727 0.631963
0.540077 0.245254 0.639500
0.653395 0.252871 0.647112
0.768279 0.260563 0.654784
0.842449 0.265608 0.659779
0.072276 0.333038 0.629648
0.133303 0.337453 0.633931
0.237059 0.344640 0.641000
0.344819 0.352056 0.648291
0.455238 0.359615 0.655715
0.567739 0.367279 0.663233
0.681992 0.375026 0.670824
0.797776 0.382843 0.678476
0.871348 0.387998 0.683446
0.096100 0.457495 0.653842
0.157745 0.462027 0.658102
0.262466 0.469335 0.665152
0.371176 0.476869 0.672422
0.482520 0.484539 0.679824
0.595916 0.492309 0.687320
0.711030 0.500156 0.694888
0.827335 0.508067 0.702514
0.899719 0.513303 0.707455
0.120665 0.584386 0.678285
0.182880 0.589005 0.682520
0.288491 0.596404 0.689546
0.398078 0.604024 0.696792
0.510274 0.611775 0.704168
0.624493 0.619620 0.711637
0.740400 0.627537 0.719177
0.855824 0.635512 0.726774
0.927195 0.640799 0.731683
0.145881 0.713233 0.702900
0.208623 0.717909 0.707106
0.315053 0.725369 0.714105
0.425447 0.733043 0.721322
0.538426 0.740844 0.728669
0.653401 0.748734 0.736107
0.770035 0.756690 0.743615
0.883442 0.764698 0.751179
0.953443 0.770007 0.756052
0.171681 0.843674 0.727632
0.234908 0.848377 0.731805
0.342091 0.855866 0.738773
0.453225 0.863565 0.745958
0.566923 0.871385 0.753271
0.682590 0.879288 0.760674
0.799886 0.887252 0.768146
0.909884 0.895263 0.775673
0.978148 0.900565 0.780506
0.192212 0.944084 0.746687
0.255874 0.948490 0.750824
0.363738 0.955499 0.757755
0.475539 0.962639 0.764903
0.589883 0.969817 0.772178
0.706170 0.976993 0.779541
0.824060 0.984139 0.786973
0.929718 0.991238 0.794458
0.995911 0.995746 0.799248
0.014561 0.015061 0.670303
0.073520 0.019013 0.674697
0.174031 0.025714 0.681865
0.278589 0.032658 0.689255
0.385891 0.039760 0.696778
0.495376 0.046983 0.704398
0.606718 0.054304 0.712092
0.719702 0.061711 0.719847
0.793269 0.066502 0.724933
0.029854 0.097430 0.687336
0.089565 0.101530 0.691707
0.191268 0.108390 0.698857
0.297001 0.115489 0.706228
0.405447 0.122742 0.713731
0.516039 0.130110 0.721330
0.628450 0.137574 0.729002
0.742463 0.145118 0.736735
0.816606 0.150030 0.741793
0.051713 0.214211 0.710697
0.112141 0.218483 0.715046
0.214963 0.225521 0.722177
0.321801 0.232794 0.729529
0.431323 0.240215 0.737012
0.542956 0.247747 0.744590
0.656372 0.255367 0.752240
0.771351 0.263062 0.759948
0.845492 0.268109 0.764978
0.074709 0.335567 0.734671
0.135801 0.339983 0.738995
0.239658 0.347172 0.746104
0.347517 0.354590 0.753432
0.458033 0.362151 0.760892
0.570629 0.369816 0.768444
0.684972 0.377565 0.776068
0.800843 0.385382 0.783749
0.874307 0.390537 0.788747
0.098578 0.460068 0.758997
0.160283 0.464599 0.763292
0.265097 0.471907 0.770375
0.373899 0.479441 0.777677
0.485332 0.487111 0.785108
0.598814 0.494880 0.792632
0.714012 0.502727 0.800225
0.830271 0.510637 0.807875
0.902568 0.515871 0.812839
0.123185 0.586993 0.783551
0.185456 0.591609 0.787814
0.291152 0.599006 0.794867
0.400823 0.606624 0.802138
0.513102 0.614372 0.809538
0.627400 0.622215 0.817028
0.743383 0.630129 0.824588
0.858660 0.638102 0.832203
0.929909 0.643385 0.837127
0.148440 0.715864 0.808255
0.211233 0.720535 0.812484
0.317742 0.727990 0.819503
0.428213 0.735661 0.826739
0.541268 0.743458 0.834103
0.656316 0.751342 0.841556
0.773019 0.759294 0.849078
0.886151 0.767298 0.856653
0.955994 0.772601 0.861536
0.174276 0.846317 0.833056
0.237549 0.851013 0.837246
0.344805 0.858496 0.844227
0.456011 0.866189 0.851425
0.569777 0.874003 0.858749
0.685510 0.881900 0.866161
0.802870 0.889858 0.873640
0.912441 0.897862 0.881171
0.980508 0.903157 0.886008
0.194837 0.946586 0.852159
0.258541 0.950967 0.856305
0.366472 0.957948 0.863244
0.478339 0.965056 0.870398
0.592745 0.972202 0.877677
0.709093 0.979343 0.885044
0.827040 0.986453 0.892476
0.932110 0.993514 0.899960
0.998070 0.997987 0.904747
0.016630 0.017189 0.764707
0.075670 0.021147 0.769154
0.176307 0.027855 0.776373
0.280991 0.034807 0.783813
0.388414 0.041915 0.791384
0.498016 0.049144 0.799050
0.609472 0.056472 0.806789
0.722565 0.063886 0.814587
0.796196 0.068682 0.819713
0.031968 0.099613 0.781911
0.091755 0.103718 0.786329
0.193574 0.110583 0.793524
0.299423 0.117688 0.800939
0.407981 0.124946 0.808485
0.518682 0.132319 0.816124
0.631198 0.139788 0.823836
0.745312 0.147336 0.831606
0.819479 0.152252 0.836699
0.053877 0.216457 0.805425
0.114374 0.220731 0.809815
0.217304 0.227773 0.816986
0.324248 0.235050 0.824376
0.433874 0.242474 0.831896
0.545607 0.250008 0.839508
0.659120 0.257631 0.847191
0.774192 0.265329 0.854932
0.848301 0.270378 0.859991
0.076919 0.337866 0.829532
0.138074 0.342283 0.833891
0.242031 0.349473 0.841034
0.349989 0.356893 0.848396
0.460600 0.364454 0.855886
0.573288 0.372121 0.863467
0.687720 0.379870 0.871119
0.803677 0.387689 0.878826
0.877031 0.392843 0.883848
0.100831 0.462410 0.853972
0.162594 0.466939 0.858297
0.267500 0.474247 0.865409
0.376393 0.481780 0.872737
0.487914 0.489449 0.880194
0.601481 0.497218 0.887741
0.716761 0.505063 0.895356
0.832974 0.512972 0.903027
0.905182 0.518204 0.908008
0.125478 0.589367 0.878621
0.187802 0.593980 0.882908
0.293583 0.601375 0.889985
0.403338 0.608989 0.897277
0.515697 0.616736 0.904696
0.630074 0.624575 0.912204
0.746132 0.632487 0.919780
0.861262 0.640456 0.927409
0.932386 0.645735 0.932346
0.150770 0.718259 0.903402
0.213612 0.722925 0.907648
0.320199 0.730377 0.914685
0.430747 0.738043 0.921937
0.543876 0.745835 0.929314
0.658995 0.753715 0.936780
0.775767 0.761662 0.944312
0.888628 0.769660 0.951896
0.958310 0.774958 0.956785
0.176640 0.848724 0.928259
0.239959 0.853414 0.932461
0.347286 0.860890 0.939455
0.458561 0.868577 0.946662
0.572396 0.876385 0.953994
0.688194 0.884275 0.961412
0.805617 0.892226 0.968896
0.914767 0.900224 0.976431
0.982636 0.905510 0.981269
0.197229 0.948854 0.947399
0.260975 0.953211 0.951553
0.368971 0.960163 0.958498
0.480902 0.967242 0.965656
0.595370 0.974355 0.972937
0.711777 0.981462 0.980305
0.829781 0.988537 0.987736
0.934275 0.995561 0.995217
1.000000 1.000000 1.000000
