library/cube/MTA_Glow_000.cube
# CINEGRADE LAB — Premium Cinematic LUT
# Title: MTA Glow
# Category: Music Video Looks
# Description: Stylized, dramatic, high-impact looks inspired by music video grading
# Mood: Dynamic, stylized, intense
# Variant: 1
# Generated: 2026-05-21T16:12:39.339544
TITLE "MTA Glow"
LUT_3D_SIZE 33
0.000000 0.000000 0.000000
0.000000 0.000000 0.000000
0.000002 0.000000 0.000000
0.000004 0.000001 0.000000
0.030810 0.000000 0.000000
0.069446 0.000000 0.000000
0.108223 0.000000 0.000000
0.147141 0.000000 0.000000
0.186198 0.000000 0.000000
0.225394 0.000000 0.000000
0.264728 0.000000 0.000000
0.304198 0.000000 0.000000
0.343803 0.000000 0.000000
0.383543 0.000000 0.000000
0.423415 0.000000 0.000000
0.463420 0.000000 0.000000
0.503556 0.000000 0.000000
0.543823 0.000000 0.000000
0.584218 0.000000 0.000000
0.624741 0.000000 0.000000
0.665391 0.000000 0.000000
0.706168 0.000000 0.000000
0.747069 0.000000 0.000000
0.788094 0.000000 0.000000
0.829241 0.000000 0.000000
0.870511 0.000000 0.000000
0.911737 0.000000 0.000000
0.952947 0.000000 0.000000
0.994231 0.000000 0.000000
1.000000 0.000000 0.000000
1.000000 0.000000 0.000000
1.000000 0.000000 0.000000
1.000000 0.000000 0.000000
0.000005 0.000001 0.000000
0.000008 0.000002 0.000000
0.000013 0.000002 0.000000
0.000018 0.000003 0.000000
0.031016 0.000000 0.000000
0.069890 0.000000 0.000000
0.108903 0.000000 0.000000
0.148054 0.000000 0.000000
0.187342 0.000000 0.000000
0.226767 0.000000 0.000000
0.266326 0.000000 0.000000
0.306020 0.000000 0.000000
0.345846 0.000000 0.000000
0.385805 0.000000 0.000000
0.425894 0.000000 0.000000
0.466114 0.000000 0.000000
0.506462 0.000000 0.000000
0.546937 0.000000 0.000000
0.587540 0.000000 0.000000
0.628268 0.000000 0.000000
0.669121 0.000000 0.000000
0.710098 0.000000 0.000000
0.751197 0.000000 0.000000
0.792418 0.000000 0.000000
0.833759 0.000000 0.000000
0.875220 0.000000 0.000000
0.916552 0.000000 0.000000
0.957867 0.000000 0.000000
0.999247 0.000000 0.000000
1.000000 0.000000 0.000000
1.000000 0.000000 0.000000
1.000000 0.000000 0.000000
1.000000 0.000000 0.000000
0.000020 0.000004 0.000000
0.000026 0.000005 0.000000
0.000033 0.000006 0.000000
0.000041 0.000008 0.000000
0.031229 0.000000 0.000000
0.070337 0.000000 0.000000
0.109581 0.000000 0.000000
0.148962 0.000000 0.000000
0.188477 0.000000 0.000000
0.228126 0.000000 0.000000
0.267907 0.000000 0.000000
0.307821 0.000000 0.000000
0.347865 0.000000 0.000000
0.388038 0.000000 0.000000
0.428340 0.000000 0.000000
0.468770 0.000000 0.000000
0.509326 0.000000 0.000000
0.550008 0.000000 0.000000
0.590814 0.000000 0.000000
0.631743 0.000000 0.000000
0.672795 0.000000 0.000000
0.713968 0.000000 0.000000
0.755261 0.000000 0.000000
0.796674 0.000000 0.000000
0.838205 0.000000 0.000000
0.879853 0.000000 0.000000
0.921266 0.000000 0.000000
0.962671 0.000000 0.000000
1.000000 0.000000 0.000000
1.000000 0.000000 0.000000
1.000000 0.000000 0.000000
1.000000 0.000000 0.000000
1.000000 0.000000 0.000000
0.000044 0.000008 0.000000
0.000053 0.000010 0.000000
0.000064 0.000012 0.000000
0.000075 0.000014 0.000000
0.031449 0.000000 0.000000
0.070786 0.000000 0.000000
0.110258 0.000000 0.000000
0.149864 0.000000 0.000000
0.189602 0.000000 0.000000
0.229471 0.000000 0.000000
0.269471 0.000000 0.000000
0.309600 0.000000 0.000000
0.349858 0.000000 0.000000
0.390243 0.000000 0.000000
0.430754 0.000000 0.000000
0.471390 0.000000 0.000000
0.512150 0.000000 0.000000
0.553034 0.000000 0.000000
0.594039 0.000000 0.000000
0.635166 0.000000 0.000000
0.676413 0.000000 0.000000
0.717779 0.000000 0.000000
0.759262 0.000000 0.000000
0.800863 0.000000 0.000000
0.842580 0.000000 0.000000
0.884412 0.000000 0.000000
0.925876 0.000000 0.000000
0.967359 0.000000 0.000000
1.000000 0.000000 0.000000
1.000000 0.000000 0.000000
1.000000 0.000000 0.000000
1.000000 0.000000 0.000000
1.000000 0.000000 0.000000
0.000000 0.031790 0.000000
0.000000 0.031804 0.000000
0.000000 0.031819 0.000000
0.000000 0.031833 0.000000
0.028401 0.030948 0.000000
0.067963 0.029834 0.000000
0.107658 0.028717 0.000000
0.147483 0.027597 0.000000
0.187439 0.026472 0.000000
0.227524 0.025344 0.000000
0.267737 0.024213 0.000000
0.308077 0.023078 0.000000
0.348543 0.021940 0.000000
0.389134 0.020798 0.000000
0.429849 0.019652 0.000000
0.470686 0.018504 0.000000
0.511646 0.017352 0.000000
0.552727 0.016196 0.000000
0.593927 0.015038 0.000000
0.635246 0.013876 0.000000
0.676683 0.012711 0.000000
0.718236 0.011542 0.000000
0.759906 0.010371 0.000000
0.801690 0.009196 0.000000
0.843587 0.008018 0.000000
0.885584 0.006837 0.000000
0.927084 0.005671 0.000000
0.968629 0.004503 0.000000
1.000000 0.003335 0.000000
1.000000 0.002395 0.000000
1.000000 0.002374 0.000000
1.000000 0.002354 0.000000
1.000000 0.002334 0.000000
0.000000 0.071608 0.000000
0.000000 0.071637 0.000000
0.000000 0.071666 0.000000
0.000000 0.071695 0.000000
0.024533 0.070820 0.000000
0.064315 0.069715 0.000000
0.104228 0.068606 0.000000
0.144269 0.067494 0.000000
0.184439 0.066378 0.000000
0.224735 0.065258 0.000000
0.265157 0.064135 0.000000
0.305704 0.063008 0.000000
0.346374 0.061878 0.000000
0.387167 0.060744 0.000000
0.428081 0.059607 0.000000
0.469117 0.058466 0.000000
0.510272 0.057322 0.000000
0.551545 0.056175 0.000000
0.592936 0.055025 0.000000
0.634443 0.053871 0.000000
0.676066 0.052713 0.000000
0.717804 0.051553 0.000000
0.759654 0.050389 0.000000
0.801618 0.049222 0.000000
0.843692 0.048052 0.000000
0.885796 0.046882 0.000000
0.927352 0.045726 0.000000
0.968945 0.044570 0.000000
1.000000 0.043413 0.000000
1.000000 0.042485 0.000000
1.000000 0.042478 0.000000
1.000000 0.042471 0.000000
1.000000 0.042465 0.000000
0.000000 0.111525 0.000000
0.000000 0.111568 0.000000
0.000000 0.111611 0.000000
0.000000 0.111655 0.000000
0.020661 0.110788 0.000000
0.060660 0.109691 0.000000
0.100787 0.108590 0.000000
0.141041 0.107486 0.000000
0.181420 0.106378 0.000000
0.221924 0.105266 0.000000
0.262551 0.104150 0.000000
0.303300 0.103031 0.000000
0.344171 0.101909 0.000000
0.385162 0.100783 0.000000
0.426273 0.099653 0.000000
0.467502 0.098520 0.000000
0.508848 0.097384 0.000000
0.550311 0.096244 0.000000
0.591888 0.095101 0.000000
0.633580 0.093955 0.000000
0.675386 0.092805 0.000000
0.717303 0.091652 0.000000
0.759332 0.090496 0.000000
0.801471 0.089336 0.000000
0.843719 0.088174 0.000000
0.885906 0.087013 0.000000
0.927504 0.085869 0.000000
0.969132 0.084723 0.000000
1.000000 0.083578 0.000000
1.000000 0.082662 0.000000
1.000000 0.082667 0.000000
1.000000 0.082674 0.000000
1.000000 0.082680 0.000000
0.000000 0.151537 0.000000
0.000000 0.151594 0.000000
0.000000 0.151652 0.000000
0.000000 0.151708 0.000000
0.016786 0.150851 0.000000
0.056999 0.149761 0.000000
0.097336 0.148667 0.000000
0.137798 0.147570 0.000000
0.178383 0.146469 0.000000
0.219090 0.145365 0.000000
0.259919 0.144256 0.000000
0.300867 0.143145 0.000000
0.341935 0.142029 0.000000
0.383121 0.140910 0.000000
0.424424 0.139788 0.000000
0.465843 0.138662 0.000000
0.507376 0.137533 0.000000
0.549024 0.136400 0.000000
0.590785 0.135264 0.000000
0.632658 0.134125 0.000000
0.674642 0.132982 0.000000
0.716736 0.131836 0.000000
0.758939 0.130687 0.000000
0.801249 0.129534 0.000000
0.843667 0.128379 0.000000
0.885913 0.127228 0.000000
0.927540 0.126094 0.000000
0.969188 0.124960 0.000000
1.000000 0.123825 0.000000
1.000000 0.122921 0.000000
1.000000 0.122939 0.000000
1.000000 0.122958 0.000000
1.000000 0.122976 0.000000
0.000000 0.191643 0.000000
0.000000 0.191713 0.000000
0.000000 0.191783 0.000000
0.000000 0.191853 0.000000
0.012909 0.191003 0.000000
0.053331 0.189921 0.000000
0.093875 0.188834 0.000000
0.134541 0.187743 0.000000
0.175328 0.186649 0.000000
0.216236 0.185551 0.000000
0.257262 0.184450 0.000000
0.298405 0.183345 0.000000
0.339666 0.182236 0.000000
0.381043 0.181124 0.000000
0.422534 0.180009 0.000000
0.464139 0.178889 0.000000
0.505857 0.177767 0.000000
0.547686 0.176641 0.000000
0.589627 0.175511 0.000000
0.631677 0.174378 0.000000
0.673836 0.173242 0.000000
0.716102 0.172103 0.000000
0.758475 0.170960 0.000000
0.800954 0.169814 0.000000
0.843538 0.168664 0.000000
0.885816 0.167524 0.000000
0.927458 0.166401 0.000000
0.969113 0.165277 0.000000
1.000000 0.164153 0.000000
1.000000 0.163260 0.000000
1.000000 0.163290 0.000000
1.000000 0.163320 0.000000
1.000000 0.163351 0.000000
0.000000 0.231838 0.000000
0.000000 0.231921 0.000000
0.000000 0.232004 0.000000
0.000000 0.232086 0.000000
0.009030 0.231244 0.000000
0.049657 0.230167 0.000000
0.090404 0.229087 0.000000
0.131271 0.228003 0.000000
0.172257 0.226915 0.000000
0.213360 0.225823 0.000000
0.254580 0.224728 0.000000
0.295915 0.223629 0.000000
0.337365 0.222527 0.000000
0.378928 0.221421 0.000000
0.420604 0.220312 0.000000
0.462392 0.219199 0.000000
0.504290 0.218082 0.000000
0.546297 0.216962 0.000000
0.588413 0.215839 0.000000
0.630637 0.214712 0.000000
0.672967 0.213582 0.000000
0.715402 0.212448 0.000000
0.757942 0.211311 0.000000
0.800585 0.210171 0.000000
0.843331 0.209028 0.000000
0.885615 0.207897 0.000000
0.927258 0.206785 0.000000
0.968905 0.205672 0.000000
1.000000 0.204558 0.000000
1.000000 0.203675 0.000000
1.000000 0.203717 0.000000
1.000000 0.203759 0.000000
1.000000 0.203800 0.000000
0.000000 0.272120 0.000000
0.000000 0.272215 0.000000
0.000000 0.272310 0.000000
0.000000 0.272404 0.000000
0.005149 0.271569 0.000000
0.045977 0.270498 0.000000
0.086924 0.269423 0.000000
0.127988 0.268345 0.000000
0.169168 0.267263 0.000000
0.210463 0.266177 0.000000
0.251873 0.265088 0.000000
0.293396 0.263995 0.000000
0.335032 0.262898 0.000000
0.376778 0.261798 0.000000
0.418635 0.260694 0.000000
0.460602 0.259587 0.000000
0.502676 0.258476 0.000000
0.544858 0.257361 0.000000
0.587146 0.256244 0.000000
0.629539 0.255122 0.000000
0.672036 0.253998 0.000000
0.714637 0.252870 0.000000
0.757340 0.251738 0.000000
0.800144 0.250604 0.000000
0.843048 0.249466 0.000000
0.885309 0.248346 0.000000
0.926939 0.247243 0.000000
0.968565 0.246140 0.000000
1.000000 0.245037 0.000000
1.000000 0.244165 0.000000
1.000000 0.244218 0.000000
1.000000 0.244270 0.000000
1.000000 0.244322 0.000000
0.000000 0.312486 0.000000
0.000000 0.312592 0.000000
0.000000 0.312698 0.000000
0.000000 0.312803 0.000000
0.001267 0.311975 0.000000
0.042293 0.310909 0.000000
0.083435 0.309840 0.000000
0.124692 0.308767 0.000000
0.166062 0.307691 0.000000
0.207546 0.306610 0.000000
0.249143 0.305526 0.000000
0.290850 0.304438 0.000000
0.332667 0.303347 0.000000
0.374593 0.302252 0.000000
0.416627 0.301153 0.000000
0.458769 0.300051 0.000000
0.501016 0.298945 0.000000
0.543368 0.297836 0.000000
0.585824 0.296723 0.000000
0.628383 0.295607 0.000000
0.671044 0.294487 0.000000
0.713807 0.293364 0.000000
0.756669 0.292238 0.000000
0.799630 0.291108 0.000000
0.842689 0.289975 0.000000
0.884898 0.288866 0.000000
0.926501 0.287773 0.000000
0.968092 0.286680 0.000000
1.000000 0.285587 0.000000
1.000000 0.284726 0.000000
1.000000 0.284788 0.000000
1.000000 0.284850 0.000000
1.000000 0.284913 0.000000
0.000000 0.352933 0.000000
0.000000 0.353050 0.000000
0.000000 0.353166 0.000000
0.000000 0.353282 0.000000
0.000000 0.352459 0.000000
0.038603 0.351399 0.000000
0.079937 0.350335 0.000000
0.121383 0.349267 0.000000
0.162941 0.348195 0.000000
0.204610 0.347119 0.000000
0.246388 0.346040 0.000000
0.288276 0.344957 0.000000
0.330271 0.343870 0.000000
0.372373 0.342780 0.000000
0.414581 0.341685 0.000000
0.456893 0.340588 0.000000
0.499309 0.339487 0.000000
0.541828 0.338382 0.000000
0.584449 0.337274 0.000000
0.627170 0.336162 0.000000
0.669992 0.335047 0.000000
0.712912 0.333929 0.000000
0.755929 0.332807 0.000000
0.799043 0.331681 0.000000
0.842253 0.330553 0.000000
0.884382 0.329454 0.000000
0.925944 0.328371 0.000000
0.967486 0.327289 0.000000
1.000000 0.326206 0.000000
1.000000 0.325354 0.000000
1.000000 0.325426 0.000000
1.000000 0.325498 0.000000
1.000000 0.325569 0.000000
0.000000 0.393457 0.000000
0.000000 0.393584 0.000000
0.000000 0.393710 0.000000
0.000000 0.393836 0.000000
0.000000 0.393019 0.000000
0.034909 0.391963 0.000000
0.076431 0.390903 0.000000
0.118062 0.389839 0.000000
0.159804 0.388772 0.000000
0.201653 0.387701 0.000000
0.243611 0.386626 0.000000
0.285675 0.385547 0.000000
0.327844 0.384464 0.000000
0.370118 0.383378 0.000000
0.412496 0.382288 0.000000
0.454976 0.381195 0.000000
0.497557 0.380098 0.000000
0.540239 0.378997 0.000000
0.583021 0.377893 0.000000
0.625901 0.376785 0.000000
0.668878 0.375674 0.000000
0.711952 0.374560 0.000000
0.755122 0.373442 0.000000
0.798386 0.372321 0.000000
0.841743 0.371196 0.000000
0.883759 0.370109 0.000000
0.925267 0.369035 0.000000
0.966746 0.367962 0.000000
1.000000 0.366889 0.000000
1.000000 0.366047 0.000000
1.000000 0.366128 0.000000
1.000000 0.366209 0.000000
1.000000 0.366289 0.000000
0.000000 0.434056 0.000000
0.000000 0.434192 0.000000
0.000000 0.434328 0.000000
0.000000 0.434463 0.000000
0.000000 0.433651 0.000000
0.031211 0.432599 0.000000
0.072916 0.431543 0.000000
0.114730 0.430483 0.000000
0.156651 0.429420 0.000000
0.198678 0.428352 0.000000
0.240810 0.427281 0.000000
0.283047 0.426206 0.000000
0.325387 0.425127 0.000000
0.367829 0.424044 0.000000
0.410373 0.422958 0.000000
0.453017 0.421869 0.000000
0.495760 0.420775 0.000000
0.538601 0.419678 0.000000
0.581540 0.418578 0.000000
0.624575 0.417474 0.000000
0.667705 0.416366 0.000000
0.710929 0.415255 0.000000
0.754247 0.414141 0.000000
0.797657 0.413023 0.000000
0.841158 0.411901 0.000000
0.883031 0.410826 0.000000
0.924471 0.409762 0.000000
0.965873 0.408698 0.000000
1.000000 0.407635 0.000000
1.000000 0.406802 0.000000
1.000000 0.406891 0.000000
1.000000 0.406980 0.000000
1.000000 0.407068 0.000000
0.000000 0.474726 0.000000
0.000000 0.474871 0.000000
0.000000 0.475016 0.000000
0.000000 0.475160 0.000000
0.000000 0.474352 0.000000
0.027509 0.473304 0.000000
0.069395 0.472251 0.000000
0.111386 0.471195 0.000000
0.153483 0.470134 0.000000
0.195684 0.469070 0.000000
0.237987 0.468002 0.000000
0.280393 0.466930 0.000000
0.322900 0.465855 0.000000
0.365507 0.464776 0.000000
0.408213 0.463693 0.000000
0.451017 0.462606 0.000000
0.493918 0.461516 0.000000
0.536915 0.460422 0.000000
0.580007 0.459325 0.000000
0.623193 0.458224 0.000000
0.666472 0.457119 0.000000
0.709843 0.456011 0.000000
0.753305 0.454900 0.000000
0.796857 0.453785 0.000000
0.840498 0.452666 0.000000
0.882198 0.451602 0.000000
0.923555 0.450548 0.000000
0.964867 0.449493 0.000000
1.000000 0.448439 0.000000
1.000000 0.447616 0.000000
1.000000 0.447712 0.000000
1.000000 0.447809 0.000000
1.000000 0.447905 0.000000
0.000000 0.515465 0.000000
0.000000 0.515618 0.000000
0.000000 0.515771 0.000000
0.000000 0.515923 0.000000
0.000000 0.515120 0.000000
0.023803 0.514074 0.000000
0.065866 0.513024 0.000000
0.108031 0.511971 0.000000
0.150300 0.510913 0.000000
0.192671 0.509852 0.000000
0.235142 0.508787 0.000000
0.277713 0.507718 0.000000
0.320383 0.506645 0.000000
0.363151 0.505568 0.000000
0.406016 0.504488 0.000000
0.448976 0.503404 0.000000
0.492031 0.502317 0.000000
0.535180 0.501225 0.000000
0.578422 0.500131 0.000000
0.621755 0.499032 0.000000
0.665179 0.497930 0.000000
0.708693 0.496825 0.000000
0.752296 0.495716 0.000000
0.795986 0.494603 0.000000
0.839763 0.493487 0.000000
0.881259 0.492436 0.000000
0.922520 0.491390 0.000000
0.963729 0.490344 0.000000
1.000000 0.489299 0.000000
1.000000 0.488485 0.000000
1.000000 0.488589 0.000000
1.000000 0.488692 0.000000
1.000000 0.488795 0.000000
0.000000 0.556269 0.000000
0.000000 0.556430 0.000000
0.000000 0.556591 0.000000
0.000000 0.556750 0.000000
0.000000 0.555950 0.000000
0.020094 0.554907 0.000000
0.062329 0.553860 0.000000
0.104666 0.552809 0.000000
0.147103 0.551753 0.000000
0.189640 0.550694 0.000000
0.232275 0.549632 0.000000
0.275008 0.548565 0.000000
0.317837 0.547494 0.000000
0.360762 0.546420 0.000000
0.403782 0.545342 0.000000
0.446895 0.544260 0.000000
0.490100 0.543175 0.000000
0.533397 0.542086 0.000000
0.576785 0.540993 0.000000
0.620262 0.539897 0.000000
0.663827 0.538797 0.000000
0.707481 0.537693 0.000000
0.751220 0.536586 0.000000
0.795046 0.535476 0.000000
0.838955 0.534362 0.000000
0.880215 0.533322 0.000000
0.921367 0.532285 0.000000
0.962458 0.531248 0.000000
1.000000 0.530213 0.000000
1.000000 0.529407 0.000000
1.000000 0.529517 0.000000
1.000000 0.529627 0.000000
1.000000 0.529736 0.000000
0.000000 0.597135 0.000000
0.000000 0.597304 0.000000
0.000000 0.597472 0.000000
0.000000 0.597638 0.000000
0.000000 0.596841 0.000000
0.016383 0.595800 0.000000
0.058787 0.594754 0.000000
0.101290 0.593705 0.000000
0.143892 0.592652 0.000000
0.186591 0.591595 0.000000
0.229386 0.590533 0.000000
0.272277 0.589469 0.000000
0.315262 0.588400 0.000000
0.358340 0.587327 0.000000
0.401511 0.586251 0.000000
0.444773 0.585171 0.000000
0.488125 0.584087 0.000000
0.531567 0.583000 0.000000
0.575097 0.581908 0.000000
0.618714 0.580814 0.000000
0.662417 0.579715 0.000000
0.706206 0.578613 0.000000
0.750079 0.577508 0.000000
0.794035 0.576399 0.000000
0.837972 0.575289 0.000000
0.879067 0.574260 0.000000
0.920096 0.573231 0.000000
0.961055 0.572203 0.000000
1.000000 0.571176 0.000000
1.000000 0.570378 0.000000
1.000000 0.570494 0.000000
1.000000 0.570610 0.000000
1.000000 0.570725 0.000000
0.000000 0.638062 0.000000
0.000000 0.638237 0.000000
0.000000 0.638411 0.000000
0.000000 0.638583 0.000000
0.000000 0.637789 0.000000
0.012668 0.636749 0.000000
0.055238 0.635705 0.000000
0.097904 0.634657 0.000000
0.140667 0.633605 0.000000
0.183525 0.632549 0.000000
0.226476 0.631489 0.000000
0.269521 0.630426 0.000000
0.312658 0.629358 0.000000
0.355886 0.628287 0.000000
0.399204 0.627212 0.000000
0.442612 0.626133 0.000000
0.486107 0.625050 0.000000
0.529689 0.623964 0.000000
0.573357 0.622874 0.000000
0.617111 0.621780 0.000000
0.660948 0.620683 0.000000
0.704869 0.619582 0.000000
0.748871 0.618478 0.000000
0.792955 0.617370 0.000000
0.836849 0.616266 0.000000
0.877815 0.615244 0.000000
0.918707 0.614224 0.000000
0.959522 0.613204 0.000000
1.000000 0.612185 0.000000
1.000000 0.611396 0.000000
1.000000 0.611517 0.000000
1.000000 0.611638 0.000000
1.000000 0.611758 0.000000
0.000000 0.679044 0.000000
0.000000 0.679225 0.000000
0.000000 0.679405 0.000000
0.000000 0.679583 0.000000
0.000000 0.678791 0.000000
0.008951 0.677752 0.000000
0.051683 0.676709 0.000000
0.094509 0.675662 0.000000
0.137429 0.674610 0.000000
0.180441 0.673555 0.000000
0.223546 0.672497 0.000000
0.266741 0.671434 0.000000
0.310026 0.670367 0.000000
0.353400 0.669296 0.000000
0.396862 0.668222 0.000000
0.440411 0.667144 0.000000
0.484045 0.666062 0.000000
0.527765 0.664976 0.000000
0.571568 0.663887 0.000000
0.615453 0.662794 0.000000
0.659421 0.661697 0.000000
0.703470 0.660597 0.000000
0.747598 0.659493 0.000000
0.791805 0.658385 0.000000
0.835636 0.657287 0.000000
0.876460 0.656273 0.000000
0.917202 0.655261 0.000000
0.957859 0.654249 0.000000
0.998426 0.653239 0.000000
1.000000 0.652457 0.000000
1.000000 0.652583 0.000000
1.000000 0.652708 0.000000
1.000000 0.652833 0.000000
0.000000 0.720080 0.000000
0.000000 0.720266 0.000000
0.000000 0.720451 0.000000
0.000000 0.720635 0.000000
0.000000 0.719843 0.000000
0.005233 0.718805 0.000000
0.048122 0.717762 0.000000
0.091104 0.716715 0.000000
0.134177 0.715665 0.000000
0.177341 0.714610 0.000000
0.220594 0.713552 0.000000
0.263936 0.712489 0.000000
0.307366 0.711423 0.000000
0.350882 0.710352 0.000000
0.394484 0.709278 0.000000
0.438171 0.708200 0.000000
0.481941 0.707118 0.000000
0.525793 0.706033 0.000000
0.569727 0.704943 0.000000
0.613742 0.703850 0.000000
0.657836 0.702754 0.000000
0.702009 0.701653 0.000000
0.746259 0.700550 0.000000
0.790586 0.699442 0.000000
0.834335 0.698350 0.000000
0.875003 0.697344 0.000000
0.915582 0.696339 0.000000
0.956066 0.695335 0.000000
0.996454 0.694333 0.000000
1.000000 0.693558 0.000000
1.000000 0.693689 0.000000
1.000000 0.693818 0.000000
1.000000 0.693946 0.000000
0.000000 0.761165 0.000000
0.000000 0.761357 0.000000
0.000000 0.761546 0.000000
0.000000 0.761734 0.000000
0.000000 0.760944 0.000000
0.001512 0.759905 0.000000
0.044556 0.758863 0.000000
0.087690 0.757816 0.000000
0.130913 0.756765 0.000000
0.174224 0.755710 0.000000
0.217623 0.754652 0.000000
0.261108 0.753589 0.000000
0.304678 0.752522 0.000000
0.348333 0.751452 0.000000
0.392071 0.750377 0.000000
0.435892 0.749299 0.000000
0.479793 0.748217 0.000000
0.523775 0.747131 0.000000
0.567837 0.746041 0.000000
0.611976 0.744948 0.000000
0.656193 0.743851 0.000000
0.700487 0.742750 0.000000
0.744855 0.741645 0.000000
0.789298 0.740537 0.000000
0.832946 0.739451 0.000000
0.873445 0.738452 0.000000
0.913847 0.737455 0.000000
0.954146 0.736459 0.000000
0.994341 0.735465 0.000000
1.000000 0.734697 0.000000
1.000000 0.734831 0.000000
1.000000 0.734963 0.000000
1.000000 0.735095 0.000000
0.000000 0.802299 0.000000
0.000000 0.802494 0.000000
0.000000 0.802687 0.000000
0.000000 0.802879 0.000000
0.000000 0.802089 0.000000
0.000000 0.801050 0.000000
0.040985 0.800007 0.000000
0.084267 0.798960 0.000000
0.127636 0.797908 0.000000
0.171091 0.796853 0.000000
0.214631 0.795793 0.000000
0.258256 0.794730 0.000000
0.301963 0.793663 0.000000
0.345753 0.792591 0.000000
0.389623 0.791516 0.000000
0.433574 0.790437 0.000000
0.477604 0.789354 0.000000
0.521712 0.788267 0.000000
0.565896 0.787177 0.000000
0.610157 0.786083 0.000000
0.654493 0.784984 0.000000
0.698903 0.783883 0.000000
0.743386 0.782777 0.000000
0.787941 0.781668 0.000000
0.831471 0.780587 0.000000
0.871788 0.779596 0.000000
0.911998 0.778606 0.000000
0.952100 0.777617 0.000000
0.992088 0.776631 0.000000
1.000000 0.775870 0.000000
1.000000 0.776007 0.000000
1.000000 0.776142 0.000000
1.000000 0.776276 0.000000
0.000000 0.843476 0.000000
0.000000 0.843675 0.000000
0.000000 0.843872 0.000000
0.000000 0.844067 0.000000
0.000000 0.843277 0.000000
0.000000 0.842237 0.000000
0.037409 0.841192 0.000000
0.080835 0.840144 0.000000
0.124347 0.839091 0.000000
0.167942 0.838035 0.000000
0.211620 0.836974 0.000000
0.255380 0.835910 0.000000
0.299221 0.834841 0.000000
0.343141 0.833768 0.000000
0.387141 0.832692 0.000000
0.431218 0.831612 0.000000
0.475372 0.830527 0.000000
0.519602 0.829439 0.000000
0.563906 0.828347 0.000000
0.608285 0.827252 0.000000
0.652736 0.826152 0.000000
0.697259 0.825049 0.000000
0.741852 0.823942 0.000000
0.786515 0.822832 0.000000
0.829910 0.821756 0.000000
0.870031 0.820771 0.000000
0.910038 0.819789 0.000000
0.949928 0.818808 0.000000
0.989697 0.817828 0.000000
1.000000 0.817074 0.000000
1.000000 0.817213 0.000000
1.000000 0.817350 0.000000
1.000000 0.817486 0.000000
0.000000 0.884694 0.000000
0.000000 0.884896 0.000000
0.000000 0.885096 0.000000
0.000000 0.885294 0.000000
0.000000 0.884503 0.000000
0.000000 0.883461 0.000000
0.033828 0.882415 0.000000
0.077396 0.881365 0.000000
0.121046 0.880311 0.000000
0.164777 0.879253 0.000000
0.208589 0.878191 0.000000
0.252481 0.877124 0.000000
0.296451 0.876054 0.000000
0.340499 0.874980 0.000000
0.384623 0.873902 0.000000
0.428823 0.872819 0.000000
0.473098 0.871733 0.000000
0.517446 0.870644 0.000000
0.561867 0.869550 0.000000
0.606359 0.868452 0.000000
0.650921 0.867351 0.000000
0.695553 0.866246 0.000000
0.740253 0.865137 0.000000
0.785021 0.864024 0.000000
0.828265 0.862954 0.000000
0.868178 0.861976 0.000000
0.907968 0.861000 0.000000
0.947633 0.860026 0.000000
0.987170 0.859054 0.000000
1.000000 0.858306 0.000000
1.000000 0.858446 0.000000
1.000000 0.858585 0.000000
1.000000 0.858723 0.000000
0.000000 0.925951 0.000000
0.000000 0.926155 0.000000
0.000000 0.926357 0.000000
0.000000 0.926557 0.000000
0.000000 0.925765 0.000000
0.000000 0.924721 0.000000
0.030244 0.923673 0.000000
0.073948 0.922621 0.000000
0.117733 0.921565 0.000000
0.161597 0.920505 0.000000
0.205539 0.919440 0.000000
0.249559 0.918372 0.000000
0.293655 0.917299 0.000000
0.337826 0.916223 0.000000
0.382072 0.915142 0.000000
0.426391 0.914058 0.000000
0.470782 0.912969 0.000000
0.515245 0.911877 0.000000
0.559777 0.910781 0.000000
0.604379 0.909681 0.000000
