library/cube/MTA_Glow_000.cube
# CINEGRADE LAB — Premium Cinematic LUT
# Title: MTA Glow
# Category: Music Video Looks
# Description: Stylized, dramatic, high-impact looks inspired by music video grading
# Mood: Dynamic, stylized, intense
# Variant: 1
# Generated: 2026-05-21T16:12:39.339544
TITLE "MTA Glow"
LUT_3D_SIZE 9
0.000000 0.000000 0.000000
0.030810 0.000000 0.000000
0.186198 0.000000 0.000000
0.343803 0.000000 0.000000
0.503556 0.000000 0.000000
0.665391 0.000000 0.000000
0.829241 0.000000 0.000000
0.994231 0.000000 0.000000
1.000000 0.000000 0.000000
0.000000 0.031790 0.000000
0.028401 0.030948 0.000000
0.187439 0.026472 0.000000
0.348543 0.021940 0.000000
0.511646 0.017352 0.000000
0.676683 0.012711 0.000000
0.843587 0.008018 0.000000
1.000000 0.003335 0.000000
1.000000 0.002334 0.000000
0.000000 0.191643 0.000000
0.012909 0.191003 0.000000
0.175328 0.186649 0.000000
0.339666 0.182236 0.000000
0.505857 0.177767 0.000000
0.673836 0.173242 0.000000
0.843538 0.168664 0.000000
1.000000 0.164153 0.000000
1.000000 0.163351 0.000000
0.000000 0.352933 0.000000
0.000000 0.352459 0.000000
0.162941 0.348195 0.000000
0.330271 0.343870 0.000000
0.499309 0.339487 0.000000
0.669992 0.335047 0.000000
0.842253 0.330553 0.000000
1.000000 0.326206 0.000000
1.000000 0.325569 0.000000
0.000000 0.515465 0.000000
0.000000 0.515120 0.000000
0.150300 0.510913 0.000000
0.320383 0.506645 0.000000
0.492031 0.502317 0.000000
0.665179 0.497930 0.000000
0.839763 0.493487 0.000000
1.000000 0.489299 0.000000
1.000000 0.488795 0.000000
0.000000 0.679044 0.000000
0.000000 0.678791 0.000000
0.137429 0.674610 0.000000
0.310026 0.670367 0.000000
0.484045 0.666062 0.000000
0.659421 0.661697 0.000000
0.835636 0.657287 0.000000
0.998426 0.653239 0.000000
1.000000 0.652833 0.000000
0.000000 0.843476 0.000000
0.000000 0.843277 0.000000
0.124347 0.839091 0.000000
0.299221 0.834841 0.000000
0.475372 0.830527 0.000000
0.652736 0.826152 0.000000
0.829910 0.821756 0.000000
0.989697 0.817828 0.000000
1.000000 0.817486 0.000000
0.000000 1.000000 0.000000
0.000000 1.000000 0.000000
0.111242 1.000000 0.000000
0.288168 0.998079 0.000000
0.466228 0.993562 0.000000
0.645355 0.988976 0.000000
0.823078 0.984391 0.000000
0.979043 0.980389 0.000000
1.000000 0.979891 0.000000
0.000000 1.000000 0.000000
0.000000 1.000000 0.000000
0.111488 1.000000 0.000000
0.290233 1.000000 0.000000
0.469963 1.000000 0.000000
0.650613 1.000000 0.000000
0.828561 1.000000 0.000000
0.979898 1.000000 0.000000
1.000000 1.000000 0.000000
0.000000 0.000000 0.036648
0.030545 0.000000 0.035710
0.186314 0.000000 0.031209
0.344284 0.000000 0.026646
0.504388 0.000000 0.022022
0.666559 0.000000 0.017338
0.830729 0.000000 0.012597
0.995927 0.000000 0.007826
1.000000 0.000000 0.006686
0.000000 0.031463 0.033181
0.028147 0.030619 0.032214
0.187540 0.026135 0.027605
0.348984 0.021594 0.022937
0.512413 0.016998 0.018212
0.677760 0.012349 0.013432
0.844961 0.007649 0.008599
1.000000 0.002964 0.003779
1.000000 0.001965 0.002643
0.000000 0.191394 0.016527
0.012660 0.190751 0.015517
0.175410 0.186387 0.010789
0.340063 0.181964 0.006007
0.506555 0.177485 0.001173
0.674820 0.172952 0.000000
0.844793 0.168366 0.000000
1.000000 0.163853 0.000000
1.000000 0.163052 0.000000
0.000000 0.352748 0.000000
0.000000 0.352270 0.000000
0.163004 0.347994 0.000000
0.330626 0.343659 0.000000
0.499941 0.339265 0.000000
0.670885 0.334815 0.000000
0.843394 0.330311 0.000000
1.000000 0.325964 0.000000
1.000000 0.325327 0.000000
0.000000 0.515332 0.000000
0.000000 0.514981 0.000000
0.150347 0.510762 0.000000
0.320697 0.506481 0.000000
0.492598 0.502141 0.000000
0.665984 0.497743 0.000000
0.840791 0.493289 0.000000
1.000000 0.489103 0.000000
1.000000 0.488597 0.000000
0.000000 0.678950 0.000000
0.000000 0.678689 0.000000
0.137461 0.674495 0.000000
0.310301 0.670238 0.000000
0.484549 0.665919 0.000000
0.660138 0.661542 0.000000
0.836473 0.657122 0.000000
0.999000 0.653075 0.000000
1.000000 0.652665 0.000000
0.000000 0.843408 0.000000
0.000000 0.843199 0.000000
0.124366 0.838998 0.000000
0.299458 0.834733 0.000000
0.475813 0.830405 0.000000
0.653366 0.826016 0.000000
0.830613 0.821609 0.000000
0.990052 0.817683 0.000000
1.000000 0.817336 0.000000
0.000000 1.000000 0.000000
0.000000 1.000000 0.000000
0.111254 1.000000 0.000000
0.288375 0.997925 0.000000
0.466613 0.993390 0.000000
0.645904 0.988787 0.000000
0.823663 0.984188 0.000000
0.979196 0.980186 0.000000
1.000000 0.979680 0.000000
0.000000 1.000000 0.000000
0.000000 1.000000 0.000000
0.111498 1.000000 0.000000
0.290411 1.000000 0.000000
0.470296 1.000000 0.000000
0.651085 1.000000 0.000000
0.829041 1.000000 0.000000
0.979866 1.000000 0.000000
1.000000 1.000000 0.000000
0.000000 0.000000 0.219771
0.028890 0.000000 0.218546
0.185040 0.000000 0.213751
0.343376 0.000000 0.208893
0.503829 0.000000 0.203974
0.666335 0.000000 0.198996
0.830825 0.000000 0.193961
0.996225 0.000000 0.188900
1.000000 0.000000 0.187476
0.000000 0.029750 0.215345
0.026510 0.028908 0.214092
0.186259 0.024417 0.209188
0.348043 0.019870 0.204225
0.511797 0.015268 0.199206
0.677454 0.010613 0.194133
0.844950 0.005908 0.189007
1.000000 0.001224 0.183900
1.000000 0.000230 0.182481
0.000000 0.189766 0.197726
0.011036 0.189123 0.196429
0.174116 0.184751 0.191407
0.339085 0.180321 0.186332
0.505877 0.175834 0.181205
0.674428 0.171294 0.176028
0.844673 0.166702 0.170804
1.000000 0.162191 0.165666
1.000000 0.161393 0.164245
0.000000 0.351192 0.179956
0.000000 0.350712 0.178621
0.161700 0.346427 0.173493
0.329612 0.342082 0.168316
0.499204 0.337680 0.163092
0.670410 0.333222 0.157823
0.843166 0.328710 0.152511
1.000000 0.324367 0.147379
1.000000 0.323732 0.145965
0.000000 0.513835 0.162057
0.000000 0.513479 0.160690
0.149034 0.509250 0.155466
0.319651 0.504959 0.150198
0.491803 0.500609 0.144888
0.665427 0.496202 0.139538
0.840457 0.491739 0.134150
1.000000 0.487557 0.129059
1.000000 0.487051 0.127662
0.000000 0.677498 0.144048
0.000000 0.677230 0.142655
0.136141 0.673025 0.137346
0.309223 0.668756 0.131999
0.483698 0.664427 0.126614
0.659501 0.660039 0.121194
0.835953 0.655611 0.115757
0.998211 0.651567 0.110728
1.000000 0.651157 0.109356
0.000000 0.841988 0.125952
0.000000 0.841771 0.124536
0.123039 0.837557 0.119155
0.298349 0.833280 0.113738
0.474908 0.828939 0.108289
0.652649 0.824539 0.102810
0.829968 0.820123 0.097345
0.989052 0.816201 0.092403
1.000000 0.815851 0.091064
0.000000 1.000000 0.107934
0.000000 1.000000 0.106518
0.109928 1.000000 0.101090
0.287242 0.996431 0.095632
0.465660 0.991881 0.090147
0.645115 0.987262 0.084636
0.822907 0.982653 0.079177
0.978003 0.978653 0.074370
1.000000 0.978141 0.073091
0.000000 1.000000 0.103380
0.000000 1.000000 0.101977
0.110176 1.000000 0.096521
0.289258 1.000000 0.091040
0.469297 1.000000 0.085537
0.650224 1.000000 0.080013
0.828188 1.000000 0.074578
0.978496 1.000000 0.069936
1.000000 1.000000 0.068728
0.000000 0.000000 0.402701
0.027238 0.000000 0.401189
0.183766 0.000000 0.396099
0.342464 0.000000 0.390946
0.503266 0.000000 0.385733
0.666104 0.000000 0.380461
0.830912 0.000000 0.375132
0.996505 0.000000 0.369781
1.000000 0.000000 0.368073
0.000000 0.028040 0.397316
0.024877 0.027199 0.395776
0.184978 0.022701 0.390577
0.347099 0.018147 0.385321
0.511176 0.013540 0.380008
0.677141 0.008880 0.374641
0.844930 0.004170 0.369222
1.000000 0.000000 0.363828
1.000000 0.000000 0.362126
0.000000 0.188140 0.378731
0.009416 0.187496 0.377148
0.172823 0.183116 0.371832
0.338105 0.178678 0.366463
0.505195 0.174185 0.361044
0.674029 0.169638 0.355575
0.844543 0.165039 0.350059
1.000000 0.160531 0.344637
1.000000 0.159736 0.342934
0.000000 0.349637 0.359997
0.000000 0.349154 0.358376
0.160397 0.344860 0.352955
0.328597 0.340506 0.347486
0.498463 0.336096 0.341971
0.669928 0.331630 0.336411
0.842929 0.327111 0.330808
1.000000 0.322771 0.325396
1.000000 0.322137 0.323701
0.000000 0.512337 0.341135
0.000000 0.511977 0.339483
0.147722 0.507737 0.333968
0.318603 0.503437 0.328409
0.491005 0.499077 0.322809
0.664863 0.494661 0.317169
0.840115 0.490190 0.311492
1.000000 0.486012 0.306125
1.000000 0.485507 0.304448
0.000000 0.676045 0.322167
0.000000 0.675771 0.320489
0.134821 0.671554 0.314891
0.308144 0.667275 0.309254
0.482844 0.662935 0.303580
0.658857 0.658536 0.297871
0.835422 0.654101 0.292149
0.997402 0.650060 0.286845
1.000000 0.649649 0.285194
0.000000 0.840567 0.303113
0.000000 0.840342 0.301414
0.121713 0.836115 0.295744
0.297239 0.831825 0.290039
0.473998 0.827473 0.284302
0.651926 0.823060 0.278535
0.829312 0.818637 0.272786
0.988032 0.814718 0.267573
1.000000 0.814366 0.265956
0.000000 1.000000 0.284147
0.000000 1.000000 0.282447
0.108603 0.999430 0.276731
0.286108 0.994934 0.270987
0.464702 0.990369 0.265215
0.644319 0.985735 0.259418
0.822142 0.981115 0.253677
0.976791 0.977118 0.248600
1.000000 0.976600 0.247044
0.000000 1.000000 0.278648
0.000000 1.000000 0.276963
0.108855 1.000000 0.271220
0.288104 1.000000 0.265453
0.468293 1.000000 0.259664
0.649356 1.000000 0.253855
0.827327 1.000000 0.248138
0.977109 1.000000 0.243229
1.000000 1.000000 0.241744
0.000000 0.000000 0.585438
0.025590 0.000000 0.583640
0.182493 0.000000 0.578254
0.341551 0.000000 0.572806
0.502698 0.000000 0.567299
0.665866 0.000000 0.561733
0.830989 0.000000 0.556110
0.996764 0.000000 0.550469
1.000000 0.000000 0.548477
0.000000 0.026332 0.579094
0.023246 0.025492 0.577267
0.183697 0.020987 0.571774
0.346154 0.016427 0.566223
0.510550 0.011814 0.560616
0.676821 0.007149 0.554956
0.844901 0.002434 0.549244
1.000000 0.000000 0.543563
1.000000 0.000000 0.541578
0.000000 0.186515 0.559543
0.007798 0.185871 0.557673
0.171530 0.181482 0.552064
0.337122 0.177037 0.546402
0.504508 0.172537 0.540690
0.673624 0.167984 0.534929
0.844404 0.163379 0.529121
1.000000 0.158872 0.523416
1.000000 0.158081 0.521431
0.000000 0.348082 0.539845
0.000000 0.347597 0.537938
0.159094 0.343293 0.532225
0.327580 0.338931 0.526463
0.497717 0.334513 0.520657
0.669439 0.330039 0.514806
0.842683 0.325513 0.508913
1.000000 0.321176 0.503221
1.000000 0.320544 0.501246
0.000000 0.510840 0.520021
0.000000 0.510476 0.518084
0.146411 0.506225 0.512277
0.317553 0.501915 0.506428
0.490202 0.497546 0.500538
0.664293 0.493120 0.494608
0.839721 0.488642 0.488643
1.000000 0.484468 0.483000
1.000000 0.483963 0.481042
0.000000 0.674592 0.500094
0.000000 0.674312 0.498131
0.133502 0.670083 0.492243
0.307062 0.665792 0.486316
0.481985 0.661442 0.480353
0.658207 0.657033 0.474356
0.834879 0.652590 0.468348
0.996572 0.648553 0.462771
1.000000 0.648141 0.460840
0.000000 0.839144 0.480083
0.000000 0.838911 0.478100
0.120388 0.834672 0.472141
0.296127 0.830369 0.466148
0.473085 0.826005 0.460123
0.651196 0.821581 0.454069
0.828645 0.817149 0.448036
0.986993 0.813235 0.442552
1.000000 0.812880 0.440656
0.000000 1.000000 0.460167
0.000000 1.000000 0.458185
0.107279 0.997947 0.452181
0.284973 0.993435 0.446150
0.463740 0.988854 0.440092
0.643516 0.984206 0.434009
0.821366 0.979575 0.427985
0.975561 0.975581 0.422640
1.000000 0.975057 0.420806
0.000000 1.000000 0.453725
0.000000 1.000000 0.451757
0.107536 1.000000 0.445728
0.286948 1.000000 0.439675
0.467285 1.000000 0.433600
0.648482 1.000000 0.427505
0.826458 1.000000 0.421506
0.975706 1.000000 0.416331
1.000000 1.000000 0.414569
0.000000 0.000000 0.767981
0.023944 0.000000 0.765897
0.181220 0.000000 0.760216
0.340636 0.000000 0.754473
0.502125 0.000000 0.748671
0.665620 0.000000 0.742811
0.831056 0.000000 0.736895
0.997005 0.000000 0.730965
1.000000 0.000000 0.728689
0.000000 0.024625 0.760678
0.021619 0.023787 0.758564
0.182417 0.019276 0.752776
0.345206 0.014710 0.746931
0.509920 0.010091 0.741031
0.676494 0.005420 0.735078
0.844862 0.000700 0.729074
1.000000 0.000000 0.723106
1.000000 0.000000 0.720838
0.000000 0.184891 0.740162
0.006183 0.184246 0.738006
0.170238 0.179850 0.732103
0.336138 0.175398 0.726148
0.503817 0.170891 0.720143
0.673211 0.166331 0.714090
0.844256 0.161720 0.707990
1.000000 0.157216 0.702003
1.000000 0.156428 0.699736
0.000000 0.346528 0.719500
0.000000 0.346040 0.717307
0.157792 0.341728 0.711301
0.326562 0.337357 0.705248
0.496967 0.332931 0.699150
0.668944 0.328449 0.693008
0.842427 0.323915 0.686825
1.000000 0.319583 0.680854
1.000000 0.318953 0.678598
0.000000 0.509342 0.698714
0.000000 0.508974 0.696492
0.145100 0.504713 0.690394
0.316501 0.500393 0.684254
0.489395 0.496014 0.678074
0.663716 0.491580 0.671855
0.839297 0.487094 0.665602
1.000000 0.482924 0.659682
1.000000 0.482420 0.657445
0.000000 0.673138 0.677828
0.000000 0.672852 0.675580
0.132184 0.668611 0.669402
0.305979 0.664309 0.663186
0.481122 0.659948 0.656935
0.657550 0.655529 0.650649
0.834325 0.651079 0.644356
0.995722 0.647046 0.638505
1.000000 0.646633 0.636295
0.000000 0.837720 0.656860
0.000000 0.837479 0.654594
0.119064 0.833228 0.648346
0.295014 0.828913 0.642065
0.472167 0.824536 0.635752
0.650460 0.820101 0.629411
0.827967 0.815661 0.623095
0.985935 0.811751 0.617339
1.000000 0.811394 0.615165
0.000000 1.000000 0.635996
0.000000 1.000000 0.633730
0.105956 0.996461 0.627440
0.283836 0.991934 0.621121
0.462775 0.987337 0.614777
0.642706 0.982675 0.608408
0.820581 0.978033 0.602102
0.974314 0.974042 0.596488
1.000000 0.973513 0.594377
0.000000 1.000000 0.628609
0.000000 1.000000 0.626359
0.106217 1.000000 0.620043
0.285790 1.000000 0.613705
0.466274 1.000000 0.607344
0.647600 1.000000 0.600964
0.825580 1.000000 0.594683
0.974286 1.000000 0.589241
1.000000 1.000000 0.587201
0.000000 0.000000 0.950332
0.022301 0.000000 0.947961
0.179947 0.000000 0.941985
0.339718 0.000000 0.935947
0.501547 0.000000 0.929851
0.665367 0.000000 0.923697
0.831113 0.000000 0.917487
0.997226 0.000000 0.911267
1.000000 0.000000 0.908708
0.000000 0.022921 0.942069
0.019994 0.022083 0.939669
0.181137 0.017566 0.933586
0.344256 0.012994 0.927447
0.509285 0.008369 0.921253
0.676159 0.003694 0.915007
0.844813 0.000000 0.908710
1.000000 0.000000 0.902456
1.000000 0.000000 0.899905
0.000000 0.183269 0.920587
0.004572 0.182623 0.918144
0.168947 0.178220 0.911948
0.335152 0.173760 0.905700
0.503122 0.169246 0.899403
0.672792 0.164680 0.893058
0.844098 0.160063 0.886667
1.000000 0.155562 0.880397
1.000000 0.154777 0.877848
0.000000 0.344975 0.898961
0.000000 0.344485 0.896483
0.156490 0.340163 0.890185
0.325541 0.335784 0.883840
0.496213 0.331349 0.877450
0.668441 0.326860 0.871018
0.842162 0.322319 0.864545
1.000000 0.317991 0.858296
1.000000 0.317363 0.855759
0.000000 0.507844 0.877214
0.000000 0.507472 0.874707
0.143789 0.503201 0.868318
0.315448 0.498871 0.861888
0.488584 0.494483 0.855417
0.663133 0.490040 0.848909
0.838860 0.485548 0.842369
1.000000 0.481381 0.836173
1.000000 0.480877 0.833656
0.000000 0.671683 0.855369
0.000000 0.671391 0.852837
0.130866 0.667139 0.846369
0.304894 0.662826 0.839864
0.480255 0.658454 0.833324
0.656886 0.654025 0.826750
0.833759 0.649568 0.820172
0.994852 0.645539 0.814047
1.000000 0.645125 0.811559
0.000000 0.836295 0.833446
0.000000 0.836046 0.830895
0.117741 0.831782 0.824358
0.293899 0.827454 0.817789
0.471245 0.823066 0.811190
0.649716 0.818620 0.804561
0.827278 0.814172 0.797962
0.984857 0.810267 0.791935
1.000000 0.809907 0.789483
0.000000 0.999844 0.811632
0.000000 0.999445 0.809084
0.104634 0.994972 0.802506
0.282697 0.990429 0.795901
0.461804 0.985818 0.789270
0.641890 0.981141 0.782615
0.819787 0.976488 0.776027
0.973049 0.972501 0.770145
1.000000 0.971966 0.767756
0.000000 1.000000 0.803302
0.000000 1.000000 0.800769
0.104899 1.000000 0.794167
0.284631 1.000000 0.787543
0.465257 1.000000 0.780897
0.646712 1.000000 0.774231
0.824694 1.000000 0.767668
0.972851 1.000000 0.761960
1.000000 1.000000 0.759643
0.000000 0.000000 1.000000
0.020661 0.000000 1.000000
0.178675 0.000000 1.000000
0.338798 0.000000 1.000000
0.500964 0.000000 1.000000
0.665107 0.000000 1.000000
0.831161 0.000000 1.000000
0.997427 0.000000 1.000000
1.000000 0.000000 1.000000
0.000000 0.021218 1.000000
0.018373 0.020382 1.000000
0.179858 0.015858 1.000000
0.343304 0.011280 1.000000
0.508646 0.006650 1.000000
0.675818 0.001970 1.000000
0.844755 0.000000 1.000000
1.000000 0.000000 1.000000
1.000000 0.000000 1.000000
0.000000 0.181648 1.000000
0.002963 0.181002 1.000000
0.167656 0.176591 1.000000
0.334164 0.172124 1.000000
0.502422 0.167603 1.000000
0.672366 0.163030 1.000000
0.843931 0.158407 1.000000
1.000000 0.153910 1.000000
1.000000 0.153128 1.000000
0.000000 0.343422 1.000000
0.000000 0.342929 1.000000
0.155189 0.338599 1.000000
0.324518 0.334212 1.000000
0.495454 0.329769 1.000000
0.667932 0.325272 1.000000
0.841888 0.320724 1.000000
1.000000 0.316400 1.000000
1.000000 0.315774 1.000000
0.000000 0.506347 1.000000
0.000000 0.505970 1.000000
0.142480 0.501689 1.000000
0.314393 0.497350 1.000000
0.487768 0.492953 1.000000
0.662542 0.488500 1.000000
0.838412 0.484002 1.000000
1.000000 0.479839 1.000000
1.000000 0.479336 1.000000
0.000000 0.670227 1.000000
0.000000 0.669929 1.000000
0.129550 0.665666 1.000000
0.303807 0.661342 1.000000
0.479384 0.656960 1.000000
0.656216 0.652520 1.000000
0.833181 0.648056 0.995797
0.993962 0.644032 0.989398
1.000000 0.643617 0.986632
0.000000 0.834868 1.000000
0.000000 0.834612 1.000000
0.116419 0.830335 1.000000
0.292782 0.825995 0.993323
0.470319 0.821595 0.986435
0.648966 0.817137 0.979520
0.826579 0.812681 0.972637
0.983761 0.808782 0.966340
1.000000 0.808419 0.963610
0.000000 0.998381 0.987077
0.000000 0.997970 0.984246
0.103312 0.993481 0.977381
0.281557 0.988923 0.970489
0.460830 0.984297 0.963572
0.641066 0.979605 0.956631
0.818982 0.974942 0.949761
0.971766 0.970958 0.943611
1.000000 0.970418 0.940944
0.000000 1.000000 0.977804
0.000000 1.000000 0.974988
0.103582 1.000000 0.968100
0.283469 1.000000 0.961189
0.464237 1.000000 0.954257
0.645817 1.000000 0.947307
0.823800 1.000000 0.940462
0.971400 1.000000 0.934487
1.000000 1.000000 0.931892
0.000000 0.000000 1.000000
0.020410 0.000000 1.000000
0.178787 0.000000 1.000000
0.339258 0.000000 1.000000
0.501757 0.000000 1.000000
0.666217 0.000000 1.000000
0.832574 0.000000 1.000000
0.998983 0.000000 1.000000
1.000000 0.000000 1.000000
0.000000 0.020899 1.000000
0.018133 0.020062 1.000000
0.179956 0.015530 1.000000
0.343725 0.010944 1.000000
0.509375 0.006306 1.000000
0.676840 0.001618 1.000000
0.846055 0.000000 1.000000
1.000000 0.000000 1.000000
1.000000 0.000000 1.000000
0.000000 0.181402 1.000000
0.002729 0.180753 1.000000
0.167735 0.176332 1.000000
0.334541 0.171856 1.000000
0.503083 0.167327 1.000000
0.673296 0.162745 1.000000
0.845115 0.158115 1.000000
1.000000 0.153618 1.000000
1.000000 0.152838 1.000000
0.000000 0.343237 1.000000
0.000000 0.342740 1.000000
0.155251 0.338398 1.000000
0.324854 0.334000 1.000000
0.496049 0.329547 1.000000
0.668772 0.325041 1.000000
0.842958 0.320483 1.000000
1.000000 0.316162 1.000000
1.000000 0.315537 1.000000
0.000000 0.506209 1.000000
0.000000 0.505826 1.000000
0.142526 0.501533 1.000000
0.314688 0.497181 1.000000
0.488299 0.492773 1.000000
0.663294 0.488310 1.000000
0.839298 0.483802 1.000000
1.000000 0.479642 1.000000
1.000000 0.479137 1.000000
0.000000 0.670123 1.000000
0.000000 0.669817 1.000000
0.129582 0.665540 1.000000
0.304065 0.661204 1.000000
0.479852 0.656808 1.000000
0.656880 0.652357 1.000000
0.833932 0.647883 1.000000
0.994389 0.643862 1.000000
1.000000 0.643444 1.000000
0.000000 0.834785 1.000000
0.000000 0.834519 1.000000
0.116437 0.830227 1.000000
0.293001 0.825873 1.000000
0.470725 0.821460 1.000000
0.649543 0.816988 1.000000
0.827201 0.812522 1.000000
0.983975 0.808626 1.000000
1.000000 0.808259 0.997896
0.000000 0.998253 1.000000
0.000000 0.997827 1.000000
0.103325 0.993321 1.000000
0.281746 0.988745 1.000000
0.461181 0.984101 0.997889
0.641563 0.979393 0.990889
0.819494 0.974718 0.983963
0.971788 0.970736 0.977771
1.000000 0.970189 0.975053
0.000000 1.000000 1.000000
0.000000 1.000000 1.000000
0.103592 1.000000 1.000000
0.283631 1.000000 0.995386
0.464534 1.000000 0.988395
0.646235 1.000000 0.981386
0.824215 1.000000 0.974486
0.971249 1.000000 0.968472
1.000000 1.000000 0.965825
