library/cube/MTA_Glow_000.cube
# CINEGRADE LAB — Premium Cinematic LUT
# Title: MTA Glow
# Category: Music Video Looks
# Description: Stylized, dramatic, high-impact looks inspired by music video grading
# Mood: Dynamic, stylized, intense
# Variant: 1
# Generated: 2026-05-21T16:12:39.339544
TITLE "MTA Glow"
LUT_3D_SIZE 5
0.000000 0.000000 0.000000
0.186198 0.000000 0.000000
0.503556 0.000000 0.000000
0.829241 0.000000 0.000000
1.000000 0.000000 0.000000
0.000000 0.191643 0.000000
0.175328 0.186649 0.000000
0.505857 0.177767 0.000000
0.843538 0.168664 0.000000
1.000000 0.163351 0.000000
0.000000 0.515465 0.000000
0.150300 0.510913 0.000000
0.492031 0.502317 0.000000
0.839763 0.493487 0.000000
1.000000 0.488795 0.000000
0.000000 0.843476 0.000000
0.124347 0.839091 0.000000
0.475372 0.830527 0.000000
0.829910 0.821756 0.000000
1.000000 0.817486 0.000000
0.000000 1.000000 0.000000
0.111488 1.000000 0.000000
0.469963 1.000000 0.000000
0.828561 1.000000 0.000000
1.000000 1.000000 0.000000
0.000000 0.000000 0.219771
0.185040 0.000000 0.213751
0.503829 0.000000 0.203974
0.830825 0.000000 0.193961
1.000000 0.000000 0.187476
0.000000 0.189766 0.197726
0.174116 0.184751 0.191407
0.505877 0.175834 0.181205
0.844673 0.166702 0.170804
1.000000 0.161393 0.164245
0.000000 0.513835 0.162057
0.149034 0.509250 0.155466
0.491803 0.500609 0.144888
0.840457 0.491739 0.134150
1.000000 0.487051 0.127662
0.000000 0.841988 0.125952
0.123039 0.837557 0.119155
0.474908 0.828939 0.108289
0.829968 0.820123 0.097345
1.000000 0.815851 0.091064
0.000000 1.000000 0.103380
0.110176 1.000000 0.096521
0.469297 1.000000 0.085537
0.828188 1.000000 0.074578
1.000000 1.000000 0.068728
0.000000 0.000000 0.585438
0.182493 0.000000 0.578254
0.502698 0.000000 0.567299
0.830989 0.000000 0.556110
1.000000 0.000000 0.548477
0.000000 0.186515 0.559543
0.171530 0.181482 0.552064
0.504508 0.172537 0.540690
0.844404 0.163379 0.529121
1.000000 0.158081 0.521431
0.000000 0.510840 0.520021
0.146411 0.506225 0.512277
0.490202 0.497546 0.500538
0.839721 0.488642 0.488643
1.000000 0.483963 0.481042
0.000000 0.839144 0.480083
0.120388 0.834672 0.472141
0.473085 0.826005 0.460123
0.828645 0.817149 0.448036
1.000000 0.812880 0.440656
0.000000 1.000000 0.453725
0.107536 1.000000 0.445728
0.467285 1.000000 0.433600
0.826458 1.000000 0.421506
1.000000 1.000000 0.414569
0.000000 0.000000 0.950332
0.179947 0.000000 0.941985
0.501547 0.000000 0.929851
0.831113 0.000000 0.917487
1.000000 0.000000 0.908708
0.000000 0.183269 0.920587
0.168947 0.178220 0.911948
0.503122 0.169246 0.899403
0.844098 0.160063 0.886667
1.000000 0.154777 0.877848
0.000000 0.507844 0.877214
0.143789 0.503201 0.868318
0.488584 0.494483 0.855417
0.838860 0.485548 0.842369
1.000000 0.480877 0.833656
0.000000 0.836295 0.833446
0.117741 0.831782 0.824358
0.471245 0.823066 0.811190
0.827278 0.814172 0.797962
1.000000 0.809907 0.789483
0.000000 1.000000 0.803302
0.104899 1.000000 0.794167
0.465257 1.000000 0.780897
0.824694 1.000000 0.767668
1.000000 1.000000 0.759643
0.000000 0.000000 1.000000
0.178787 0.000000 1.000000
0.501757 0.000000 1.000000
0.832574 0.000000 1.000000
1.000000 0.000000 1.000000
0.000000 0.181402 1.000000
0.167735 0.176332 1.000000
0.503083 0.167327 1.000000
0.845115 0.158115 1.000000
1.000000 0.152838 1.000000
0.000000 0.506209 1.000000
0.142526 0.501533 1.000000
0.488299 0.492773 1.000000
0.839298 0.483802 1.000000
1.000000 0.479137 1.000000
0.000000 0.834785 1.000000
0.116437 0.830227 1.000000
0.470725 0.821460 1.000000
0.827201 0.812522 1.000000
1.000000 0.808259 0.997896
0.000000 1.000000 1.000000
0.103592 1.000000 1.000000
0.464534 1.000000 0.988395
0.824215 1.000000 0.974486
1.000000 1.000000 0.965825
