library/cube/Neon_Runway_000.cube
# CINEGRADE LAB — Premium Cinematic LUT
# Title: Neon Runway
# Category: Hyperreal Fashion
# Description: Punchy, saturated, with flawless skin rendering for fashion editorials
# Mood: Bold, vibrant, high-impact
# Variant: 1
# Generated: 2026-05-21T16:12:20.198622
TITLE "Neon Runway"
LUT_3D_SIZE 9
0.000000 0.000000 0.000000
0.055906 0.000000 0.000000
0.223622 0.000000 0.000000
0.391339 0.000000 0.000000
0.559055 0.000000 0.000000
0.726772 0.000000 0.000000
0.894488 0.000000 0.000000
1.000000 0.000000 0.000000
1.000000 0.000000 0.000000
0.000000 0.052136 0.000000
0.050542 0.050542 0.000000
0.249171 0.056673 0.000000
0.425273 0.051794 0.000000
0.601376 0.046915 0.000000
0.777478 0.042036 0.000000
0.889124 0.026624 0.000000
1.000000 0.021841 0.000000
1.000000 0.020246 0.000000
0.000000 0.208544 0.000000
0.034450 0.206950 0.000000
0.202166 0.202166 0.000000
0.408377 0.211330 0.000000
0.584479 0.206451 0.000000
0.760581 0.201572 0.000000
0.936684 0.196693 0.000000
1.000000 0.191813 0.000000
1.000000 0.190187 0.000000
0.000000 0.364952 0.000000
0.018358 0.363357 0.000000
0.186074 0.358574 0.000000
0.353790 0.353790 0.000000
0.521507 0.349007 0.000000
0.743685 0.361108 0.000000
0.919787 0.356229 0.000000
1.000000 0.351350 0.000000
1.000000 0.349723 0.000000
0.000000 0.521360 0.000000
0.002266 0.519765 0.000000
0.169982 0.514982 0.000000
0.337699 0.510198 0.000000
0.505415 0.505415 0.000000
0.673131 0.500632 0.000000
0.902890 0.515765 0.000000
1.000000 0.510886 0.000000
1.000000 0.509259 0.000000
0.000000 0.677768 0.000000
0.000000 0.676173 0.000000
0.153890 0.671390 0.000000
0.321607 0.666606 0.000000
0.489323 0.661823 0.000000
0.657039 0.657039 0.000000
0.824756 0.652256 0.000000
1.000000 0.670422 0.000000
1.000000 0.668796 0.000000
0.000000 0.834176 0.000000
0.000000 0.832582 0.000000
0.137798 0.827798 0.000000
0.305515 0.823014 0.000000
0.473231 0.818231 0.000000
0.640948 0.813447 0.000000
0.808664 0.808664 0.000000
0.976380 0.803880 0.000000
1.000000 0.802286 0.000000
0.000000 0.990584 0.000000
0.000000 0.988989 0.000000
0.121706 0.984206 0.000000
0.289423 0.979422 0.000000
0.457139 0.974639 0.000000
0.624856 0.969855 0.000000
0.792572 0.965072 0.000000
0.960288 0.960288 0.000000
1.000000 0.958694 0.000000
0.000000 1.000000 0.000000
0.000000 1.000000 0.000000
0.116342 1.000000 0.000000
0.284058 1.000000 0.000000
0.451775 1.000000 0.000000
0.619492 1.000000 0.000000
0.787208 1.000000 0.000000
0.954924 1.000000 0.000000
1.000000 1.000000 0.000000
0.000000 0.000000 0.056959
0.055364 0.000000 0.055364
0.223080 0.000000 0.050581
0.390797 0.000000 0.045797
0.558513 0.000000 0.041014
0.726230 0.000000 0.036230
0.893946 0.000000 0.031447
1.000000 0.000000 0.026663
1.000000 0.000000 0.025069
0.000000 0.051595 0.051595
0.050000 0.050000 0.050000
0.217716 0.045217 0.045217
0.385433 0.040433 0.040433
0.553149 0.035650 0.035650
0.720866 0.030866 0.030866
0.888582 0.026083 0.026083
1.000000 0.021299 0.021299
1.000000 0.019705 0.019705
0.000000 0.208003 0.035503
0.033908 0.206408 0.033908
0.201625 0.201625 0.029125
0.407808 0.210778 0.024341
0.583910 0.205899 0.019558
0.760013 0.201019 0.014774
0.936115 0.196140 0.009991
1.000000 0.177707 0.005207
1.000000 0.176113 0.003613
0.000000 0.364410 0.019411
0.017816 0.362816 0.017816
0.185533 0.358032 0.013033
0.353249 0.353249 0.008249
0.567014 0.365435 0.003466
0.743116 0.360556 0.000000
0.919218 0.355676 0.000000
1.000000 0.350797 0.000000
1.000000 0.349171 0.000000
0.000000 0.520818 0.003319
0.001724 0.519224 0.001724
0.169441 0.514440 0.000000
0.337157 0.509657 0.000000
0.504873 0.504873 0.000000
0.672590 0.500090 0.000000
0.902322 0.515213 0.000000
1.000000 0.510333 0.000000
1.000000 0.508707 0.000000
0.000000 0.677226 0.000000
0.000000 0.675632 0.000000
0.153349 0.670848 0.000000
0.321065 0.666065 0.000000
0.488781 0.661282 0.000000
0.656498 0.656498 0.000000
0.824215 0.651714 0.000000
1.000000 0.669870 0.000000
1.000000 0.668243 0.000000
0.000000 0.833635 0.000000
0.000000 0.832040 0.000000
0.137257 0.827257 0.000000
0.304973 0.822473 0.000000
0.472689 0.817690 0.000000
0.640406 0.812906 0.000000
0.808123 0.808123 0.000000
0.975839 0.803339 0.000000
1.000000 0.827779 0.000000
0.000000 0.990042 0.000000
0.000000 0.988448 0.000000
0.121165 0.983664 0.000000
0.288881 0.978881 0.000000
0.456598 0.974097 0.000000
0.624314 0.969314 0.000000
0.792031 0.964530 0.000000
0.959747 0.959747 0.000000
1.000000 0.958152 0.000000
0.000000 1.000000 0.000000
0.000000 1.000000 0.000000
0.115801 1.000000 0.000000
0.283517 1.000000 0.000000
0.451234 1.000000 0.000000
0.618950 1.000000 0.000000
0.786667 1.000000 0.000000
0.954383 1.000000 0.000000
1.000000 1.000000 0.000000
0.000000 0.000000 0.227834
0.053740 0.000000 0.226239
0.221456 0.000000 0.221456
0.389173 0.000000 0.216672
0.556889 0.000000 0.211889
0.724606 0.000000 0.207105
0.892322 0.000000 0.202322
1.000000 0.000000 0.197539
1.000000 0.000000 0.195944
0.000000 0.049970 0.222470
0.048376 0.048376 0.220876
0.216092 0.043592 0.216092
0.383808 0.038809 0.211309
0.551525 0.034025 0.206525
0.719241 0.029242 0.201741
0.886958 0.024458 0.196958
1.000000 0.019675 0.192174
1.000000 0.018080 0.190580
0.000000 0.206378 0.206378
0.032284 0.204784 0.204784
0.200000 0.200000 0.200000
0.367717 0.195217 0.195217
0.535433 0.190433 0.190433
0.703149 0.185650 0.185650
0.870866 0.180866 0.180866
1.000000 0.176083 0.176083
1.000000 0.174488 0.174488
0.000000 0.362786 0.190286
0.016192 0.361191 0.188692
0.183908 0.356408 0.183908
0.351624 0.351624 0.179125
0.565308 0.363778 0.174341
0.741410 0.358899 0.169558
0.917513 0.354019 0.164774
1.000000 0.349140 0.159991
1.000000 0.330896 0.158396
0.000000 0.519194 0.174194
0.000100 0.517599 0.172600
0.167816 0.512816 0.167816
0.335533 0.508032 0.163033
0.503249 0.503249 0.158249
0.724514 0.518435 0.153466
0.900616 0.513556 0.148682
1.000000 0.508676 0.143899
1.000000 0.507050 0.142304
0.000000 0.675602 0.158102
0.000000 0.674007 0.156508
0.151724 0.669224 0.151724
0.319441 0.664440 0.146941
0.487157 0.659657 0.142157
0.654873 0.654873 0.137374
0.822590 0.650090 0.132590
1.000000 0.668213 0.127807
1.000000 0.666586 0.126212
0.000000 0.832010 0.142010
0.000000 0.830415 0.140416
0.135632 0.825632 0.135632
0.303349 0.820849 0.130849
0.471065 0.816065 0.126065
0.638782 0.811281 0.121282
0.806498 0.806498 0.116498
0.974214 0.801714 0.111715
1.000000 0.826122 0.110120
0.000000 0.988418 0.125918
0.000000 0.986823 0.124324
0.119540 0.982040 0.119540
0.287257 0.977256 0.114757
0.454973 0.972473 0.109973
0.622690 0.967689 0.105190
0.790406 0.962906 0.100406
0.958122 0.958122 0.095623
1.000000 0.956528 0.094028
0.000000 1.000000 0.120554
0.000000 1.000000 0.118959
0.114176 1.000000 0.114176
0.281892 1.000000 0.109393
0.449609 1.000000 0.104609
0.617325 1.000000 0.099826
0.785042 1.000000 0.095042
0.952758 1.000000 0.090259
1.000000 1.000000 0.088664
0.000000 0.000000 0.398709
0.052115 0.000000 0.397115
0.219831 0.000000 0.392331
0.387548 0.000000 0.387548
0.555265 0.000000 0.382764
0.722981 0.000000 0.377981
0.890698 0.000000 0.373197
1.000000 0.000000 0.368414
1.000000 0.000000 0.366819
0.000000 0.048346 0.393345
0.046751 0.046751 0.391751
0.214468 0.041968 0.386967
0.382184 0.037184 0.382184
0.549901 0.032401 0.377400
0.717617 0.027617 0.372617
0.885333 0.022834 0.367833
1.000000 0.018050 0.363050
1.000000 0.016456 0.361455
0.000000 0.204754 0.377253
0.030659 0.203159 0.375659
0.198376 0.198376 0.370875
0.366092 0.193592 0.366092
0.533808 0.188809 0.361308
0.701525 0.184025 0.356525
0.869242 0.179242 0.351741
1.000000 0.174458 0.346958
1.000000 0.172864 0.345363
0.000000 0.361161 0.361161
0.014567 0.359567 0.359567
0.182284 0.354783 0.354783
0.350000 0.350000 0.350000
0.517717 0.345216 0.345216
0.685433 0.340433 0.340433
0.853150 0.335649 0.335649
1.000000 0.330866 0.330866
1.000000 0.329271 0.329271
0.000000 0.517570 0.345069
0.000000 0.515975 0.343475
0.166192 0.511192 0.338691
0.333908 0.506408 0.333908
0.501625 0.501625 0.329124
0.722808 0.516778 0.324341
0.898910 0.511899 0.319557
1.000000 0.507019 0.314774
1.000000 0.505393 0.313179
0.000000 0.673978 0.328977
0.000000 0.672383 0.327383
0.150100 0.667600 0.322599
0.317816 0.662816 0.317816
0.485533 0.658033 0.313032
0.653249 0.653249 0.308249
0.882014 0.671435 0.303465
1.000000 0.666556 0.298682
1.000000 0.664929 0.297088
0.000000 0.830385 0.312885
0.000000 0.828791 0.311291
0.134008 0.824008 0.306507
0.301724 0.819224 0.301724
0.469441 0.814441 0.296940
0.637157 0.809657 0.292157
0.804874 0.804874 0.287374
0.972590 0.800090 0.282590
1.000000 0.824465 0.280996
0.000000 0.986793 0.296793
0.000000 0.985199 0.295199
0.117916 0.980415 0.290415
0.285632 0.975632 0.285632
0.453349 0.970849 0.280849
0.621065 0.966065 0.276065
0.788782 0.961281 0.271282
0.956498 0.956498 0.266498
1.000000 0.954903 0.264904
0.000000 1.000000 0.291430
0.000000 1.000000 0.289835
0.112552 1.000000 0.285052
0.280268 1.000000 0.280268
0.447985 1.000000 0.275485
0.615701 1.000000 0.270701
0.783418 1.000000 0.265918
0.951134 1.000000 0.261134
1.000000 1.000000 0.259540
0.000000 0.000000 0.569585
0.050491 0.000000 0.567991
0.218207 0.000000 0.563207
0.385923 0.000000 0.558423
0.553640 0.000000 0.553640
0.721356 0.000000 0.548856
0.889073 0.000000 0.544073
1.000000 0.000000 0.539289
1.000000 0.000000 0.537695
0.000000 0.046721 0.564221
0.045127 0.045127 0.562626
0.212843 0.040343 0.557843
0.380559 0.035560 0.553060
0.548276 0.030776 0.548276
0.715992 0.025993 0.543492
0.883709 0.021209 0.538709
1.000000 0.016426 0.533925
1.000000 0.014831 0.532331
0.000000 0.203129 0.548129
0.029035 0.201535 0.546534
0.196751 0.196751 0.541751
0.364467 0.191968 0.536968
0.532184 0.187184 0.532184
0.699901 0.182401 0.527400
0.867617 0.177617 0.522617
1.000000 0.172834 0.517833
1.000000 0.171239 0.516239
0.000000 0.359537 0.532037
0.012943 0.357942 0.530442
0.180659 0.353159 0.525659
0.348376 0.348376 0.520876
0.516092 0.343592 0.516092
0.683809 0.338808 0.511308
0.851525 0.334025 0.506525
1.000000 0.329241 0.501741
1.000000 0.327647 0.500147
0.000000 0.515945 0.515945
0.000000 0.514350 0.514350
0.164567 0.509567 0.509567
0.332283 0.504784 0.504784
0.500000 0.500000 0.500000
0.667717 0.495217 0.495217
0.835433 0.490433 0.490433
1.000000 0.485650 0.485650
1.000000 0.484055 0.484055
0.000000 0.672353 0.499853
0.000000 0.670759 0.498258
0.148475 0.665975 0.493475
0.316192 0.661192 0.488692
0.483908 0.656408 0.483908
0.651625 0.651625 0.479125
0.880308 0.669778 0.474341
1.000000 0.664899 0.469558
1.000000 0.663272 0.467963
0.000000 0.828761 0.483761
0.000000 0.827167 0.482166
0.132383 0.822383 0.477383
0.300100 0.817600 0.472600
0.467816 0.812816 0.467816
0.635533 0.808033 0.463033
0.803249 0.803249 0.458249
1.000000 0.824435 0.453466
1.000000 0.822808 0.451871
0.000000 0.985169 0.467669
0.000000 0.983574 0.466075
0.116291 0.978791 0.461291
0.284008 0.974007 0.456508
0.451724 0.969224 0.451724
0.619441 0.964440 0.446941
0.787157 0.959657 0.442157
0.954873 0.954873 0.437374
1.000000 0.953279 0.435779
0.000000 1.000000 0.462305
0.000000 1.000000 0.460711
0.110927 1.000000 0.455927
0.278644 1.000000 0.451144
0.446360 1.000000 0.446360
0.614077 1.000000 0.441577
0.781793 1.000000 0.436793
0.949510 1.000000 0.432010
1.000000 1.000000 0.430415
0.000000 0.000000 0.740460
0.048866 0.000000 0.738866
0.216583 0.000000 0.734082
0.384299 0.000000 0.729299
0.552015 0.000000 0.724515
0.719732 0.000000 0.719732
0.887448 0.000000 0.714948
1.000000 0.000000 0.710165
1.000000 0.000000 0.708570
0.000000 0.045097 0.735096
0.043502 0.043502 0.733502
0.211219 0.038719 0.728718
0.378935 0.033935 0.723935
0.546651 0.029152 0.719151
0.714368 0.024368 0.714368
0.882085 0.019585 0.709585
1.000000 0.014801 0.704801
1.000000 0.013207 0.703207
0.000000 0.201505 0.719004
0.027410 0.199910 0.717410
0.195127 0.195127 0.712627
0.362843 0.190343 0.707843
0.530559 0.185560 0.703059
0.698276 0.180776 0.698276
0.865993 0.175993 0.693493
1.000000 0.171209 0.688709
1.000000 0.169615 0.687115
0.000000 0.357912 0.702913
0.011318 0.356318 0.701318
0.179035 0.351534 0.696535
0.346751 0.346751 0.691751
0.514467 0.341967 0.686967
0.682184 0.337184 0.682184
0.849900 0.332400 0.677401
1.000000 0.327617 0.672617
1.000000 0.326022 0.671023
0.000000 0.514320 0.686821
0.000000 0.512726 0.685226
0.162943 0.507942 0.680443
0.330659 0.503159 0.675659
0.498376 0.498376 0.670875
0.666092 0.493592 0.666092
0.833809 0.488808 0.661309
1.000000 0.484025 0.656525
1.000000 0.482430 0.654930
0.000000 0.670729 0.670729
0.000000 0.669134 0.669134
0.146851 0.664351 0.664351
0.314567 0.659567 0.659567
0.482283 0.654783 0.654783
0.650000 0.650000 0.650000
0.817717 0.645217 0.645217
0.985433 0.640433 0.640433
1.000000 0.638839 0.638839
0.000000 0.827137 0.654637
0.000000 0.825542 0.653042
0.130758 0.820759 0.648259
0.298475 0.815975 0.643475
0.466191 0.811192 0.638691
0.633908 0.806408 0.633908
0.801625 0.801625 0.629125
1.000000 0.822778 0.624341
1.000000 0.821151 0.622747
0.000000 0.983544 0.638545
0.000000 0.981950 0.636950
0.114667 0.977166 0.632167
0.282383 0.972383 0.627383
0.450100 0.967599 0.622600
0.617816 0.962816 0.617816
0.785533 0.958032 0.613033
0.953249 0.953249 0.608249
1.000000 0.980688 0.606655
0.000000 1.000000 0.633181
0.000000 1.000000 0.631586
0.109303 1.000000 0.626803
0.277019 1.000000 0.622019
0.444736 1.000000 0.617236
0.612452 1.000000 0.612452
0.780169 1.000000 0.607669
0.947885 1.000000 0.602885
1.000000 1.000000 0.601291
0.000000 0.000000 0.911336
0.047242 0.000000 0.909741
0.214958 0.000000 0.904958
0.382674 0.000000 0.900174
0.550391 0.000000 0.895391
0.718107 0.000000 0.890607
0.885824 0.000000 0.885824
1.000000 0.000000 0.881041
1.000000 0.000000 0.879446
0.000000 0.043472 0.905972
0.041878 0.041878 0.904377
0.209594 0.037094 0.899594
0.377310 0.032311 0.894810
0.545027 0.027527 0.890027
0.712743 0.022744 0.885243
0.880460 0.017960 0.880460
1.000000 0.013177 0.875676
1.000000 0.011582 0.874082
0.000000 0.199880 0.889880
0.025786 0.198286 0.888285
0.193502 0.193502 0.883502
0.361218 0.188719 0.878718
0.528935 0.183935 0.873935
0.696651 0.179152 0.869151
0.864368 0.174368 0.864368
1.000000 0.169585 0.859584
1.000000 0.167990 0.857990
0.000000 0.356288 0.873788
0.009694 0.354693 0.872193
0.177410 0.349910 0.867410
0.345127 0.345127 0.862626
0.512843 0.340343 0.857843
0.680559 0.335559 0.853060
0.848276 0.330776 0.848276
1.000000 0.325993 0.843492
1.000000 0.324398 0.841898
0.000000 0.512696 0.857696
0.000000 0.511101 0.856102
0.161318 0.506318 0.851318
0.329035 0.501534 0.846534
0.496751 0.496751 0.841751
0.664467 0.491968 0.836968
0.832184 0.487184 0.832184
0.999900 0.482401 0.827400
1.000000 0.480806 0.825806
0.000000 0.669104 0.841604
0.000000 0.667509 0.840010
0.145226 0.662726 0.835226
0.312943 0.657942 0.830442
0.480659 0.653159 0.825659
0.648375 0.648375 0.820876
0.816092 0.643592 0.816092
0.983808 0.638809 0.811308
1.000000 0.637214 0.809714
0.000000 0.825512 0.825512
0.000000 0.823918 0.823918
0.129134 0.819134 0.819134
0.296851 0.814351 0.814351
0.464567 0.809567 0.809567
0.632283 0.804784 0.804784
0.800000 0.800000 0.800000
0.967716 0.795216 0.795216
1.000000 0.793622 0.793622
0.000000 0.981920 0.809420
0.000000 0.980325 0.807826
0.113042 0.975542 0.803042
0.280759 0.970758 0.798259
0.448475 0.965975 0.793475
0.616192 0.961191 0.788692
0.783908 0.956408 0.783908
0.951624 0.951624 0.779125
1.000000 0.979031 0.777530
0.000000 1.000000 0.804056
0.000000 1.000000 0.802462
0.107678 1.000000 0.797678
0.275394 1.000000 0.792895
0.443111 1.000000 0.788111
0.610828 1.000000 0.783328
0.778544 1.000000 0.778544
0.946260 1.000000 0.773761
1.000000 1.000000 0.772166
0.000000 0.000000 1.000000
0.045617 0.000000 1.000000
0.213334 0.000000 1.000000
0.381050 0.000000 1.000000
0.548766 0.000000 1.000000
0.716483 0.000000 1.000000
0.884200 0.000000 1.000000
1.000000 0.000000 1.000000
1.000000 0.000000 1.000000
0.000000 0.041848 1.000000
0.040253 0.040253 1.000000
0.207970 0.035470 1.000000
0.375686 0.030686 1.000000
0.543403 0.025903 1.000000
0.711119 0.021119 1.000000
0.878836 0.016336 1.000000
1.000000 0.011552 1.000000
1.000000 0.009958 1.000000
0.000000 0.198256 1.000000
0.024161 0.196661 1.000000
0.191878 0.191878 1.000000
0.359594 0.187094 1.000000
0.527311 0.182311 1.000000
0.695027 0.177527 1.000000
0.862743 0.172744 1.000000
1.000000 0.167960 1.000000
1.000000 0.166366 1.000000
0.000000 0.354663 1.000000
0.008069 0.353069 1.000000
0.175786 0.348285 1.000000
0.343502 0.343502 1.000000
0.511219 0.338718 1.000000
0.678935 0.333935 1.000000
0.846652 0.329151 1.000000
1.000000 0.324368 1.000000
1.000000 0.322773 1.000000
0.000000 0.511072 1.000000
0.000000 0.509477 1.000000
0.159694 0.504694 1.000000
0.327410 0.499910 1.000000
0.495127 0.495127 1.000000
0.662843 0.490343 1.000000
0.830560 0.485560 1.000000
0.998276 0.480776 0.998276
1.000000 0.479182 0.996681
0.000000 0.667480 1.000000
0.000000 0.665885 1.000000
0.143602 0.661102 1.000000
0.311318 0.656318 1.000000
0.479035 0.651535 0.996534
0.646751 0.646751 0.991751
0.814468 0.641968 0.986967
0.982184 0.637184 0.982184
1.000000 0.635590 0.980589
0.000000 0.823887 0.996387
0.000000 0.822293 0.994793
0.127510 0.817510 0.990009
0.295226 0.812726 0.985226
0.462942 0.807943 0.980442
0.630659 0.803159 0.975659
0.798376 0.798376 0.970875
0.966092 0.793592 0.966092
1.000000 0.791998 0.964497
0.000000 0.980295 0.980295
0.000000 0.978701 0.978701
0.111418 0.973917 0.973917
0.279134 0.969134 0.969134
0.446851 0.964350 0.964350
0.614567 0.959567 0.959567
0.782284 0.954784 0.954784
0.950000 0.950000 0.950000
1.000000 0.948405 0.948405
0.000000 1.000000 0.974931
0.000000 1.000000 0.973337
0.106054 1.000000 0.968553
0.273770 1.000000 0.963770
0.441487 1.000000 0.958986
0.609203 1.000000 0.954203
0.776920 1.000000 0.949419
0.944636 1.000000 0.944636
1.000000 1.000000 0.943041
0.000000 0.000000 1.000000
0.045076 0.000000 1.000000
0.212792 0.000000 1.000000
0.380508 0.000000 1.000000
0.548225 0.000000 1.000000
0.715942 0.000000 1.000000
0.883658 0.000000 1.000000
1.000000 0.000000 1.000000
1.000000 0.000000 1.000000
0.000000 0.041306 1.000000
0.039712 0.039712 1.000000
0.207428 0.034928 1.000000
0.375144 0.030145 1.000000
0.542861 0.025361 1.000000
0.710577 0.020578 1.000000
0.878294 0.015794 1.000000
1.000000 0.011011 1.000000
1.000000 0.009416 1.000000
0.000000 0.197714 1.000000
0.023620 0.196120 1.000000
0.191336 0.191336 1.000000
0.359052 0.186553 1.000000
0.526769 0.181769 1.000000
0.694485 0.176986 1.000000
0.862202 0.172202 1.000000
1.000000 0.167419 1.000000
1.000000 0.165824 1.000000
0.000000 0.354122 1.000000
0.007528 0.352527 1.000000
0.175244 0.347744 1.000000
0.342961 0.342961 1.000000
0.510677 0.338177 1.000000
0.678393 0.333394 1.000000
0.846110 0.328610 1.000000
1.000000 0.323827 1.000000
1.000000 0.322232 1.000000
0.000000 0.510530 1.000000
0.000000 0.508935 1.000000
0.159152 0.504152 1.000000
0.326869 0.499368 1.000000
0.494585 0.494585 1.000000
0.662301 0.489802 1.000000
0.830018 0.485018 1.000000
0.997734 0.480235 1.000000
1.000000 0.478640 1.000000
0.000000 0.666938 1.000000
0.000000 0.665343 1.000000
0.143060 0.660560 1.000000
0.310777 0.655776 1.000000
0.478493 0.650993 1.000000
0.646209 0.646209 1.000000
0.813926 0.641426 1.000000
0.981642 0.636643 1.000000
1.000000 0.635048 1.000000
0.000000 0.823346 1.000000
0.000000 0.821751 1.000000
0.126968 0.816968 1.000000
0.294685 0.812185 1.000000
0.462401 0.807401 1.000000
0.630117 0.802617 1.000000
0.797834 0.797834 1.000000
0.965550 0.793051 1.000000
1.000000 0.791456 1.000000
0.000000 0.979754 1.000000
0.000000 0.978159 1.000000
0.110876 0.973376 1.000000
0.278593 0.968592 1.000000
0.446309 0.963809 1.000000
0.614026 0.959025 1.000000
0.781742 0.954242 1.000000
0.949458 0.949458 1.000000
1.000000 0.947864 1.000000
0.000000 1.000000 1.000000
0.000000 1.000000 1.000000
0.105512 1.000000 1.000000
0.273228 1.000000 1.000000
0.440945 1.000000 1.000000
0.608661 1.000000 1.000000
0.776378 1.000000 1.000000
0.944094 1.000000 1.000000
1.000000 1.000000 1.000000
