library/cube/Neon_Dystopia_000.cube
# CINEGRADE LAB — Premium Cinematic LUT
# Title: Neon Dystopia
# Category: Cyberpunk Cinema
# Description: Cyan/magenta split with high contrast for futuristic cyberpunk visuals
# Mood: Futuristic, neon, dystopian
# Variant: 1
# Generated: 2026-05-21T16:12:27.636895
TITLE "Neon Dystopia"
LUT_3D_SIZE 33
0.000000 0.033570 0.016170
0.000000 0.033015 0.015904
0.000000 0.032465 0.015641
0.000000 0.031921 0.015384
0.000000 0.031381 0.015130
0.000000 0.030847 0.014881
0.027524 0.029148 0.013466
0.063754 0.027296 0.011897
0.100434 0.025433 0.010316
0.137557 0.023559 0.008724
0.175116 0.021674 0.007119
0.213106 0.019779 0.005503
0.251521 0.017873 0.003875
0.290353 0.015957 0.002236
0.329597 0.014031 0.000587
0.369247 0.012095 0.000000
0.409297 0.010149 0.000000
0.449741 0.008194 0.000000
0.490573 0.006230 0.000000
0.531786 0.004258 0.000000
0.573376 0.002276 0.000000
0.615337 0.000286 0.000000
0.657662 0.000000 0.000000
0.700345 0.000000 0.000000
0.743382 0.000000 0.000000
0.786767 0.000000 0.000000
0.830493 0.000000 0.000000
0.874324 0.000000 0.000000
0.918223 0.000000 0.000000
0.954859 0.000000 0.000000
0.959130 0.000000 0.000000
0.963349 0.000000 0.000000
0.967516 0.000000 0.000000
0.000000 0.031724 0.015291
0.000000 0.031186 0.015039
0.000000 0.030654 0.014791
0.000000 0.030126 0.014548
0.000000 0.029604 0.014308
0.000000 0.029087 0.014073
0.028501 0.027381 0.012647
0.065477 0.025519 0.011066
0.102889 0.023647 0.009472
0.140730 0.021764 0.007867
0.178994 0.019871 0.006251
0.217675 0.017967 0.004623
0.256766 0.016053 0.002985
0.296261 0.014130 0.001336
0.336156 0.012197 0.000000
0.376442 0.010255 0.000000
0.417115 0.008304 0.000000
0.458169 0.006344 0.000000
0.499598 0.004375 0.000000
0.541396 0.002398 0.000000
0.583558 0.000412 0.000000
0.626077 0.000000 0.000000
0.668948 0.000000 0.000000
0.712166 0.000000 0.000000
0.755724 0.000000 0.000000
0.799618 0.000000 0.000000
0.843841 0.000000 0.000000
0.887931 0.000000 0.000000
0.932163 0.000000 0.000000
0.969020 0.000000 0.000000
0.973116 0.000000 0.000000
0.977159 0.000000 0.000000
0.981151 0.000000 0.000000
0.000000 0.029936 0.014460
0.000000 0.029416 0.014222
0.000000 0.028901 0.013989
0.000000 0.028391 0.013759
0.000000 0.027886 0.013534
0.000000 0.027386 0.013313
0.029470 0.025673 0.011877
0.067170 0.023802 0.010283
0.105291 0.021921 0.008677
0.143827 0.020030 0.007061
0.182772 0.018129 0.005433
0.222121 0.016218 0.003795
0.261867 0.014297 0.002146
0.302004 0.012368 0.000487
0.342526 0.010429 0.000000
0.383427 0.008481 0.000000
0.424703 0.006525 0.000000
0.466346 0.004560 0.000000
0.508351 0.002587 0.000000
0.550713 0.000606 0.000000
0.593426 0.000000 0.000000
0.636484 0.000000 0.000000
0.679881 0.000000 0.000000
0.723613 0.000000 0.000000
0.767673 0.000000 0.000000
0.812057 0.000000 0.000000
0.856702 0.000000 0.000000
0.901013 0.000000 0.000000
0.945542 0.000000 0.000000
0.982591 0.000000 0.000000
0.986511 0.000000 0.000000
0.990380 0.000000 0.000000
0.994197 0.000000 0.000000
0.000000 0.028206 0.013677
0.000000 0.027703 0.013453
0.000000 0.027206 0.013233
0.000000 0.026713 0.013018
0.000000 0.026225 0.012807
0.000000 0.025743 0.012599
0.030433 0.024023 0.011154
0.068833 0.022144 0.009548
0.107640 0.020255 0.007931
0.146849 0.018356 0.006304
0.186453 0.016448 0.004666
0.226448 0.014531 0.003018
0.266826 0.012604 0.001359
0.307583 0.010669 0.000000
0.348712 0.008725 0.000000
0.390207 0.006772 0.000000
0.432064 0.004812 0.000000
0.474275 0.002843 0.000000
0.516837 0.000866 0.000000
0.559742 0.000000 0.000000
0.602986 0.000000 0.000000
0.646563 0.000000 0.000000
0.690468 0.000000 0.000000
0.734694 0.000000 0.000000
0.779238 0.000000 0.000000
0.824093 0.000000 0.000000
0.868979 0.000000 0.000000
0.913572 0.000000 0.000000
0.958362 0.000000 0.000000
0.995574 0.000000 0.000000
0.999320 0.000000 0.000000
1.000000 0.000000 0.000000
1.000000 0.000000 0.000000
0.000000 0.026535 0.012940
0.000000 0.026049 0.012731
0.000000 0.025568 0.012525
0.000000 0.025093 0.012323
0.000000 0.024622 0.012126
0.000000 0.024157 0.011932
0.031390 0.022432 0.010478
0.070467 0.020545 0.008861
0.109938 0.018649 0.007234
0.149797 0.016743 0.005596
0.190039 0.014828 0.003948
0.230658 0.012905 0.002290
0.271647 0.010973 0.000623
0.313002 0.009032 0.000000
0.354717 0.007084 0.000000
0.396786 0.005127 0.000000
0.439203 0.003163 0.000000
0.481963 0.001190 0.000000
0.525060 0.000000 0.000000
0.568489 0.000000 0.000000
0.612245 0.000000 0.000000
0.656322 0.000000 0.000000
0.700714 0.000000 0.000000
0.745418 0.000000 0.000000
0.790426 0.000000 0.000000
0.835734 0.000000 0.000000
0.880772 0.000000 0.000000
0.925611 0.000000 0.000000
0.970626 0.000000 0.000000
1.000000 0.000000 0.000000
1.000000 0.000000 0.000000
1.000000 0.000000 0.000000
1.000000 0.000000 0.000000
0.000000 0.024921 0.012251
0.000000 0.024452 0.012055
0.000000 0.023989 0.011863
0.000000 0.023530 0.011675
0.000000 0.023076 0.011491
0.000000 0.022628 0.011311
0.032342 0.020898 0.009848
0.072073 0.019004 0.008221
0.112186 0.017101 0.006583
0.152674 0.015189 0.004936
0.193531 0.013269 0.003279
0.234753 0.011340 0.001613
0.276333 0.009403 0.000000
0.318266 0.007459 0.000000
0.360545 0.005506 0.000000
0.403167 0.003545 0.000000
0.446125 0.001578 0.000000
0.489413 0.000000 0.000000
0.533027 0.000000 0.000000
0.576961 0.000000 0.000000
0.621209 0.000000 0.000000
0.665767 0.000000 0.000000
0.710629 0.000000 0.000000
0.755790 0.000000 0.000000
0.801244 0.000000 0.000000
0.846988 0.000000 0.000000
0.892083 0.000000 0.000000
0.937134 0.000000 0.000000
0.982339 0.000000 0.000000
1.000000 0.000000 0.000000
1.000000 0.000000 0.000000
1.000000 0.000000 0.000000
1.000000 0.000000 0.000000
0.000000 0.064730 0.006009
0.000000 0.064240 0.005832
0.000000 0.063755 0.005658
0.000000 0.063275 0.005489
0.000000 0.062800 0.005324
0.000000 0.062329 0.005162
0.027722 0.060557 0.003697
0.068091 0.058619 0.002065
0.108829 0.056671 0.000423
0.149929 0.054716 0.000000
0.191386 0.052752 0.000000
0.233195 0.050781 0.000000
0.275350 0.048802 0.000000
0.317845 0.046815 0.000000
0.360675 0.044821 0.000000
0.403835 0.042819 0.000000
0.447318 0.040811 0.000000
0.491121 0.038796 0.000000
0.535237 0.036774 0.000000
0.579662 0.034746 0.000000
0.624389 0.032711 0.000000
0.669414 0.030670 0.000000
0.714732 0.028624 0.000000
0.760338 0.026571 0.000000
0.806227 0.024513 0.000000
0.852363 0.022450 0.000000
0.897453 0.020431 0.000000
0.942685 0.018411 0.000000
0.988050 0.016391 0.000000
1.000000 0.014663 0.000000
1.000000 0.014200 0.000000
1.000000 0.013743 0.000000
1.000000 0.013293 0.000000
0.000000 0.109338 0.000000
0.000000 0.108822 0.000000
0.000000 0.108311 0.000000
0.000000 0.107804 0.000000
0.000000 0.107303 0.000000
0.000000 0.106807 0.000000
0.022459 0.104989 0.000000
0.063445 0.103002 0.000000
0.104787 0.101007 0.000000
0.146480 0.099004 0.000000
0.188517 0.096993 0.000000
0.230893 0.094975 0.000000
0.273603 0.092950 0.000000
0.316641 0.090917 0.000000
0.360002 0.088878 0.000000
0.403681 0.086832 0.000000
0.447672 0.084779 0.000000
0.491970 0.082720 0.000000
0.536570 0.080654 0.000000
0.581467 0.078583 0.000000
0.626656 0.076505 0.000000
0.672132 0.074422 0.000000
0.717889 0.072333 0.000000
0.763922 0.070239 0.000000
0.810228 0.068139 0.000000
0.856466 0.066047 0.000000
0.901724 0.063995 0.000000
0.947104 0.061943 0.000000
0.992596 0.059892 0.000000
1.000000 0.058136 0.000000
1.000000 0.057652 0.000000
1.000000 0.057175 0.000000
1.000000 0.056704 0.000000
0.000000 0.153714 0.000000
0.000000 0.153172 0.000000
0.000000 0.152635 0.000000
0.000000 0.152103 0.000000
0.000000 0.151576 0.000000
0.000000 0.151054 0.000000
0.017230 0.149190 0.000000
0.058812 0.147155 0.000000
0.100738 0.145113 0.000000
0.143002 0.143064 0.000000
0.185599 0.141007 0.000000
0.228522 0.138943 0.000000
0.271767 0.136873 0.000000
0.315329 0.134795 0.000000
0.359201 0.132711 0.000000
0.403380 0.130621 0.000000
0.447860 0.128524 0.000000
0.492635 0.126422 0.000000
0.537701 0.124313 0.000000
0.583053 0.122199 0.000000
0.628685 0.120079 0.000000
0.674593 0.117954 0.000000
0.720771 0.115824 0.000000
0.767216 0.113688 0.000000
0.813921 0.111547 0.000000
0.860174 0.109428 0.000000
0.905566 0.107345 0.000000
0.951059 0.105263 0.000000
0.996644 0.103182 0.000000
1.000000 0.101398 0.000000
1.000000 0.100893 0.000000
1.000000 0.100395 0.000000
1.000000 0.099903 0.000000
0.000000 0.197859 0.000000
0.000000 0.197291 0.000000
0.000000 0.196728 0.000000
0.000000 0.196170 0.000000
0.000000 0.195618 0.000000
0.000000 0.195070 0.000000
0.012036 0.193161 0.000000
0.054194 0.191080 0.000000
0.096683 0.188992 0.000000
0.139499 0.186897 0.000000
0.182634 0.184794 0.000000
0.226085 0.182686 0.000000
0.269846 0.180570 0.000000
0.313912 0.178449 0.000000
0.358277 0.176321 0.000000
0.402937 0.174187 0.000000
0.447887 0.172047 0.000000
0.493121 0.169902 0.000000
0.538635 0.167751 0.000000
0.584423 0.165594 0.000000
0.630481 0.163433 0.000000
0.676804 0.161266 0.000000
0.723387 0.159095 0.000000
0.770225 0.156918 0.000000
0.817314 0.154737 0.000000
0.863493 0.152594 0.000000
0.908986 0.150481 0.000000
0.954559 0.148369 0.000000
1.000000 0.146259 0.000000
1.000000 0.144448 0.000000
1.000000 0.143922 0.000000
1.000000 0.143403 0.000000
1.000000 0.142889 0.000000
0.000000 0.241774 0.000000
0.000000 0.241180 0.000000
0.000000 0.240592 0.000000
0.000000 0.240008 0.000000
0.000000 0.239430 0.000000
0.000000 0.238856 0.000000
0.006877 0.236903 0.000000
0.049591 0.234776 0.000000
0.092623 0.232643 0.000000
0.135970 0.230502 0.000000
0.179625 0.228355 0.000000
0.223585 0.226202 0.000000
0.267842 0.224043 0.000000
0.312393 0.221878 0.000000
0.357233 0.219706 0.000000
0.402356 0.217530 0.000000
0.447757 0.215347 0.000000
0.493432 0.213159 0.000000
0.539376 0.210967 0.000000
0.585584 0.208769 0.000000
0.632050 0.206566 0.000000
0.678771 0.204358 0.000000
0.725742 0.202146 0.000000
0.772957 0.199929 0.000000
0.820413 0.197708 0.000000
0.866430 0.195544 0.000000
0.911990 0.193401 0.000000
0.957610 0.191261 0.000000
1.000000 0.189123 0.000000
1.000000 0.187285 0.000000
1.000000 0.186738 0.000000
1.000000 0.186196 0.000000
1.000000 0.185661 0.000000
0.000000 0.285459 0.000000
0.000000 0.284840 0.000000
0.000000 0.284226 0.000000
0.000000 0.283617 0.000000
0.000000 0.283012 0.000000
0.000000 0.282413 0.000000
0.001754 0.280417 0.000000
0.045003 0.278245 0.000000
0.088559 0.276066 0.000000
0.132418 0.273881 0.000000
0.176574 0.271690 0.000000
0.221023 0.269493 0.000000
0.265759 0.267290 0.000000
0.310777 0.265082 0.000000
0.356072 0.262868 0.000000
0.401640 0.260648 0.000000
0.447476 0.258424 0.000000
0.493574 0.256194 0.000000
0.539931 0.253960 0.000000
0.586541 0.251720 0.000000
0.633399 0.249476 0.000000
0.680502 0.247228 0.000000
0.727844 0.244975 0.000000
0.775421 0.242718 0.000000
0.823228 0.240457 0.000000
0.868991 0.238276 0.000000
0.914586 0.236104 0.000000
0.960221 0.233936 0.000000
1.000000 0.231771 0.000000
1.000000 0.229907 0.000000
1.000000 0.229338 0.000000
1.000000 0.228774 0.000000
1.000000 0.228216 0.000000
0.000000 0.328916 0.000000
0.000000 0.328271 0.000000
0.000000 0.327631 0.000000
0.000000 0.326996 0.000000
0.000000 0.326366 0.000000
0.000000 0.325740 0.000000
0.000000 0.323701 0.000000
0.040432 0.321484 0.000000
0.084492 0.319261 0.000000
0.128844 0.317032 0.000000
0.173483 0.314798 0.000000
0.218402 0.312557 0.000000
0.263598 0.310311 0.000000
0.309065 0.308060 0.000000
0.354798 0.305804 0.000000
0.400794 0.303542 0.000000
0.447046 0.301276 0.000000
0.493551 0.299005 0.000000
0.540304 0.296729 0.000000
0.587299 0.294449 0.000000
0.634533 0.292164 0.000000
0.682001 0.289875 0.000000
0.729699 0.287582 0.000000
0.777622 0.285285 0.000000
0.825617 0.282990 0.000000
0.871184 0.280788 0.000000
0.916781 0.278589 0.000000
0.962399 0.276393 0.000000
1.000000 0.274201 0.000000
1.000000 0.272313 0.000000
1.000000 0.271720 0.000000
1.000000 0.271134 0.000000
1.000000 0.270553 0.000000
0.000000 0.372143 0.000000
0.000000 0.371473 0.000000
0.000000 0.370807 0.000000
0.000000 0.370146 0.000000
0.000000 0.369489 0.000000
0.000000 0.368838 0.000000
0.000000 0.366756 0.000000
0.035877 0.364495 0.000000
0.080424 0.362228 0.000000
0.125251 0.359956 0.000000
0.170353 0.357678 0.000000
0.215725 0.355395 0.000000
0.261362 0.353106 0.000000
0.307261 0.350813 0.000000
0.353415 0.348514 0.000000
0.399821 0.346211 0.000000
0.446473 0.343903 0.000000
0.493368 0.341591 0.000000
0.540500 0.339274 0.000000
0.587865 0.336953 0.000000
0.635459 0.334628 0.000000
0.683277 0.332298 0.000000
0.731315 0.329965 0.000000
0.779568 0.327628 0.000000
0.827460 0.325309 0.000000
0.873018 0.323079 0.000000
0.918586 0.320853 0.000000
0.964156 0.318631 0.000000
1.000000 0.316413 0.000000
1.000000 0.314499 0.000000
1.000000 0.313883 0.000000
1.000000 0.313273 0.000000
1.000000 0.312668 0.000000
0.000000 0.415142 0.000000
0.000000 0.414445 0.000000
0.000000 0.413753 0.000000
0.000000 0.413066 0.000000
0.000000 0.412383 0.000000
0.000000 0.411705 0.000000
0.000000 0.409582 0.000000
0.031341 0.407277 0.000000
0.076355 0.404966 0.000000
0.121638 0.402651 0.000000
0.167186 0.400330 0.000000
0.212993 0.398004 0.000000
0.259056 0.395673 0.000000
0.305368 0.393337 0.000000
0.351926 0.390997 0.000000
0.398726 0.388652 0.000000
0.445762 0.386303 0.000000
0.493030 0.383949 0.000000
0.540526 0.381592 0.000000
0.588245 0.379230 0.000000
0.636183 0.376864 0.000000
0.684335 0.374495 0.000000
0.732698 0.372122 0.000000
0.781266 0.369745 0.000000
0.828984 0.367403 0.000000
0.874502 0.365146 0.000000
0.920010 0.362893 0.000000
0.965501 0.360645 0.000000
1.000000 0.358402 0.000000
1.000000 0.356463 0.000000
1.000000 0.355823 0.000000
1.000000 0.355188 0.000000
1.000000 0.354558 0.000000
0.000000 0.457910 0.000000
0.000000 0.457187 0.000000
0.000000 0.456469 0.000000
0.000000 0.455756 0.000000
0.000000 0.455046 0.000000
0.000000 0.454342 0.000000
0.000000 0.452176 0.000000
0.026824 0.449828 0.000000
0.072287 0.447474 0.000000
0.118009 0.445116 0.000000
0.163985 0.442752 0.000000
0.210210 0.440384 0.000000
0.256680 0.438011 0.000000
0.303390 0.435633 0.000000
0.350336 0.433251 0.000000
0.397513 0.430865 0.000000
0.444916 0.428474 0.000000
0.492542 0.426080 0.000000
0.540385 0.423681 0.000000
0.588443 0.421279 0.000000
0.636710 0.418872 0.000000
0.685182 0.416462 0.000000
0.733855 0.414049 0.000000
0.782725 0.411632 0.000000
0.830198 0.409270 0.000000
0.875644 0.406987 0.000000
0.921063 0.404708 0.000000
0.966446 0.402434 0.000000
1.000000 0.400165 0.000000
1.000000 0.398201 0.000000
1.000000 0.397536 0.000000
1.000000 0.396875 0.000000
1.000000 0.396220 0.000000
0.000000 0.500449 0.000000
0.000000 0.499699 0.000000
0.000000 0.498954 0.000000
0.000000 0.498214 0.000000
0.000000 0.497478 0.000000
0.000000 0.496746 0.000000
0.000000 0.494539 0.000000
0.022327 0.492147 0.000000
0.068222 0.489751 0.000000
0.114365 0.487349 0.000000
0.160752 0.484943 0.000000
0.207379 0.482533 0.000000
0.254239 0.480118 0.000000
0.301330 0.477698 0.000000
0.348647 0.475274 0.000000
0.396185 0.472847 0.000000
0.443940 0.470415 0.000000
0.491908 0.467979 0.000000
0.540085 0.465539 0.000000
0.588466 0.463096 0.000000
0.637047 0.460649 0.000000
0.685825 0.458199 0.000000
0.734794 0.455745 0.000000
0.783952 0.453288 0.000000
0.831111 0.450908 0.000000
0.876456 0.448598 0.000000
0.921756 0.446293 0.000000
0.967001 0.443993 0.000000
1.000000 0.441699 0.000000
1.000000 0.439711 0.000000
1.000000 0.439019 0.000000
1.000000 0.438332 0.000000
1.000000 0.437649 0.000000
0.000000 0.542756 0.000000
0.000000 0.541980 0.000000
0.000000 0.541207 0.000000
0.000000 0.540440 0.000000
0.000000 0.539676 0.000000
0.000000 0.538917 0.000000
0.000000 0.536668 0.000000
0.017850 0.534233 0.000000
0.064160 0.531794 0.000000
0.110708 0.529350 0.000000
0.157490 0.526901 0.000000
0.204500 0.524449 0.000000
0.251736 0.521991 0.000000
0.299192 0.519530 0.000000
0.346864 0.517064 0.000000
0.394748 0.514595 0.000000
0.442840 0.512122 0.000000
0.491135 0.509645 0.000000
0.539630 0.507164 0.000000
0.588320 0.504680 0.000000
0.637201 0.502192 0.000000
0.686270 0.499701 0.000000
0.735522 0.497206 0.000000
0.784953 0.494708 0.000000
0.831734 0.492311 0.000000
0.876949 0.489975 0.000000
0.922101 0.487644 0.000000
0.967180 0.485319 0.000000
1.000000 0.483001 0.000000
1.000000 0.480987 0.000000
1.000000 0.480268 0.000000
1.000000 0.479553 0.000000
1.000000 0.478842 0.000000
0.000000 0.584830 0.000000
0.000000 0.584026 0.000000
0.000000 0.583227 0.000000
0.000000 0.582431 0.000000
0.000000 0.581640 0.000000
0.000000 0.580852 0.000000
0.000000 0.578562 0.000000
0.013396 0.576084 0.000000
0.060104 0.573602 0.000000
0.107040 0.571115 0.000000
0.154199 0.568624 0.000000
0.201579 0.566129 0.000000
0.249173 0.563629 0.000000
0.296979 0.561126 0.000000
0.344991 0.558618 0.000000
0.393206 0.556107 0.000000
0.441619 0.553592 0.000000
0.490227 0.551074 0.000000
0.539026 0.548551 0.000000
0.588011 0.546026 0.000000
0.637179 0.543497 0.000000
0.686525 0.540964 0.000000
0.736046 0.538429 0.000000
0.785739 0.535890 0.000000
0.832077 0.533477 0.000000
0.877134 0.531115 0.000000
0.922109 0.528759 0.000000
0.966996 0.526408 0.000000
1.000000 0.524064 0.000000
1.000000 0.522025 0.000000
1.000000 0.521277 0.000000
1.000000 0.520534 0.000000
1.000000 0.519794 0.000000
0.000000 0.626670 0.000000
0.000000 0.625838 0.000000
0.000000 0.625010 0.000000
0.000000 0.624186 0.000000
0.000000 0.623366 0.000000
0.000000 0.622550 0.000000
0.000000 0.620218 0.000000
0.008964 0.617697 0.000000
0.056054 0.615172 0.000000
0.103361 0.612642 0.000000
0.150884 0.610108 0.000000
0.198616 0.607571 0.000000
0.246554 0.605029 0.000000
0.294694 0.602483 0.000000
0.343031 0.599933 0.000000
0.391563 0.597380 0.000000
0.440283 0.594823 0.000000
0.489190 0.592262 0.000000
0.538279 0.589698 0.000000
0.587545 0.587131 0.000000
0.636986 0.584560 0.000000
0.686597 0.581986 0.000000
0.736374 0.579409 0.000000
0.786315 0.576828 0.000000
0.832151 0.574401 0.000000
0.877023 0.572013 0.000000
0.921795 0.569630 0.000000
0.966461 0.567255 0.000000
1.000000 0.564886 0.000000
1.000000 0.562821 0.000000
1.000000 0.562043 0.000000
1.000000 0.561269 0.000000
1.000000 0.560498 0.000000
0.000000 0.668274 0.000000
0.000000 0.667413 0.000000
0.000000 0.666556 0.000000
0.000000 0.665703 0.000000
0.000000 0.664854 0.000000
0.000000 0.664008 0.000000
0.000000 0.661634 0.000000
0.004557 0.659069 0.000000
0.052012 0.656501 0.000000
0.099676 0.653928 0.000000
0.147545 0.651352 0.000000
0.195615 0.648771 0.000000
0.243882 0.646186 0.000000
0.292341 0.643598 0.000000
0.340990 0.641005 0.000000
0.389823 0.638410 0.000000
0.438837 0.635810 0.000000
0.488029 0.633207 0.000000
0.537394 0.630601 0.000000
0.586929 0.627991 0.000000
0.636629 0.625377 0.000000
0.686493 0.622761 0.000000
0.736514 0.620142 0.000000
0.786691 0.617519 0.000000
0.831970 0.615079 0.000000
0.876628 0.612664 0.000000
0.921171 0.610255 0.000000
0.965590 0.607854 0.000000
1.000000 0.605459 0.000000
1.000000 0.603368 0.000000
1.000000 0.602558 0.000000
1.000000 0.601752 0.000000
1.000000 0.600949 0.000000
0.000000 0.709638 0.000000
0.000000 0.708748 0.000000
0.000000 0.707861 0.000000
0.000000 0.706978 0.000000
0.000000 0.706099 0.000000
0.000000 0.705223 0.000000
0.000000 0.702806 0.000000
0.000174 0.700198 0.000000
0.047980 0.697586 0.000000
0.095985 0.694970 0.000000
0.144186 0.692350 0.000000
0.192579 0.689726 0.000000
0.241160 0.687098 0.000000
0.289925 0.684466 0.000000
0.338870 0.681831 0.000000
0.387992 0.679192 0.000000
0.437286 0.676549 0.000000
0.486750 0.673903 0.000000
0.536378 0.671254 0.000000
0.586169 0.668601 0.000000
0.636117 0.665945 0.000000
0.686220 0.663285 0.000000
0.736474 0.660622 0.000000
0.786876 0.657957 0.000000
0.831545 0.655504 0.000000
0.875964 0.653062 0.000000
0.920251 0.650627 0.000000
0.964399 0.648199 0.000000
1.000000 0.645779 0.000000
1.000000 0.643660 0.000000
1.000000 0.642818 0.000000
1.000000 0.641978 0.000000
1.000000 0.641141 0.000000
0.000000 0.750760 0.000000
0.000000 0.749839 0.000000
0.000000 0.748922 0.000000
0.000000 0.748009 0.000000
0.000000 0.747098 0.000000
0.000000 0.746191 0.000000
0.000000 0.743731 0.000000
0.000000 0.741080 0.000000
0.043959 0.738424 0.000000
0.092290 0.735764 0.000000
0.140809 0.733100 0.000000
0.189511 0.730432 0.000000
0.238392 0.727760 0.000000
0.287448 0.725085 0.000000
0.336677 0.722405 0.000000
0.386074 0.719723 0.000000
0.435635 0.717036 0.000000
0.485358 0.714346 0.000000
0.535238 0.711653 0.000000
0.585271 0.708956 0.000000
0.635456 0.706256 0.000000
0.685787 0.703553 0.000000
0.736262 0.700846 0.000000
0.786593 0.698146 0.000000
0.830888 0.695670 0.000000
0.875043 0.693201 0.000000
0.919050 0.690740 0.000000
0.962903 0.688285 0.000000
1.000000 0.685838 0.000000
1.000000 0.683691 0.000000
1.000000 0.682814 0.000000
1.000000 0.681939 0.000000
1.000000 0.681066 0.000000
0.000000 0.791637 0.000000
0.000000 0.790685 0.000000
0.000000 0.789737 0.000000
0.000000 0.788791 0.000000
0.000000 0.787849 0.000000
0.000000 0.786909 0.000000
0.000000 0.784406 0.000000
0.000000 0.781710 0.000000
0.039952 0.779009 0.000000
0.088595 0.776305 0.000000
0.137417 0.773596 0.000000
0.186413 0.770884 0.000000
0.235581 0.768167 0.000000
0.284916 0.765447 0.000000
0.334415 0.762724 0.000000
0.384074 0.759996 0.000000
0.433890 0.757265 0.000000
0.483859 0.754531 0.000000
0.533978 0.751793 0.000000
0.584244 0.749051 0.000000
0.634652 0.746306 0.000000
0.685201 0.743558 0.000000
0.735886 0.740806 0.000000
0.785993 0.738077 0.000000
0.830015 0.735573 0.000000
0.873881 0.733076 0.000000
0.917584 0.730586 0.000000
0.961117 0.728104 0.000000
1.000000 0.725630 0.000000
1.000000 0.723454 0.000000
1.000000 0.722540 0.000000
1.000000 0.721628 0.000000
1.000000 0.720717 0.000000
0.000000 0.832265 0.000000
0.000000 0.831281 0.000000
0.000000 0.830300 0.000000
0.000000 0.829321 0.000000
0.000000 0.828346 0.000000
0.000000 0.827373 0.000000
0.000000 0.824826 0.000000
0.000000 0.822084 0.000000
0.035960 0.819338 0.000000
0.084901 0.816588 0.000000
0.134012 0.813835 0.000000
0.183290 0.811077 0.000000
0.232731 0.808315 0.000000
0.282332 0.805550 0.000000
0.332088 0.802781 0.000000
0.381998 0.800008 0.000000
0.432056 0.797231 0.000000
0.482260 0.794451 0.000000
0.532607 0.791667 0.000000
0.583093 0.788880 0.000000
0.633715 0.786089 0.000000
0.684471 0.783294 0.000000
0.735356 0.780496 0.000000
0.785213 0.777737 0.000000
0.828938 0.775204 0.000000
0.872492 0.772678 0.000000
0.915868 0.770160 0.000000
0.959058 0.767650 0.000000
1.000000 0.765147 0.000000
1.000000 0.762941 0.000000
1.000000 0.761988 0.000000
1.000000 0.761037 0.000000
1.000000 0.760086 0.000000
0.000000 0.870245 0.000000
0.000000 0.869318 0.000000
0.000000 0.868392 0.000000
0.000000 0.867466 0.000000
0.000000 0.866540 0.000000
0.000000 0.865615 0.000000
0.000000 0.863103 0.000000
0.000000 0.860394 0.000000
0.032219 0.857678 0.000000
0.081434 0.854957 0.000000
0.130812 0.852229 0.000000
0.180349 0.849495 0.000000
0.230042 0.846756 0.000000
0.279886 0.844010 0.000000
0.329880 0.841259 0.000000
0.380019 0.838502 0.000000
0.430300 0.835740 0.000000
0.480720 0.832972 0.000000
0.531276 0.830198 0.000000
0.581965 0.827419 0.000000
0.632783 0.824634 0.000000
0.683728 0.821844 0.000000
0.734796 0.819048 0.000000
0.784378 0.816306 0.000000
0.827776 0.813790 0.000000
0.870989 0.811280 0.000000
0.914009 0.808775 0.000000
0.956831 0.806277 0.000000
0.999446 0.803785 0.000000
1.000000 0.801586 0.000000
1.000000 0.800629 0.000000
1.000000 0.799672 0.000000
1.000000 0.798713 0.000000
0.000000 0.908400 0.000000
0.000000 0.907521 0.000000
0.000000 0.906641 0.000000
0.000000 0.905758 0.000000
0.000000 0.904873 0.000000
0.000000 0.903986 0.000000
0.000000 0.901502 0.000000
0.000000 0.898816 0.000000
0.028446 0.896121 0.000000
0.077924 0.893419 0.000000
0.127557 0.890708 0.000000
0.177342 0.887990 0.000000
0.227275 0.885263 0.000000
0.277353 0.882528 0.000000
0.327573 0.879786 0.000000
0.377932 0.877036 0.000000
0.428426 0.874278 0.000000
0.479052 0.871513 0.000000
0.529808 0.868740 0.000000
