library/cube/Neon_Dystopia_000.cube
# CINEGRADE LAB — Premium Cinematic LUT
# Title: Neon Dystopia
# Category: Cyberpunk Cinema
# Description: Cyan/magenta split with high contrast for futuristic cyberpunk visuals
# Mood: Futuristic, neon, dystopian
# Variant: 1
# Generated: 2026-05-21T16:12:27.636895
TITLE "Neon Dystopia"
LUT_3D_SIZE 9
0.000000 0.033570 0.016170
0.000000 0.031381 0.015130
0.100434 0.025433 0.010316
0.251521 0.017873 0.003875
0.409297 0.010149 0.000000
0.573376 0.002276 0.000000
0.743382 0.000000 0.000000
0.918223 0.000000 0.000000
0.967516 0.000000 0.000000
0.000000 0.026535 0.012940
0.000000 0.024622 0.012126
0.109938 0.018649 0.007234
0.271647 0.010973 0.000623
0.439203 0.003163 0.000000
0.612245 0.000000 0.000000
0.790426 0.000000 0.000000
0.970626 0.000000 0.000000
1.000000 0.000000 0.000000
0.000000 0.153714 0.000000
0.000000 0.151576 0.000000
0.100738 0.145113 0.000000
0.271767 0.136873 0.000000
0.447860 0.128524 0.000000
0.628685 0.120079 0.000000
0.813921 0.111547 0.000000
0.996644 0.103182 0.000000
1.000000 0.099903 0.000000
0.000000 0.328916 0.000000
0.000000 0.326366 0.000000
0.084492 0.319261 0.000000
0.263598 0.310311 0.000000
0.447046 0.301276 0.000000
0.634533 0.292164 0.000000
0.825617 0.282990 0.000000
1.000000 0.274201 0.000000
1.000000 0.270553 0.000000
0.000000 0.500449 0.000000
0.000000 0.497478 0.000000
0.068222 0.489751 0.000000
0.254239 0.480118 0.000000
0.443940 0.470415 0.000000
0.637047 0.460649 0.000000
0.831111 0.450908 0.000000
1.000000 0.441699 0.000000
1.000000 0.437649 0.000000
0.000000 0.668274 0.000000
0.000000 0.664854 0.000000
0.052012 0.656501 0.000000
0.243882 0.646186 0.000000
0.438837 0.635810 0.000000
0.636629 0.625377 0.000000
0.831970 0.615079 0.000000
1.000000 0.605459 0.000000
1.000000 0.600949 0.000000
0.000000 0.832265 0.000000
0.000000 0.828346 0.000000
0.035960 0.819338 0.000000
0.232731 0.808315 0.000000
0.432056 0.797231 0.000000
0.633715 0.786089 0.000000
0.828938 0.775204 0.000000
1.000000 0.765147 0.000000
1.000000 0.760086 0.000000
0.000000 0.985538 0.000000
0.000000 0.982180 0.000000
0.020794 0.973470 0.000000
0.221512 0.962569 0.000000
0.424339 0.951482 0.000000
0.629089 0.940213 0.000000
0.823118 0.929228 0.000000
0.989980 0.919128 0.000000
1.000000 0.913760 0.000000
0.000000 1.000000 0.000000
0.000000 1.000000 0.000000
0.023390 0.994827 0.000000
0.227428 0.983392 0.000000
0.433197 0.971759 0.000000
0.640552 0.959933 0.000000
0.832857 0.948526 0.000000
0.992313 0.938191 0.000000
1.000000 0.932381 0.000000
0.000000 0.032817 0.015809
0.000000 0.030657 0.014792
0.101432 0.024705 0.009970
0.253656 0.017131 0.003509
0.412482 0.009396 0.000000
0.577526 0.001515 0.000000
0.748414 0.000000 0.000000
0.923920 0.000000 0.000000
0.973093 0.000000 0.000000
0.000000 0.025876 0.012656
0.000000 0.023991 0.011864
0.110851 0.018017 0.006965
0.273555 0.010332 0.000340
0.442024 0.002515 0.000000
0.615900 0.000000 0.000000
0.794838 0.000000 0.000000
0.975422 0.000000 0.000000
1.000000 0.000000 0.000000
0.000000 0.152979 0.000000
0.000000 0.150868 0.000000
0.101599 0.144408 0.000000
0.273489 0.136162 0.000000
0.450368 0.127812 0.000000
0.631907 0.119366 0.000000
0.817787 0.110836 0.000000
1.000000 0.102492 0.000000
1.000000 0.099244 0.000000
0.000000 0.328041 0.000000
0.000000 0.325517 0.000000
0.085316 0.318418 0.000000
0.265161 0.309466 0.000000
0.449279 0.300431 0.000000
0.637370 0.291321 0.000000
0.828829 0.282156 0.000000
1.000000 0.273391 0.000000
1.000000 0.269772 0.000000
0.000000 0.499432 0.000000
0.000000 0.496485 0.000000
0.069016 0.488763 0.000000
0.255662 0.479130 0.000000
0.445927 0.469428 0.000000
0.639539 0.459664 0.000000
0.833795 0.449935 0.000000
1.000000 0.440754 0.000000
1.000000 0.436730 0.000000
0.000000 0.667105 0.000000
0.000000 0.663706 0.000000
0.052786 0.655357 0.000000
0.245183 0.645041 0.000000
0.440609 0.634664 0.000000
0.638817 0.624232 0.000000
0.834193 0.613945 0.000000
1.000000 0.604354 0.000000
1.000000 0.599864 0.000000
0.000000 0.830929 0.000000
0.000000 0.827024 0.000000
0.036725 0.818018 0.000000
0.233933 0.806990 0.000000
0.433645 0.795902 0.000000
0.635645 0.784755 0.000000
0.830783 0.773879 0.000000
1.000000 0.763847 0.000000
1.000000 0.758798 0.000000
0.000000 0.984410 0.000000
0.000000 0.981015 0.000000
0.021519 0.972257 0.000000
0.222602 0.961306 0.000000
0.425752 0.950170 0.000000
0.630786 0.938853 0.000000
0.824658 0.927836 0.000000
0.990819 0.917723 0.000000
1.000000 0.912325 0.000000
0.000000 1.000000 0.000000
0.000000 1.000000 0.000000
0.024119 0.993477 0.000000
0.228458 0.981985 0.000000
0.434495 0.970297 0.000000
0.642090 0.958417 0.000000
0.834205 0.946971 0.000000
0.992858 0.936620 0.000000
1.000000 0.930773 0.000000
0.000000 0.030195 0.169772
0.000000 0.028070 0.168152
0.100556 0.022121 0.162733
0.253910 0.014540 0.155706
0.413777 0.006802 0.148544
0.579777 0.000000 0.141259
0.751539 0.000000 0.133864
0.927689 0.000000 0.126408
0.976742 0.000000 0.123720
0.000000 0.023371 0.164744
0.000000 0.021520 0.163477
0.109913 0.015550 0.158113
0.273603 0.007862 0.151051
0.442975 0.000043 0.143880
0.617677 0.000000 0.136612
0.797365 0.000000 0.129257
0.978305 0.000000 0.121952
1.000000 0.000000 0.119641
0.000000 0.150416 0.142889
0.000000 0.148337 0.142025
0.100623 0.141883 0.136804
0.273366 0.133637 0.129809
0.451023 0.125287 0.122727
0.633267 0.116844 0.115572
0.819781 0.108318 0.108352
1.000000 0.099999 0.101358
1.000000 0.096784 0.099488
0.000000 0.325352 0.115786
0.000000 0.322857 0.115333
0.084315 0.315765 0.110300
0.264890 0.306814 0.103427
0.449670 0.297781 0.096489
0.638355 0.288674 0.089498
0.830171 0.279520 0.082481
1.000000 0.270781 0.075902
1.000000 0.267191 0.074497
0.000000 0.496608 0.090359
0.000000 0.493687 0.090304
0.067993 0.485972 0.085476
0.255257 0.476339 0.078753
0.446078 0.466638 0.071987
0.640184 0.456877 0.065186
0.834615 0.447160 0.058459
1.000000 0.438006 0.052327
1.000000 0.434006 0.051382
0.000000 0.664133 0.066561
0.000000 0.660754 0.066893
0.051746 0.652410 0.062288
0.244660 0.642092 0.055743
0.440546 0.631714 0.049174
0.639161 0.621280 0.042588
0.834558 0.611004 0.036203
1.000000 0.601439 0.030573
1.000000 0.596966 0.030087
0.000000 0.827787 0.044358
0.000000 0.823896 0.045066
0.035674 0.814888 0.040703
0.233309 0.803855 0.034362
0.433399 0.792760 0.028014
0.635730 0.781605 0.021665
0.830771 0.770736 0.015664
1.000000 0.760726 0.010590
1.000000 0.755683 0.010558
0.000000 0.981454 0.024521
0.000000 0.978021 0.025457
0.020425 0.969213 0.021226
0.221863 0.958209 0.015005
0.425326 0.947020 0.008806
0.630635 0.935653 0.002633
0.824341 0.924599 0.000000
0.989787 0.914470 0.000000
1.000000 0.909038 0.000000
0.000000 1.000000 0.023461
0.000000 0.999591 0.024720
0.023019 0.990282 0.020719
0.227650 0.978730 0.014704
0.433946 0.966982 0.008720
0.641774 0.955044 0.002769
0.833694 0.943555 0.000000
0.991530 0.933184 0.000000
1.000000 0.927293 0.000000
0.000000 0.026868 0.382358
0.000000 0.024781 0.379927
0.098963 0.018838 0.373719
0.253433 0.011254 0.365947
0.414330 0.003514 0.358094
0.581275 0.000000 0.350173
0.753900 0.000000 0.342195
0.930667 0.000000 0.334215
0.979596 0.000000 0.331080
0.000000 0.020169 0.374812
0.000000 0.018353 0.372910
0.108264 0.012391 0.366936
0.272928 0.004701 0.359305
0.443193 0.000000 0.351619
0.618709 0.000000 0.343886
0.799136 0.000000 0.336119
0.980403 0.000000 0.328464
1.000000 0.000000 0.325867
0.000000 0.147162 0.351047
0.000000 0.145116 0.349717
0.098943 0.138671 0.344056
0.272527 0.130425 0.336661
0.450950 0.122077 0.329231
0.633888 0.113638 0.321776
0.821027 0.105117 0.314305
1.000000 0.096824 0.307128
1.000000 0.093642 0.305128
0.000000 0.321975 0.322601
0.000000 0.319510 0.321844
0.082612 0.312426 0.316533
0.263907 0.303477 0.309422
0.449337 0.294446 0.302295
0.638607 0.285343 0.295162
0.830762 0.276200 0.288056
1.000000 0.267488 0.281447
1.000000 0.263927 0.280059
0.000000 0.493099 0.296366
0.000000 0.490203 0.296162
0.066271 0.482495 0.291212
0.254142 0.472862 0.284405
0.445508 0.463163 0.277601
0.640100 0.453403 0.270808
0.834689 0.443699 0.264142
1.000000 0.434571 0.258128
1.000000 0.430595 0.257342
0.000000 0.660475 0.272272
0.000000 0.657116 0.272601
0.050007 0.648774 0.268022
0.243428 0.638454 0.261541
0.439765 0.628074 0.255078
0.638778 0.617638 0.248641
0.834181 0.607373 0.242459
1.000000 0.597832 0.237089
1.000000 0.593375 0.236892
0.000000 0.823956 0.250260
0.000000 0.820077 0.251107
0.033924 0.811067 0.246909
0.231977 0.800026 0.240771
0.432435 0.788923 0.234666
0.635089 0.777760 0.228598
0.830024 0.766895 0.222932
1.000000 0.756906 0.218248
1.000000 0.751868 0.218628
0.000000 0.977789 0.231027
0.000000 0.974315 0.232239
0.018632 0.965457 0.228312
0.220417 0.954399 0.222428
0.424184 0.943157 0.216604
0.629762 0.931737 0.210841
0.823296 0.920645 0.205647
0.988012 0.910499 0.201633
1.000000 0.905030 0.202533
0.000000 0.999604 0.231043
0.000000 0.995735 0.232701
0.021216 0.986368 0.229125
0.226132 0.974754 0.223567
0.432682 0.962945 0.218072
0.640737 0.950946 0.212643
0.832460 0.939412 0.207930
0.989469 0.929019 0.204603
1.000000 0.923083 0.205977
0.000000 0.023557 0.594369
0.000000 0.021508 0.591164
0.097367 0.015572 0.584203
0.252939 0.007983 0.575721
0.414850 0.000242 0.567213
0.582726 0.000000 0.558691
0.756201 0.000000 0.550165
0.933557 0.000000 0.541697
0.982358 0.000000 0.538147
0.000000 0.016983 0.584426
0.000000 0.015201 0.581925
0.106612 0.009246 0.575374
0.272235 0.001554 0.567210
0.443380 0.000000 0.559041
0.619697 0.000000 0.550878
0.800851 0.000000 0.542731
0.982415 0.000000 0.534760
1.000000 0.000000 0.531910
0.000000 0.143921 0.558866
0.000000 0.141907 0.557104
0.097259 0.135470 0.551035
0.271671 0.127225 0.543274
0.450848 0.118879 0.535528
0.634468 0.110443 0.527805
0.822222 0.101927 0.520116
1.000000 0.093661 0.512788
1.000000 0.090512 0.510689
0.000000 0.318610 0.529188
0.000000 0.316175 0.528159
0.080906 0.309099 0.522602
0.262908 0.300151 0.515285
0.448977 0.291122 0.508000
0.638821 0.282023 0.500755
0.831294 0.272891 0.493590
1.000000 0.264204 0.486982
1.000000 0.260672 0.485640
0.000000 0.489599 0.502251
0.000000 0.486729 0.501928
0.064545 0.479026 0.496886
0.253013 0.469394 0.490026
0.444914 0.459696 0.483214
0.639981 0.449937 0.476457
0.834711 0.440245 0.469882
1.000000 0.431144 0.464015
1.000000 0.427191 0.463414
0.000000 0.656824 0.477962
0.000000 0.653484 0.478318
0.048264 0.645145 0.473794
0.242182 0.634822 0.467405
0.438961 0.624439 0.461076
0.638363 0.614001 0.454816
0.833759 0.603745 0.448864
1.000000 0.594229 0.443779
1.000000 0.589786 0.443897
0.000000 0.820129 0.456238
0.000000 0.816261 0.457249
0.032169 0.807248 0.453245
0.230631 0.796199 0.447336
0.431450 0.785088 0.441500
0.634421 0.773915 0.435740
0.829239 0.763054 0.430435
0.999960 0.753084 0.426165
1.000000 0.748051 0.426980
0.000000 0.974109 0.437701
0.000000 0.970595 0.439215
0.016836 0.961685 0.435616
0.218960 0.950573 0.430095
0.423027 0.939278 0.424669
0.628867 0.927804 0.419340
0.822224 0.916676 0.414629
0.986199 0.906511 0.411151
1.000000 0.901006 0.412599
0.000000 0.995781 0.438877
0.000000 0.991861 0.440957
0.019411 0.982434 0.437830
0.224607 0.970758 0.432751
0.431405 0.958889 0.427768
0.639684 0.946829 0.422880
0.831210 0.935250 0.418753
0.987383 0.924834 0.416063
1.000000 0.918854 0.418075
0.000000 0.020263 0.805823
0.000000 0.018252 0.801880
0.095768 0.012321 0.794203
0.252427 0.004729 0.785047
0.415339 0.000000 0.775919
0.584131 0.000000 0.766831
0.758443 0.000000 0.757792
0.936360 0.000000 0.748869
0.985029 0.000000 0.744939
0.000000 0.013810 0.793604
0.000000 0.012064 0.790537
0.104957 0.006115 0.783445
0.271526 0.000000 0.774781
0.443536 0.000000 0.766165
0.620642 0.000000 0.757605
0.802510 0.000000 0.749111
0.984341 0.000000 0.740856
1.000000 0.000000 0.737786
0.000000 0.140694 0.766364
0.000000 0.138712 0.764202
0.095571 0.132283 0.757760
0.270799 0.124037 0.749665
0.450717 0.115693 0.741635
0.635008 0.107261 0.733677
0.823364 0.098750 0.725800
1.000000 0.090511 0.718353
1.000000 0.087393 0.716184
0.000000 0.315257 0.735564
0.000000 0.312850 0.734295
0.079196 0.305782 0.728523
0.261892 0.296834 0.721031
0.448590 0.287808 0.713619
0.638997 0.278712 0.706292
0.831770 0.269592 0.699099
1.000000 0.260931 0.692521
1.000000 0.257427 0.691255
0.000000 0.486109 0.708030
0.000000 0.483263 0.707618
0.062814 0.475566 0.702514
0.251867 0.465934 0.695631
0.444293 0.456236 0.688841
0.639827 0.446479 0.682149
0.834682 0.436798 0.675692
1.000000 0.427724 0.670001
1.000000 0.423793 0.669612
0.000000 0.653179 0.683646
0.000000 0.649857 0.684058
0.046516 0.641521 0.679616
0.240921 0.631195 0.673348
0.438133 0.620809 0.667182
0.637917 0.610367 0.661125
0.833293 0.600121 0.655430
1.000000 0.590629 0.650657
1.000000 0.586200 0.651116
0.000000 0.816306 0.662304
0.000000 0.812448 0.663508
0.030409 0.803432 0.659724
0.229272 0.792374 0.654071
0.430445 0.781253 0.648529
0.633725 0.770070 0.643104
0.828417 0.759212 0.638183
0.998504 0.749262 0.634352
1.000000 0.744231 0.635626
0.000000 0.970415 0.644556
0.000000 0.966860 0.646397
0.015037 0.957899 0.643151
0.217493 0.946732 0.638017
0.421853 0.935383 0.633014
0.627951 0.923856 0.628142
0.821126 0.912690 0.623937
0.984350 0.902507 0.621016
1.000000 0.896964 0.623032
0.000000 0.991939 0.646975
0.000000 0.987968 0.649502
0.017604 0.978481 0.646846
0.223073 0.966744 0.642268
0.430117 0.954813 0.637817
0.638617 0.942693 0.633492
0.829946 0.931068 0.629970
0.985276 0.920629 0.627935
1.000000 0.914604 0.630600
0.000000 0.017015 1.000000
0.000000 0.015039 1.000000
0.094195 0.009114 1.000000
0.251924 0.001517 0.991666
0.415823 0.000000 0.981950
0.585519 0.000000 0.972313
0.760655 0.000000 0.962769
0.939104 0.000000 0.953396
0.987636 0.000000 0.949088
0.000000 0.010681 1.000000
0.000000 0.008968 0.996480
0.103327 0.003026 0.988860
0.270827 0.000000 0.979703
0.443691 0.000000 0.970642
0.621574 0.000000 0.961689
0.804145 0.000000 0.952853
0.986210 0.000000 0.944326
1.000000 0.000000 0.941051
0.000000 0.137508 0.971213
0.000000 0.135558 0.968655
0.093909 0.129136 0.961841
0.269939 0.120892 0.953420
0.450588 0.112550 0.945118
0.635538 0.104121 0.936945
0.824486 0.095614 0.928907
1.000000 0.087402 0.921378
1.000000 0.084316 0.919186
0.000000 0.311944 0.939306
0.000000 0.309566 0.937811
0.077511 0.302505 0.931848
0.260891 0.293558 0.924212
0.448205 0.284534 0.916711
0.639165 0.275440 0.909352
0.832218 0.266331 0.902188
1.000000 0.257696 0.895706
1.000000 0.254219 0.894588
0.000000 0.482658 0.911256
0.000000 0.479835 0.910798
0.061107 0.472144 0.905683
0.250736 0.462511 0.898838
0.443676 0.452812 0.892136
0.639667 0.443055 0.885585
0.834629 0.433385 0.879327
1.000000 0.424337 0.873896
1.000000 0.420426 0.873805
0.000000 0.649570 0.886954
0.000000 0.646265 0.887492
0.044791 0.637930 0.883211
0.239674 0.627600 0.877144
0.437309 0.617209 0.871226
0.637466 0.606763 0.865459
0.832807 0.596525 0.860106
1.000000 0.587057 0.855728
1.000000 0.582640 0.856604
0.000000 0.812512 0.866255
0.000000 0.808664 0.867737
0.028670 0.799642 0.864259
0.227925 0.788574 0.858946
0.429443 0.777442 0.853779
0.633025 0.766248 0.848761
0.827583 0.755392 0.844291
0.997021 0.745460 0.840953
1.000000 0.740431 0.842725
0.000000 0.966730 0.849581
0.000000 0.963133 0.851827
0.013259 0.954120 0.849007
0.216040 0.942898 0.844321
0.420687 0.931495 0.839789
0.627038 0.919915 0.835409
0.820027 0.908710 0.831727
0.982489 0.898510 0.829364
1.000000 0.892930 0.831927
0.000000 0.988101 0.853473
0.000000 0.984078 0.856490
0.015818 0.974531 0.854335
0.221555 0.962732 0.850269
0.428840 0.950740 0.846344
0.637560 0.938560 0.842553
0.828693 0.926890 0.839587
0.983173 0.916431 0.838136
1.000000 0.910360 0.841365
0.000000 0.014625 1.000000
0.000000 0.012627 1.000000
0.093351 0.006654 1.000000
0.252087 0.000000 1.000000
0.416911 0.000000 1.000000
0.587455 0.000000 1.000000
0.763362 0.000000 1.000000
0.942279 0.000000 1.000000
0.990637 0.000000 1.000000
0.000000 0.008230 1.000000
0.000000 0.006506 1.000000
0.102271 0.000529 1.000000
0.270653 0.000000 1.000000
0.444321 0.000000 1.000000
0.622938 0.000000 1.000000
0.806173 0.000000 1.000000
0.988419 0.000000 1.000000
1.000000 0.000000 1.000000
0.000000 0.134862 1.000000
0.000000 0.132910 1.000000
0.092707 0.126467 1.000000
0.269502 0.118197 1.000000
0.450846 0.109835 1.000000
0.636426 0.101390 1.000000
0.825940 0.092873 1.000000
1.000000 0.084679 1.000000
1.000000 0.081616 1.000000
0.000000 0.309073 1.000000
0.000000 0.306702 1.000000
0.076214 0.299631 1.000000
0.260253 0.290672 1.000000
0.448163 0.281639 1.000000
0.639658 0.272541 1.000000
0.832971 0.263440 1.000000
1.000000 0.254831 1.000000
1.000000 0.251384 1.000000
0.000000 0.479591 1.000000
0.000000 0.476782 1.000000
0.059758 0.469091 1.000000
0.249950 0.459455 1.000000
0.443396 0.449757 1.000000
0.639839 0.440005 1.000000
0.834900 0.430354 1.000000
1.000000 0.421343 1.000000
1.000000 0.417466 1.000000
0.000000 0.646328 1.000000
0.000000 0.643042 1.000000
0.043430 0.634713 1.000000
0.238790 0.624387 1.000000
0.436853 0.614005 1.000000
0.637390 0.603568 1.000000
0.832704 0.593357 1.000000
1.000000 0.583933 1.000000
1.000000 0.579552 1.000000
0.000000 0.809105 1.000000
0.000000 0.805278 1.000000
0.027339 0.796267 1.000000
0.226998 0.785208 1.000000
0.428876 0.774087 1.000000
0.632779 0.762905 1.000000
0.827222 0.752078 1.000000
0.996027 0.742194 1.000000
1.000000 0.737196 1.000000
0.000000 0.963471 1.000000
0.000000 0.959854 1.000000
0.011967 0.950815 1.000000
0.215095 0.939567 1.000000
0.420053 0.928139 1.000000
0.626685 0.916538 0.995262
0.819521 0.905330 0.989247
0.981247 0.895149 0.984422
1.000000 0.889570 0.984359
0.000000 0.984772 1.000000
0.000000 0.980728 1.000000
0.014622 0.971156 1.000000
0.220660 0.959331 1.000000
0.428220 0.947316 1.000000
0.637197 0.935114 0.993959
0.828176 0.923440 0.988182
0.981843 0.913003 0.983820
1.000000 0.906932 0.984000
0.000000 0.013587 1.000000
0.000000 0.011608 1.000000
0.093918 0.005624 1.000000
0.253682 0.000000 1.000000
0.419450 0.000000 1.000000
0.590858 0.000000 1.000000
0.767552 0.000000 1.000000
0.946932 0.000000 1.000000
0.995135 0.000000 1.000000
0.000000 0.007256 1.000000
0.000000 0.005551 1.000000
0.102735 0.000000 1.000000
0.272010 0.000000 1.000000
0.446496 0.000000 1.000000
0.625855 0.000000 1.000000
0.809762 0.000000 1.000000
0.992175 0.000000 1.000000
1.000000 0.000000 1.000000
0.000000 0.133788 1.000000
0.000000 0.131857 1.000000
0.093105 0.125413 1.000000
0.270671 0.117136 1.000000
0.452715 0.108770 1.000000
0.638927 0.100324 1.000000
0.829007 0.091807 1.000000
1.000000 0.083639 1.000000
1.000000 0.080606 1.000000
0.000000 0.307842 1.000000
0.000000 0.305492 1.000000
0.076570 0.298424 1.000000
0.261266 0.289462 1.000000
0.449769 0.280428 1.000000
0.641796 0.271332 1.000000
0.835352 0.262243 1.000000
1.000000 0.253661 1.000000
1.000000 0.250243 1.000000
0.000000 0.478202 1.000000
0.000000 0.475414 1.000000
0.060086 0.467727 1.000000
0.250833 0.458091 1.000000
0.444777 0.448395 1.000000
0.641661 0.438645 1.000000
0.836802 0.429009 1.000000
1.000000 0.420029 1.000000
1.000000 0.416178 1.000000
0.000000 0.644777 1.000000
0.000000 0.641509 1.000000
0.043747 0.633184 1.000000
0.239572 0.622858 1.000000
0.438046 0.612475 1.000000
0.638947 0.602040 1.000000
0.834211 0.591844 1.000000
1.000000 0.582452 1.000000
1.000000 0.578090 1.000000
0.000000 0.807377 1.000000
0.000000 0.803562 1.000000
0.027663 0.794553 1.000000
0.227706 0.783490 1.000000
0.429924 0.772366 1.000000
0.634126 0.761181 1.000000
0.828431 0.750365 1.000000
0.996571 0.740509 1.000000
1.000000 0.735523 1.000000
0.000000 0.961840 1.000000
0.000000 0.958190 1.000000
0.012287 0.949108 1.000000
0.215737 0.937815 1.000000
0.420983 0.926345 1.000000
0.627870 0.914702 1.000000
0.820527 0.903468 1.000000
0.981483 0.893282 1.000000
1.000000 0.887679 1.000000
0.000000 0.983015 1.000000
0.000000 0.978930 1.000000
0.014974 0.969310 1.000000
0.221284 0.957436 1.000000
0.429092 0.945373 1.000000
0.638297 0.933125 1.000000
0.829098 0.921419 1.000000
0.981917 0.910975 1.000000
1.000000 0.904874 1.000000
