library/cube/Neon_Drift_001.cube
# CINEGRADE LAB — Premium Cinematic LUT
# Title: Neon Drift
# Category: Night Neon
# Description: Cyberpunk-inspired with neon glow enhancement and deep shadow work
# Mood: Electric, urban, futuristic
# Variant: 2
# Generated: 2026-05-21T16:12:22.140170
TITLE "Neon Drift"
LUT_3D_SIZE 33
0.000000 0.012810 0.015622
0.000000 0.012640 0.015415
0.000000 0.012471 0.015210
0.000000 0.012304 0.015006
0.000000 0.012138 0.014803
0.004180 0.011843 0.014472
0.050681 0.010555 0.013147
0.097436 0.009261 0.011818
0.144444 0.007962 0.010484
0.191701 0.006659 0.009145
0.239205 0.005350 0.007802
0.286954 0.004037 0.006454
0.334943 0.002719 0.005101
0.383172 0.001397 0.003744
0.431637 0.000070 0.002383
0.480335 0.000000 0.001018
0.529264 0.000000 0.000000
0.578422 0.000000 0.000000
0.627805 0.000000 0.000000
0.677410 0.000000 0.000000
0.727237 0.000000 0.000000
0.777280 0.000000 0.000000
0.827539 0.000000 0.000000
0.878010 0.000000 0.000000
0.928691 0.000000 0.000000
0.960062 0.000000 0.000000
0.962258 0.000000 0.000000
0.964436 0.000000 0.000000
0.966597 0.000000 0.000000
0.968740 0.000000 0.000000
0.970866 0.000000 0.000000
0.972974 0.000000 0.000000
0.975064 0.000000 0.000000
0.000000 0.012243 0.014932
0.000000 0.012078 0.014729
0.000000 0.011913 0.014528
0.000000 0.011749 0.014329
0.000000 0.011587 0.014131
0.004283 0.011295 0.013803
0.051209 0.010000 0.012473
0.098383 0.008700 0.011138
0.145803 0.007395 0.009799
0.193467 0.006085 0.008455
0.241372 0.004771 0.007106
0.289515 0.003452 0.005753
0.337894 0.002129 0.004396
0.386506 0.000801 0.003035
0.435347 0.000000 0.001669
0.484417 0.000000 0.000299
0.533711 0.000000 0.000000
0.583228 0.000000 0.000000
0.632964 0.000000 0.000000
0.682917 0.000000 0.000000
0.733084 0.000000 0.000000
0.783464 0.000000 0.000000
0.834052 0.000000 0.000000
0.884846 0.000000 0.000000
0.935844 0.000000 0.000000
0.967379 0.000000 0.000000
0.969516 0.000000 0.000000
0.971635 0.000000 0.000000
0.973737 0.000000 0.000000
0.975821 0.000000 0.000000
0.977888 0.000000 0.000000
0.979937 0.000000 0.000000
0.981968 0.000000 0.000000
0.000000 0.011690 0.014257
0.000000 0.011528 0.014059
0.000000 0.011367 0.013863
0.000000 0.011207 0.013668
0.000000 0.011049 0.013475
0.004384 0.010759 0.013151
0.051724 0.009458 0.011815
0.099307 0.008152 0.010475
0.147130 0.006841 0.009130
0.195191 0.005526 0.007781
0.243487 0.004206 0.006428
0.292015 0.002881 0.005070
0.340772 0.001552 0.003709
0.389757 0.000219 0.002343
0.438966 0.000000 0.000973
0.488396 0.000000 0.000000
0.538045 0.000000 0.000000
0.587911 0.000000 0.000000
0.637990 0.000000 0.000000
0.688281 0.000000 0.000000
0.738780 0.000000 0.000000
0.789484 0.000000 0.000000
0.840392 0.000000 0.000000
0.891499 0.000000 0.000000
0.942805 0.000000 0.000000
0.974498 0.000000 0.000000
0.976575 0.000000 0.000000
0.978636 0.000000 0.000000
0.980678 0.000000 0.000000
0.982703 0.000000 0.000000
0.984711 0.000000 0.000000
0.986701 0.000000 0.000000
0.988673 0.000000 0.000000
0.000000 0.011149 0.013597
0.000000 0.010991 0.013404
0.000000 0.010834 0.013213
0.000000 0.010678 0.013023
0.000000 0.010523 0.012834
0.004482 0.010237 0.012513
0.052227 0.008929 0.011173
0.100208 0.007617 0.009827
0.148424 0.006301 0.008478
0.196872 0.004980 0.007124
0.245548 0.003655 0.005766
0.294451 0.002325 0.004404
0.343578 0.000991 0.003038
0.392925 0.000000 0.001668
0.442491 0.000000 0.000294
0.492273 0.000000 0.000000
0.542267 0.000000 0.000000
0.592472 0.000000 0.000000
0.642884 0.000000 0.000000
0.693502 0.000000 0.000000
0.744322 0.000000 0.000000
0.795342 0.000000 0.000000
0.846559 0.000000 0.000000
0.897970 0.000000 0.000000
0.949573 0.000000 0.000000
0.981417 0.000000 0.000000
0.983436 0.000000 0.000000
0.985437 0.000000 0.000000
0.987421 0.000000 0.000000
0.989387 0.000000 0.000000
0.991335 0.000000 0.000000
0.993266 0.000000 0.000000
0.995179 0.000000 0.000000
0.000000 0.010622 0.012954
0.000000 0.010467 0.012765
0.000000 0.010314 0.012578
0.000000 0.010162 0.012393
0.000000 0.010011 0.012209
0.004578 0.009727 0.011892
0.052717 0.008414 0.010546
0.101087 0.007096 0.009196
0.149686 0.005774 0.007842
0.198510 0.004448 0.006484
0.247558 0.003117 0.005122
0.296826 0.001783 0.003755
0.346311 0.000444 0.002385
0.396011 0.000000 0.001011
0.445924 0.000000 0.000000
0.496047 0.000000 0.000000
0.546376 0.000000 0.000000
0.596910 0.000000 0.000000
0.647646 0.000000 0.000000
0.698581 0.000000 0.000000
0.749712 0.000000 0.000000
0.801037 0.000000 0.000000
0.852553 0.000000 0.000000
0.904258 0.000000 0.000000
0.956148 0.000000 0.000000
0.988138 0.000000 0.000000
0.990098 0.000000 0.000000
0.992040 0.000000 0.000000
0.993964 0.000000 0.000000
0.995871 0.000000 0.000000
0.997760 0.000000 0.000000
0.999632 0.000000 0.000000
1.000000 0.000000 0.000000
0.000000 0.015156 0.011890
0.000000 0.015004 0.011706
0.000000 0.014853 0.011524
0.000000 0.014703 0.011343
0.000000 0.014554 0.011164
0.003210 0.014296 0.010875
0.052760 0.012952 0.009500
0.101509 0.011627 0.008146
0.150481 0.010299 0.006788
0.199672 0.008966 0.005425
0.249080 0.007629 0.004059
0.298703 0.006288 0.002689
0.348537 0.004943 0.001315
0.398580 0.003595 0.000000
0.448830 0.002242 0.000000
0.499284 0.000886 0.000000
0.549939 0.000000 0.000000
0.600792 0.000000 0.000000
0.651841 0.000000 0.000000
0.703083 0.000000 0.000000
0.754515 0.000000 0.000000
0.806136 0.000000 0.000000
0.857941 0.000000 0.000000
0.909929 0.000000 0.000000
0.962097 0.000000 0.000000
0.994228 0.000000 0.000000
0.996128 0.000000 0.000000
0.998011 0.000000 0.000000
0.999877 0.000000 0.000000
1.000000 0.000000 0.000000
1.000000 0.000000 0.000000
1.000000 0.000000 0.000000
1.000000 0.000000 0.000000
0.000000 0.058333 0.007507
0.000000 0.058172 0.007329
0.000000 0.058013 0.007152
0.000000 0.057855 0.006977
0.000000 0.057698 0.006803
0.000000 0.057431 0.006520
0.039448 0.056312 0.005383
0.098580 0.054728 0.003783
0.147915 0.053383 0.002422
0.197464 0.052034 0.001057
0.247224 0.050681 0.000000
0.297192 0.049324 0.000000
0.347366 0.047964 0.000000
0.397744 0.046600 0.000000
0.448322 0.045232 0.000000
0.499097 0.043861 0.000000
0.550068 0.042486 0.000000
0.601231 0.041108 0.000000
0.652584 0.039726 0.000000
0.704124 0.038341 0.000000
0.755849 0.036953 0.000000
0.807755 0.035562 0.000000
0.859841 0.034167 0.000000
0.912103 0.032770 0.000000
0.964539 0.031369 0.000000
0.996804 0.030458 0.000000
0.998647 0.030284 0.000000
1.000000 0.030112 0.000000
1.000000 0.029942 0.000000
1.000000 0.029773 0.000000
1.000000 0.029605 0.000000
1.000000 0.029440 0.000000
1.000000 0.029276 0.000000
0.000000 0.101441 0.003146
0.000000 0.101272 0.002974
0.000000 0.101105 0.002803
0.000000 0.100940 0.002634
0.000000 0.100775 0.002465
0.000000 0.100500 0.002187
0.036068 0.099366 0.001048
0.076462 0.098229 0.000000
0.145323 0.096404 0.000000
0.195220 0.095040 0.000000
0.245322 0.093672 0.000000
0.295626 0.092300 0.000000
0.346130 0.090925 0.000000
0.396831 0.089546 0.000000
0.447726 0.088164 0.000000
0.498814 0.086779 0.000000
0.550090 0.085390 0.000000
0.601553 0.083998 0.000000
0.653200 0.082603 0.000000
0.705029 0.081205 0.000000
0.757035 0.079804 0.000000
0.809218 0.078401 0.000000
0.861574 0.076994 0.000000
0.914100 0.075584 0.000000
0.966794 0.074172 0.000000
0.999188 0.073252 0.000000
1.000000 0.073074 0.000000
1.000000 0.072898 0.000000
1.000000 0.072724 0.000000
1.000000 0.072551 0.000000
1.000000 0.072380 0.000000
1.000000 0.072211 0.000000
1.000000 0.072044 0.000000
0.000000 0.144483 0.000000
0.000000 0.144308 0.000000
0.000000 0.144134 0.000000
0.000000 0.143961 0.000000
0.000000 0.143790 0.000000
0.000000 0.143507 0.000000
0.032685 0.142359 0.000000
0.073364 0.141208 0.000000
0.114209 0.140055 0.000000
0.192940 0.137986 0.000000
0.243373 0.136604 0.000000
0.294003 0.135218 0.000000
0.344827 0.133829 0.000000
0.395841 0.132437 0.000000
0.447045 0.131041 0.000000
0.498434 0.129643 0.000000
0.550006 0.128241 0.000000
0.601759 0.126837 0.000000
0.653690 0.125430 0.000000
0.705796 0.124019 0.000000
0.758075 0.122607 0.000000
0.810523 0.121191 0.000000
0.863139 0.119773 0.000000
0.915920 0.118352 0.000000
0.968862 0.116929 0.000000
1.000000 0.116001 0.000000
1.000000 0.115820 0.000000
1.000000 0.115640 0.000000
1.000000 0.115463 0.000000
1.000000 0.115287 0.000000
1.000000 0.115113 0.000000
1.000000 0.114941 0.000000
1.000000 0.114771 0.000000
0.000000 0.187463 0.000000
0.000000 0.187281 0.000000
0.000000 0.187100 0.000000
0.000000 0.186921 0.000000
0.000000 0.186744 0.000000
0.000000 0.186454 0.000000
0.029297 0.185293 0.000000
0.070253 0.184130 0.000000
0.111371 0.182964 0.000000
0.152649 0.181796 0.000000
0.194084 0.180625 0.000000
0.292324 0.178082 0.000000
0.343457 0.176680 0.000000
0.394775 0.175275 0.000000
0.446276 0.173867 0.000000
0.497957 0.172456 0.000000
0.549815 0.171043 0.000000
0.601848 0.169627 0.000000
0.654053 0.168208 0.000000
0.706427 0.166786 0.000000
0.758967 0.165362 0.000000
0.811672 0.163936 0.000000
0.864537 0.162507 0.000000
0.917562 0.161076 0.000000
0.970742 0.159643 0.000000
1.000000 0.158708 0.000000
1.000000 0.158524 0.000000
1.000000 0.158342 0.000000
1.000000 0.158162 0.000000
1.000000 0.157984 0.000000
1.000000 0.157807 0.000000
1.000000 0.157633 0.000000
1.000000 0.157461 0.000000
0.000000 0.230383 0.000000
0.000000 0.230195 0.000000
0.000000 0.230009 0.000000
0.000000 0.229824 0.000000
0.000000 0.229641 0.000000
0.000000 0.229345 0.000000
0.025905 0.228172 0.000000
0.067130 0.226997 0.000000
0.108512 0.225820 0.000000
0.150049 0.224640 0.000000
0.191739 0.223458 0.000000
0.233579 0.222275 0.000000
0.342020 0.219481 0.000000
0.393632 0.218064 0.000000
0.445421 0.216645 0.000000
0.497383 0.215223 0.000000
0.549517 0.213798 0.000000
0.601819 0.212371 0.000000
0.654288 0.210941 0.000000
0.706919 0.209510 0.000000
0.759712 0.208075 0.000000
0.812662 0.206639 0.000000
0.865768 0.205201 0.000000
0.919026 0.203760 0.000000
0.972435 0.202317 0.000000
1.000000 0.201376 0.000000
1.000000 0.201190 0.000000
1.000000 0.201006 0.000000
1.000000 0.200824 0.000000
1.000000 0.200644 0.000000
1.000000 0.200466 0.000000
1.000000 0.200290 0.000000
1.000000 0.200116 0.000000
0.000000 0.273247 0.000000
0.000000 0.273054 0.000000
0.000000 0.272863 0.000000
0.000000 0.272673 0.000000
0.000000 0.272485 0.000000
0.000000 0.272183 0.000000
0.022509 0.270999 0.000000
0.063994 0.269813 0.000000
0.105632 0.268625 0.000000
0.147420 0.267434 0.000000
0.189356 0.266242 0.000000
0.231437 0.265049 0.000000
0.273662 0.263853 0.000000
0.392412 0.260808 0.000000
0.444478 0.259378 0.000000
0.496712 0.257945 0.000000
0.549111 0.256510 0.000000
0.601673 0.255073 0.000000
0.654395 0.253634 0.000000
0.707275 0.252192 0.000000
0.760309 0.250749 0.000000
0.813495 0.249303 0.000000
0.866830 0.247856 0.000000
0.920312 0.246407 0.000000
0.973939 0.244956 0.000000
1.000000 0.244009 0.000000
1.000000 0.243822 0.000000
1.000000 0.243636 0.000000
1.000000 0.243453 0.000000
1.000000 0.243272 0.000000
1.000000 0.243092 0.000000
1.000000 0.242915 0.000000
1.000000 0.242741 0.000000
0.000000 0.316059 0.000000
0.000000 0.315861 0.000000
0.000000 0.315665 0.000000
0.000000 0.315470 0.000000
0.000000 0.315278 0.000000
0.000000 0.314972 0.000000
0.019107 0.313777 0.000000
0.060845 0.312581 0.000000
0.102730 0.311382 0.000000
0.144761 0.310183 0.000000
0.186934 0.308981 0.000000
0.229249 0.307778 0.000000
0.271702 0.306573 0.000000
0.314292 0.305367 0.000000
0.443447 0.302068 0.000000
0.495943 0.300626 0.000000
0.548597 0.299182 0.000000
0.601409 0.297736 0.000000
0.654375 0.296287 0.000000
0.707492 0.294837 0.000000
0.760757 0.293385 0.000000
0.814169 0.291932 0.000000
0.867724 0.290477 0.000000
0.921420 0.289020 0.000000
0.975254 0.287561 0.000000
1.000000 0.286610 0.000000
1.000000 0.286421 0.000000
1.000000 0.286235 0.000000
1.000000 0.286051 0.000000
1.000000 0.285869 0.000000
1.000000 0.285690 0.000000
1.000000 0.285513 0.000000
1.000000 0.285337 0.000000
0.000000 0.358820 0.000000
0.000000 0.358618 0.000000
0.000000 0.358418 0.000000
0.000000 0.358220 0.000000
0.000000 0.358024 0.000000
0.000000 0.357713 0.000000
0.015700 0.356509 0.000000
0.057682 0.355304 0.000000
0.099807 0.354096 0.000000
0.142072 0.352888 0.000000
0.184475 0.351677 0.000000
0.227014 0.350466 0.000000
0.269687 0.349253 0.000000
0.312492 0.348039 0.000000
0.355427 0.346823 0.000000
0.495075 0.343270 0.000000
0.547976 0.341817 0.000000
0.601027 0.340362 0.000000
0.654226 0.338906 0.000000
0.707570 0.337448 0.000000
0.761058 0.335989 0.000000
0.814685 0.334528 0.000000
0.868450 0.333066 0.000000
0.922350 0.331602 0.000000
0.976381 0.330137 0.000000
1.000000 0.329182 0.000000
1.000000 0.328993 0.000000
1.000000 0.328807 0.000000
1.000000 0.328623 0.000000
1.000000 0.328441 0.000000
1.000000 0.328261 0.000000
1.000000 0.328084 0.000000
1.000000 0.327910 0.000000
0.000000 0.401535 0.000000
0.000000 0.401330 0.000000
0.000000 0.401127 0.000000
0.000000 0.400926 0.000000
0.000000 0.400726 0.000000
0.000000 0.400412 0.000000
0.012287 0.399199 0.000000
0.054505 0.397985 0.000000
0.096861 0.396769 0.000000
0.139352 0.395553 0.000000
0.181977 0.394335 0.000000
0.224733 0.393115 0.000000
0.267618 0.391895 0.000000
0.310629 0.390673 0.000000
0.353766 0.389451 0.000000
0.397024 0.388228 0.000000
0.547245 0.384418 0.000000
0.600526 0.382956 0.000000
0.653949 0.381493 0.000000
0.707511 0.380028 0.000000
0.761209 0.378562 0.000000
0.815042 0.377095 0.000000
0.869007 0.375626 0.000000
0.923100 0.374157 0.000000
0.977320 0.372686 0.000000
1.000000 0.371727 0.000000
1.000000 0.371539 0.000000
1.000000 0.371353 0.000000
1.000000 0.371170 0.000000
1.000000 0.370989 0.000000
1.000000 0.370810 0.000000
1.000000 0.370634 0.000000
1.000000 0.370461 0.000000
0.000000 0.444207 0.000000
0.000000 0.443999 0.000000
0.000000 0.443793 0.000000
0.000000 0.443590 0.000000
0.000000 0.443388 0.000000
0.000000 0.443070 0.000000
0.008868 0.441850 0.000000
0.051314 0.440628 0.000000
0.093893 0.439405 0.000000
0.136602 0.438181 0.000000
0.179440 0.436956 0.000000
0.222404 0.435730 0.000000
0.265493 0.434503 0.000000
0.308703 0.433275 0.000000
0.352033 0.432046 0.000000
0.395480 0.430817 0.000000
0.439043 0.429587 0.000000
0.599906 0.425521 0.000000
0.653542 0.424051 0.000000
0.707312 0.422580 0.000000
0.761212 0.421108 0.000000
0.815241 0.419636 0.000000
0.869394 0.418162 0.000000
0.923671 0.416687 0.000000
0.978068 0.415211 0.000000
1.000000 0.414251 0.000000
1.000000 0.414064 0.000000
1.000000 0.413879 0.000000
1.000000 0.413697 0.000000
1.000000 0.413517 0.000000
1.000000 0.413340 0.000000
1.000000 0.413165 0.000000
1.000000 0.412993 0.000000
0.000000 0.486839 0.000000
0.000000 0.486629 0.000000
0.000000 0.486421 0.000000
0.000000 0.486215 0.000000
0.000000 0.486012 0.000000
0.000000 0.485692 0.000000
0.005443 0.484464 0.000000
0.048109 0.483236 0.000000
0.090902 0.482006 0.000000
0.133822 0.480776 0.000000
0.176864 0.479544 0.000000
0.220029 0.478312 0.000000
0.263312 0.477080 0.000000
0.306712 0.475846 0.000000
0.350228 0.474612 0.000000
0.393856 0.473378 0.000000
0.437595 0.472143 0.000000
0.481442 0.470907 0.000000
0.653007 0.466584 0.000000
0.706974 0.465108 0.000000
0.761066 0.463631 0.000000
0.815279 0.462154 0.000000
0.869613 0.460675 0.000000
0.924063 0.459196 0.000000
0.978628 0.457717 0.000000
1.000000 0.456755 0.000000
1.000000 0.456569 0.000000
1.000000 0.456386 0.000000
1.000000 0.456206 0.000000
1.000000 0.456028 0.000000
1.000000 0.455853 0.000000
1.000000 0.455681 0.000000
1.000000 0.455511 0.000000
0.000000 0.529433 0.000000
0.000000 0.529222 0.000000
0.000000 0.529013 0.000000
0.000000 0.528806 0.000000
0.000000 0.528601 0.000000
0.000000 0.528280 0.000000
0.002012 0.527046 0.000000
0.044889 0.525811 0.000000
0.087889 0.524576 0.000000
0.131010 0.523340 0.000000
0.174249 0.522103 0.000000
0.217605 0.520866 0.000000
0.261075 0.519629 0.000000
0.304658 0.518391 0.000000
0.348351 0.517152 0.000000
0.392151 0.515913 0.000000
0.436057 0.514674 0.000000
0.480067 0.513435 0.000000
0.524178 0.512195 0.000000
0.706497 0.507614 0.000000
0.760770 0.506133 0.000000
0.815159 0.504652 0.000000
0.869661 0.503170 0.000000
0.924275 0.501688 0.000000
0.978997 0.500205 0.000000
1.000000 0.499242 0.000000
1.000000 0.499059 0.000000
1.000000 0.498879 0.000000
1.000000 0.498701 0.000000
1.000000 0.498526 0.000000
1.000000 0.498354 0.000000
1.000000 0.498184 0.000000
1.000000 0.498017 0.000000
0.000000 0.571995 0.000000
0.000000 0.571782 0.000000
0.000000 0.571572 0.000000
0.000000 0.571365 0.000000
0.000000 0.571160 0.000000
0.000000 0.570837 0.000000
0.000000 0.569598 0.000000
0.041654 0.568358 0.000000
0.084852 0.567118 0.000000
0.128166 0.565877 0.000000
0.171594 0.564636 0.000000
0.215134 0.563395 0.000000
0.258783 0.562153 0.000000
0.302539 0.560911 0.000000
0.346401 0.559669 0.000000
0.390365 0.558427 0.000000
0.434431 0.557184 0.000000
0.478595 0.555942 0.000000
0.522855 0.554700 0.000000
0.567210 0.553457 0.000000
0.611657 0.552215 0.000000
0.814878 0.547134 0.000000
0.869540 0.545650 0.000000
0.924307 0.544165 0.000000
0.979176 0.542680 0.000000
1.000000 0.541717 0.000000
1.000000 0.541537 0.000000
1.000000 0.541360 0.000000
1.000000 0.541185 0.000000
1.000000 0.541013 0.000000
1.000000 0.540844 0.000000
1.000000 0.540678 0.000000
1.000000 0.540515 0.000000
0.000000 0.614525 0.000000
0.000000 0.614313 0.000000
0.000000 0.614103 0.000000
0.000000 0.613896 0.000000
0.000000 0.613691 0.000000
0.000000 0.613368 0.000000
0.000000 0.612124 0.000000
0.038404 0.610880 0.000000
0.081792 0.609635 0.000000
0.125291 0.608391 0.000000
0.168900 0.607146 0.000000
0.212614 0.605901 0.000000
0.256434 0.604656 0.000000
0.300356 0.603411 0.000000
0.344378 0.602166 0.000000
0.388499 0.600921 0.000000
0.432715 0.599676 0.000000
0.477025 0.598432 0.000000
0.521427 0.597188 0.000000
0.565918 0.595944 0.000000
0.610497 0.594700 0.000000
0.655160 0.593457 0.000000
0.869249 0.588117 0.000000
0.924159 0.586631 0.000000
0.979165 0.585144 0.000000
1.000000 0.584182 0.000000
1.000000 0.584005 0.000000
1.000000 0.583832 0.000000
1.000000 0.583661 0.000000
1.000000 0.583493 0.000000
1.000000 0.583328 0.000000
1.000000 0.583166 0.000000
1.000000 0.583007 0.000000
0.000000 0.657029 0.000000
0.000000 0.656817 0.000000
0.000000 0.656607 0.000000
0.000000 0.656401 0.000000
0.000000 0.656196 0.000000
0.000000 0.655874 0.000000
0.000000 0.654626 0.000000
0.035139 0.653379 0.000000
0.078709 0.652131 0.000000
0.122385 0.650883 0.000000
0.166165 0.649636 0.000000
0.210047 0.648388 0.000000
0.254028 0.647141 0.000000
0.298108 0.645894 0.000000
0.342283 0.644647 0.000000
0.386551 0.643400 0.000000
0.430910 0.642154 0.000000
0.475358 0.640908 0.000000
0.519893 0.639662 0.000000
0.564512 0.638417 0.000000
0.609214 0.637173 0.000000
0.653996 0.635929 0.000000
0.698856 0.634686 0.000000
0.923830 0.629088 0.000000
0.978964 0.627601 0.000000
1.000000 0.626640 0.000000
1.000000 0.626468 0.000000
1.000000 0.626299 0.000000
1.000000 0.626133 0.000000
1.000000 0.625969 0.000000
1.000000 0.625809 0.000000
1.000000 0.625652 0.000000
1.000000 0.625497 0.000000
0.000000 0.699508 0.000000
0.000000 0.699297 0.000000
0.000000 0.699089 0.000000
0.000000 0.698884 0.000000
0.000000 0.698681 0.000000
0.000000 0.698359 0.000000
0.000000 0.697109 0.000000
0.031858 0.695859 0.000000
0.075601 0.694609 0.000000
0.119445 0.693359 0.000000
0.163389 0.692109 0.000000
0.207430 0.690860 0.000000
0.251566 0.689611 0.000000
0.295794 0.688362 0.000000
0.340113 0.687114 0.000000
0.384521 0.685866 0.000000
0.429015 0.684619 0.000000
0.473592 0.683373 0.000000
0.518252 0.682127 0.000000
0.562991 0.680882 0.000000
0.607808 0.679638 0.000000
0.652700 0.678394 0.000000
0.697666 0.677152 0.000000
0.742702 0.675910 0.000000
0.978571 0.670054 0.000000
1.000000 0.669096 0.000000
1.000000 0.668928 0.000000
1.000000 0.668764 0.000000
1.000000 0.668603 0.000000
1.000000 0.668445 0.000000
1.000000 0.668290 0.000000
1.000000 0.668138 0.000000
1.000000 0.667989 0.000000
0.000000 0.741967 0.000000
0.000000 0.741758 0.000000
0.000000 0.741552 0.000000
0.000000 0.741348 0.000000
0.000000 0.741147 0.000000
0.000000 0.740827 0.000000
0.000000 0.739575 0.000000
0.028560 0.738323 0.000000
0.072469 0.737071 0.000000
0.116474 0.735820 0.000000
0.160573 0.734569 0.000000
0.204765 0.733319 0.000000
0.249046 0.732069 0.000000
0.293416 0.730820 0.000000
0.337871 0.729571 0.000000
0.382409 0.728324 0.000000
0.427029 0.727077 0.000000
0.471728 0.725830 0.000000
0.516504 0.724585 0.000000
0.561355 0.723341 0.000000
0.606279 0.722098 0.000000
0.651273 0.720855 0.000000
0.696336 0.719614 0.000000
0.741464 0.718374 0.000000
0.786657 0.717135 0.000000
1.000000 0.711551 0.000000
1.000000 0.711389 0.000000
1.000000 0.711230 0.000000
1.000000 0.711075 0.000000
1.000000 0.710922 0.000000
1.000000 0.710773 0.000000
1.000000 0.710627 0.000000
1.000000 0.710484 0.000000
0.000000 0.784408 0.000000
0.000000 0.784201 0.000000
0.000000 0.783997 0.000000
0.000000 0.783796 0.000000
0.000000 0.783598 0.000000
0.000000 0.783281 0.000000
0.000000 0.782027 0.000000
0.025247 0.780774 0.000000
0.069312 0.779522 0.000000
0.113469 0.778270 0.000000
0.157716 0.777019 0.000000
0.202050 0.775768 0.000000
0.246469 0.774518 0.000000
0.290971 0.773270 0.000000
0.335554 0.772022 0.000000
0.380215 0.770775 0.000000
0.424953 0.769529 0.000000
0.469766 0.768284 0.000000
0.514650 0.767040 0.000000
0.559605 0.765797 0.000000
0.604627 0.764555 0.000000
0.649715 0.763315 0.000000
0.694866 0.762076 0.000000
0.740079 0.760839 0.000000
0.785350 0.759602 0.000000
0.830679 0.758368 0.000000
1.000000 0.753853 0.000000
1.000000 0.753701 0.000000
1.000000 0.753552 0.000000
1.000000 0.753406 0.000000
1.000000 0.753263 0.000000
1.000000 0.753124 0.000000
1.000000 0.752988 0.000000
0.000000 0.826835 0.000000
0.000000 0.826631 0.000000
0.000000 0.826430 0.000000
0.000000 0.826233 0.000000
0.000000 0.826038 0.000000
0.000000 0.825723 0.000000
0.000000 0.824469 0.000000
0.021916 0.823216 0.000000
0.066131 0.821963 0.000000
0.110432 0.820712 0.000000
0.154817 0.819461 0.000000
0.199286 0.818211 0.000000
0.243834 0.816963 0.000000
0.288461 0.815715 0.000000
0.333163 0.814468 0.000000
0.377939 0.813223 0.000000
0.422787 0.811979 0.000000
0.467704 0.810736 0.000000
0.512689 0.809494 0.000000
0.557738 0.808254 0.000000
0.602851 0.807015 0.000000
0.648024 0.805777 0.000000
0.693256 0.804541 0.000000
0.738544 0.803307 0.000000
0.783887 0.802074 0.000000
0.829282 0.800843 0.000000
0.874726 0.799614 0.000000
1.000000 0.796179 0.000000
1.000000 0.796037 0.000000
1.000000 0.795898 0.000000
1.000000 0.795763 0.000000
1.000000 0.795630 0.000000
1.000000 0.795502 0.000000
0.000000 0.869250 0.000000
0.000000 0.869050 0.000000
0.000000 0.868853 0.000000
0.000000 0.868659 0.000000
0.000000 0.868468 0.000000
0.000000 0.868157 0.000000
0.000000 0.866904 0.000000
0.018569 0.865651 0.000000
0.062924 0.864400 0.000000
0.107361 0.863149 0.000000
0.151877 0.861900 0.000000
0.196472 0.860652 0.000000
0.241141 0.859405 0.000000
0.285884 0.858159 0.000000
0.330697 0.856915 0.000000
0.375580 0.855672 0.000000
0.420530 0.854430 0.000000
0.465544 0.853190 0.000000
0.510620 0.851951 0.000000
0.555756 0.850714 0.000000
0.600951 0.849479 0.000000
0.646202 0.848245 0.000000
0.691506 0.847013 0.000000
0.736862 0.845782 0.000000
0.782267 0.844554 0.000000
0.827719 0.843327 0.000000
0.873217 0.842103 0.000000
0.918757 0.840880 0.000000
1.000000 0.838533 0.000000
1.000000 0.838402 0.000000
1.000000 0.838275 0.000000
1.000000 0.838151 0.000000
1.000000 0.838030 0.000000
0.000000 0.911124 0.000000
0.000000 0.910945 0.000000
0.000000 0.910769 0.000000
0.000000 0.910596 0.000000
0.000000 0.910426 0.000000
0.000000 0.910135 0.000000
0.000000 0.908898 0.000000
0.015242 0.907662 0.000000
0.059727 0.906427 0.000000
0.104290 0.905193 0.000000
0.148928 0.903961 0.000000
0.193639 0.902729 0.000000
0.238420 0.901498 0.000000
0.283269 0.900269 0.000000
0.328185 0.899041 0.000000
0.373165 0.897814 0.000000
0.418207 0.896589 0.000000
0.463308 0.895365 0.000000
0.508467 0.894142 0.000000
0.553681 0.892921 0.000000
