library/cube/Neon_Runway_000.cube
# CINEGRADE LAB — Premium Cinematic LUT
# Title: Neon Runway
# Category: Hyperreal Fashion
# Description: Punchy, saturated, with flawless skin rendering for fashion editorials
# Mood: Bold, vibrant, high-impact
# Variant: 1
# Generated: 2026-05-21T16:12:20.198622
TITLE "Neon Runway"
LUT_3D_SIZE 33
0.000000 0.000000 0.000000
0.000000 0.000000 0.000000
0.000000 0.000000 0.000000
0.013976 0.000000 0.000000
0.055906 0.000000 0.000000
0.097835 0.000000 0.000000
0.139764 0.000000 0.000000
0.181693 0.000000 0.000000
0.223622 0.000000 0.000000
0.265551 0.000000 0.000000
0.307480 0.000000 0.000000
0.349409 0.000000 0.000000
0.391339 0.000000 0.000000
0.433268 0.000000 0.000000
0.475197 0.000000 0.000000
0.517126 0.000000 0.000000
0.559055 0.000000 0.000000
0.600984 0.000000 0.000000
0.642913 0.000000 0.000000
0.684842 0.000000 0.000000
0.726772 0.000000 0.000000
0.768701 0.000000 0.000000
0.810630 0.000000 0.000000
0.852559 0.000000 0.000000
0.894488 0.000000 0.000000
0.936417 0.000000 0.000000
0.978346 0.000000 0.000000
1.000000 0.000000 0.000000
1.000000 0.000000 0.000000
1.000000 0.000000 0.000000
1.000000 0.000000 0.000000
1.000000 0.000000 0.000000
1.000000 0.000000 0.000000
0.000000 0.000000 0.000000
0.000000 0.000000 0.000000
0.020000 0.010000 0.000000
0.034675 0.009593 0.000000
0.078701 0.008374 0.000000
0.122726 0.007154 0.000000
0.139764 0.000000 0.000000
0.181693 0.000000 0.000000
0.223622 0.000000 0.000000
0.265551 0.000000 0.000000
0.307480 0.000000 0.000000
0.349409 0.000000 0.000000
0.391339 0.000000 0.000000
0.433268 0.000000 0.000000
0.475197 0.000000 0.000000
0.517126 0.000000 0.000000
0.559055 0.000000 0.000000
0.600984 0.000000 0.000000
0.642913 0.000000 0.000000
0.684842 0.000000 0.000000
0.726772 0.000000 0.000000
0.768701 0.000000 0.000000
0.810630 0.000000 0.000000
0.852559 0.000000 0.000000
0.894488 0.000000 0.000000
0.936417 0.000000 0.000000
0.978346 0.000000 0.000000
1.000000 0.000000 0.000000
1.000000 0.000000 0.000000
1.000000 0.000000 0.000000
1.000000 0.000000 0.000000
1.000000 0.000000 0.000000
1.000000 0.000000 0.000000
0.000000 0.000000 0.000000
0.000000 0.000000 0.000000
0.000000 0.000000 0.000000
0.034675 0.009593 0.000000
0.078701 0.008374 0.000000
0.122726 0.007154 0.000000
0.166752 0.005934 0.000000
0.210778 0.004714 0.000000
0.254803 0.003494 0.000000
0.298829 0.002275 0.000000
0.342854 0.001055 0.000000
0.386880 0.000000 0.000000
0.391339 0.000000 0.000000
0.433268 0.000000 0.000000
0.475197 0.000000 0.000000
0.517126 0.000000 0.000000
0.559055 0.000000 0.000000
0.600984 0.000000 0.000000
0.642913 0.000000 0.000000
0.684842 0.000000 0.000000
0.726772 0.000000 0.000000
0.768701 0.000000 0.000000
0.810630 0.000000 0.000000
0.852559 0.000000 0.000000
0.894488 0.000000 0.000000
0.936417 0.000000 0.000000
0.978346 0.000000 0.000000
1.000000 0.000000 0.000000
1.000000 0.000000 0.000000
1.000000 0.000000 0.000000
1.000000 0.000000 0.000000
1.000000 0.000000 0.000000
1.000000 0.000000 0.000000
0.000000 0.013034 0.000000
0.000000 0.013034 0.000000
0.000000 0.013034 0.000000
0.012635 0.012635 0.000000
0.054565 0.011440 0.000000
0.121318 0.020448 0.000000
0.165344 0.019229 0.000000
0.209369 0.018009 0.000000
0.253395 0.016789 0.000000
0.297421 0.015569 0.000000
0.341446 0.014350 0.000000
0.385472 0.013130 0.000000
0.429497 0.011910 0.000000
0.473523 0.010690 0.000000
0.517549 0.009470 0.000000
0.561574 0.008251 0.000000
0.605600 0.007031 0.000000
0.599643 0.000000 0.000000
0.641572 0.000000 0.000000
0.683501 0.000000 0.000000
0.725430 0.000000 0.000000
0.767360 0.000000 0.000000
0.809289 0.000000 0.000000
0.851218 0.000000 0.000000
0.893147 0.000000 0.000000
0.935076 0.000000 0.000000
0.977005 0.000000 0.000000
1.000000 0.000000 0.000000
1.000000 0.000000 0.000000
1.000000 0.000000 0.000000
1.000000 0.000000 0.000000
1.000000 0.000000 0.000000
1.000000 0.000000 0.000000
0.000000 0.052136 0.000000
0.000000 0.052136 0.000000
0.000000 0.052136 0.000000
0.008612 0.051737 0.000000
0.050542 0.050542 0.000000
0.092471 0.049346 0.000000
0.161120 0.059113 0.000000
0.205145 0.057893 0.000000
0.249171 0.056673 0.000000
0.293196 0.055453 0.000000
0.337222 0.054234 0.000000
0.381248 0.053014 0.000000
0.425273 0.051794 0.000000
0.469299 0.050574 0.000000
0.513324 0.049354 0.000000
0.557350 0.048135 0.000000
0.601376 0.046915 0.000000
0.645401 0.045695 0.000000
0.689427 0.044475 0.000000
0.733452 0.043255 0.000000
0.777478 0.042036 0.000000
0.821503 0.040816 0.000000
0.865529 0.039596 0.000000
0.847195 0.027820 0.000000
0.889124 0.026624 0.000000
0.931053 0.025428 0.000000
0.972982 0.024232 0.000000
1.000000 0.023036 0.000000
1.000000 0.021841 0.000000
1.000000 0.020645 0.000000
1.000000 0.020246 0.000000
1.000000 0.020246 0.000000
1.000000 0.020246 0.000000
0.000000 0.091238 0.000000
0.000000 0.091238 0.000000
0.000000 0.091238 0.000000
0.004589 0.090839 0.000000
0.046519 0.089644 0.000000
0.088448 0.088448 0.000000
0.130377 0.087252 0.000000
0.200921 0.097777 0.000000
0.244947 0.096557 0.000000
0.288972 0.095337 0.000000
0.332998 0.094118 0.000000
0.377023 0.092898 0.000000
0.421049 0.091678 0.000000
0.465075 0.090458 0.000000
0.509100 0.089238 0.000000
0.553126 0.088019 0.000000
0.597151 0.086799 0.000000
0.641177 0.085579 0.000000
0.685203 0.084359 0.000000
0.729228 0.083139 0.000000
0.773254 0.081920 0.000000
0.817279 0.080700 0.000000
0.861305 0.079480 0.000000
0.905330 0.078260 0.000000
0.949356 0.077041 0.000000
0.993382 0.075821 0.000000
1.000000 0.074601 0.000000
1.000000 0.073381 0.000000
1.000000 0.060943 0.000000
1.000000 0.059747 0.000000
1.000000 0.059348 0.000000
1.000000 0.059348 0.000000
1.000000 0.059348 0.000000
0.000000 0.130340 0.000000
0.000000 0.130340 0.000000
0.000000 0.130340 0.000000
0.000566 0.129941 0.000000
0.042496 0.128745 0.000000
0.084425 0.127550 0.000000
0.126354 0.126354 0.000000
0.168283 0.125158 0.000000
0.210212 0.123962 0.000000
0.284748 0.135221 0.000000
0.328774 0.134002 0.000000
0.372799 0.132782 0.000000
0.416825 0.131562 0.000000
0.460851 0.130342 0.000000
0.504876 0.129122 0.000000
0.548902 0.127903 0.000000
0.592927 0.126683 0.000000
0.636953 0.125463 0.000000
0.680978 0.124243 0.000000
0.725004 0.123024 0.000000
0.769030 0.121804 0.000000
0.813055 0.120584 0.000000
0.857081 0.119364 0.000000
0.901106 0.118144 0.000000
0.945132 0.116925 0.000000
0.989157 0.115705 0.000000
1.000000 0.114485 0.000000
1.000000 0.113265 0.000000
1.000000 0.112045 0.000000
1.000000 0.110826 0.000000
1.000000 0.110419 0.000000
1.000000 0.110419 0.000000
1.000000 0.110419 0.000000
0.000000 0.169442 0.000000
0.000000 0.169442 0.000000
0.000000 0.169442 0.000000
0.000000 0.169043 0.000000
0.038473 0.167848 0.000000
0.080402 0.166652 0.000000
0.122331 0.165456 0.000000
0.164260 0.164260 0.000000
0.206189 0.163064 0.000000
0.248118 0.161868 0.000000
0.324550 0.173886 0.000000
0.368575 0.172666 0.000000
0.412601 0.171446 0.000000
0.456626 0.170226 0.000000
0.500652 0.169007 0.000000
0.544678 0.167787 0.000000
0.588703 0.166567 0.000000
0.632729 0.165347 0.000000
0.676754 0.164127 0.000000
0.720780 0.162908 0.000000
0.764805 0.161688 0.000000
0.808831 0.160468 0.000000
0.852857 0.159248 0.000000
0.896882 0.158028 0.000000
0.940908 0.156809 0.000000
0.984933 0.155589 0.000000
1.000000 0.154369 0.000000
1.000000 0.153149 0.000000
1.000000 0.151929 0.000000
1.000000 0.150710 0.000000
1.000000 0.150303 0.000000
1.000000 0.150303 0.000000
1.000000 0.150303 0.000000
0.000000 0.208544 0.000000
0.000000 0.208544 0.000000
0.000000 0.208544 0.000000
0.000000 0.208145 0.000000
0.034450 0.206950 0.000000
0.076379 0.205754 0.000000
0.118308 0.204558 0.000000
0.160237 0.203362 0.000000
0.202166 0.202166 0.000000
0.244095 0.200970 0.000000
0.286024 0.199774 0.000000
0.327953 0.198578 0.000000
0.408377 0.211330 0.000000
0.452402 0.210110 0.000000
0.496428 0.208891 0.000000
0.540453 0.207671 0.000000
0.584479 0.206451 0.000000
0.628505 0.205231 0.000000
0.672530 0.204011 0.000000
0.716556 0.202792 0.000000
0.760581 0.201572 0.000000
0.804607 0.200352 0.000000
0.848632 0.199132 0.000000
0.892658 0.197912 0.000000
0.936684 0.196693 0.000000
0.980709 0.195473 0.000000
1.000000 0.194253 0.000000
1.000000 0.193033 0.000000
1.000000 0.191813 0.000000
1.000000 0.190594 0.000000
1.000000 0.190187 0.000000
1.000000 0.190187 0.000000
1.000000 0.190187 0.000000
0.000000 0.247646 0.000000
0.000000 0.247646 0.000000
0.000000 0.247646 0.000000
0.000000 0.247247 0.000000
0.030427 0.246051 0.000000
0.072356 0.244856 0.000000
0.114285 0.243660 0.000000
0.156214 0.242464 0.000000
0.198143 0.241268 0.000000
0.240072 0.240072 0.000000
0.282001 0.238876 0.000000
0.323930 0.237680 0.000000
0.365859 0.236484 0.000000
0.448178 0.249994 0.000000
0.492204 0.248775 0.000000
0.536229 0.247555 0.000000
0.580255 0.246335 0.000000
0.624280 0.245115 0.000000
0.668306 0.243895 0.000000
0.712332 0.242676 0.000000
0.756357 0.241456 0.000000
0.800383 0.240236 0.000000
0.844408 0.239016 0.000000
0.888434 0.237796 0.000000
0.932459 0.236577 0.000000
0.976485 0.235357 0.000000
1.000000 0.234137 0.000000
1.000000 0.232917 0.000000
1.000000 0.231698 0.000000
1.000000 0.230478 0.000000
1.000000 0.230071 0.000000
1.000000 0.230071 0.000000
1.000000 0.230071 0.000000
0.000000 0.286748 0.000000
0.000000 0.286748 0.000000
0.000000 0.286748 0.000000
0.000000 0.286349 0.000000
0.026404 0.285154 0.000000
0.068333 0.283958 0.000000
0.110262 0.282762 0.000000
0.152191 0.281566 0.000000
0.194120 0.280370 0.000000
0.236049 0.279174 0.000000
0.277978 0.277978 0.000000
0.319907 0.276782 0.000000
0.361836 0.275587 0.000000
0.403766 0.274391 0.000000
0.487979 0.288659 0.000000
0.532005 0.287439 0.000000
0.576031 0.286219 0.000000
0.620056 0.284999 0.000000
0.664082 0.283779 0.000000
0.708107 0.282560 0.000000
0.752133 0.281340 0.000000
0.796159 0.280120 0.000000
0.840184 0.278900 0.000000
0.884210 0.277681 0.000000
0.928235 0.276461 0.000000
0.972261 0.275241 0.000000
1.000000 0.274021 0.000000
1.000000 0.272801 0.000000
1.000000 0.271582 0.000000
1.000000 0.270362 0.000000
1.000000 0.269955 0.000000
1.000000 0.269955 0.000000
1.000000 0.269955 0.000000
0.000000 0.325850 0.000000
0.000000 0.325850 0.000000
0.000000 0.325850 0.000000
0.000000 0.325451 0.000000
0.022381 0.324256 0.000000
0.064310 0.323060 0.000000
0.106239 0.321864 0.000000
0.148168 0.320668 0.000000
0.190097 0.319472 0.000000
0.232026 0.318276 0.000000
0.273955 0.317080 0.000000
0.315884 0.315884 0.000000
0.357813 0.314688 0.000000
0.399743 0.313493 0.000000
0.441672 0.312297 0.000000
0.483601 0.311101 0.000000
0.571807 0.326103 0.000000
0.615832 0.324883 0.000000
0.659858 0.323664 0.000000
0.703883 0.322444 0.000000
0.747909 0.321224 0.000000
0.791934 0.320004 0.000000
0.835960 0.318784 0.000000
0.879986 0.317565 0.000000
0.924011 0.316345 0.000000
0.968037 0.315125 0.000000
1.000000 0.313905 0.000000
1.000000 0.312685 0.000000
1.000000 0.311466 0.000000
1.000000 0.310246 0.000000
1.000000 0.309839 0.000000
1.000000 0.309839 0.000000
1.000000 0.309839 0.000000
0.000000 0.364952 0.000000
0.000000 0.364952 0.000000
0.000000 0.364952 0.000000
0.000000 0.364553 0.000000
0.018358 0.363357 0.000000
0.060287 0.362162 0.000000
0.102216 0.360966 0.000000
0.144145 0.359770 0.000000
0.186074 0.358574 0.000000
0.228003 0.357378 0.000000
0.269932 0.356182 0.000000
0.311861 0.354986 0.000000
0.353790 0.353790 0.000000
0.395720 0.352595 0.000000
0.437649 0.351399 0.000000
0.479578 0.350203 0.000000
0.521507 0.349007 0.000000
0.611608 0.364767 0.000000
0.655634 0.363548 0.000000
0.699659 0.362328 0.000000
0.743685 0.361108 0.000000
0.787710 0.359888 0.000000
0.831736 0.358668 0.000000
0.875761 0.357449 0.000000
0.919787 0.356229 0.000000
0.963813 0.355009 0.000000
1.000000 0.353789 0.000000
1.000000 0.352569 0.000000
1.000000 0.351350 0.000000
1.000000 0.350130 0.000000
1.000000 0.349723 0.000000
1.000000 0.349723 0.000000
1.000000 0.349723 0.000000
0.000000 0.404054 0.000000
0.000000 0.404054 0.000000
0.000000 0.404054 0.000000
0.000000 0.403655 0.000000
0.014335 0.402459 0.000000
0.056264 0.401264 0.000000
0.098193 0.400068 0.000000
0.140122 0.398872 0.000000
0.182051 0.397676 0.000000
0.223980 0.396480 0.000000
0.265909 0.395284 0.000000
0.307838 0.394088 0.000000
0.349767 0.392892 0.000000
0.391697 0.391697 0.000000
0.433626 0.390501 0.000000
0.475555 0.389305 0.000000
0.517484 0.388109 0.000000
0.559413 0.386913 0.000000
0.601342 0.385717 0.000000
0.695435 0.402212 0.000000
0.739461 0.400992 0.000000
0.783486 0.399772 0.000000
0.827512 0.398552 0.000000
0.871537 0.397333 0.000000
0.915563 0.396113 0.000000
0.959588 0.394893 0.000000
1.000000 0.393673 0.000000
1.000000 0.392453 0.000000
1.000000 0.391234 0.000000
1.000000 0.390014 0.000000
1.000000 0.389607 0.000000
1.000000 0.389607 0.000000
1.000000 0.389607 0.000000
0.000000 0.443156 0.000000
0.000000 0.443156 0.000000
0.000000 0.443156 0.000000
0.000000 0.442757 0.000000
0.010312 0.441561 0.000000
0.052241 0.440366 0.000000
0.094170 0.439170 0.000000
0.136099 0.437974 0.000000
0.178028 0.436778 0.000000
0.219957 0.435582 0.000000
0.261886 0.434386 0.000000
0.303815 0.433190 0.000000
0.345745 0.431995 0.000000
0.387674 0.430799 0.000000
0.429603 0.429603 0.000000
0.471532 0.428407 0.000000
0.513461 0.427211 0.000000
0.555390 0.426015 0.000000
0.597319 0.424819 0.000000
0.639248 0.423623 0.000000
0.735236 0.440876 0.000000
0.779262 0.439656 0.000000
0.823288 0.438436 0.000000
0.867313 0.437217 0.000000
0.911339 0.435997 0.000000
0.955364 0.434777 0.000000
0.999390 0.433557 0.000000
1.000000 0.432338 0.000000
1.000000 0.431118 0.000000
1.000000 0.429898 0.000000
1.000000 0.429491 0.000000
1.000000 0.429491 0.000000
1.000000 0.429491 0.000000
0.000000 0.482258 0.000000
0.000000 0.482258 0.000000
0.000000 0.482258 0.000000
0.000000 0.481859 0.000000
0.006289 0.480664 0.000000
0.048218 0.479468 0.000000
0.090147 0.478272 0.000000
0.132076 0.477076 0.000000
0.174005 0.475880 0.000000
0.215934 0.474684 0.000000
0.257863 0.473488 0.000000
0.299792 0.472292 0.000000
0.341721 0.471097 0.000000
0.383651 0.469901 0.000000
0.425580 0.468705 0.000000
0.467509 0.467509 0.000000
0.509438 0.466313 0.000000
0.551367 0.465117 0.000000
0.593296 0.463921 0.000000
0.635225 0.462725 0.000000
0.677154 0.461530 0.000000
0.775038 0.479540 0.000000
0.819063 0.478321 0.000000
0.863089 0.477101 0.000000
0.907115 0.475881 0.000000
0.951140 0.474661 0.000000
0.995166 0.473441 0.000000
1.000000 0.472222 0.000000
1.000000 0.471002 0.000000
1.000000 0.469782 0.000000
1.000000 0.469375 0.000000
1.000000 0.469375 0.000000
1.000000 0.469375 0.000000
0.000000 0.521360 0.000000
0.000000 0.521360 0.000000
0.000000 0.521360 0.000000
0.000000 0.520961 0.000000
0.002266 0.519765 0.000000
0.044195 0.518570 0.000000
0.086124 0.517374 0.000000
0.128053 0.516178 0.000000
0.169982 0.514982 0.000000
0.211911 0.513786 0.000000
0.253840 0.512590 0.000000
0.295769 0.511394 0.000000
0.337699 0.510198 0.000000
0.379628 0.509003 0.000000
0.421557 0.507807 0.000000
0.463486 0.506611 0.000000
0.505415 0.505415 0.000000
0.547344 0.504219 0.000000
0.589273 0.503023 0.000000
0.631202 0.501827 0.000000
0.673131 0.500632 0.000000
0.715061 0.499436 0.000000
0.756990 0.498240 0.000000
0.858865 0.516985 0.000000
0.902890 0.515765 0.000000
0.946916 0.514545 0.000000
0.990942 0.513325 0.000000
1.000000 0.512106 0.000000
1.000000 0.510886 0.000000
1.000000 0.509666 0.000000
1.000000 0.509259 0.000000
1.000000 0.509259 0.000000
1.000000 0.509259 0.000000
0.000000 0.560462 0.000000
0.000000 0.560462 0.000000
0.000000 0.560462 0.000000
0.000000 0.560063 0.000000
0.000000 0.558867 0.000000
0.040172 0.557672 0.000000
0.082101 0.556476 0.000000
0.124030 0.555280 0.000000
0.165959 0.554084 0.000000
0.207888 0.552888 0.000000
0.249817 0.551692 0.000000
0.291746 0.550496 0.000000
0.333676 0.549300 0.000000
0.375605 0.548105 0.000000
0.417534 0.546909 0.000000
0.459463 0.545713 0.000000
0.501392 0.544517 0.000000
0.543321 0.543321 0.000000
0.585250 0.542125 0.000000
0.627179 0.540929 0.000000
0.669108 0.539733 0.000000
0.711038 0.538538 0.000000
0.752967 0.537342 0.000000
0.794896 0.536146 0.000000
0.898666 0.555649 0.000000
0.942692 0.554429 0.000000
0.986717 0.553209 0.000000
1.000000 0.551990 0.000000
1.000000 0.550770 0.000000
1.000000 0.549550 0.000000
1.000000 0.549143 0.000000
1.000000 0.549143 0.000000
1.000000 0.549143 0.000000
0.000000 0.599564 0.000000
0.000000 0.599564 0.000000
0.000000 0.599564 0.000000
0.000000 0.599165 0.000000
0.000000 0.597969 0.000000
0.036149 0.596774 0.000000
0.078078 0.595578 0.000000
0.120007 0.594382 0.000000
0.161936 0.593186 0.000000
0.203865 0.591990 0.000000
0.245794 0.590794 0.000000
0.287723 0.589598 0.000000
0.329653 0.588402 0.000000
0.371582 0.587207 0.000000
0.413511 0.586011 0.000000
0.455440 0.584815 0.000000
0.497369 0.583619 0.000000
0.539298 0.582423 0.000000
0.581227 0.581227 0.000000
0.623156 0.580031 0.000000
0.665085 0.578835 0.000000
0.707015 0.577640 0.000000
0.748944 0.576444 0.000000
0.790873 0.575248 0.000000
0.832802 0.574052 0.000000
0.938468 0.594313 0.000000
0.982493 0.593093 0.000000
1.000000 0.591874 0.000000
1.000000 0.590654 0.000000
1.000000 0.589434 0.000000
1.000000 0.589027 0.000000
1.000000 0.589027 0.000000
1.000000 0.589027 0.000000
0.000000 0.638666 0.000000
0.000000 0.638666 0.000000
0.000000 0.638666 0.000000
0.000000 0.638267 0.000000
0.000000 0.637072 0.000000
0.032126 0.635876 0.000000
0.074055 0.634680 0.000000
0.115984 0.633484 0.000000
0.157913 0.632288 0.000000
0.199842 0.631092 0.000000
0.241771 0.629896 0.000000
0.283700 0.628700 0.000000
0.325630 0.627505 0.000000
0.367559 0.626309 0.000000
0.409488 0.625113 0.000000
0.451417 0.623917 0.000000
0.493346 0.622721 0.000000
0.535275 0.621525 0.000000
0.577204 0.620329 0.000000
0.619133 0.619133 0.000000
0.661062 0.617938 0.000000
0.702992 0.616742 0.000000
0.744921 0.615546 0.000000
0.786850 0.614350 0.000000
0.828779 0.613154 0.000000
0.870708 0.611958 0.000000
0.912637 0.610762 0.000000
1.000000 0.631758 0.000000
1.000000 0.630538 0.000000
1.000000 0.629318 0.000000
1.000000 0.628912 0.000000
1.000000 0.628912 0.000000
1.000000 0.628912 0.000000
0.000000 0.677768 0.000000
0.000000 0.677768 0.000000
0.000000 0.677768 0.000000
0.000000 0.677369 0.000000
0.000000 0.676173 0.000000
0.028103 0.674978 0.000000
0.070032 0.673782 0.000000
0.111961 0.672586 0.000000
0.153890 0.671390 0.000000
0.195819 0.670194 0.000000
0.237748 0.668998 0.000000
0.279677 0.667802 0.000000
0.321607 0.666606 0.000000
0.363536 0.665411 0.000000
0.405465 0.664215 0.000000
0.447394 0.663019 0.000000
0.489323 0.661823 0.000000
0.531252 0.660627 0.000000
0.573181 0.659431 0.000000
0.615110 0.658235 0.000000
0.657039 0.657039 0.000000
0.698969 0.655844 0.000000
0.740898 0.654648 0.000000
0.782827 0.653452 0.000000
0.824756 0.652256 0.000000
0.866685 0.651060 0.000000
0.908614 0.649864 0.000000
0.950543 0.648668 0.000000
1.000000 0.670422 0.000000
1.000000 0.669202 0.000000
1.000000 0.668796 0.000000
1.000000 0.668796 0.000000
1.000000 0.668796 0.000000
0.000000 0.716870 0.000000
0.000000 0.716870 0.000000
0.000000 0.716870 0.000000
0.000000 0.716471 0.000000
0.000000 0.715275 0.000000
0.024080 0.714080 0.000000
0.066009 0.712884 0.000000
0.107938 0.711688 0.000000
0.149867 0.710492 0.000000
0.191796 0.709296 0.000000
0.233725 0.708100 0.000000
0.275654 0.706904 0.000000
0.317584 0.705708 0.000000
0.359513 0.704513 0.000000
0.401442 0.703317 0.000000
0.443371 0.702121 0.000000
0.485300 0.700925 0.000000
0.527229 0.699729 0.000000
0.569158 0.698533 0.000000
0.611087 0.697337 0.000000
0.653016 0.696141 0.000000
0.694946 0.694946 0.000000
0.736875 0.693750 0.000000
0.778804 0.692554 0.000000
0.820733 0.691358 0.000000
0.862662 0.690162 0.000000
0.904591 0.688966 0.000000
0.946520 0.687770 0.000000
0.988449 0.686574 0.000000
1.000000 0.685379 0.000000
1.000000 0.708680 0.000000
1.000000 0.708680 0.000000
1.000000 0.708680 0.000000
0.000000 0.755972 0.000000
0.000000 0.755972 0.000000
0.000000 0.755972 0.000000
0.000000 0.755573 0.000000
0.000000 0.754377 0.000000
0.020057 0.753182 0.000000
0.061986 0.751986 0.000000
0.103915 0.750790 0.000000
0.145844 0.749594 0.000000
0.187773 0.748398 0.000000
0.229702 0.747202 0.000000
0.271631 0.746006 0.000000
0.313561 0.744810 0.000000
0.355490 0.743615 0.000000
0.397419 0.742419 0.000000
0.439348 0.741223 0.000000
0.481277 0.740027 0.000000
0.523206 0.738831 0.000000
0.565135 0.737635 0.000000
0.607064 0.736439 0.000000
0.648994 0.735243 0.000000
0.690923 0.734048 0.000000
0.732852 0.732852 0.000000
0.774781 0.731656 0.000000
0.816710 0.730460 0.000000
0.858639 0.729264 0.000000
0.900568 0.728068 0.000000
0.942497 0.726872 0.000000
0.984426 0.725676 0.000000
1.000000 0.724481 0.000000
1.000000 0.724082 0.000000
1.000000 0.748564 0.000000
1.000000 0.748564 0.000000
0.000000 0.795074 0.000000
0.000000 0.795074 0.000000
0.000000 0.795074 0.000000
0.000000 0.794675 0.000000
0.000000 0.793479 0.000000
0.016034 0.792284 0.000000
0.057963 0.791088 0.000000
0.099892 0.789892 0.000000
0.141821 0.788696 0.000000
0.183750 0.787500 0.000000
0.225679 0.786304 0.000000
0.267608 0.785108 0.000000
0.309538 0.783913 0.000000
0.351467 0.782717 0.000000
0.393396 0.781521 0.000000
0.435325 0.780325 0.000000
0.477254 0.779129 0.000000
0.519183 0.777933 0.000000
0.561112 0.776737 0.000000
0.603041 0.775541 0.000000
0.644971 0.774345 0.000000
0.686900 0.773150 0.000000
0.728829 0.771954 0.000000
0.770758 0.770758 0.000000
0.812687 0.769562 0.000000
0.854616 0.768366 0.000000
0.896545 0.767170 0.000000
0.938474 0.765974 0.000000
0.980403 0.764778 0.000000
1.000000 0.763583 0.000000
1.000000 0.763184 0.000000
1.000000 0.763184 0.000000
1.000000 0.788448 0.000000
0.000000 0.834176 0.000000
0.000000 0.834176 0.000000
0.000000 0.834176 0.000000
0.000000 0.833777 0.000000
0.000000 0.832582 0.000000
0.012011 0.831386 0.000000
0.053940 0.830190 0.000000
0.095869 0.828994 0.000000
0.137798 0.827798 0.000000
0.179727 0.826602 0.000000
0.221656 0.825406 0.000000
0.263585 0.824210 0.000000
0.305515 0.823014 0.000000
0.347444 0.821819 0.000000
0.389373 0.820623 0.000000
0.431302 0.819427 0.000000
0.473231 0.818231 0.000000
0.515160 0.817035 0.000000
0.557089 0.815839 0.000000
0.599018 0.814643 0.000000
0.640948 0.813447 0.000000
0.682877 0.812252 0.000000
0.724806 0.811056 0.000000
0.766735 0.809860 0.000000
0.808664 0.808664 0.000000
0.850593 0.807468 0.000000
0.892522 0.806272 0.000000
0.934451 0.805076 0.000000
0.976380 0.803880 0.000000
1.000000 0.802685 0.000000
1.000000 0.802286 0.000000
1.000000 0.802286 0.000000
1.000000 0.802286 0.000000
0.000000 0.873278 0.000000
0.000000 0.873278 0.000000
0.000000 0.873278 0.000000
0.000000 0.872879 0.000000
0.000000 0.871683 0.000000
0.007988 0.870488 0.000000
0.049917 0.869292 0.000000
0.091846 0.868096 0.000000
0.133775 0.866900 0.000000
0.175704 0.865704 0.000000
0.217633 0.864508 0.000000
0.259562 0.863312 0.000000
0.301492 0.862116 0.000000
0.343421 0.860921 0.000000
0.385350 0.859725 0.000000
0.427279 0.858529 0.000000
0.469208 0.857333 0.000000
0.511137 0.856137 0.000000
0.553066 0.854941 0.000000
0.594995 0.853745 0.000000
0.636925 0.852549 0.000000
0.678854 0.851354 0.000000
0.720783 0.850158 0.000000
0.762712 0.848962 0.000000
0.804641 0.847766 0.000000
0.846570 0.846570 0.000000
0.888499 0.845374 0.000000
0.930428 0.844178 0.000000
0.972357 0.842982 0.000000
1.000000 0.841787 0.000000
1.000000 0.841388 0.000000
1.000000 0.841388 0.000000
1.000000 0.841388 0.000000
0.000000 0.912380 0.000000
0.000000 0.912380 0.000000
0.000000 0.912380 0.000000
0.000000 0.911981 0.000000
0.000000 0.910786 0.000000
0.003965 0.909590 0.000000
0.045894 0.908394 0.000000
0.087823 0.907198 0.000000
0.129752 0.906002 0.000000
0.171681 0.904806 0.000000
0.213610 0.903610 0.000000
0.255539 0.902414 0.000000
0.297469 0.901219 0.000000
0.339398 0.900023 0.000000
0.381327 0.898827 0.000000
0.423256 0.897631 0.000000
0.465185 0.896435 0.000000
0.507114 0.895239 0.000000
0.549043 0.894043 0.000000
