library/cube/Neon_Runway_000.cube
# CINEGRADE LAB — Premium Cinematic LUT
# Title: Neon Runway
# Category: Hyperreal Fashion
# Description: Punchy, saturated, with flawless skin rendering for fashion editorials
# Mood: Bold, vibrant, high-impact
# Variant: 1
# Generated: 2026-05-21T16:12:20.198622
TITLE "Neon Runway"
LUT_3D_SIZE 5
0.000000 0.000000 0.000000
0.223622 0.000000 0.000000
0.559055 0.000000 0.000000
0.894488 0.000000 0.000000
1.000000 0.000000 0.000000
0.000000 0.208544 0.000000
0.202166 0.202166 0.000000
0.584479 0.206451 0.000000
0.936684 0.196693 0.000000
1.000000 0.190187 0.000000
0.000000 0.521360 0.000000
0.169982 0.514982 0.000000
0.505415 0.505415 0.000000
0.902890 0.515765 0.000000
1.000000 0.509259 0.000000
0.000000 0.834176 0.000000
0.137798 0.827798 0.000000
0.473231 0.818231 0.000000
0.808664 0.808664 0.000000
1.000000 0.802286 0.000000
0.000000 1.000000 0.000000
0.116342 1.000000 0.000000
0.451775 1.000000 0.000000
0.787208 1.000000 0.000000
1.000000 1.000000 0.000000
0.000000 0.000000 0.227834
0.221456 0.000000 0.221456
0.556889 0.000000 0.211889
0.892322 0.000000 0.202322
1.000000 0.000000 0.195944
0.000000 0.206378 0.206378
0.200000 0.200000 0.200000
0.535433 0.190433 0.190433
0.870866 0.180866 0.180866
1.000000 0.174488 0.174488
0.000000 0.519194 0.174194
0.167816 0.512816 0.167816
0.503249 0.503249 0.158249
0.900616 0.513556 0.148682
1.000000 0.507050 0.142304
0.000000 0.832010 0.142010
0.135632 0.825632 0.135632
0.471065 0.816065 0.126065
0.806498 0.806498 0.116498
1.000000 0.826122 0.110120
0.000000 1.000000 0.120554
0.114176 1.000000 0.114176
0.449609 1.000000 0.104609
0.785042 1.000000 0.095042
1.000000 1.000000 0.088664
0.000000 0.000000 0.569585
0.218207 0.000000 0.563207
0.553640 0.000000 0.553640
0.889073 0.000000 0.544073
1.000000 0.000000 0.537695
0.000000 0.203129 0.548129
0.196751 0.196751 0.541751
0.532184 0.187184 0.532184
0.867617 0.177617 0.522617
1.000000 0.171239 0.516239
0.000000 0.515945 0.515945
0.164567 0.509567 0.509567
0.500000 0.500000 0.500000
0.835433 0.490433 0.490433
1.000000 0.484055 0.484055
0.000000 0.828761 0.483761
0.132383 0.822383 0.477383
0.467816 0.812816 0.467816
0.803249 0.803249 0.458249
1.000000 0.822808 0.451871
0.000000 1.000000 0.462305
0.110927 1.000000 0.455927
0.446360 1.000000 0.446360
0.781793 1.000000 0.436793
1.000000 1.000000 0.430415
0.000000 0.000000 0.911336
0.214958 0.000000 0.904958
0.550391 0.000000 0.895391
0.885824 0.000000 0.885824
1.000000 0.000000 0.879446
0.000000 0.199880 0.889880
0.193502 0.193502 0.883502
0.528935 0.183935 0.873935
0.864368 0.174368 0.864368
1.000000 0.167990 0.857990
0.000000 0.512696 0.857696
0.161318 0.506318 0.851318
0.496751 0.496751 0.841751
0.832184 0.487184 0.832184
1.000000 0.480806 0.825806
0.000000 0.825512 0.825512
0.129134 0.819134 0.819134
0.464567 0.809567 0.809567
0.800000 0.800000 0.800000
1.000000 0.793622 0.793622
0.000000 1.000000 0.804056
0.107678 1.000000 0.797678
0.443111 1.000000 0.788111
0.778544 1.000000 0.778544
1.000000 1.000000 0.772166
0.000000 0.000000 1.000000
0.212792 0.000000 1.000000
0.548225 0.000000 1.000000
0.883658 0.000000 1.000000
1.000000 0.000000 1.000000
0.000000 0.197714 1.000000
0.191336 0.191336 1.000000
0.526769 0.181769 1.000000
0.862202 0.172202 1.000000
1.000000 0.165824 1.000000
0.000000 0.510530 1.000000
0.159152 0.504152 1.000000
0.494585 0.494585 1.000000
0.830018 0.485018 1.000000
1.000000 0.478640 1.000000
0.000000 0.823346 1.000000
0.126968 0.816968 1.000000
0.462401 0.807401 1.000000
0.797834 0.797834 1.000000
1.000000 0.791456 1.000000
0.000000 1.000000 1.000000
0.105512 1.000000 1.000000
0.440945 1.000000 1.000000
0.776378 1.000000 1.000000
1.000000 1.000000 1.000000
