library/cube/Neon_Drift_001.cube
# CINEGRADE LAB — Premium Cinematic LUT
# Title: Neon Drift
# Category: Night Neon
# Description: Cyberpunk-inspired with neon glow enhancement and deep shadow work
# Mood: Electric, urban, futuristic
# Variant: 2
# Generated: 2026-05-21T16:12:22.140170
TITLE "Neon Drift"
LUT_3D_SIZE 5
0.000000 0.012810 0.015622
0.144444 0.007962 0.010484
0.529264 0.000000 0.000000
0.928691 0.000000 0.000000
0.975064 0.000000 0.000000
0.000000 0.144483 0.000000
0.114209 0.140055 0.000000
0.550006 0.128241 0.000000
0.968862 0.116929 0.000000
1.000000 0.114771 0.000000
0.000000 0.486839 0.000000
0.090902 0.482006 0.000000
0.437595 0.472143 0.000000
0.978628 0.457717 0.000000
1.000000 0.455511 0.000000
0.000000 0.826835 0.000000
0.066131 0.821963 0.000000
0.422787 0.811979 0.000000
0.783887 0.802074 0.000000
1.000000 0.795502 0.000000
0.000000 1.000000 0.000000
0.050921 1.000000 0.000000
0.413246 1.000000 0.000000
0.777542 1.000000 0.000000
1.000000 1.000000 0.000000
0.000000 0.010904 0.194003
0.144044 0.006003 0.195409
0.531372 0.000000 0.183528
0.932999 0.000000 0.171449
0.979178 0.000000 0.168118
0.000000 0.181419 0.194989
0.113747 0.138392 0.142831
0.551418 0.126293 0.163730
0.971954 0.114977 0.151712
1.000000 0.112862 0.148950
0.000000 0.623048 0.149649
0.090297 0.480288 0.107167
0.438187 0.470447 0.097409
0.980502 0.455770 0.115882
1.000000 0.453622 0.113710
0.000000 0.825110 0.077665
0.065369 0.820297 0.073331
0.422797 0.810360 0.063811
0.784417 0.800509 0.054317
1.000000 0.793738 0.080602
0.000000 1.000000 0.056367
0.049960 1.000000 0.052319
0.412638 1.000000 0.043040
0.777035 1.000000 0.033862
1.000000 1.000000 0.028074
0.000000 0.006749 0.651670
0.115141 0.003348 0.549231
0.531078 0.000000 0.655449
0.934864 0.000000 0.640969
0.980856 0.000000 0.635446
0.000000 0.138485 0.623751
0.110636 0.134109 0.616497
0.550463 0.122064 0.628381
0.972635 0.110755 0.614489
1.000000 0.108690 0.610053
0.000000 0.618338 0.654409
0.074471 0.613384 0.647748
0.436868 0.466919 0.472153
0.979990 0.451582 0.573659
1.000000 0.449498 0.570327
0.000000 1.000000 0.608169
0.043101 1.000000 0.602357
0.420910 0.806930 0.435472
0.783010 0.797136 0.425315
1.000000 0.789759 0.534463
0.000000 1.000000 0.601162
0.047153 1.000000 0.422641
0.410143 1.000000 0.413005
0.774600 1.000000 0.403602
1.000000 1.000000 0.397721
0.000000 0.003018 1.000000
0.111936 0.000000 1.000000
0.433082 0.000000 0.920981
0.936972 0.000000 1.000000
0.982726 0.000000 1.000000
0.000000 0.134669 1.000000
0.107959 0.130288 1.000000
0.446285 0.122043 0.890325
0.973414 0.106769 1.000000
1.000000 0.104718 1.000000
0.000000 0.476779 1.000000
0.084185 0.472054 0.999567
0.434331 0.462252 0.989949
0.979464 0.447526 1.000000
1.000000 0.445481 1.000000
0.000000 1.000000 1.000000
0.040034 1.000000 1.000000
0.398762 1.000000 1.000000
0.781504 0.793791 0.795915
1.000000 0.785830 0.985168
0.000000 1.000000 1.000000
0.042468 1.000000 1.000000
0.405718 1.000000 1.000000
0.772064 1.000000 0.773233
1.000000 1.000000 0.767343
0.000000 0.002118 1.000000
0.112305 0.000000 1.000000
0.434359 0.000000 1.000000
0.767331 0.000000 1.000000
0.987694 0.000000 1.000000
0.000000 0.133703 1.000000
0.108109 0.129323 1.000000
0.446823 0.119972 1.000000
0.793965 0.110509 1.000000
1.000000 0.104054 1.000000
0.000000 0.475693 1.000000
0.084133 0.470993 1.000000
0.435334 0.461203 1.000000
0.792467 0.451409 1.000000
1.000000 0.444826 1.000000
0.000000 1.000000 1.000000
0.058663 0.811120 1.000000
0.418134 0.801318 1.000000
0.781044 0.791621 1.000000
1.000000 0.785299 1.000000
0.000000 1.000000 1.000000
0.042623 1.000000 1.000000
0.406097 1.000000 1.000000
0.770536 1.000000 1.000000
1.000000 1.000000 1.000000
