library/cube/Neon_Drift_001.cube
# CINEGRADE LAB — Premium Cinematic LUT
# Title: Neon Drift
# Category: Night Neon
# Description: Cyberpunk-inspired with neon glow enhancement and deep shadow work
# Mood: Electric, urban, futuristic
# Variant: 2
# Generated: 2026-05-21T16:12:22.140170
TITLE "Neon Drift"
LUT_3D_SIZE 9
0.000000 0.012810 0.015622
0.000000 0.012138 0.014803
0.144444 0.007962 0.010484
0.334943 0.002719 0.005101
0.529264 0.000000 0.000000
0.727237 0.000000 0.000000
0.928691 0.000000 0.000000
0.966597 0.000000 0.000000
0.975064 0.000000 0.000000
0.000000 0.010622 0.012954
0.000000 0.010011 0.012209
0.149686 0.005774 0.007842
0.346311 0.000444 0.002385
0.546376 0.000000 0.000000
0.749712 0.000000 0.000000
0.956148 0.000000 0.000000
0.993964 0.000000 0.000000
1.000000 0.000000 0.000000
0.000000 0.144483 0.000000
0.000000 0.143790 0.000000
0.114209 0.140055 0.000000
0.344827 0.133829 0.000000
0.550006 0.128241 0.000000
0.758075 0.122607 0.000000
0.968862 0.116929 0.000000
1.000000 0.115463 0.000000
1.000000 0.114771 0.000000
0.000000 0.316059 0.000000
0.000000 0.315278 0.000000
0.102730 0.311382 0.000000
0.271702 0.306573 0.000000
0.548597 0.299182 0.000000
0.760757 0.293385 0.000000
0.975254 0.287561 0.000000
1.000000 0.286051 0.000000
1.000000 0.285337 0.000000
0.000000 0.486839 0.000000
0.000000 0.486012 0.000000
0.090902 0.482006 0.000000
0.263312 0.477080 0.000000
0.437595 0.472143 0.000000
0.761066 0.463631 0.000000
0.978628 0.457717 0.000000
1.000000 0.456206 0.000000
1.000000 0.455511 0.000000
0.000000 0.657029 0.000000
0.000000 0.656196 0.000000
0.078709 0.652131 0.000000
0.254028 0.647141 0.000000
0.430910 0.642154 0.000000
0.609214 0.637173 0.000000
0.978964 0.627601 0.000000
1.000000 0.626133 0.000000
1.000000 0.625497 0.000000
0.000000 0.826835 0.000000
0.000000 0.826038 0.000000
0.066131 0.821963 0.000000
0.243834 0.816963 0.000000
0.422787 0.811979 0.000000
0.602851 0.807015 0.000000
0.783887 0.802074 0.000000
1.000000 0.796037 0.000000
1.000000 0.795502 0.000000
0.000000 0.992734 0.000000
0.000000 0.992524 0.000000
0.053388 0.988964 0.000000
0.232910 0.984442 0.000000
0.413374 0.979912 0.000000
0.594639 0.975379 0.000000
0.776569 0.970845 0.000000
0.959023 0.966313 0.000000
1.000000 0.965035 0.000000
0.000000 1.000000 0.000000
0.000000 1.000000 0.000000
0.050921 1.000000 0.000000
0.231768 1.000000 0.000000
0.413246 1.000000 0.000000
0.595217 1.000000 0.000000
0.777542 1.000000 0.000000
0.960082 1.000000 0.000000
1.000000 1.000000 0.000000
0.000000 0.012579 0.015341
0.000000 0.011914 0.014530
0.144997 0.007732 0.010205
0.336144 0.002479 0.004815
0.531073 0.000000 0.000000
0.729616 0.000000 0.000000
0.931603 0.000000 0.000000
0.969504 0.000000 0.000000
0.977876 0.000000 0.000000
0.000000 0.010412 0.012698
0.000000 0.009807 0.011961
0.150186 0.005565 0.007590
0.347394 0.000227 0.002127
0.548004 0.000000 0.000000
0.751845 0.000000 0.000000
0.958749 0.000000 0.000000
0.996550 0.000000 0.000000
1.000000 0.000000 0.000000
0.000000 0.183286 0.000000
0.000000 0.143559 0.000000
0.114582 0.139824 0.000000
0.345796 0.133591 0.000000
0.551455 0.128000 0.000000
0.759965 0.122362 0.000000
0.971155 0.116682 0.000000
1.000000 0.115224 0.000000
1.000000 0.114543 0.000000
0.000000 0.315790 0.000000
0.000000 0.315020 0.000000
0.103064 0.311126 0.000000
0.272406 0.306318 0.000000
0.549868 0.298923 0.000000
0.762404 0.293127 0.000000
0.977239 0.287304 0.000000
1.000000 0.285805 0.000000
1.000000 0.285103 0.000000
0.000000 0.486554 0.000000
0.000000 0.485739 0.000000
0.091196 0.481739 0.000000
0.263922 0.476816 0.000000
0.438490 0.471884 0.000000
0.762468 0.463372 0.000000
0.980303 0.457463 0.000000
1.000000 0.455965 0.000000
1.000000 0.455285 0.000000
0.000000 0.656742 0.000000
0.000000 0.655923 0.000000
0.078960 0.651866 0.000000
0.254544 0.646883 0.000000
0.431657 0.641905 0.000000
0.610162 0.636933 0.000000
0.980329 0.627365 0.000000
1.000000 0.625912 0.000000
1.000000 0.625292 0.000000
0.000000 0.826559 0.000000
0.000000 0.825778 0.000000
0.066340 0.821715 0.000000
0.244254 0.816725 0.000000
0.423386 0.811753 0.000000
0.603597 0.806801 0.000000
0.784750 0.801874 0.000000
1.000000 0.795849 0.000000
1.000000 0.795332 0.000000
0.000000 0.992661 0.000000
0.000000 0.992456 0.000000
0.053540 0.988898 0.000000
0.233221 0.984377 0.000000
0.413811 0.979850 0.000000
0.595173 0.975319 0.000000
0.777167 0.970789 0.000000
0.959654 0.966262 0.000000
1.000000 0.964990 0.000000
0.000000 1.000000 0.000000
0.000000 1.000000 0.000000
0.051026 1.000000 0.000000
0.231979 1.000000 0.000000
0.413533 1.000000 0.000000
0.595547 1.000000 0.000000
0.777884 1.000000 0.000000
0.960405 1.000000 0.000000
1.000000 1.000000 0.000000
0.000000 0.010904 0.194003
0.000000 0.010464 0.166104
0.144044 0.006003 0.195409
0.335836 0.000745 0.189496
0.531372 0.000000 0.183528
0.730483 0.000000 0.177512
0.932999 0.000000 0.171449
0.970898 0.000000 0.169407
0.979178 0.000000 0.168118
0.000000 0.008771 0.189685
0.000000 0.008177 0.188480
0.149195 0.003872 0.191148
0.346983 0.000000 0.185213
0.548133 0.000000 0.179235
0.752478 0.000000 0.173216
0.959845 0.000000 0.167160
0.997635 0.000000 0.165245
1.000000 0.000000 0.164103
0.000000 0.181419 0.194989
0.000000 0.180705 0.193864
0.113747 0.138392 0.142831
0.345283 0.131885 0.169694
0.551418 0.126293 0.163730
0.760365 0.120656 0.157735
0.971954 0.114977 0.151712
1.000000 0.113531 0.149936
1.000000 0.112862 0.148950
0.000000 0.402758 0.172048
0.000000 0.401919 0.171067
0.102198 0.309679 0.124762
0.271907 0.304874 0.119846
0.549663 0.297209 0.145450
0.762571 0.291417 0.139494
0.977739 0.285599 0.133519
1.000000 0.284113 0.131884
1.000000 0.283425 0.131054
0.000000 0.623048 0.149649
0.000000 0.484281 0.111116
0.090297 0.480288 0.107167
0.263337 0.475372 0.102294
0.438187 0.470447 0.097409
0.762399 0.461671 0.121797
0.980502 0.455770 0.115882
1.000000 0.454287 0.114386
1.000000 0.453622 0.113710
0.000000 0.655275 0.094550
0.000000 0.654472 0.093916
0.078027 0.650426 0.090029
0.253870 0.645452 0.085207
0.431212 0.640483 0.080381
0.609914 0.635522 0.075555
0.980224 0.625696 0.098783
1.000000 0.624259 0.097426
1.000000 0.623658 0.096898
0.000000 0.825110 0.077665
0.000000 0.824347 0.077149
0.065369 0.820297 0.073331
0.243490 0.815319 0.068570
0.422797 0.810360 0.063811
0.603152 0.805422 0.059060
0.784417 0.800509 0.054317
1.000000 0.794236 0.080985
1.000000 0.793738 0.080602
0.000000 0.991416 0.061491
0.000000 0.991218 0.061046
0.052517 0.987663 0.057264
0.232352 0.983145 0.052538
0.413066 0.978621 0.047824
0.594519 0.974094 0.043128
0.776572 0.969568 0.038451
0.959088 0.965047 0.033797
1.000000 0.963520 0.064852
0.000000 1.000000 0.056367
0.000000 1.000000 0.056025
0.049960 1.000000 0.052319
0.231014 1.000000 0.047668
0.412638 1.000000 0.043040
0.594691 1.000000 0.038437
0.777035 1.000000 0.033862
0.959531 1.000000 0.029320
1.000000 1.000000 0.028074
0.000000 0.008824 0.423063
0.000000 0.008180 0.421083
0.116266 0.005137 0.355793
0.335095 0.000000 0.426302
0.531233 0.000000 0.419698
0.730906 0.000000 0.413064
0.933945 0.000000 0.406405
0.971843 0.000000 0.403797
0.980032 0.000000 0.401965
0.000000 0.006729 0.416623
0.000000 0.006145 0.414828
0.120477 0.003061 0.350166
0.346141 0.000000 0.420004
0.547828 0.000000 0.413454
0.752669 0.000000 0.406884
0.960495 0.000000 0.400298
0.998273 0.000000 0.397882
1.000000 0.000000 0.396261
0.000000 0.140534 0.399089
0.000000 0.139872 0.397490
0.112087 0.136143 0.392857
0.344343 0.129767 0.402690
0.550949 0.124176 0.396221
0.760327 0.118540 0.389740
0.972309 0.112863 0.383253
1.000000 0.111429 0.381041
1.000000 0.110773 0.379641
0.000000 0.400411 0.426292
0.000000 0.399587 0.424779
0.092418 0.395628 0.420158
0.271061 0.303097 0.308727
0.549028 0.295088 0.376429
0.762302 0.289300 0.370054
0.977798 0.283487 0.363680
1.000000 0.282014 0.361673
1.000000 0.281342 0.360494
0.000000 0.620689 0.402190
0.000000 0.619795 0.400888
0.076222 0.615707 0.396411
0.262407 0.473598 0.290068
0.437534 0.468680 0.284880
0.761895 0.459566 0.351127
0.980261 0.453673 0.344879
1.000000 0.452205 0.343076
1.000000 0.451557 0.342114
0.000000 0.840199 0.378843
0.000000 0.839288 0.377748
0.076755 0.648656 0.277139
0.252854 0.643693 0.272051
0.430419 0.638734 0.266976
0.609313 0.633785 0.261916
0.979680 0.623625 0.326832
1.000000 0.622206 0.325232
1.000000 0.621623 0.324483
0.000000 1.000000 0.358580
0.000000 0.822588 0.263678
0.064061 0.818552 0.259632
0.242383 0.813587 0.254659
0.421861 0.808641 0.249705
0.602355 0.803718 0.244774
0.783726 0.798819 0.239869
1.000000 0.792223 0.308124
1.000000 0.791745 0.307584
0.000000 1.000000 0.355559
0.000000 0.989650 0.246876
0.051158 0.986099 0.242921
0.231143 0.981583 0.238037
0.411974 0.977063 0.233183
0.593513 0.972540 0.228362
0.775621 0.968019 0.223577
0.958160 0.963503 0.218832
1.000000 0.961648 0.291440
0.000000 1.000000 0.241816
0.000000 1.000000 0.241343
0.048558 1.000000 0.237518
0.229709 1.000000 0.232765
0.411398 1.000000 0.228050
0.593484 1.000000 0.223377
0.775830 1.000000 0.218749
0.958297 1.000000 0.214170
1.000000 1.000000 0.212903
0.000000 0.006749 0.651670
0.000000 0.006116 0.649052
0.115141 0.003348 0.549231
0.272756 0.000000 0.543205
0.531078 0.000000 0.655449
0.731307 0.000000 0.648212
0.934864 0.000000 0.640969
0.972758 0.000000 0.637809
0.980856 0.000000 0.635446
0.000000 0.004692 0.643152
0.000000 0.004119 0.640779
0.118567 0.000551 0.635468
0.281725 0.000000 0.536023
0.547507 0.000000 0.647300
0.752839 0.000000 0.640192
0.961117 0.000000 0.633088
0.998881 0.000000 0.630185
1.000000 0.000000 0.628098
0.000000 0.138485 0.623751
0.000000 0.137835 0.621636
0.110636 0.134109 0.616497
0.278063 0.130221 0.517929
0.550463 0.122064 0.628381
0.760267 0.116429 0.621429
0.972635 0.110755 0.614489
1.000000 0.109332 0.611855
1.000000 0.108690 0.610053
0.000000 0.398070 0.680165
0.000000 0.309252 0.600085
0.099036 0.305377 0.595128
0.269465 0.300581 0.589295
0.548376 0.292973 0.607121
0.762010 0.287189 0.600340
0.977827 0.281382 0.593580
1.000000 0.279923 0.591216
1.000000 0.279265 0.589699
0.000000 0.618338 0.654409
0.000000 0.617461 0.652659
0.074471 0.613384 0.647748
0.248133 0.608386 0.641956
0.436868 0.466919 0.472153
0.613874 0.462005 0.466698
0.979990 0.451582 0.573659
1.000000 0.450130 0.571563
1.000000 0.449498 0.570327
0.000000 0.837853 0.629643
0.000000 0.836961 0.628170
0.057888 0.832820 0.623479
0.234247 0.827757 0.617896
0.429612 0.636992 0.453408
0.608693 0.632053 0.448126
0.979106 0.621562 0.554707
1.000000 0.620159 0.552879
1.000000 0.619594 0.551921
0.000000 1.000000 0.608169
0.000000 1.000000 0.606893
0.043101 1.000000 0.602357
0.241269 0.811862 0.440611
0.420910 0.806930 0.435472
0.601537 0.802020 0.430372
0.783010 0.797136 0.425315
1.000000 0.790217 0.535147
1.000000 0.789759 0.534463
0.000000 1.000000 0.604202
0.000000 1.000000 0.603201
0.049796 0.984537 0.428466
0.229924 0.980025 0.423436
0.410868 0.975508 0.418451
0.592488 0.970990 0.413517
0.774645 0.966474 0.408634
0.957202 0.961963 0.403808
1.000000 0.959779 0.517970
0.000000 1.000000 0.601162
0.000000 1.000000 0.600436
0.047153 1.000000 0.422641
0.228395 1.000000 0.417796
0.410143 1.000000 0.413005
0.592258 1.000000 0.408273
0.774600 1.000000 0.403602
0.957031 1.000000 0.398997
1.000000 1.000000 0.397721
0.000000 0.004680 0.879833
0.000000 0.004058 0.876587
0.112979 0.000528 0.870506
0.272141 0.000000 0.735772
0.433229 0.000000 0.729241
0.731686 0.000000 0.882961
0.935753 0.000000 0.875147
0.973643 0.000000 0.871449
0.981650 0.000000 0.868568
0.000000 0.002660 0.869277
0.000000 0.002098 0.866339
0.117140 0.000000 0.860472
0.281027 0.000000 0.727020
0.446537 0.000000 0.720656
0.752986 0.000000 0.873145
0.961710 0.000000 0.865537
0.999459 0.000000 0.862160
1.000000 0.000000 0.859619
0.000000 0.136442 0.848052
0.000000 0.135804 0.845434
0.109184 0.132082 0.839802
0.276267 0.127447 0.833325
0.446704 0.123793 0.701363
0.760184 0.114325 0.852806
0.972933 0.108652 0.845429
1.000000 0.107241 0.842384
1.000000 0.106612 0.840194
0.000000 0.307926 0.824626
0.000000 0.307208 0.822328
0.097557 0.303339 0.816940
0.268337 0.298548 0.810694
0.442152 0.294745 0.679788
0.761695 0.285085 0.830359
0.977826 0.279282 0.823227
1.000000 0.277837 0.820517
1.000000 0.277194 0.818676
0.000000 0.616046 0.899799
0.000000 0.615182 0.898182
0.085569 0.473955 0.795199
0.259519 0.469062 0.789192
0.435185 0.464162 0.783233
0.613429 0.460259 0.653513
0.979689 0.449498 0.802229
1.000000 0.448061 0.799853
1.000000 0.447446 0.798357
0.000000 0.835553 0.875465
0.000000 0.834675 0.874109
0.056134 0.830545 0.869524
0.232735 0.825491 0.864042
0.410739 0.820451 0.858599
0.608053 0.630328 0.634189
0.788440 0.625414 0.628747
1.000000 0.618120 0.780373
1.000000 0.617572 0.779219
0.000000 1.000000 0.854342
0.000000 1.000000 0.853167
0.041279 1.000000 0.848724
0.219933 1.000000 0.843381
0.399684 1.000000 0.838089
0.600700 0.800329 0.615861
0.782270 0.795460 0.610662
1.000000 0.788218 0.762060
1.000000 0.787780 0.761245
0.000000 1.000000 0.850697
0.000000 1.000000 0.849782
0.042767 1.000000 0.845562
0.223019 1.000000 0.840440
0.409747 0.973956 0.603635
0.591443 0.969442 0.598597
0.773644 0.964931 0.593629
0.956213 0.960426 0.588732
1.000000 0.957912 0.744448
0.000000 1.000000 0.847924
0.000000 1.000000 0.847268
0.043839 1.000000 0.843282
0.227072 1.000000 0.602768
0.408874 1.000000 0.597912
0.591011 1.000000 0.593131
0.773345 1.000000 0.588429
0.955735 1.000000 0.583807
1.000000 1.000000 0.582532
0.000000 0.003018 1.000000
0.000000 0.002386 1.000000
0.111936 0.000000 1.000000
0.271520 0.000000 0.927998
0.433082 0.000000 0.920981
0.732426 0.000000 1.000000
0.936972 0.000000 1.000000
0.974833 0.000000 1.000000
0.982726 0.000000 1.000000
0.000000 0.000963 1.000000
0.000000 0.000391 1.000000
0.116002 0.000000 1.000000
0.279298 0.000000 1.000000
0.446253 0.000000 0.910916
0.614665 0.000000 0.904156
0.962554 0.000000 1.000000
1.000000 0.000000 1.000000
1.000000 0.000000 1.000000
0.000000 0.134669 1.000000
0.000000 0.134024 1.000000
0.107959 0.130288 1.000000
0.275425 0.125639 1.000000
0.446285 0.122043 0.890325
0.618241 0.117343 0.883814
0.973414 0.106769 1.000000
1.000000 0.105352 1.000000
1.000000 0.104718 1.000000
0.000000 0.306081 1.000000
0.000000 0.305361 1.000000
0.096250 0.301482 1.000000
0.267362 0.296682 1.000000
0.440470 0.291862 1.000000
0.616574 0.288164 0.861380
0.977952 0.277344 1.000000
1.000000 0.275897 1.000000
1.000000 0.275254 1.000000
0.000000 0.476779 1.000000
0.000000 0.476025 1.000000
0.084185 0.472054 0.999567
0.258416 0.467156 0.994763
0.434331 0.462252 0.989949
0.612964 0.458518 0.840152
0.979464 0.447526 1.000000
1.000000 0.446092 1.000000
1.000000 0.445481 1.000000
0.000000 0.833889 1.000000
0.000000 0.833017 1.000000
0.054986 0.828886 1.000000
0.248569 0.637268 0.978009
0.426764 0.632333 0.973248
0.606194 0.627410 0.968487
0.787925 0.623708 0.814486
1.000000 0.616143 1.000000
1.000000 0.615604 1.000000
0.000000 1.000000 1.000000
0.000000 1.000000 1.000000
0.040034 1.000000 1.000000
0.218865 1.000000 1.000000
0.398762 1.000000 1.000000
0.579586 1.000000 1.000000
0.781504 0.793791 0.795915
0.963808 0.788968 0.790664
1.000000 0.785830 0.985168
0.000000 1.000000 1.000000
0.000000 1.000000 1.000000
0.041455 1.000000 1.000000
0.221834 1.000000 1.000000
0.402967 1.000000 1.000000
0.584716 1.000000 1.000000
0.772618 0.963391 0.778565
0.955193 0.958891 0.773609
1.000000 0.956056 0.970055
0.000000 1.000000 1.000000
0.000000 1.000000 1.000000
0.042468 1.000000 1.000000
0.223872 1.000000 1.000000
0.405718 1.000000 1.000000
0.589745 1.000000 0.777957
0.772064 1.000000 0.773233
0.954409 1.000000 0.768607
1.000000 1.000000 0.767343
0.000000 0.002336 1.000000
0.000000 0.001701 1.000000
0.111882 0.000000 1.000000
0.270984 0.000000 1.000000
0.433293 0.000000 1.000000
0.598060 0.000000 1.000000
0.939470 0.000000 1.000000
0.977317 0.000000 1.000000
0.985111 0.000000 1.000000
0.000000 0.000271 1.000000
0.000000 0.000000 1.000000
0.115876 0.000000 1.000000
0.279608 0.000000 1.000000
0.446252 0.000000 1.000000
0.615026 0.000000 1.000000
0.964730 0.000000 1.000000
1.000000 0.000000 1.000000
1.000000 0.000000 1.000000
0.000000 0.133925 1.000000
0.000000 0.133280 1.000000
0.107768 0.129537 1.000000
0.275618 0.124879 1.000000
0.445744 0.120188 1.000000
0.618350 0.115811 1.000000
0.792617 0.111070 1.000000
1.000000 0.104886 1.000000
1.000000 0.104260 1.000000
0.000000 0.305286 1.000000
0.000000 0.304569 1.000000
0.095998 0.300687 1.000000
0.267441 0.295882 1.000000
0.440849 0.291059 1.000000
0.616438 0.286574 1.000000
0.793363 0.281727 1.000000
1.000000 0.275419 1.000000
1.000000 0.274787 1.000000
0.000000 0.475951 1.000000
0.000000 0.475203 1.000000
0.083873 0.471233 1.000000
0.258383 0.466335 1.000000
0.434546 0.461431 1.000000
0.612224 0.456527 1.000000
0.791645 0.451990 1.000000
1.000000 0.445618 1.000000
1.000000 0.445020 1.000000
0.000000 0.833587 1.000000
0.000000 0.645387 1.000000
0.071375 0.641379 1.000000
0.248425 0.636441 1.000000
0.426817 0.631511 1.000000
0.606411 0.626594 1.000000
0.787444 0.622066 0.992846
1.000000 0.615688 1.000000
1.000000 0.615164 1.000000
0.000000 1.000000 1.000000
0.000000 1.000000 1.000000
0.040196 1.000000 1.000000
0.219207 1.000000 1.000000
0.417643 0.801504 1.000000
0.598627 0.796628 1.000000
0.780363 0.791780 1.000000
0.963095 0.787346 0.972669
1.000000 0.785426 1.000000
0.000000 1.000000 1.000000
0.000000 1.000000 1.000000
0.041576 1.000000 1.000000
0.222082 1.000000 1.000000
0.403311 1.000000 1.000000
0.585124 1.000000 1.000000
0.767383 1.000000 1.000000
0.954151 0.957368 0.957406
1.000000 0.956138 0.956162
0.000000 1.000000 1.000000
0.000000 1.000000 1.000000
0.042548 1.000000 1.000000
0.224026 1.000000 1.000000
0.405915 1.000000 1.000000
0.588077 1.000000 1.000000
0.770373 1.000000 1.000000
0.953052 1.000000 0.953316
1.000000 1.000000 0.952154
0.000000 0.002118 1.000000
0.000000 0.001489 1.000000
0.112305 0.000000 1.000000
0.271898 0.000000 1.000000
0.434359 0.000000 1.000000
0.599550 0.000000 1.000000
0.767331 0.000000 1.000000
0.979996 0.000000 1.000000
0.987694 0.000000 1.000000
0.000000 0.000074 1.000000
0.000000 0.000000 1.000000
0.116256 0.000000 1.000000
0.280426 0.000000 1.000000
0.447153 0.000000 1.000000
0.616299 0.000000 1.000000
0.787724 0.000000 1.000000
1.000000 0.000000 1.000000
1.000000 0.000000 1.000000
0.000000 0.133703 1.000000
0.000000 0.133066 1.000000
0.108109 0.129323 1.000000
0.276343 0.124663 1.000000
0.446823 0.119972 1.000000
0.619410 0.115253 1.000000
0.793965 0.110509 1.000000
1.000000 0.104670 1.000000
1.000000 0.104054 1.000000
0.000000 0.305039 1.000000
0.000000 0.304333 1.000000
0.096299 0.300454 1.000000
0.268074 0.295651 1.000000
0.441783 0.290830 1.000000
0.617288 0.285994 1.000000
0.794448 0.281148 1.000000
0.973126 0.276294 1.000000
1.000000 0.274580 1.000000
0.000000 0.475693 1.000000
0.000000 0.474957 1.000000
0.084133 0.470993 1.000000
0.258922 0.466100 1.000000
0.435334 0.461203 1.000000
0.613228 0.456305 1.000000
0.792467 0.451409 1.000000
0.972912 0.446519 1.000000
1.000000 0.444826 1.000000
0.000000 0.645869 1.000000
0.000000 0.645145 1.000000
0.071594 0.641147 1.000000
0.248870 0.636217 1.000000
0.427456 0.631297 1.000000
0.607214 0.626389 1.000000
0.788005 0.621498 1.000000
0.969690 0.616626 1.000000
1.000000 0.614997 1.000000
0.000000 1.000000 1.000000
0.000000 1.000000 1.000000
0.058663 0.811120 1.000000
0.237899 0.806208 1.000000
0.418134 0.801318 1.000000
0.599228 0.796455 1.000000
0.781044 0.791621 1.000000
0.963441 0.786820 1.000000
1.000000 0.785299 1.000000
0.000000 1.000000 1.000000
0.000000 1.000000 1.000000
0.041692 1.000000 1.000000
0.222320 1.000000 1.000000
0.403640 1.000000 1.000000
0.589318 0.965944 1.000000
0.771612 0.961442 1.000000
0.954180 0.956949 1.000000
1.000000 0.955726 1.000000
0.000000 1.000000 1.000000
0.000000 1.000000 1.000000
0.042623 1.000000 1.000000
0.224170 1.000000 1.000000
0.406097 1.000000 1.000000
0.588265 1.000000 1.000000
0.770536 1.000000 1.000000
0.952771 1.000000 1.000000
1.000000 1.000000 1.000000
