library/cube/Neon_Dystopia_000.cube
# CINEGRADE LAB — Premium Cinematic LUT
# Title: Neon Dystopia
# Category: Cyberpunk Cinema
# Description: Cyan/magenta split with high contrast for futuristic cyberpunk visuals
# Mood: Futuristic, neon, dystopian
# Variant: 1
# Generated: 2026-05-21T16:12:27.636895
TITLE "Neon Dystopia"
LUT_3D_SIZE 5
0.000000 0.033570 0.016170
0.100434 0.025433 0.010316
0.409297 0.010149 0.000000
0.743382 0.000000 0.000000
0.967516 0.000000 0.000000
0.000000 0.153714 0.000000
0.100738 0.145113 0.000000
0.447860 0.128524 0.000000
0.813921 0.111547 0.000000
1.000000 0.099903 0.000000
0.000000 0.500449 0.000000
0.068222 0.489751 0.000000
0.443940 0.470415 0.000000
0.831111 0.450908 0.000000
1.000000 0.437649 0.000000
0.000000 0.832265 0.000000
0.035960 0.819338 0.000000
0.432056 0.797231 0.000000
0.828938 0.775204 0.000000
1.000000 0.760086 0.000000
0.000000 1.000000 0.000000
0.023390 0.994827 0.000000
0.433197 0.971759 0.000000
0.832857 0.948526 0.000000
1.000000 0.932381 0.000000
0.000000 0.030195 0.169772
0.100556 0.022121 0.162733
0.413777 0.006802 0.148544
0.751539 0.000000 0.133864
0.976742 0.000000 0.123720
0.000000 0.150416 0.142889
0.100623 0.141883 0.136804
0.451023 0.125287 0.122727
0.819781 0.108318 0.108352
1.000000 0.096784 0.099488
0.000000 0.496608 0.090359
0.067993 0.485972 0.085476
0.446078 0.466638 0.071987
0.834615 0.447160 0.058459
1.000000 0.434006 0.051382
0.000000 0.827787 0.044358
0.035674 0.814888 0.040703
0.433399 0.792760 0.028014
0.830771 0.770736 0.015664
1.000000 0.755683 0.010558
0.000000 1.000000 0.023461
0.023019 0.990282 0.020719
0.433946 0.966982 0.008720
0.833694 0.943555 0.000000
1.000000 0.927293 0.000000
0.000000 0.023557 0.594369
0.097367 0.015572 0.584203
0.414850 0.000242 0.567213
0.756201 0.000000 0.550165
0.982358 0.000000 0.538147
0.000000 0.143921 0.558866
0.097259 0.135470 0.551035
0.450848 0.118879 0.535528
0.822222 0.101927 0.520116
1.000000 0.090512 0.510689
0.000000 0.489599 0.502251
0.064545 0.479026 0.496886
0.444914 0.459696 0.483214
0.834711 0.440245 0.469882
1.000000 0.427191 0.463414
0.000000 0.820129 0.456238
0.032169 0.807248 0.453245
0.431450 0.785088 0.441500
0.829239 0.763054 0.430435
1.000000 0.748051 0.426980
0.000000 0.995781 0.438877
0.019411 0.982434 0.437830
0.431405 0.958889 0.427768
0.831210 0.935250 0.418753
1.000000 0.918854 0.418075
0.000000 0.017015 1.000000
0.094195 0.009114 1.000000
0.415823 0.000000 0.981950
0.760655 0.000000 0.962769
0.987636 0.000000 0.949088
0.000000 0.137508 0.971213
0.093909 0.129136 0.961841
0.450588 0.112550 0.945118
0.824486 0.095614 0.928907
1.000000 0.084316 0.919186
0.000000 0.482658 0.911256
0.061107 0.472144 0.905683
0.443676 0.452812 0.892136
0.834629 0.433385 0.879327
1.000000 0.420426 0.873805
0.000000 0.812512 0.866255
0.028670 0.799642 0.864259
0.429443 0.777442 0.853779
0.827583 0.755392 0.844291
1.000000 0.740431 0.842725
0.000000 0.988101 0.853473
0.015818 0.974531 0.854335
0.428840 0.950740 0.846344
0.828693 0.926890 0.839587
1.000000 0.910360 0.841365
0.000000 0.013587 1.000000
0.093918 0.005624 1.000000
0.419450 0.000000 1.000000
0.767552 0.000000 1.000000
0.995135 0.000000 1.000000
0.000000 0.133788 1.000000
0.093105 0.125413 1.000000
0.452715 0.108770 1.000000
0.829007 0.091807 1.000000
1.000000 0.080606 1.000000
0.000000 0.478202 1.000000
0.060086 0.467727 1.000000
0.444777 0.448395 1.000000
0.836802 0.429009 1.000000
1.000000 0.416178 1.000000
0.000000 0.807377 1.000000
0.027663 0.794553 1.000000
0.429924 0.772366 1.000000
0.828431 0.750365 1.000000
1.000000 0.735523 1.000000
0.000000 0.983015 1.000000
0.014974 0.969310 1.000000
0.429092 0.945373 1.000000
0.829098 0.921419 1.000000
1.000000 0.904874 1.000000
