library/cube/Night_Crawler_001.cube
# CINEGRADE LAB — Premium Cinematic LUT
# Title: Night Crawler
# Category: Neo Noir
# Description: Dramatic shadows, high contrast, moody lighting inspired by noir cinema
# Mood: Mysterious, dramatic, dark
# Variant: 2
# Generated: 2026-05-21T16:12:29.939891
TITLE "Night Crawler"
LUT_3D_SIZE 33
0.000000 0.000000 0.000000
0.000000 0.000000 0.000000
0.000001 0.000000 0.000000
0.000002 0.000001 0.000000
0.000004 0.000001 0.000000
0.000006 0.000002 0.000000
0.007904 0.001032 0.001109
0.034805 0.004525 0.004860
0.060867 0.007885 0.008455
0.086676 0.011189 0.011980
0.112410 0.014462 0.015460
0.138155 0.017716 0.018908
0.163959 0.020957 0.022333
0.189851 0.024190 0.025739
0.215851 0.027419 0.029131
0.241972 0.030645 0.032510
0.268222 0.033870 0.035879
0.294608 0.037095 0.039240
0.321132 0.040321 0.042594
0.347797 0.043550 0.045941
0.374604 0.046781 0.049283
0.401552 0.050015 0.052621
0.428640 0.053253 0.055954
0.455869 0.056494 0.059284
0.483234 0.059738 0.062610
0.510736 0.062987 0.065934
0.538370 0.066240 0.069256
0.566135 0.069497 0.072575
0.594028 0.072758 0.075892
0.601413 0.073503 0.076579
0.603993 0.073662 0.076656
0.606533 0.073818 0.076731
0.609033 0.073973 0.076806
0.000002 0.000001 0.000000
0.000004 0.000001 0.000000
0.000006 0.000002 0.000000
0.000009 0.000003 0.000000
0.000012 0.000004 0.000000
0.000015 0.000005 0.000000
0.008093 0.001047 0.001114
0.035585 0.004576 0.004883
0.062196 0.007969 0.008495
0.088526 0.011305 0.012035
0.114758 0.014609 0.015530
0.140981 0.017892 0.018993
0.167243 0.021161 0.022431
0.193576 0.024421 0.025851
0.220000 0.027676 0.029255
0.246528 0.030927 0.032647
0.273171 0.034176 0.036028
0.299934 0.037424 0.039400
0.326820 0.040673 0.042764
0.353834 0.043923 0.046122
0.380975 0.047174 0.049474
0.408244 0.050428 0.052821
0.435641 0.053685 0.056164
0.463164 0.056944 0.059502
0.490812 0.060206 0.062837
0.518584 0.063471 0.066169
0.546476 0.066740 0.069498
0.574488 0.070012 0.072824
0.602616 0.073287 0.076148
0.609933 0.074028 0.076833
0.612379 0.074179 0.076906
0.614785 0.074328 0.076977
0.617153 0.074475 0.077048
0.000010 0.000003 0.000000
0.000013 0.000004 0.000000
0.000017 0.000005 0.000000
0.000021 0.000007 0.000000
0.000025 0.000008 0.000000
0.000030 0.000010 0.000000
0.008279 0.001062 0.001119
0.036335 0.004626 0.004905
0.063469 0.008051 0.008533
0.090296 0.011418 0.012088
0.117002 0.014751 0.015597
0.143679 0.018061 0.019074
0.170377 0.021357 0.022525
0.197128 0.024643 0.025957
0.223955 0.027922 0.029374
0.250870 0.031197 0.032777
0.277884 0.034469 0.036169
0.305004 0.037739 0.039552
0.332234 0.041009 0.042926
0.359576 0.044279 0.046294
0.387033 0.047550 0.049655
0.414605 0.050822 0.053011
0.442292 0.054096 0.056362
0.470092 0.057373 0.059709
0.498006 0.060651 0.063052
0.526031 0.063932 0.066391
0.554166 0.067216 0.069727
0.582408 0.070502 0.073060
0.610755 0.073791 0.076390
0.618005 0.074528 0.077073
0.620321 0.074671 0.077142
0.622598 0.074812 0.077209
0.624837 0.074952 0.077275
0.000022 0.000007 0.000000
0.000027 0.000009 0.000000
0.000032 0.000010 0.000000
0.000038 0.000012 0.000000
0.000044 0.000014 0.000000
0.000050 0.000016 0.000000
0.008462 0.001079 0.001124
0.037056 0.004676 0.004926
0.064688 0.008131 0.008569
0.091987 0.011527 0.012138
0.119145 0.014887 0.015661
0.146253 0.018224 0.019150
0.173365 0.021546 0.022614
0.200514 0.024856 0.026058
0.227722 0.028159 0.029486
0.255003 0.031456 0.032900
0.282369 0.034749 0.036303
0.309826 0.038040 0.039696
0.337380 0.041330 0.043080
0.365033 0.044619 0.046457
0.392787 0.047908 0.049827
0.420644 0.051198 0.053191
0.448603 0.054489 0.056550
0.476665 0.057781 0.059905
0.504827 0.061075 0.063255
0.533090 0.064370 0.066601
0.561450 0.067668 0.069943
0.589907 0.070967 0.073283
0.618459 0.074268 0.076619
0.625643 0.075002 0.077299
0.627832 0.075138 0.077364
0.629983 0.075272 0.077428
0.632098 0.075404 0.077490
0.000040 0.000013 0.000000
0.000046 0.000015 0.000000
0.000053 0.000017 0.000000
0.000060 0.000019 0.000000
0.000067 0.000022 0.000000
0.000075 0.000024 0.000000
0.008643 0.001097 0.001129
0.037748 0.004725 0.004946
0.065854 0.008210 0.008603
0.093602 0.011633 0.012186
0.121188 0.015019 0.015722
0.148706 0.018381 0.019223
0.176211 0.021727 0.022699
0.203736 0.025060 0.026154
0.231305 0.028385 0.029593
0.258933 0.031703 0.033017
0.286631 0.035017 0.036430
0.314407 0.038327 0.039832
0.342266 0.041636 0.043225
0.370212 0.044943 0.046610
0.398246 0.048249 0.049989
0.426371 0.051556 0.053361
0.454586 0.054862 0.056728
0.482891 0.058169 0.060089
0.511287 0.061478 0.063446
0.539771 0.064787 0.066799
0.568343 0.068097 0.070147
0.597000 0.071409 0.073492
0.625741 0.074722 0.076834
0.632859 0.075451 0.077512
0.634925 0.075580 0.077573
0.636955 0.075707 0.077633
0.638950 0.075832 0.077692
0.000062 0.000020 0.000000
0.000070 0.000022 0.000000
0.000078 0.000025 0.000000
0.000087 0.000028 0.000000
0.000096 0.000031 0.000000
0.000105 0.000034 0.000000
0.008821 0.001116 0.001133
0.038412 0.004773 0.004965
0.066969 0.008286 0.008636
0.095144 0.011735 0.012231
0.123136 0.015146 0.015779
0.151042 0.018532 0.019292
0.178919 0.021901 0.022779
0.206800 0.025256 0.026245
0.234711 0.028602 0.029694
0.262666 0.031940 0.033128
0.290678 0.035273 0.036549
0.318754 0.038602 0.039961
0.346900 0.041928 0.043362
0.375121 0.045252 0.046756
0.403418 0.048574 0.050142
0.431794 0.051896 0.053522
0.460249 0.055217 0.056895
0.488783 0.058539 0.060263
0.517396 0.061860 0.063627
0.546086 0.065182 0.066985
0.574854 0.068504 0.070340
0.603697 0.071827 0.073690
0.632614 0.075151 0.077036
0.639668 0.075877 0.077713
0.641615 0.075999 0.077770
0.643527 0.076119 0.077826
0.645406 0.076237 0.077881
0.003360 0.012039 0.003801
0.003385 0.012072 0.003805
0.003411 0.012104 0.003809
0.003438 0.012136 0.003814
0.003464 0.012168 0.003818
0.003491 0.012199 0.003822
0.012362 0.013317 0.004964
0.042431 0.017030 0.008813
0.071430 0.020596 0.012501
0.100024 0.024096 0.016112
0.128416 0.027557 0.019675
0.156705 0.030991 0.023203
0.184947 0.034405 0.026704
0.213179 0.037806 0.030184
0.241425 0.041195 0.033646
0.269702 0.044576 0.037093
0.298023 0.047950 0.040527
0.326394 0.051320 0.043949
0.354824 0.054685 0.047362
0.383315 0.058047 0.050767
0.411871 0.061406 0.054163
0.440494 0.064764 0.057553
0.469184 0.068120 0.060936
0.497943 0.071475 0.064314
0.526770 0.074829 0.067686
0.555664 0.078182 0.071053
0.584625 0.081535 0.074415
0.613651 0.084888 0.077773
0.642742 0.088240 0.081127
0.649741 0.088981 0.081804
0.651583 0.089114 0.081860
0.653392 0.089245 0.081915
0.655168 0.089374 0.081969
0.014674 0.053034 0.016698
0.014754 0.053161 0.016717
0.014834 0.053286 0.016735
0.014913 0.053409 0.016753
0.014991 0.053530 0.016770
0.015068 0.053650 0.016788
0.024122 0.054863 0.017946
0.054677 0.058688 0.021822
0.084129 0.062362 0.025534
0.113152 0.065968 0.029169
0.141954 0.069532 0.032755
0.170635 0.073067 0.036305
0.199253 0.076580 0.039828
0.227846 0.080077 0.043328
0.256439 0.083561 0.046810
0.285049 0.087034 0.050276
0.313688 0.090498 0.053729
0.342365 0.093955 0.057171
0.371088 0.097406 0.060602
0.399860 0.100852 0.064023
0.428685 0.104293 0.067437
0.457565 0.107731 0.070843
0.486502 0.111165 0.074242
0.515496 0.114596 0.077634
0.544546 0.118025 0.081021
0.573654 0.121451 0.084403
0.602818 0.124875 0.087779
0.632037 0.128297 0.091150
0.661310 0.131717 0.094517
0.668278 0.132511 0.095200
0.670041 0.132694 0.095261
0.671772 0.132874 0.095321
0.673470 0.133050 0.095379
0.025840 0.092829 0.029117
0.025966 0.093037 0.029147
0.026092 0.093241 0.029177
0.026215 0.093442 0.029206
0.026338 0.093639 0.029235
0.026459 0.093834 0.029264
0.035681 0.095129 0.030437
0.066692 0.099051 0.034336
0.096567 0.102820 0.038069
0.125992 0.106517 0.041726
0.155177 0.110171 0.045332
0.184224 0.113793 0.048902
0.213193 0.117391 0.052444
0.242122 0.120971 0.055963
0.271036 0.124536 0.059462
0.299954 0.128088 0.062946
0.328889 0.131630 0.066416
0.357849 0.135162 0.069873
0.386843 0.138687 0.073320
0.415874 0.142204 0.076757
0.444946 0.145716 0.080185
0.474063 0.149221 0.083605
0.503224 0.152722 0.087018
0.532433 0.156218 0.090423
0.561688 0.159710 0.093823
0.590989 0.163197 0.097217
0.620338 0.166681 0.100605
0.649731 0.170161 0.103987
0.679169 0.173637 0.107365
0.686101 0.174475 0.108053
0.687784 0.174698 0.108117
0.689435 0.174917 0.108180
0.691054 0.175131 0.108242
0.037070 0.132279 0.041337
0.037237 0.132556 0.041377
0.037402 0.132828 0.041417
0.037565 0.133096 0.041457
0.037726 0.133360 0.041495
0.037885 0.133620 0.041533
0.047262 0.134985 0.042719
0.078701 0.138993 0.046639
0.108973 0.142845 0.050393
0.138774 0.146623 0.054068
0.168316 0.150355 0.057693
0.197705 0.154053 0.061280
0.227001 0.157726 0.064839
0.256242 0.161378 0.068374
0.285456 0.165014 0.071890
0.314661 0.168635 0.075389
0.343869 0.172243 0.078874
0.373091 0.175841 0.082346
0.402335 0.179429 0.085806
0.431605 0.183008 0.089256
0.460905 0.186580 0.092697
0.490239 0.190144 0.096130
0.519607 0.193701 0.099554
0.549012 0.197253 0.102971
0.578453 0.200798 0.106382
0.607932 0.204338 0.109786
0.637447 0.207872 0.113184
0.666998 0.211402 0.116576
0.696586 0.214926 0.119964
0.703478 0.215799 0.120655
0.705080 0.216055 0.120722
0.706651 0.216305 0.120787
0.708190 0.216550 0.120851
0.048412 0.171619 0.053442
0.048614 0.171956 0.053492
0.048814 0.172287 0.053541
0.049011 0.172613 0.053588
0.049205 0.172933 0.053635
0.049397 0.173248 0.053682
0.058919 0.174675 0.054879
0.090758 0.178759 0.058817
0.121402 0.182683 0.062589
0.151554 0.186532 0.066281
0.181431 0.190332 0.069922
0.211139 0.194097 0.073526
0.240739 0.197835 0.077100
0.270271 0.201550 0.080650
0.299763 0.205247 0.084179
0.329233 0.208927 0.087692
0.358695 0.212593 0.091190
0.388159 0.216247 0.094674
0.417633 0.219890 0.098147
0.447123 0.223522 0.101609
0.476633 0.227145 0.105061
0.506165 0.230759 0.108504
0.535723 0.234365 0.111939
0.565306 0.237964 0.115366
0.594918 0.241555 0.118786
0.624556 0.245138 0.122199
0.654223 0.248716 0.125606
0.683917 0.252286 0.129007
0.713638 0.255851 0.132401
0.720489 0.256753 0.133096
0.722010 0.257034 0.133164
0.723500 0.257309 0.133230
0.724960 0.257578 0.133295
0.059880 0.210947 0.065473
0.060113 0.211335 0.065530
0.060342 0.211716 0.065586
0.060569 0.212091 0.065641
0.060792 0.212460 0.065695
0.061011 0.212822 0.065748
0.070666 0.214301 0.066955
0.102881 0.218451 0.070910
0.133873 0.222439 0.074698
0.164353 0.226349 0.078406
0.194541 0.230209 0.082061
0.224545 0.234032 0.085679
0.254428 0.237825 0.089266
0.284231 0.241595 0.092829
0.313980 0.245344 0.096371
0.343695 0.249075 0.099896
0.373392 0.252791 0.103405
0.403079 0.256493 0.106900
0.432766 0.260182 0.110383
0.462457 0.263859 0.113855
0.492159 0.267526 0.117317
0.521873 0.271182 0.120770
0.551603 0.274829 0.124213
0.581350 0.278467 0.127649
0.611115 0.282096 0.131077
0.640899 0.285716 0.134498
0.670702 0.289329 0.137912
0.700524 0.292934 0.141320
0.730364 0.296531 0.144721
0.737171 0.297456 0.145417
0.738612 0.297757 0.145486
0.740023 0.298051 0.145553
0.741403 0.298339 0.145618
0.071474 0.250306 0.077448
0.071732 0.250737 0.077511
0.071987 0.251161 0.077574
0.072238 0.251577 0.077635
0.072486 0.251986 0.077695
0.072729 0.252388 0.077753
0.082507 0.253912 0.078969
0.115073 0.258119 0.082940
0.146389 0.262162 0.086742
0.177174 0.266125 0.090463
0.207652 0.270036 0.094131
0.237932 0.273908 0.097761
0.268078 0.277749 0.101360
0.298130 0.281565 0.104935
0.328117 0.285359 0.108488
0.358060 0.289133 0.112023
0.387972 0.292891 0.115542
0.417864 0.296633 0.119047
0.447745 0.300361 0.122539
0.477622 0.304076 0.126020
0.507499 0.307779 0.129490
0.537379 0.311470 0.132950
0.567265 0.315151 0.136402
0.597160 0.318821 0.139844
0.627064 0.322481 0.143279
0.656978 0.326132 0.146706
0.686904 0.329773 0.150127
0.716840 0.333406 0.153540
0.746787 0.337030 0.156947
0.753548 0.337971 0.157644
0.754909 0.338286 0.157712
0.756241 0.338594 0.157779
0.757544 0.338895 0.157844
0.083186 0.289714 0.089382
0.083466 0.290181 0.089450
0.083742 0.290640 0.089517
0.084014 0.291090 0.089583
0.084282 0.291532 0.089648
0.084545 0.291967 0.089711
0.094436 0.293528 0.090934
0.127329 0.297784 0.094919
0.158947 0.301873 0.098733
0.190017 0.305882 0.102466
0.220764 0.309836 0.106146
0.251300 0.313750 0.109787
0.281688 0.317631 0.113396
0.311971 0.321486 0.116981
0.342178 0.325317 0.120543
0.372329 0.329128 0.124087
0.402439 0.332920 0.127615
0.432519 0.336695 0.131128
0.462579 0.340455 0.134628
0.492624 0.344201 0.138116
0.522660 0.347933 0.141593
0.552691 0.351653 0.145060
0.582719 0.355361 0.148518
0.612747 0.359057 0.151966
0.642776 0.362742 0.155407
0.672807 0.366416 0.158839
0.702842 0.370081 0.162264
0.732880 0.373735 0.165682
0.762921 0.377380 0.169094
0.769634 0.378333 0.169791
0.770917 0.378657 0.169858
0.772171 0.378974 0.169924
0.773397 0.379283 0.169988
0.095006 0.329176 0.101281
0.095304 0.329672 0.101354
0.095598 0.330158 0.101425
0.095887 0.330636 0.101494
0.096171 0.331105 0.101563
0.096451 0.331564 0.101630
0.106446 0.333156 0.102859
0.139644 0.337454 0.106855
0.171542 0.341582 0.110681
0.202875 0.345628 0.114424
0.233872 0.349618 0.118114
0.264644 0.353567 0.121764
0.295256 0.357482 0.125383
0.325752 0.361368 0.128975
0.356161 0.365230 0.132546
0.386503 0.369070 0.136098
0.416795 0.372890 0.139633
0.447047 0.376692 0.143153
0.477269 0.380478 0.146659
0.507468 0.384248 0.150154
0.537648 0.388004 0.153637
0.567815 0.391746 0.157109
0.597971 0.395474 0.160572
0.628118 0.399191 0.164025
0.658259 0.402895 0.167470
0.688394 0.406587 0.170906
0.718525 0.410269 0.174335
0.748653 0.413939 0.177757
0.778776 0.417599 0.181171
0.785441 0.418560 0.181868
0.786647 0.418889 0.181934
0.787824 0.419210 0.181998
0.788975 0.419523 0.182061
0.106924 0.368686 0.113150
0.107237 0.369204 0.113226
0.107544 0.369713 0.113300
0.107847 0.370211 0.113373
0.108145 0.370700 0.113444
0.108437 0.371180 0.113514
0.118526 0.372794 0.114748
0.152007 0.377127 0.118754
0.184166 0.381288 0.122589
0.215743 0.385364 0.126342
0.246970 0.389384 0.130041
0.277960 0.393361 0.133699
0.308779 0.397302 0.137325
0.339470 0.401214 0.140925
0.370064 0.405099 0.144502
0.400581 0.408962 0.148061
0.431038 0.412805 0.151602
0.461447 0.416628 0.155127
0.491816 0.420433 0.158639
0.522154 0.424222 0.162138
0.552465 0.427995 0.165626
0.582754 0.431754 0.169103
0.613024 0.435498 0.172569
0.643278 0.439229 0.176026
0.673518 0.442947 0.179475
0.703746 0.446653 0.182914
0.733962 0.450346 0.186346
0.764168 0.454028 0.189770
0.794363 0.457698 0.193187
0.800978 0.458661 0.193882
0.802108 0.458991 0.193946
0.803211 0.459313 0.194009
0.804288 0.459626 0.194069
0.118927 0.408236 0.124992
0.119251 0.408771 0.125070
0.119569 0.409295 0.125146
0.119882 0.409808 0.125221
0.120190 0.410312 0.125294
0.120493 0.410805 0.125366
0.130668 0.412438 0.126604
0.164411 0.416798 0.130619
0.196810 0.420985 0.134463
0.228613 0.425086 0.138223
0.260052 0.429128 0.141929
0.291242 0.433127 0.145594
0.322250 0.437089 0.149226
0.353120 0.441020 0.152832
0.383883 0.444924 0.156415
0.414560 0.448804 0.159979
0.445168 0.452663 0.163525
0.475718 0.456501 0.167055
0.506221 0.460320 0.170571
0.536683 0.464123 0.174074
0.567112 0.467908 0.177566
0.597510 0.471678 0.181046
0.627882 0.475433 0.184515
0.658231 0.479174 0.187975
0.688559 0.482901 0.191426
0.718867 0.486615 0.194868
0.749158 0.490315 0.198302
0.779431 0.494004 0.201727
0.809688 0.497679 0.205145
0.816254 0.498642 0.205839
0.817310 0.498969 0.205901
0.818340 0.499288 0.205961
0.819345 0.499598 0.206019
0.131004 0.447815 0.136808
0.131336 0.448360 0.136888
0.131662 0.448894 0.136965
0.131982 0.449417 0.137041
0.132297 0.449930 0.137115
0.132607 0.450432 0.137188
0.142860 0.452077 0.138429
0.176846 0.456458 0.142452
0.209466 0.460665 0.146302
0.241476 0.464784 0.150069
0.273110 0.468844 0.153781
0.304484 0.472858 0.157452
0.335665 0.476835 0.161090
0.366699 0.480780 0.164700
0.397616 0.484698 0.168288
0.428438 0.488590 0.171856
0.459181 0.492459 0.175405
0.489860 0.496307 0.178939
0.520482 0.500136 0.182459
0.551057 0.503947 0.185965
0.581590 0.507740 0.189459
0.612085 0.511517 0.192941
0.642548 0.515278 0.196413
0.672980 0.519024 0.199875
0.703385 0.522755 0.203327
0.733764 0.526473 0.206770
0.764119 0.530176 0.210205
0.794450 0.533867 0.213631
0.824760 0.537545 0.217050
0.831275 0.538503 0.217742
0.832247 0.538824 0.217800
0.833174 0.539136 0.217857
0.834076 0.539440 0.217913
0.143143 0.487407 0.148599
0.143480 0.487958 0.148679
0.143811 0.488497 0.148757
0.144136 0.489025 0.148833
0.144455 0.489542 0.148908
0.144768 0.490047 0.148980
0.155093 0.491700 0.150224
0.189302 0.496097 0.154253
0.222126 0.500318 0.158110
0.254326 0.504450 0.161882
0.286138 0.508522 0.165599
0.317680 0.512547 0.169274
0.349019 0.516534 0.172916
0.380201 0.520488 0.176530
0.411257 0.524413 0.180122
0.442210 0.528312 0.183692
0.473077 0.532188 0.187245
0.503870 0.536041 0.190782
0.534600 0.539875 0.194303
0.565275 0.543690 0.197811
0.595900 0.547486 0.201307
0.626482 0.551265 0.204791
0.657024 0.555028 0.208264
0.687529 0.558775 0.211727
0.718001 0.562507 0.215180
0.748441 0.566224 0.218624
0.778851 0.569927 0.222059
0.809232 0.573617 0.225485
0.839289 0.577292 0.228904
0.845492 0.578243 0.229593
0.846362 0.578555 0.229648
0.847208 0.578859 0.229702
0.848030 0.579154 0.229754
0.155331 0.527000 0.160365
0.155671 0.527552 0.160445
0.156004 0.528091 0.160522
0.156331 0.528619 0.160598
0.156652 0.529136 0.160672
0.156968 0.529640 0.160745
0.167356 0.531295 0.161989
0.201769 0.535703 0.166024
0.234781 0.539933 0.169885
0.267155 0.544073 0.173662
0.299130 0.548152 0.177382
0.330824 0.552183 0.181061
0.362306 0.556174 0.184706
0.393623 0.560133 0.188324
0.424805 0.564061 0.191917
0.455876 0.567963 0.195490
0.486853 0.571841 0.199045
0.517749 0.575696 0.202583
0.548574 0.579530 0.206106
0.579337 0.583344 0.209616
0.610045 0.587140 0.213112
0.640702 0.590918 0.216597
0.671314 0.594679 0.220070
0.701882 0.598423 0.223533
0.732411 0.602152 0.226987
0.762903 0.605866 0.230430
0.793360 0.609565 0.233865
0.823782 0.613249 0.237291
0.853251 0.616920 0.240709
0.859374 0.617860 0.241395
0.860164 0.618162 0.241447
0.860931 0.618454 0.241497
0.861676 0.618738 0.241546
0.167559 0.566579 0.172105
0.167898 0.567127 0.172184
0.168232 0.567663 0.172261
0.168559 0.568186 0.172336
0.168879 0.568698 0.172409
0.169194 0.569198 0.172480
0.179639 0.570851 0.173725
0.214241 0.575264 0.177764
0.247423 0.579499 0.181629
0.279955 0.583642 0.185409
0.312078 0.587723 0.189132
0.343910 0.591756 0.192813
0.375523 0.595748 0.196461
0.406960 0.599707 0.200080
0.438256 0.603635 0.203676
0.469432 0.607535 0.207250
0.500507 0.611411 0.210806
0.531495 0.615263 0.214345
0.562405 0.619094 0.217869
0.593246 0.622905 0.221379
0.624026 0.626696 0.224876
0.654749 0.630469 0.228360
0.685420 0.634225 0.231833
0.716043 0.637963 0.235296
0.746621 0.641686 0.238749
0.777157 0.645393 0.242192
0.807652 0.649085 0.245626
0.837875 0.652762 0.249051
0.866903 0.656425 0.252467
0.872946 0.657353 0.253150
0.873659 0.657641 0.253198
0.874349 0.657920 0.253245
0.875018 0.658191 0.253290
0.179815 0.606130 0.183819
0.180152 0.606670 0.183896
0.180483 0.607198 0.183972
0.180808 0.607714 0.184045
0.181127 0.608217 0.184117
0.181439 0.608708 0.184186
0.191934 0.610355 0.185431
0.226707 0.614770 0.189474
0.260045 0.619004 0.193341
0.292721 0.623147 0.197123
0.324978 0.627226 0.200849
0.356935 0.631256 0.204532
0.388664 0.635246 0.208180
0.420210 0.639200 0.211801
0.451607 0.643124 0.215397
0.482877 0.647020 0.218972
0.514040 0.650890 0.222529
0.545108 0.654736 0.226068
0.576092 0.658561 0.229592
0.607002 0.662364 0.233101
0.637844 0.666148 0.236598
0.668624 0.669913 0.240082
0.699347 0.673661 0.243554
0.730016 0.677391 0.247016
0.760636 0.681104 0.250467
0.791208 0.684802 0.253909
0.821735 0.688484 0.257341
0.851314 0.692151 0.260765
0.880251 0.695804 0.264180
0.886215 0.696718 0.264858
0.886852 0.696991 0.264903
0.887468 0.697255 0.264946
0.888064 0.697511 0.264987
0.192089 0.645638 0.195506
0.192423 0.646167 0.195582
0.192750 0.646684 0.195655
0.193070 0.647188 0.195726
0.193384 0.647679 0.195796
0.193692 0.648159 0.195863
0.204232 0.649797 0.197107
0.239161 0.654209 0.201152
0.272640 0.658439 0.205021
0.305446 0.662577 0.208805
0.337824 0.666651 0.212531
0.369894 0.670675 0.216215
0.401727 0.674658 0.219865
0.433370 0.678605 0.223486
0.464857 0.682521 0.227082
0.496211 0.686409 0.230657
0.527450 0.690270 0.234213
0.558589 0.694108 0.237752
0.589638 0.697923 0.241275
0.620607 0.701717 0.244784
0.651503 0.705490 0.248279
0.682332 0.709245 0.251762
0.713099 0.712982 0.255233
0.743807 0.716701 0.258693
0.774461 0.720403 0.262143
0.805063 0.724089 0.265583
0.835522 0.727759 0.269013
0.864464 0.731414 0.272435
0.893302 0.735055 0.275847
0.899187 0.735953 0.276522
0.899751 0.736210 0.276563
0.900296 0.736458 0.276602
0.900821 0.736698 0.276639
0.204373 0.685091 0.207166
0.204701 0.685606 0.207239
0.205022 0.686108 0.207309
0.205337 0.686597 0.207378
0.205645 0.687074 0.207445
0.205947 0.687539 0.207510
0.216526 0.689165 0.208753
0.251596 0.693570 0.212799
0.285202 0.697793 0.216669
0.318126 0.701923 0.220453
0.350612 0.705988 0.224180
0.382782 0.710003 0.227864
0.414708 0.713976 0.231514
0.446438 0.717914 0.235134
0.478004 0.721819 0.238730
0.509431 0.725696 0.242305
0.540738 0.729546 0.245860
0.571939 0.733372 0.249398
0.603045 0.737175 0.252919
0.634065 0.740956 0.256427
0.665007 0.744718 0.259921
0.695877 0.748460 0.263402
0.726680 0.752183 0.266871
0.757421 0.755889 0.270329
0.788103 0.759578 0.273777
0.818729 0.763251 0.277214
0.848493 0.766907 0.280643
0.877333 0.770549 0.284062
0.906062 0.774176 0.287472
0.911869 0.775057 0.288143
0.912363 0.775297 0.288179
0.912839 0.775528 0.288214
0.913297 0.775751 0.288247
0.216657 0.724476 0.218797
0.216978 0.724974 0.218867
0.217292 0.725459 0.218934
0.217599 0.725931 0.219000
0.217900 0.726391 0.219064
0.218195 0.726838 0.219126
0.228808 0.728448 0.220367
0.264006 0.732844 0.224414
0.297726 0.737056 0.228284
0.330755 0.741175 0.232069
0.363338 0.745229 0.235795
0.395597 0.749232 0.239479
0.427606 0.753193 0.243128
0.459412 0.757118 0.246747
0.491048 0.761010 0.250342
0.522540 0.764873 0.253915
0.553905 0.768710 0.257469
0.585160 0.772522 0.261005
0.616314 0.776311 0.264525
0.647378 0.780079 0.268031
0.678359 0.783826 0.271523
0.709263 0.787553 0.275002
0.740097 0.791262 0.278469
0.770864 0.794953 0.281925
0.801569 0.798627 0.285370
0.832214 0.802285 0.288805
0.861197 0.805927 0.292230
0.889926 0.809553 0.295647
0.918540 0.813165 0.299054
0.924269 0.814029 0.299721
0.924696 0.814251 0.299754
0.925107 0.814464 0.299784
0.925501 0.814670 0.299813
0.228935 0.763783 0.230398
0.229247 0.764261 0.230465
0.229553 0.764726 0.230529
0.229851 0.765178 0.230592
0.230144 0.765618 0.230652
0.230430 0.766046 0.230711
0.241072 0.767639 0.231950
0.276384 0.772023 0.235996
0.310207 0.776222 0.239867
0.343329 0.780327 0.243650
0.375999 0.784367 0.247376
0.408338 0.788356 0.251059
0.440419 0.792302 0.254706
0.472292 0.796212 0.258324
0.503990 0.800089 0.261918
0.535537 0.803937 0.265489
0.566953 0.807758 0.269041
0.598253 0.811555 0.272575
0.629449 0.815328 0.276093
0.660550 0.819080 0.279596
0.691564 0.822811 0.283086
0.722497 0.826522 0.286562
0.753356 0.830215 0.290027
0.784144 0.833890 0.293480
0.814867 0.837548 0.296922
0.844909 0.841190 0.300355
0.873640 0.844816 0.303777
0.902251 0.848427 0.307191
0.930743 0.852023 0.310595
0.936395 0.852868 0.311259
0.936759 0.853072 0.311287
0.937107 0.853268 0.311313
0.937440 0.853457 0.311338
0.241199 0.803000 0.241970
0.241501 0.803456 0.242033
0.241797 0.803900 0.242094
0.242086 0.804330 0.242152
0.242369 0.804749 0.242209
0.242645 0.805155 0.242264
0.253312 0.806729 0.243500
0.288727 0.811097 0.247546
0.322641 0.815281 0.251416
0.355847 0.819371 0.255198
0.388592 0.823394 0.258923
0.421001 0.827367 0.262603
0.453147 0.831297 0.266249
0.485078 0.835190 0.269866
0.516829 0.839050 0.273457
0.548425 0.842882 0.277026
0.579884 0.846686 0.280576
0.611224 0.850465 0.284108
0.642454 0.854222 0.287623
