library/cube/Night_Still_004.cube
# CINEGRADE LAB — Premium Cinematic LUT
# Title: Night Still
# Category: CineStill 800T Emulation
# Description: Tungsten balance, halation glow, night film characteristics
# Mood: Nocturnal, glowing, cinematic
# Variant: 5
# Generated: 2026-05-21T16:12:55.348951
TITLE "Night Still"
LUT_3D_SIZE 33
0.073243 0.061372 0.047194
0.098483 0.062432 0.048192
0.124162 0.063510 0.049210
0.150178 0.064603 0.050242
0.176467 0.065707 0.051285
0.202988 0.066820 0.052339
0.229711 0.067942 0.053402
0.256614 0.069071 0.054472
0.283679 0.070207 0.055549
0.310892 0.071350 0.056633
0.338241 0.072497 0.057723
0.365717 0.073651 0.058819
0.393311 0.074809 0.059920
0.421016 0.075971 0.061026
0.448827 0.077139 0.062137
0.476737 0.078310 0.063252
0.504743 0.079485 0.064372
0.532839 0.080664 0.065496
0.561023 0.081847 0.066624
0.589291 0.083033 0.067755
0.617640 0.084223 0.068891
0.646067 0.085415 0.070030
0.674557 0.086611 0.071172
0.703095 0.087808 0.072317
0.731694 0.089009 0.073464
0.760352 0.090211 0.074614
0.789064 0.091416 0.075767
0.817829 0.092623 0.076922
0.846642 0.093832 0.078080
0.863951 0.094561 0.078758
0.864118 0.094575 0.078722
0.864284 0.094589 0.078685
0.864448 0.094603 0.078649
0.076548 0.086846 0.050266
0.101809 0.087910 0.051267
0.127509 0.088993 0.052287
0.153546 0.090089 0.053321
0.179856 0.091197 0.054368
0.206399 0.092315 0.055424
0.233144 0.093440 0.056489
0.260069 0.094574 0.057562
0.287156 0.095714 0.058642
0.314391 0.096860 0.059728
0.341763 0.098012 0.060821
0.369261 0.099169 0.061919
0.396878 0.100331 0.063023
0.424607 0.101498 0.064131
0.452441 0.102669 0.065245
0.480376 0.103845 0.066363
0.508406 0.105024 0.067485
0.536528 0.106207 0.068612
0.564737 0.107394 0.069742
0.593030 0.108584 0.070876
0.621405 0.109778 0.072015
0.649859 0.110975 0.073156
0.678370 0.112174 0.074301
0.706917 0.113375 0.075447
0.735523 0.114578 0.076597
0.764184 0.115784 0.077749
0.792897 0.116992 0.078903
0.821659 0.118202 0.080060
0.850467 0.119413 0.081219
0.867770 0.120145 0.081899
0.867933 0.120162 0.081863
0.868094 0.120179 0.081828
0.868254 0.120195 0.081794
0.079912 0.112773 0.053400
0.105193 0.113842 0.054404
0.130915 0.114928 0.055426
0.156973 0.116029 0.056463
0.183305 0.117140 0.057512
0.209870 0.118262 0.058571
0.236637 0.119392 0.059638
0.263584 0.120529 0.060714
0.290694 0.121673 0.061796
0.317952 0.122824 0.062885
0.345347 0.123979 0.063981
0.372869 0.125141 0.065081
0.400510 0.126307 0.066188
0.428263 0.127477 0.067299
0.456122 0.128653 0.068415
0.484082 0.129832 0.069536
0.512138 0.131015 0.070661
0.540285 0.132202 0.071790
0.568521 0.133393 0.072923
0.596842 0.134588 0.074060
0.625245 0.135785 0.075201
0.653727 0.136986 0.076346
0.682258 0.138190 0.077493
0.710810 0.139394 0.078641
0.739417 0.140600 0.079792
0.768077 0.141809 0.080945
0.796787 0.143019 0.082101
0.825541 0.144232 0.083259
0.854338 0.145446 0.084420
0.871631 0.146180 0.085100
0.871789 0.146200 0.085066
0.871946 0.146219 0.085033
0.872102 0.146238 0.085000
0.083322 0.139049 0.056583
0.108625 0.140121 0.057589
0.134368 0.141212 0.058614
0.160448 0.142316 0.059654
0.186802 0.143432 0.060705
0.213389 0.144557 0.061766
0.240179 0.145691 0.062836
0.267149 0.146832 0.063914
0.294283 0.147981 0.065000
0.321564 0.149135 0.066091
0.348983 0.150295 0.067189
0.376530 0.151460 0.068293
0.404196 0.152630 0.069401
0.431974 0.153805 0.070515
0.459859 0.154984 0.071634
0.487845 0.156167 0.072757
0.515928 0.157355 0.073885
0.544103 0.158546 0.075017
0.572366 0.159741 0.076153
0.600716 0.160939 0.077293
0.629148 0.162141 0.078437
0.657659 0.163346 0.079584
0.686210 0.164553 0.080734
0.714762 0.165760 0.081883
0.743368 0.166969 0.083036
0.772022 0.168180 0.084191
0.800721 0.169393 0.085348
0.829462 0.170608 0.086507
0.858242 0.171825 0.087668
0.875521 0.172561 0.088350
0.875675 0.172583 0.088317
0.875828 0.172605 0.088285
0.875979 0.172627 0.088253
0.086773 0.165610 0.059807
0.112097 0.166686 0.060816
0.137862 0.167780 0.061843
0.163964 0.168889 0.062885
0.190341 0.170008 0.063939
0.216951 0.171138 0.065003
0.243765 0.172275 0.066075
0.270759 0.173421 0.067156
0.297916 0.174573 0.068244
0.325222 0.175731 0.069338
0.352666 0.176895 0.070439
0.380238 0.178064 0.071545
0.407930 0.179238 0.072656
0.435735 0.180417 0.073773
0.463647 0.181600 0.074894
0.491661 0.182787 0.076020
0.519771 0.183979 0.077151
0.547975 0.185174 0.078286
0.576268 0.186373 0.079424
0.604648 0.187576 0.080567
0.633110 0.188782 0.081714
0.661654 0.189991 0.082864
0.690223 0.191201 0.084016
0.718771 0.192411 0.085167
0.747368 0.193623 0.086321
0.776010 0.194836 0.087477
0.804694 0.196051 0.088635
0.833415 0.197268 0.089795
0.862171 0.198486 0.090957
0.879431 0.199225 0.091639
0.879581 0.199250 0.091608
0.879730 0.199274 0.091577
0.879877 0.199299 0.091547
0.090260 0.192414 0.063066
0.115606 0.193493 0.064077
0.141393 0.194592 0.065107
0.167518 0.195704 0.066152
0.193919 0.196827 0.067208
0.220553 0.197961 0.068275
0.247390 0.199102 0.069350
0.274409 0.200251 0.070433
0.301591 0.201407 0.071524
0.328923 0.202569 0.072621
0.356393 0.203737 0.073724
0.383992 0.204910 0.074833
0.411711 0.206088 0.075947
0.439543 0.207271 0.077066
0.467484 0.208458 0.078190
0.495526 0.209650 0.079319
0.523666 0.210845 0.080452
0.551901 0.212045 0.081590
0.580225 0.213248 0.082732
0.608636 0.214454 0.083877
0.637131 0.215665 0.085027
0.665708 0.216878 0.086180
0.694295 0.218092 0.087334
0.722833 0.219304 0.088487
0.751416 0.220518 0.089642
0.780040 0.221733 0.090798
0.808701 0.222950 0.091957
0.837395 0.224169 0.093117
0.866119 0.225389 0.094279
0.883357 0.226129 0.094963
0.883503 0.226156 0.094933
0.883647 0.226184 0.094903
0.883790 0.226211 0.094874
0.093781 0.219430 0.066357
0.119149 0.220513 0.067371
0.144960 0.221615 0.068403
0.171109 0.222731 0.069450
0.197533 0.223859 0.070509
0.224191 0.224996 0.071578
0.251054 0.226141 0.072656
0.278098 0.227294 0.073742
0.305307 0.228454 0.074835
0.332665 0.229620 0.075935
0.360163 0.230792 0.077041
0.387789 0.231969 0.078152
0.415537 0.233151 0.079269
0.443398 0.234337 0.080391
0.471368 0.235529 0.081518
0.499441 0.236724 0.082650
0.527613 0.237924 0.083786
0.555879 0.239127 0.084927
0.584236 0.240334 0.086071
0.612680 0.241545 0.087220
0.641210 0.242760 0.088373
0.669822 0.243977 0.089529
0.698426 0.245195 0.090685
0.726947 0.246409 0.091839
0.755509 0.247625 0.092994
0.784108 0.248842 0.094151
0.812740 0.250060 0.095310
0.841400 0.251280 0.096471
0.870084 0.252501 0.097633
0.887294 0.253243 0.098316
0.887436 0.253273 0.098288
0.887576 0.253303 0.098260
0.887714 0.253332 0.098232
0.097335 0.246635 0.069676
0.122727 0.247722 0.070692
0.148561 0.248828 0.071728
0.174734 0.249948 0.072777
0.201183 0.251079 0.073839
0.227867 0.252220 0.074910
0.254756 0.253369 0.075991
0.281827 0.254526 0.077080
0.309062 0.255690 0.078175
0.336449 0.256859 0.079278
0.363975 0.258035 0.080387
0.391630 0.259216 0.081501
0.419408 0.260402 0.082621
0.447300 0.261593 0.083746
0.475301 0.262788 0.084876
0.503406 0.263988 0.086010
0.531611 0.265191 0.087149
0.559910 0.266399 0.088293
0.588302 0.267610 0.089440
0.616782 0.268825 0.090592
0.645348 0.270044 0.091748
0.673997 0.271266 0.092907
0.702617 0.272487 0.094066
0.731115 0.273703 0.095220
0.759649 0.274920 0.096376
0.788215 0.276138 0.097533
0.816809 0.277358 0.098692
0.845427 0.278579 0.099853
0.874063 0.279800 0.101014
0.891240 0.280544 0.101698
0.891377 0.280576 0.101671
0.891513 0.280608 0.101644
0.891647 0.280641 0.101618
0.100921 0.274011 0.073022
0.126337 0.275102 0.074041
0.152196 0.276212 0.075079
0.178394 0.277335 0.076131
0.204869 0.278470 0.077195
0.231580 0.279615 0.078269
0.258495 0.280768 0.079353
0.285594 0.281929 0.080444
0.312858 0.283096 0.081543
0.340274 0.284270 0.082648
0.367830 0.285450 0.083759
0.395516 0.286634 0.084876
0.423325 0.287824 0.085999
0.451249 0.289019 0.087127
0.479283 0.290219 0.088260
0.507422 0.291422 0.089398
0.535661 0.292630 0.090540
0.563997 0.293842 0.091686
0.592425 0.295057 0.092837
0.620942 0.296277 0.093992
0.649547 0.297499 0.095151
0.678235 0.298726 0.096313
0.706869 0.299950 0.097474
0.735336 0.301167 0.098628
0.763835 0.302385 0.099784
0.792361 0.303605 0.100942
0.820909 0.304825 0.102100
0.849474 0.306047 0.103260
0.878053 0.307268 0.104421
0.895191 0.308013 0.105104
0.895324 0.308048 0.105079
0.895456 0.308082 0.105054
0.895586 0.308117 0.105029
0.104539 0.301544 0.076392
0.129980 0.302638 0.077414
0.155864 0.303752 0.078454
0.182089 0.304879 0.079509
0.208591 0.306018 0.080576
0.235329 0.307166 0.081653
0.262273 0.308323 0.082739
0.289401 0.309488 0.083833
0.316695 0.310659 0.084935
0.344141 0.311837 0.086043
0.371728 0.313020 0.087157
0.399447 0.314209 0.088277
0.427289 0.315403 0.089403
0.455247 0.316602 0.090534
0.483316 0.317805 0.091670
0.511491 0.319013 0.092810
0.539766 0.320225 0.093955
0.568139 0.321441 0.095105
0.596606 0.322661 0.096259
0.625163 0.323884 0.097417
0.653808 0.325112 0.098579
0.682539 0.326342 0.099745
0.711184 0.327570 0.100908
0.739614 0.328788 0.102062
0.768069 0.330007 0.103218
0.796545 0.331227 0.104375
0.825037 0.332448 0.105533
0.853542 0.333669 0.106691
0.882054 0.334891 0.107851
0.899147 0.335636 0.108534
0.899276 0.335673 0.108510
0.899403 0.335711 0.108486
0.899529 0.335748 0.108463
0.108189 0.329221 0.079786
0.133656 0.330319 0.080810
0.159567 0.331436 0.081853
0.185819 0.332567 0.082911
0.212349 0.333710 0.083980
0.239116 0.334862 0.085060
0.266090 0.336023 0.086149
0.293248 0.337191 0.087246
0.320574 0.338366 0.088350
0.348052 0.339548 0.089461
0.375672 0.340736 0.090578
0.403425 0.341928 0.091701
0.431301 0.343127 0.092830
0.459295 0.344329 0.093964
0.487401 0.345537 0.095103
0.515613 0.346749 0.096247
0.543927 0.347965 0.097395
0.572340 0.349185 0.098548
0.600847 0.350409 0.099705
0.629446 0.351637 0.100866
0.658134 0.352869 0.102032
0.686909 0.354104 0.103201
0.715566 0.355334 0.104366
0.743948 0.356553 0.105520
0.772350 0.357773 0.106675
0.800768 0.358993 0.107831
0.829196 0.360214 0.108988
0.857629 0.361435 0.110145
0.886064 0.362656 0.111303
0.903106 0.363401 0.111986
0.903230 0.363441 0.111963
0.903353 0.363481 0.111941
0.903475 0.363521 0.111918
0.111872 0.357032 0.083201
0.137365 0.358134 0.084228
0.163304 0.359255 0.085274
0.189585 0.360389 0.086334
0.216145 0.361536 0.087406
0.242942 0.362692 0.088489
0.269947 0.363857 0.089581
0.297137 0.365029 0.090681
0.324495 0.366208 0.091788
0.352008 0.367394 0.092902
0.379663 0.368585 0.094022
0.407451 0.369782 0.095148
0.435364 0.370984 0.096280
0.463395 0.372191 0.097417
0.491540 0.373403 0.098559
0.519792 0.374619 0.099706
0.548147 0.375839 0.100858
0.576601 0.377064 0.102014
0.605152 0.378292 0.103174
0.633795 0.379525 0.104339
0.662529 0.380761 0.105508
0.691350 0.382001 0.106681
0.720015 0.383234 0.107848
0.748342 0.384453 0.109001
0.776682 0.385672 0.110155
0.805031 0.386892 0.111309
0.833384 0.388113 0.112465
0.861736 0.389333 0.113620
0.890082 0.390553 0.114776
0.907066 0.391299 0.115458
0.907186 0.391341 0.115436
0.907305 0.391383 0.115415
0.907422 0.391425 0.115395
0.115588 0.384969 0.086637
0.141109 0.386075 0.087667
0.167077 0.387199 0.088715
0.193387 0.388338 0.089779
0.219978 0.389488 0.090854
0.246807 0.390648 0.091939
0.273845 0.391816 0.093034
0.301069 0.392992 0.094137
0.328462 0.394176 0.095247
0.356010 0.395365 0.096364
0.383701 0.396561 0.097487
0.411527 0.397762 0.098616
0.439479 0.398968 0.099751
0.467550 0.400179 0.100892
0.495735 0.401395 0.102037
0.524029 0.402615 0.103187
0.552427 0.403840 0.104342
0.580926 0.405069 0.105502
0.609522 0.406302 0.106666
0.638212 0.407539 0.107834
0.666993 0.408779 0.109007
0.695864 0.410024 0.110183
0.724536 0.411260 0.111352
0.752797 0.412479 0.112504
0.781064 0.413698 0.113656
0.809335 0.414917 0.114809
0.837602 0.416136 0.115962
0.865861 0.417355 0.117115
0.894107 0.418574 0.118268
0.911026 0.419319 0.118949
0.911142 0.419364 0.118929
0.911256 0.419409 0.118910
0.911369 0.419453 0.118890
0.119337 0.413024 0.090093
0.144887 0.414134 0.091126
0.170886 0.415262 0.092177
0.197228 0.416404 0.093243
0.223851 0.417558 0.094321
0.250714 0.418722 0.095410
0.277786 0.419894 0.096507
0.305045 0.421074 0.097613
0.332474 0.422261 0.098726
0.360060 0.423455 0.099846
0.387790 0.424655 0.100973
0.415655 0.425860 0.102105
0.443647 0.427070 0.103244
0.471761 0.428286 0.104387
0.499989 0.429506 0.105536
0.528327 0.430731 0.106690
0.556771 0.431960 0.107848
0.585316 0.433193 0.109011
0.613960 0.434431 0.110179
0.642699 0.435672 0.111350
0.671532 0.436917 0.112527
0.700454 0.438166 0.113707
0.729131 0.439405 0.114877
0.757315 0.440623 0.116027
0.785500 0.441842 0.117178
0.813680 0.443060 0.118329
0.841850 0.444277 0.119479
0.870005 0.445495 0.120630
0.898139 0.446711 0.121780
0.914986 0.447456 0.122459
0.915098 0.447503 0.122441
0.915208 0.447550 0.122422
0.915316 0.447597 0.122404
0.123121 0.441191 0.093569
0.148702 0.442304 0.094604
0.174733 0.443436 0.095658
0.201108 0.444582 0.096727
0.227765 0.445740 0.097808
0.254662 0.446907 0.098900
0.281771 0.448084 0.100000
0.309067 0.449268 0.101109
0.336535 0.450459 0.102226
0.364160 0.451657 0.103349
0.391930 0.452861 0.104479
0.419837 0.454070 0.105614
0.447873 0.455285 0.106756
0.476030 0.456505 0.107903
0.504304 0.457729 0.109055
0.532688 0.458958 0.110212
0.561180 0.460192 0.111374
0.589775 0.461430 0.112541
0.618469 0.462672 0.113712
0.647261 0.463918 0.114888
0.676146 0.465168 0.116067
0.705124 0.466422 0.117252
0.733803 0.467663 0.118424
0.761900 0.468881 0.119572
0.789991 0.470098 0.120720
0.818070 0.471314 0.121868
0.846131 0.472530 0.123016
0.874168 0.473744 0.124163
0.902178 0.474958 0.125309
0.918944 0.475703 0.125987
0.919052 0.475752 0.125969
0.919157 0.475802 0.125953
0.919262 0.475851 0.125936
0.126940 0.469464 0.097063
0.152554 0.470581 0.098101
0.178618 0.471716 0.099158
0.205027 0.472866 0.100230
0.231720 0.474028 0.101314
0.258655 0.475199 0.102408
0.285801 0.476380 0.103512
0.313137 0.477568 0.104624
0.340645 0.478764 0.105744
0.368311 0.479965 0.106870
0.396124 0.481173 0.108003
0.424075 0.482387 0.109143
0.452156 0.483606 0.110287
0.480360 0.484830 0.111438
0.508682 0.486059 0.112594
0.537116 0.487293 0.113754
0.565658 0.488531 0.114920
0.594305 0.489774 0.116090
0.623053 0.491021 0.117265
0.651899 0.492272 0.118445
0.680841 0.493527 0.119629
0.709877 0.494785 0.120817
0.738555 0.496029 0.121990
0.766554 0.497245 0.123136
0.794539 0.498460 0.124281
0.822504 0.499674 0.125426
0.850443 0.500887 0.126570
0.878351 0.502099 0.127714
0.906222 0.503310 0.128856
0.922901 0.504053 0.129531
0.923004 0.504105 0.129515
0.923105 0.504157 0.129500
0.923205 0.504209 0.129484
0.130796 0.497838 0.100574
0.156444 0.498958 0.101615
0.182543 0.500098 0.102676
0.208989 0.501252 0.103751
0.235719 0.502417 0.104838
0.262693 0.503593 0.105935
0.289879 0.504777 0.107042
0.317256 0.505970 0.108158
0.344807 0.507169 0.109281
0.372517 0.508375 0.110411
0.400375 0.509588 0.111547
0.428372 0.510806 0.112690
0.456501 0.512029 0.113838
0.484754 0.513258 0.114992
0.513126 0.514492 0.116151
0.541612 0.515730 0.117316
0.570207 0.516973 0.118485
0.598909 0.518220 0.119660
0.627713 0.519472 0.120838
0.656617 0.520728 0.122022
0.685619 0.521988 0.123210
0.714715 0.523252 0.124402
0.743391 0.524498 0.125577
0.771280 0.525711 0.126719
0.799146 0.526924 0.127861
0.826984 0.528136 0.129002
0.854789 0.529346 0.130143
0.882553 0.530554 0.131281
0.910272 0.531761 0.132419
0.926854 0.532503 0.133092
0.926953 0.532558 0.133077
0.927050 0.532612 0.133063
0.927146 0.532666 0.133049
0.134690 0.526308 0.104104
0.160373 0.527432 0.105148
0.186509 0.528576 0.106211
0.212993 0.529734 0.107289
0.239763 0.530903 0.108379
0.266777 0.532083 0.109480
0.294006 0.533272 0.110591
0.321427 0.534468 0.111709
0.349022 0.535672 0.112836
0.376778 0.536883 0.113969
0.404684 0.538099 0.115109
0.432730 0.539322 0.116255
0.460909 0.540550 0.117407
0.489213 0.541783 0.118565
0.517639 0.543021 0.119728
0.546179 0.544265 0.120896
0.574831 0.545512 0.122070
0.603590 0.546765 0.123248
0.632454 0.548021 0.124431
0.661419 0.549282 0.125618
0.690483 0.550547 0.126810
0.719644 0.551816 0.128007
0.748313 0.553065 0.129183
0.776079 0.554276 0.130322
0.803814 0.555486 0.131460
0.831513 0.556694 0.132597
0.859168 0.557901 0.133732
0.886776 0.559105 0.134866
0.914328 0.560308 0.135998
0.930804 0.561048 0.136668
0.930899 0.561105 0.136655
0.930991 0.561162 0.136642
0.931083 0.561219 0.136630
0.138622 0.554871 0.107650
0.164342 0.555999 0.108697
0.190517 0.557146 0.109763
0.217042 0.558308 0.110845
0.243854 0.559482 0.111938
0.270911 0.560666 0.113043
0.298184 0.561859 0.114156
0.325650 0.563060 0.115278
0.353293 0.564268 0.116408
0.381097 0.565483 0.117545
0.409053 0.566704 0.118689
0.437151 0.567931 0.119839
0.465382 0.569164 0.120994
0.493742 0.570402 0.122156
0.522223 0.571645 0.123323
0.550821 0.572893 0.124495
0.579532 0.574146 0.125673
0.608352 0.575403 0.126855
0.637278 0.576665 0.128042
0.666307 0.577931 0.129234
0.695437 0.579201 0.130430
0.724665 0.580476 0.131631
0.753326 0.581727 0.132808
0.780956 0.582934 0.133943
0.808546 0.584141 0.135076
0.836090 0.585345 0.136208
0.863583 0.586548 0.137339
0.891018 0.587748 0.138467
0.918389 0.588945 0.139593
0.934750 0.589683 0.140260
0.934841 0.589743 0.140248
0.934929 0.589802 0.140237
0.935017 0.589862 0.140226
0.142594 0.583522 0.111213
0.168354 0.584655 0.112263
0.194570 0.585806 0.113332
0.221137 0.586972 0.114417
0.247993 0.588150 0.115514
0.275095 0.589338 0.116622
0.302415 0.590535 0.117739
0.329929 0.591741 0.118865
0.357621 0.592953 0.119998
0.385477 0.594173 0.121139
0.413485 0.595399 0.122286
0.441637 0.596631 0.123440
0.469925 0.597868 0.124599
0.498341 0.599111 0.125765
0.526881 0.600359 0.126936
0.555540 0.601612 0.128112
0.584313 0.602870 0.129294
0.613197 0.604132 0.130480
0.642189 0.605399 0.131671
0.671285 0.606671 0.132868
0.700484 0.607947 0.134068
0.729784 0.609227 0.135274
0.758432 0.610480 0.136452
0.785912 0.611684 0.137582
0.813343 0.612886 0.138711
0.840719 0.614086 0.139837
0.868034 0.615284 0.140962
0.895282 0.616479 0.142084
0.922456 0.617671 0.143203
0.938692 0.618406 0.143866
0.938778 0.618468 0.143856
0.938863 0.618530 0.143846
0.938946 0.618592 0.143836
0.146608 0.612260 0.114792
0.172409 0.613396 0.115845
0.198668 0.614552 0.116918
0.225279 0.615722 0.118006
0.252181 0.616904 0.119107
0.279331 0.618097 0.120218
0.306700 0.619298 0.121339
0.334265 0.620508 0.122468
0.362009 0.621725 0.123605
0.389919 0.622950 0.124749
0.417983 0.624180 0.125900
0.446192 0.625417 0.127058
0.474538 0.626659 0.128222
0.503014 0.627907 0.129391
0.531616 0.629160 0.130566
0.560339 0.630419 0.131747
0.589177 0.631682 0.132933
0.618128 0.632949 0.134124
0.647189 0.634222 0.135319
0.676356 0.635499 0.136520
0.705628 0.636780 0.137725
0.735002 0.638066 0.138935
0.763635 0.639321 0.140115
0.790951 0.640521 0.141240
0.818208 0.641719 0.142362
0.845401 0.642914 0.143483
0.872523 0.644106 0.144601
0.899567 0.645295 0.145716
0.926527 0.646481 0.146828
0.942630 0.647214 0.147487
0.942711 0.647278 0.147478
0.942792 0.647343 0.147469
0.942870 0.647407 0.147461
0.150664 0.641080 0.118386
0.176508 0.642220 0.119443
0.202813 0.643380 0.120520
0.229471 0.644555 0.121611
0.256421 0.645741 0.122715
0.283621 0.646938 0.123830
0.311042 0.648145 0.124955
0.338660 0.649359 0.126088
0.366460 0.650581 0.127229
0.394426 0.651810 0.128377
0.422548 0.653045 0.129532
0.450816 0.654287 0.130694
0.479224 0.655535 0.131861
0.507764 0.656788 0.133035
0.536431 0.658046 0.134215
0.565221 0.659310 0.135399
0.594128 0.660578 0.136590
0.623150 0.661851 0.137785
0.652283 0.663129 0.138985
0.681525 0.664412 0.140191
0.710873 0.665699 0.141401
0.740325 0.666991 0.142615
0.768939 0.668248 0.143796
0.796076 0.669443 0.144915
0.823144 0.670635 0.146031
0.850137 0.671825 0.147145
0.877050 0.673011 0.148256
0.903874 0.674194 0.149363
0.930604 0.675373 0.150467
0.946562 0.676102 0.151122
0.946639 0.676169 0.151114
0.946715 0.676236 0.151107
0.946790 0.676304 0.151100
0.154764 0.669980 0.121997
0.180654 0.671125 0.123057
0.207006 0.672289 0.124137
0.233714 0.673468 0.125232
0.260715 0.674659 0.126340
0.287968 0.675861 0.127459
0.315443 0.677071 0.128587
0.343117 0.678291 0.129724
0.370974 0.679518 0.130869
0.399000 0.680752 0.132021
0.427183 0.681992 0.133180
0.455514 0.683239 0.134346
0.483987 0.684492 0.135518
0.512594 0.685750 0.136696
0.541329 0.687014 0.137880
0.570188 0.688283 0.139069
0.599168 0.689557 0.140264
0.628264 0.690836 0.141464
0.657473 0.692120 0.142669
0.686793 0.693408 0.143879
0.716221 0.694701 0.145094
0.745755 0.695999 0.146314
0.774347 0.697258 0.147495
0.801289 0.698448 0.148607
0.828152 0.699634 0.149717
0.854930 0.700817 0.150823
0.881616 0.701997 0.151926
0.908204 0.703173 0.153025
0.934686 0.704344 0.154120
0.950489 0.705070 0.154770
0.950562 0.705140 0.154764
0.950634 0.705209 0.154758
0.950704 0.705279 0.154753
0.158909 0.698957 0.125623
0.184847 0.700107 0.126687
0.211249 0.701275 0.127770
0.238009 0.702459 0.128869
0.265063 0.703655 0.129981
0.292372 0.704861 0.131103
0.319904 0.706077 0.132235
0.347637 0.707301 0.133376
0.375555 0.708533 0.134525
0.403643 0.709772 0.135681
0.431890 0.711018 0.136845
0.460288 0.712270 0.138015
0.488828 0.713528 0.139192
0.517505 0.714792 0.140374
0.546312 0.716061 0.141562
0.575245 0.717336 0.142756
0.604301 0.718616 0.143956
0.633474 0.719901 0.145161
0.662763 0.721190 0.146371
0.692165 0.722485 0.147586
0.721676 0.723784 0.148806
0.751297 0.725088 0.150031
0.779863 0.726349 0.151212
0.806593 0.727532 0.152317
0.833235 0.728713 0.153419
0.859781 0.729889 0.154517
0.886223 0.731061 0.155612
0.912557 0.732229 0.156702
0.938773 0.733392 0.157787
0.954410 0.734114 0.158432
0.954479 0.734186 0.158427
0.954547 0.734259 0.158423
0.954613 0.734332 0.158419
0.163100 0.728010 0.129264
0.189089 0.729164 0.130331
0.215544 0.730337 0.131419
0.242358 0.731526 0.132521
0.269469 0.732726 0.133637
0.296835 0.733937 0.134763
0.324427 0.735158 0.135899
0.352223 0.736388 0.137044
0.380204 0.737625 0.138198
0.408358 0.738869 0.139358
0.436673 0.740120 0.140526
0.465140 0.741378 0.141701
0.493752 0.742641 0.142882
0.522501 0.743911 0.144069
0.551384 0.745186 0.145262
0.580394 0.746467 0.146461
0.609529 0.747752 0.147665
0.638784 0.749043 0.148875
0.668156 0.750339 0.150090
0.697643 0.751640 0.151310
0.727243 0.752946 0.152535
0.756954 0.754257 0.153766
0.785489 0.755519 0.154947
0.811992 0.756696 0.156045
0.838395 0.757869 0.157138
0.864691 0.759037 0.158227
0.890873 0.760202 0.159312
0.916934 0.761361 0.160393
0.942866 0.762515 0.161468
0.958326 0.763233 0.162107
0.958390 0.763308 0.162104
0.958454 0.763383 0.162101
0.958515 0.763459 0.162098
0.167340 0.757137 0.132920
0.193382 0.758295 0.133991
0.219892 0.759473 0.135082
0.246763 0.760666 0.136189
0.273933 0.761872 0.137308
0.301361 0.763088 0.138439
0.329016 0.764314 0.139579
0.356876 0.765549 0.140728
0.384924 0.766791 0.141886
0.413147 0.768041 0.143051
0.441533 0.769298 0.144224
0.470073 0.770561 0.145403
0.498759 0.771830 0.146588
0.527586 0.773106 0.147780
0.556547 0.774387 0.148978
0.585639 0.775673 0.150182
0.614856 0.776965 0.151391
0.644196 0.778263 0.152606
0.673656 0.779565 0.153827
0.703233 0.780873 0.155052
0.732925 0.782185 0.156283
0.762729 0.783503 0.157519
0.791231 0.784766 0.158700
0.817489 0.785935 0.159789
0.843635 0.787101 0.160873
0.869664 0.788261 0.161953
0.895566 0.789417 0.163028
0.921335 0.790567 0.164098
0.946964 0.791711 0.165162
0.962235 0.792424 0.165795
0.962295 0.792502 0.165793
0.962354 0.792580 0.165792
0.962412 0.792659 0.165791
0.171629 0.786335 0.136591
0.197727 0.787498 0.137666
0.224294 0.788681 0.138761
0.251226 0.789879 0.139871
0.278458 0.791090 0.140995
0.305950 0.792311 0.142130
0.333671 0.793542 0.143274
0.361599 0.794782 0.144428
0.389718 0.796030 0.145590
0.418012 0.797286 0.146760
0.446472 0.798548 0.147937
0.475089 0.799817 0.149121
0.503854 0.801093 0.150312
0.532761 0.802374 0.151508
0.561805 0.803661 0.152711
0.590981 0.804954 0.153920
0.620285 0.806253 0.155135
0.649715 0.807557 0.156355
0.679266 0.808866 0.157581
