library/cube/Night_Crawler_001.cube
# CINEGRADE LAB — Premium Cinematic LUT
# Title: Night Crawler
# Category: Neo Noir
# Description: Dramatic shadows, high contrast, moody lighting inspired by noir cinema
# Mood: Mysterious, dramatic, dark
# Variant: 2
# Generated: 2026-05-21T16:12:29.939891
TITLE "Night Crawler"
LUT_3D_SIZE 5
0.000000 0.000000 0.000000
0.060867 0.007885 0.008455
0.268222 0.033870 0.035879
0.483234 0.059738 0.062610
0.609033 0.073973 0.076806
0.025840 0.092829 0.029117
0.096567 0.102820 0.038069
0.328889 0.131630 0.066416
0.561688 0.159710 0.093823
0.691054 0.175131 0.108242
0.118927 0.408236 0.124992
0.196810 0.420985 0.134463
0.445168 0.452663 0.163525
0.688559 0.482901 0.191426
0.819345 0.499598 0.206019
0.216657 0.724476 0.218797
0.297726 0.737056 0.228284
0.553905 0.768710 0.257469
0.801569 0.798627 0.285370
0.925501 0.814670 0.299813
0.271067 0.892745 0.267735
0.352834 0.903619 0.276972
0.611804 0.933906 0.305978
0.858680 0.960989 0.333680
0.975162 0.974738 0.347915
0.002255 0.002632 0.068614
0.064323 0.010651 0.077908
0.274728 0.036876 0.106140
0.491974 0.062929 0.133571
0.618303 0.077238 0.148339
0.028804 0.096214 0.100187
0.100294 0.106226 0.109684
0.334539 0.135128 0.138539
0.568645 0.163260 0.166370
0.698189 0.178667 0.181121
0.122658 0.412620 0.197711
0.200906 0.425205 0.207476
0.450280 0.456771 0.236800
0.694259 0.486888 0.264904
0.824974 0.503439 0.279640
0.220518 0.728828 0.292351
0.301699 0.741172 0.301959
0.558298 0.772636 0.331239
0.806133 0.802378 0.359200
0.929366 0.818259 0.373673
0.274689 0.896497 0.341572
0.356471 0.907199 0.350833
0.615586 0.937341 0.379850
0.862150 0.964065 0.407550
0.978100 0.977688 0.421779
0.009652 0.011147 0.289233
0.073138 0.019436 0.301010
0.286702 0.046014 0.331506
0.506286 0.072353 0.360923
0.633287 0.086829 0.377386
0.037649 0.105860 0.328081
0.110039 0.115984 0.339189
0.346262 0.145049 0.369470
0.581727 0.173298 0.398509
0.711536 0.188746 0.414249
0.132721 0.423467 0.430272
0.211415 0.435945 0.440947
0.461823 0.467446 0.471037
0.706414 0.497479 0.499749
0.836910 0.513918 0.514944
0.230975 0.739768 0.527394
0.312310 0.751912 0.537410
0.569333 0.783214 0.566999
0.817351 0.812805 0.595171
0.939416 0.828546 0.609773
0.285055 0.906928 0.577591
0.366872 0.917479 0.586959
0.626139 0.946894 0.616034
0.871744 0.973391 0.643753
0.987107 0.986848 0.657981
0.016997 0.019434 0.501951
0.081815 0.027966 0.515918
0.298382 0.054869 0.548405
0.520172 0.081467 0.579556
0.647777 0.096090 0.597486
0.046290 0.115181 0.547175
0.119516 0.125398 0.559674
0.357598 0.154607 0.591180
0.594325 0.182955 0.621243
0.724353 0.198430 0.637810
0.142452 0.433884 0.653364
0.221547 0.446248 0.664796
0.472909 0.477674 0.695514
0.718049 0.507617 0.724712
0.847990 0.523942 0.740264
0.241022 0.750224 0.752516
0.322487 0.762170 0.762844
0.579888 0.793313 0.792659
0.828060 0.822758 0.820976
0.948922 0.838365 0.835657
0.294986 0.916880 0.803426
0.376831 0.927291 0.812855
0.636235 0.955966 0.841953
0.880856 0.982246 0.869672
0.995642 0.995550 0.883891
0.021048 0.023840 0.613016
0.086969 0.032509 0.627928
0.306254 0.059638 0.661294
0.530003 0.086408 0.693191
0.658044 0.101102 0.711721
0.051057 0.120293 0.660946
0.124960 0.130534 0.674010
0.364702 0.159824 0.706019
0.602523 0.188215 0.736487
0.732667 0.203674 0.753356
0.147907 0.439844 0.768763
0.227307 0.452057 0.780457
0.479497 0.483377 0.811391
0.725088 0.513205 0.840739
0.854584 0.529398 0.856381
0.246568 0.756095 0.868595
0.328111 0.767832 0.878991
0.585825 0.798808 0.908846
0.834111 0.828104 0.937170
0.954043 0.843581 0.951836
0.300319 0.922220 0.919612
0.382175 0.932495 0.929023
0.641699 0.960694 0.958098
0.885733 0.986802 0.985793
1.000000 1.000000 1.000000
