library/cube/Night_Crawler_001.cube
# CINEGRADE LAB — Premium Cinematic LUT
# Title: Night Crawler
# Category: Neo Noir
# Description: Dramatic shadows, high contrast, moody lighting inspired by noir cinema
# Mood: Mysterious, dramatic, dark
# Variant: 2
# Generated: 2026-05-21T16:12:29.939891
TITLE "Night Crawler"
LUT_3D_SIZE 9
0.000000 0.000000 0.000000
0.000004 0.000001 0.000000
0.060867 0.007885 0.008455
0.163959 0.020957 0.022333
0.268222 0.033870 0.035879
0.374604 0.046781 0.049283
0.483234 0.059738 0.062610
0.594028 0.072758 0.075892
0.609033 0.073973 0.076806
0.000040 0.000013 0.000000
0.000067 0.000022 0.000000
0.065854 0.008210 0.008603
0.176211 0.021727 0.022699
0.286631 0.035017 0.036430
0.398246 0.048249 0.049989
0.511287 0.061478 0.063446
0.625741 0.074722 0.076834
0.638950 0.075832 0.077692
0.025840 0.092829 0.029117
0.026338 0.093639 0.029235
0.096567 0.102820 0.038069
0.213193 0.117391 0.052444
0.328889 0.131630 0.066416
0.444946 0.145716 0.080185
0.561688 0.159710 0.093823
0.679169 0.173637 0.107365
0.691054 0.175131 0.108242
0.071474 0.250306 0.077448
0.072486 0.251986 0.077695
0.146389 0.262162 0.086742
0.268078 0.277749 0.101360
0.387972 0.292891 0.115542
0.507499 0.307779 0.129490
0.627064 0.322481 0.143279
0.746787 0.337030 0.156947
0.757544 0.338895 0.157844
0.118927 0.408236 0.124992
0.120190 0.410312 0.125294
0.196810 0.420985 0.134463
0.322250 0.437089 0.149226
0.445168 0.452663 0.163525
0.567112 0.467908 0.177566
0.688559 0.482901 0.191426
0.809688 0.497679 0.205145
0.819345 0.499598 0.206019
0.167559 0.566579 0.172105
0.168879 0.568698 0.172409
0.247423 0.579499 0.181629
0.375523 0.595748 0.196461
0.500507 0.611411 0.210806
0.624026 0.626696 0.224876
0.746621 0.641686 0.238749
0.866903 0.656425 0.252467
0.875018 0.658191 0.253290
0.216657 0.724476 0.218797
0.217900 0.726391 0.219064
0.297726 0.737056 0.228284
0.427606 0.753193 0.243128
0.553905 0.768710 0.257469
0.678359 0.783826 0.271523
0.801569 0.798627 0.285370
0.918540 0.813165 0.299054
0.925501 0.814670 0.299813
0.265660 0.881131 0.265020
0.266743 0.882688 0.265227
0.347358 0.893059 0.274413
0.478346 0.908927 0.289230
0.605409 0.924169 0.303536
0.730356 0.938882 0.317548
0.852646 0.952664 0.331348
0.965795 0.966104 0.344984
0.971777 0.967162 0.345681
0.271067 0.892745 0.267735
0.271861 0.893734 0.267854
0.352834 0.903619 0.276972
0.484390 0.919059 0.291731
0.611804 0.933906 0.305978
0.736945 0.947712 0.319933
0.858680 0.960989 0.333680
0.969732 0.973960 0.347265
0.975162 0.974738 0.347915
0.000000 0.000000 0.000000
0.000006 0.000002 0.000000
0.061410 0.007919 0.008472
0.165303 0.021040 0.022373
0.270249 0.033995 0.035940
0.377215 0.046942 0.049362
0.486341 0.059930 0.062703
0.597550 0.072975 0.075997
0.612365 0.074178 0.076905
0.000048 0.000015 0.000000
0.000078 0.000025 0.000000
0.066310 0.008241 0.008617
0.177321 0.021798 0.022732
0.288291 0.035122 0.036479
0.400369 0.048383 0.050052
0.513795 0.061634 0.063520
0.628565 0.074898 0.076917
0.641604 0.075998 0.077769
0.026011 0.093110 0.029158
0.026502 0.093903 0.029274
0.097082 0.103089 0.038116
0.214221 0.117677 0.052503
0.330341 0.131926 0.066486
0.446747 0.146019 0.080263
0.563771 0.160016 0.093907
0.681475 0.173944 0.107453
0.693202 0.175416 0.108323
0.071824 0.250890 0.077534
0.072816 0.252530 0.077774
0.146982 0.262684 0.086824
0.269057 0.278260 0.101449
0.389261 0.293386 0.115634
0.509035 0.308256 0.129584
0.628792 0.322938 0.143374
0.748656 0.337465 0.157041
0.759268 0.339293 0.157930
0.119366 0.408960 0.125098
0.120600 0.410980 0.125391
0.197408 0.421612 0.134557
0.323127 0.437683 0.149322
0.446261 0.453223 0.163620
0.568368 0.468433 0.177658
0.689934 0.483391 0.191516
0.811143 0.498133 0.205231
0.820671 0.500006 0.206095
0.168019 0.567321 0.172212
0.169305 0.569374 0.172505
0.247976 0.580122 0.181720
0.376266 0.596326 0.196549
0.501391 0.611943 0.210890
0.625009 0.627184 0.224955
0.747669 0.642129 0.238822
0.867896 0.656826 0.252535
0.875893 0.658544 0.253348
0.217091 0.725149 0.218891
0.218299 0.726995 0.219148
0.298204 0.737603 0.228361
0.428205 0.753688 0.243199
0.554588 0.769156 0.257534
0.679093 0.784223 0.271581
0.802331 0.798980 0.285422
0.919145 0.813475 0.299100
0.926010 0.814937 0.299850
0.266039 0.881682 0.265094
0.267088 0.883174 0.265291
0.347747 0.893488 0.274469
0.478806 0.909306 0.289280
0.605914 0.924500 0.303579
0.730884 0.939156 0.317584
0.853135 0.952883 0.331378
0.966079 0.966272 0.345007
0.971992 0.967296 0.345699
0.271345 0.893097 0.267778
0.272114 0.894038 0.267889
0.353114 0.903881 0.277001
0.484713 0.919285 0.291754
0.612153 0.934100 0.305997
0.737310 0.947859 0.319947
0.859010 0.961095 0.333690
0.969845 0.974029 0.347272
0.975239 0.974792 0.347918
0.002255 0.002632 0.068614
0.002328 0.002669 0.069028
0.064323 0.010651 0.077908
0.169059 0.023851 0.092204
0.274728 0.036876 0.106140
0.382316 0.049885 0.119906
0.491974 0.062929 0.133571
0.603634 0.076023 0.147165
0.618303 0.077238 0.148339
0.002514 0.002758 0.069920
0.002600 0.002797 0.070262
0.069318 0.011066 0.079212
0.181015 0.024688 0.093648
0.292567 0.038068 0.107693
0.405138 0.051379 0.121544
0.518978 0.064674 0.135269
0.634091 0.077976 0.148904
0.646995 0.079084 0.149963
0.028804 0.096214 0.100187
0.029331 0.097014 0.100576
0.100294 0.106226 0.109684
0.217971 0.120849 0.124323
0.334539 0.135128 0.138539
0.451317 0.149244 0.152530
0.568645 0.163260 0.166370
0.686591 0.177203 0.180096
0.698189 0.178667 0.181121
0.074925 0.254360 0.149462
0.075932 0.255980 0.149913
0.150386 0.266130 0.159165
0.272866 0.281708 0.173981
0.393398 0.296833 0.188341
0.513436 0.311698 0.202449
0.633400 0.326372 0.216382
0.753422 0.340889 0.230178
0.763910 0.342690 0.231174
0.122658 0.412620 0.197711
0.123891 0.414599 0.198160
0.200906 0.425205 0.207476
0.326917 0.441255 0.222379
0.450280 0.456771 0.236800
0.572563 0.471957 0.250949
0.694259 0.486888 0.264904
0.815558 0.501603 0.278706
0.824974 0.503439 0.279640
0.171411 0.571038 0.245326
0.172685 0.573038 0.245729
0.251497 0.583744 0.255048
0.379987 0.599911 0.269971
0.505261 0.615491 0.284394
0.628986 0.630694 0.298530
0.751718 0.645603 0.312458
0.871751 0.660263 0.326223
0.879628 0.661940 0.327076
0.220518 0.728828 0.292351
0.221704 0.730614 0.292680
0.301699 0.741172 0.301959
0.431827 0.757213 0.316855
0.558298 0.772636 0.331239
0.682862 0.787662 0.345327
0.806133 0.802378 0.359200
0.922602 0.816836 0.372904
0.929366 0.818259 0.373673
0.269453 0.885261 0.338773
0.270478 0.886693 0.339012
0.351189 0.896956 0.348227
0.482323 0.912729 0.363068
0.609478 0.927881 0.377391
0.734477 0.942329 0.391415
0.856467 0.955993 0.405222
0.969193 0.969323 0.418860
0.975028 0.970305 0.419556
0.274689 0.896497 0.341572
0.275441 0.897393 0.341703
0.356471 0.907199 0.350833
0.488116 0.922571 0.365599
0.615586 0.937341 0.379850
0.740763 0.950879 0.393805
0.862150 0.964065 0.407550
0.972756 0.976951 0.421133
0.978100 0.977688 0.421779
0.005982 0.006944 0.180602
0.006158 0.007036 0.181670
0.068770 0.015102 0.191184
0.174367 0.028398 0.206085
0.280776 0.041508 0.220590
0.389002 0.054595 0.234890
0.499209 0.067708 0.249053
0.611334 0.080864 0.263113
0.625883 0.082104 0.264704
0.006569 0.007244 0.183967
0.006740 0.007328 0.184845
0.073965 0.015666 0.194314
0.186362 0.029365 0.209241
0.298508 0.042815 0.223745
0.411584 0.056187 0.238021
0.525850 0.069537 0.252142
0.641316 0.082887 0.266142
0.654107 0.084013 0.267527
0.033277 0.101106 0.215953
0.033865 0.101926 0.216771
0.105226 0.111177 0.226289
0.223452 0.125846 0.241315
0.340476 0.140163 0.255888
0.457635 0.154313 0.270208
0.575275 0.168357 0.284351
0.693472 0.182322 0.298353
0.704958 0.183786 0.299620
0.079779 0.259652 0.266609
0.080820 0.261261 0.267391
0.155573 0.271416 0.276958
0.278465 0.287006 0.292067
0.399331 0.302137 0.306694
0.519640 0.317005 0.321046
0.639817 0.331677 0.335199
0.760000 0.346190 0.349193
0.770378 0.347971 0.350360
0.127760 0.418128 0.315912
0.129006 0.420074 0.316609
0.206237 0.430660 0.326155
0.332543 0.446696 0.341271
0.456139 0.462195 0.355883
0.578602 0.477361 0.370203
0.700432 0.492271 0.384309
0.821824 0.506963 0.398243
0.831138 0.508766 0.399289
0.176657 0.576623 0.364300
0.177928 0.578576 0.364879
0.256887 0.589245 0.374358
0.385578 0.605381 0.389425
0.511003 0.620928 0.403976
0.634838 0.636097 0.418222
0.757645 0.650973 0.432246
0.877382 0.665600 0.446091
0.885140 0.667239 0.447009
0.225828 0.734389 0.411861
0.227002 0.736121 0.412305
0.307089 0.746633 0.421687
0.437346 0.762633 0.436673
0.563907 0.778016 0.451133
0.688531 0.793003 0.465284
0.811837 0.807683 0.479210
0.927829 0.822105 0.492955
0.934489 0.823492 0.493755
0.274774 0.890734 0.458625
0.275782 0.892111 0.458931
0.356546 0.902327 0.468204
0.487755 0.918058 0.483093
0.614960 0.933170 0.497455
0.739988 0.947307 0.511507
0.861563 0.960904 0.525336
0.974062 0.974168 0.538989
0.979813 0.975104 0.539694
0.279958 0.901804 0.461609
0.280697 0.902658 0.461774
0.361759 0.912430 0.470930
0.493450 0.927771 0.485716
0.620951 0.942208 0.499981
0.746150 0.955686 0.513944
0.867037 0.968816 0.527694
0.977402 0.981650 0.541278
0.982691 0.982355 0.541923
0.009652 0.011147 0.289233
0.009926 0.011290 0.290908
0.073138 0.019436 0.301010
0.179573 0.032823 0.316474
0.286702 0.046014 0.331506
0.395548 0.059175 0.346299
0.506286 0.072353 0.360923
0.618861 0.085567 0.375412
0.633287 0.086829 0.377386
0.010545 0.011608 0.294507
0.010796 0.011735 0.295882
0.078512 0.020137 0.305828
0.191589 0.033911 0.321210
0.304312 0.047426 0.336136
0.417877 0.060856 0.350805
0.532554 0.074257 0.365289
0.648360 0.087652 0.379625
0.661035 0.088795 0.381306
0.037649 0.105860 0.328081
0.038292 0.106697 0.329294
0.110039 0.115984 0.339189
0.228795 0.130696 0.354571
0.346262 0.145049 0.369470
0.463787 0.159229 0.384091
0.581727 0.173298 0.398509
0.700164 0.187284 0.412762
0.711536 0.188746 0.414249
0.084510 0.264788 0.380007
0.085581 0.266386 0.381092
0.160622 0.276544 0.390946
0.283911 0.292143 0.406322
0.405100 0.307279 0.421192
0.525666 0.322146 0.435763
0.646046 0.336816 0.450114
0.766384 0.351323 0.464286
0.776650 0.353083 0.465606
0.132721 0.423467 0.430272
0.133977 0.425380 0.431192
0.211415 0.435945 0.440947
0.338006 0.451965 0.456254
0.461823 0.467446 0.471037
0.584458 0.482592 0.485509
0.706414 0.497479 0.499749
0.827894 0.512148 0.513800
0.836910 0.513918 0.514944
0.181748 0.582030 0.479357
0.183016 0.583936 0.480092
0.262113 0.594568 0.489714
0.390997 0.610671 0.504910
0.516566 0.626185 0.519572
0.640504 0.641321 0.533914
0.763380 0.656164 0.548020
0.882810 0.670758 0.561934
0.890450 0.672360 0.562907
0.230975 0.739768 0.527394
0.232136 0.741445 0.527938
0.312310 0.751912 0.537410
0.442687 0.767870 0.552474
0.569333 0.783214 0.566999
0.694013 0.798163 0.581203
0.817351 0.812805 0.595171
0.932858 0.827194 0.608949
0.939416 0.828546 0.609773
0.279925 0.896022 0.574454
0.280915 0.897344 0.574818
0.361728 0.907514 0.584139
0.493008 0.923203 0.599068
0.620259 0.938187 0.613459
0.745315 0.952100 0.627534
0.866470 0.965631 0.641379
0.978740 0.978832 0.655042
0.984411 0.979722 0.655752
0.285055 0.906928 0.577591
0.285780 0.907742 0.577783
0.366872 0.917479 0.586959
0.498607 0.932792 0.601760
0.626139 0.946894 0.616034
0.751359 0.960315 0.630002
0.871744 0.973391 0.643753
0.981870 0.986173 0.657337
0.987107 0.986848 0.657981
0.013318 0.015303 0.396141
0.013683 0.015494 0.398387
0.077479 0.023715 0.409043
0.184733 0.037190 0.425037
0.292563 0.050460 0.440564
0.402013 0.063690 0.455819
0.513266 0.076931 0.470874
0.626276 0.090201 0.485763
0.640577 0.091483 0.488095
0.014497 0.015916 0.403208
0.014824 0.016082 0.405049
0.083018 0.024546 0.415444
0.196758 0.038391 0.431251
0.310040 0.051968 0.446572
0.424080 0.065454 0.461606
0.539155 0.078904 0.476428
0.655288 0.092341 0.491074
0.667845 0.093498 0.493030
0.041979 0.110543 0.438271
0.042673 0.111395 0.439851
0.114794 0.120715 0.450097
0.234067 0.135468 0.465810
0.351961 0.149855 0.481013
0.469840 0.164063 0.495912
0.588068 0.178155 0.510583
0.706735 0.192159 0.525067
0.717992 0.193618 0.526754
0.089183 0.269840 0.491379
0.090280 0.271424 0.492745
0.165600 0.281583 0.502863
0.289273 0.297189 0.518485
0.410771 0.312328 0.533578
0.531586 0.327195 0.548350
0.652160 0.341860 0.562882
0.772642 0.356360 0.577215
0.782798 0.358098 0.578672
0.137610 0.428710 0.542532
0.138874 0.430589 0.543657
0.216509 0.441132 0.553602
0.343374 0.457135 0.569083
0.467405 0.472597 0.584021
0.590202 0.487721 0.598629
0.712277 0.502585 0.612989
0.833769 0.517230 0.627145
0.842503 0.518967 0.628373
0.186757 0.587333 0.592254
0.188018 0.589191 0.593129
0.267248 0.599785 0.602879
0.396316 0.615856 0.618190
0.522021 0.631337 0.632951
0.646056 0.646439 0.647377
0.768997 0.661248 0.661555
0.888106 0.675810 0.675528
0.895629 0.677374 0.676547
0.236031 0.745036 0.640718
0.237177 0.746660 0.641351
0.317433 0.757081 0.650900
0.447925 0.772999 0.666031
0.574651 0.788303 0.680611
0.699382 0.803214 0.694860
0.822749 0.817821 0.708863
0.937759 0.832175 0.722668
0.944218 0.833494 0.723510
0.284980 0.901197 0.688037
0.285951 0.902467 0.688448
0.366811 0.912590 0.697810
0.498157 0.928239 0.712770
0.625451 0.942934 0.727186
0.750533 0.956780 0.741278
0.871259 0.970246 0.755133
0.983298 0.983385 0.768802
0.988891 0.984232 0.769514
0.290055 0.911943 0.691300
0.290766 0.912719 0.691513
0.371887 0.922423 0.700704
0.503663 0.937672 0.715515
0.631223 0.951471 0.729794
0.756466 0.964836 0.743764
0.876342 0.977858 0.757515
0.986226 0.990591 0.771096
0.991414 0.991237 0.771739
0.016997 0.019434 0.501951
0.017448 0.019672 0.504739
0.081815 0.027966 0.515918
0.189868 0.041524 0.532411
0.298382 0.054869 0.548405
0.408419 0.068167 0.564096
0.520172 0.081467 0.579556
0.633602 0.094790 0.594821
0.647777 0.096090 0.597486
0.018448 0.020192 0.510713
0.018846 0.020395 0.512992
0.087505 0.028918 0.523808
0.201890 0.042830 0.540015
0.315717 0.056467 0.555706
0.430217 0.070006 0.571083
0.545676 0.083502 0.586220
0.662125 0.096980 0.601156
0.674564 0.098149 0.603366
0.046290 0.115181 0.547175
0.047033 0.116047 0.549099
0.119516 0.125398 0.559674
0.239290 0.140188 0.575694
0.357598 0.154607 0.591180
0.475819 0.168842 0.606337
0.594325 0.182955 0.621243
0.713210 0.196976 0.635940
0.724353 0.198430 0.637810
0.093821 0.274832 0.601388
0.094942 0.276401 0.603014
0.170531 0.286560 0.613377
0.294575 0.302172 0.629226
0.416372 0.317312 0.644525
0.537426 0.332177 0.659482
0.658184 0.346837 0.674178
0.778804 0.361328 0.688658
0.788849 0.363044 0.690238
0.142452 0.433884 0.653364
0.143721 0.435728 0.654676
0.221547 0.446248 0.664796
0.348675 0.462233 0.680435
0.472909 0.477674 0.695514
0.595861 0.492776 0.710245
0.718049 0.507617 0.724712
0.839383 0.522238 0.738960
0.847990 0.523942 0.740264
0.191708 0.592559 0.703669
0.192962 0.594370 0.704671
0.272319 0.604926 0.714536
0.401562 0.620964 0.729948
0.527396 0.636411 0.744797
0.651523 0.651480 0.759297
0.774523 0.666255 0.773536
0.893298 0.680785 0.787560
0.900706 0.682312 0.788617
0.241022 0.750224 0.752516
0.242153 0.751794 0.753226
0.322487 0.762170 0.762844
0.453088 0.778048 0.778032
0.579888 0.793313 0.792659
0.704667 0.808186 0.806945
0.828060 0.822758 0.820976
0.942560 0.837080 0.834802
0.948922 0.838365 0.835657
0.289966 0.906290 0.800060
0.290919 0.907508 0.800511
0.371821 0.917586 0.809905
0.503230 0.933195 0.824891
0.630564 0.947595 0.839325
0.755670 0.961374 0.853429
0.875957 0.974777 0.867291
0.987763 0.987855 0.880963
0.993281 0.988659 0.881675
0.294986 0.916880 0.803426
0.295684 0.917617 0.803653
0.376831 0.927291 0.812855
0.508647 0.942225 0.827672
0.636235 0.955966 0.841953
0.761500 0.969276 0.855923
0.880856 0.982246 0.869672
0.990500 0.994931 0.883251
0.995642 0.995550 0.883891
0.020697 0.023554 0.606996
0.021230 0.023835 0.610295
0.086155 0.032198 0.621970
0.194988 0.045838 0.638937
0.304169 0.059256 0.655372
0.414776 0.072617 0.671473
0.527015 0.085975 0.687314
0.640852 0.099348 0.702932
0.654899 0.100664 0.705910
0.022407 0.024447 0.617361
0.022871 0.024686 0.620052
0.091984 0.033266 0.631266
0.206998 0.047243 0.647849
0.321355 0.060937 0.663887
0.436300 0.074526 0.679585
0.552131 0.088066 0.695016
0.668884 0.101582 0.710223
0.681203 0.102762 0.712669
0.050594 0.119787 0.655140
0.051382 0.120665 0.657386
0.124217 0.130045 0.668268
0.244477 0.144871 0.684576
0.363187 0.159320 0.700325
0.481738 0.173578 0.715722
0.600510 0.187711 0.730846
0.719606 0.201747 0.745738
0.730633 0.203197 0.747777
0.098437 0.279779 0.710388
0.099580 0.281332 0.712255
0.175428 0.291490 0.722845
0.299832 0.307107 0.738905
0.421917 0.322246 0.754392
0.543198 0.337107 0.769518
0.664133 0.351761 0.784365
0.784883 0.366243 0.798977
0.794818 0.367936 0.800669
0.147260 0.439002 0.763127
0.148533 0.440811 0.764610
0.226542 0.451307 0.774889
0.353923 0.467274 0.790673
0.478352 0.482694 0.805878
0.601452 0.497774 0.820720
0.723745 0.512591 0.835283
0.844905 0.527187 0.849613
0.853386 0.528858 0.850982
0.196617 0.597723 0.813964
0.197861 0.599486 0.815079
0.277340 0.610005 0.825047
0.406751 0.626009 0.840551
0.532707 0.641422 0.855476
0.656920 0.656458 0.870041
0.779975 0.671200 0.884333
0.898400 0.685697 0.898399
0.905694 0.687189 0.899487
0.245965 0.755346 0.863153
0.247079 0.756862 0.863931
0.327486 0.767194 0.873607
0.458191 0.783032 0.888845
0.585061 0.798259 0.903511
0.709884 0.813095 0.917827
0.833302 0.827632 0.931880
0.947277 0.841923 0.945721
0.953543 0.843176 0.946584
0.294899 0.911316 0.910891
0.295833 0.912482 0.911376
0.376776 0.922517 0.920796
0.508244 0.938008 0.935802
0.635616 0.952185 0.950248
0.760745 0.965898 0.964360
0.880579 0.979238 0.978225
0.992150 0.992257 0.991897
0.997597 0.993020 0.992606
0.299863 0.921753 0.914339
0.300548 0.922454 0.914577
0.381720 0.932097 0.923785
0.513574 0.946710 0.938604
0.641190 0.960393 0.952885
0.766477 0.973650 0.966852
0.885302 0.986570 0.980597
0.994707 0.999207 0.994173
0.999806 0.999801 0.994811
0.021048 0.023840 0.613016
0.021578 0.024119 0.616277
0.086969 0.032509 0.627928
0.196492 0.046188 0.644879
0.306254 0.059638 0.661294
0.417353 0.073027 0.677374
0.530003 0.086408 0.693191
0.644179 0.099799 0.708784
0.658044 0.101102 0.711721
0.022747 0.024726 0.623254
0.023208 0.024962 0.625908
0.092699 0.033563 0.637097
0.208267 0.047571 0.653661
0.323084 0.061291 0.669678
0.438410 0.074901 0.685352
0.554553 0.088458 0.700760
0.671555 0.101987 0.715940
0.683714 0.103155 0.718349
0.051057 0.120293 0.660946
0.051833 0.121153 0.663155
0.124960 0.130534 0.674010
0.245646 0.145370 0.690295
0.364702 0.159824 0.706019
0.483531 0.174084 0.721390
0.602523 0.188215 0.736487
0.721786 0.202247 0.751353
0.732667 0.203674 0.753356
0.099032 0.280526 0.716116
0.100152 0.282041 0.717945
0.176213 0.292176 0.728505
0.300928 0.307776 0.744538
0.423258 0.322898 0.759998
0.544729 0.337738 0.775096
0.665805 0.352371 0.789915
0.786653 0.366830 0.804499
0.796456 0.368488 0.806157
0.147907 0.439844 0.768763
0.149151 0.441600 0.770209
0.227307 0.452057 0.780457
0.354904 0.467991 0.796213
0.479497 0.483377 0.811391
0.602714 0.498422 0.826204
0.725088 0.513205 0.840739
0.846227 0.527768 0.855042
0.854584 0.529398 0.856381
0.197260 0.598554 0.819502
0.198472 0.600258 0.820583
0.278045 0.610727 0.830521
0.407597 0.626689 0.845997
0.533653 0.642060 0.860895
0.657931 0.657055 0.875434
0.781024 0.671758 0.889700
0.899319 0.686217 0.903742
0.906511 0.687670 0.904805
0.246568 0.756095 0.868595
0.247649 0.757552 0.869342
0.328111 0.767832 0.878991
0.458900 0.783625 0.894203
0.585825 0.798808 0.908846
0.710680 0.813604 0.923138
0.834111 0.828104 0.937170
0.947854 0.842360 0.950991
0.954043 0.843581 0.951836
0.295442 0.911946 0.916244
0.296346 0.913057 0.916702
0.377318 0.923045 0.926099
0.508833 0.938472 0.941084
0.636233 0.952594 0.955512
0.761378 0.966256 0.969606
0.881109 0.979549 0.983456
0.992463 0.992524 0.997115
0.997860 0.993264 0.997812
0.300319 0.922220 0.919612
0.300985 0.922883 0.919831
0.382175 0.932495 0.929023
0.514060 0.947051 0.943828
0.641699 0.960694 0.958098
0.767006 0.973914 0.972055
0.885733 0.986802 0.985793
0.994919 0.999411 0.999364
1.000000 1.000000 1.000000
