library/cube/Night_Still_004.cube
# CINEGRADE LAB — Premium Cinematic LUT
# Title: Night Still
# Category: CineStill 800T Emulation
# Description: Tungsten balance, halation glow, night film characteristics
# Mood: Nocturnal, glowing, cinematic
# Variant: 5
# Generated: 2026-05-21T16:12:55.348951
TITLE "Night Still"
LUT_3D_SIZE 9
0.073243 0.061372 0.047194
0.176467 0.065707 0.051285
0.283679 0.070207 0.055549
0.393311 0.074809 0.059920
0.504743 0.079485 0.064372
0.617640 0.084223 0.068891
0.731694 0.089009 0.073464
0.846642 0.093832 0.078080
0.864448 0.094603 0.078649
0.086773 0.165610 0.059807
0.190341 0.170008 0.063939
0.297916 0.174573 0.068244
0.407930 0.179238 0.072656
0.519771 0.183979 0.077151
0.633110 0.188782 0.081714
0.747368 0.193623 0.086321
0.862171 0.198486 0.090957
0.879877 0.199299 0.091547
0.100921 0.274011 0.073022
0.204869 0.278470 0.077195
0.312858 0.283096 0.081543
0.423325 0.287824 0.085999
0.535661 0.292630 0.090540
0.649547 0.297499 0.095151
0.763835 0.302385 0.099784
0.878053 0.307268 0.104421
0.895586 0.308117 0.105029
0.115588 0.384969 0.086637
0.219978 0.389488 0.090854
0.328462 0.394176 0.095247
0.439479 0.398968 0.099751
0.552427 0.403840 0.104342
0.666993 0.408779 0.109007
0.781064 0.413698 0.113656
0.894107 0.418574 0.118268
0.911369 0.419453 0.118890
0.130796 0.497838 0.100574
0.235719 0.502417 0.104838
0.344807 0.507169 0.109281
0.456501 0.512029 0.113838
0.570207 0.516973 0.118485
0.685619 0.521988 0.123210
0.799146 0.526924 0.127861
0.910272 0.531761 0.132419
0.927146 0.532666 0.133049
0.146608 0.612260 0.114792
0.252181 0.616904 0.119107
0.362009 0.621725 0.123605
0.474538 0.626659 0.128222
0.589177 0.631682 0.132933
0.705628 0.636780 0.137725
0.818208 0.641719 0.142362
0.926527 0.646481 0.146828
0.942870 0.647407 0.147461
0.163100 0.728010 0.129264
0.269469 0.732726 0.133637
0.380204 0.737625 0.138198
0.493752 0.742641 0.142882
0.609529 0.747752 0.147665
0.727243 0.752946 0.152535
0.838395 0.757869 0.157138
0.942866 0.762515 0.161468
0.958515 0.763459 0.162098
0.180361 0.844939 0.143976
0.287698 0.849735 0.148414
0.399534 0.854722 0.153046
0.514315 0.859833 0.157807
0.631463 0.865046 0.162673
0.750693 0.870349 0.167632
0.859860 0.875236 0.172177
0.959292 0.879722 0.176323
0.974063 0.880679 0.176942
0.195888 0.942632 0.156324
0.304368 0.947334 0.160812
0.417501 0.952220 0.165499
0.533730 0.957225 0.170319
0.652483 0.962325 0.175250
0.773479 0.967509 0.180279
0.879992 0.972080 0.184708
0.973015 0.976077 0.188579
0.986661 0.976754 0.189142
0.074299 0.062417 0.118113
0.177556 0.066752 0.122164
0.284802 0.071253 0.126389
0.394468 0.075856 0.130722
0.505937 0.080533 0.135137
0.618874 0.085272 0.139620
0.732953 0.090058 0.144159
0.847901 0.094882 0.148740
0.865698 0.095652 0.149275
0.087833 0.166670 0.130592
0.191437 0.171069 0.134688
0.299049 0.175634 0.138958
0.409104 0.180300 0.143337
0.520990 0.185042 0.147799
0.634377 0.189846 0.152331
0.748646 0.194687 0.156907
0.863412 0.199549 0.161510
0.881103 0.200361 0.162070
0.101996 0.275085 0.143688
0.205984 0.279545 0.147829
0.314018 0.284172 0.152145
0.424534 0.288901 0.156573
0.536926 0.293708 0.161085
0.650872 0.298580 0.165670
0.765151 0.303465 0.170275
0.879278 0.308344 0.174881
0.896787 0.309191 0.175463
0.116688 0.386056 0.157197
0.221127 0.390576 0.161386
0.329665 0.395265 0.165753
0.440743 0.400060 0.170232
0.553760 0.404934 0.174800
0.668403 0.409876 0.179442
0.782434 0.414792 0.184066
0.895318 0.419661 0.188650
0.912546 0.420540 0.189249
0.131933 0.498938 0.171042
0.236915 0.503519 0.175282
0.346070 0.508273 0.179703
0.457840 0.513136 0.184240
0.571631 0.518083 0.188869
0.687137 0.523101 0.193576
0.800588 0.528035 0.198205
0.911473 0.532862 0.202734
0.928299 0.533765 0.203345
0.147792 0.613374 0.185181
0.253438 0.618021 0.189477
0.363349 0.622845 0.193958
0.475970 0.627782 0.198560
0.590714 0.632809 0.203257
0.707281 0.637913 0.208037
0.819739 0.642846 0.212654
0.927719 0.647595 0.217090
0.943999 0.648519 0.217708
0.164343 0.729139 0.199589
0.270800 0.733858 0.203948
0.381636 0.738761 0.208496
0.495298 0.743782 0.213170
0.611202 0.748899 0.217944
0.729056 0.754099 0.222808
0.840034 0.759015 0.227391
0.944052 0.763644 0.231692
0.959621 0.764585 0.232310
0.181673 0.846083 0.214251
0.289117 0.850884 0.218680
0.401076 0.855876 0.223304
0.515994 0.860994 0.228059
0.633294 0.866214 0.232921
0.752692 0.871525 0.237879
0.861623 0.876404 0.242407
0.960475 0.880866 0.246522
0.975145 0.881822 0.247132
0.197273 0.943731 0.226554
0.305882 0.948435 0.231037
0.419160 0.953323 0.235721
0.535552 0.958331 0.240541
0.654484 0.963436 0.245472
0.775677 0.968625 0.250504
0.881886 0.973179 0.254916
0.974184 0.977144 0.258754
0.987707 0.977811 0.259311
0.075393 0.063499 0.191609
0.178682 0.067835 0.195619
0.285962 0.072337 0.199804
0.395664 0.076940 0.204098
0.507171 0.081618 0.208476
0.620148 0.086358 0.212924
0.734251 0.091146 0.217427
0.849196 0.095968 0.221974
0.866984 0.096738 0.222474
0.088932 0.167767 0.203953
0.192571 0.172166 0.208012
0.300222 0.176732 0.212246
0.410319 0.181399 0.216591
0.522249 0.186142 0.221020
0.635687 0.190948 0.225521
0.749965 0.195789 0.230065
0.864688 0.200649 0.234636
0.882364 0.201460 0.235165
0.103111 0.276196 0.216927
0.207140 0.280656 0.221035
0.315219 0.285285 0.225321
0.425786 0.290016 0.229718
0.538234 0.294824 0.234203
0.652242 0.299698 0.238761
0.766508 0.304582 0.243337
0.880539 0.309456 0.247913
0.898024 0.310303 0.248468
0.117829 0.387181 0.230329
0.222317 0.391702 0.234489
0.330911 0.396393 0.238829
0.442051 0.401189 0.243284
0.555138 0.406066 0.247828
0.669859 0.411010 0.252449
0.783847 0.415925 0.257047
0.896566 0.420787 0.261601
0.913758 0.421663 0.262177
0.133112 0.500076 0.244081
0.238154 0.504659 0.248297
0.347377 0.509415 0.252696
0.459224 0.514281 0.257213
0.573102 0.519231 0.261823
0.688705 0.524253 0.266514
0.802075 0.529183 0.271119
0.912709 0.534000 0.275619
0.929486 0.534901 0.276211
0.149019 0.614525 0.258141
0.254739 0.619175 0.262418
0.364734 0.624002 0.266882
0.477451 0.628943 0.271469
0.592301 0.633974 0.276152
0.708987 0.639083 0.280921
0.821318 0.644012 0.285516
0.928947 0.648746 0.289924
0.945163 0.649668 0.290526
0.165630 0.730305 0.272484
0.272177 0.735028 0.276829
0.383117 0.739935 0.281366
0.496894 0.744961 0.286029
0.612927 0.750084 0.290795
0.730924 0.755291 0.295652
0.841721 0.760200 0.300217
0.945274 0.764810 0.304488
0.960761 0.765749 0.305093
0.183031 0.847264 0.287096
0.290584 0.852071 0.291516
0.402667 0.857068 0.296134
0.517724 0.862193 0.300884
0.635179 0.867420 0.305743
0.754748 0.872740 0.310699
0.863437 0.877610 0.315210
0.961694 0.882049 0.319294
0.976262 0.883002 0.319896
0.198704 0.944867 0.299357
0.307443 0.949572 0.303835
0.420870 0.954463 0.308517
0.537427 0.959475 0.313336
0.656541 0.964584 0.318269
0.777934 0.969778 0.323304
0.883833 0.974316 0.327700
0.975390 0.978246 0.331505
0.988788 0.978905 0.332055
0.076508 0.064603 0.266598
0.179831 0.068940 0.270567
0.287145 0.073442 0.274712
0.396883 0.078046 0.278968
0.508428 0.082726 0.283309
0.621446 0.087467 0.287720
0.735572 0.092255 0.292188
0.850510 0.097077 0.296699
0.868289 0.097846 0.297166
0.090053 0.168886 0.278806
0.193728 0.173286 0.282828
0.301418 0.177852 0.287027
0.411557 0.182521 0.291337
0.523535 0.187265 0.295734
0.637023 0.192072 0.300203
0.751309 0.196913 0.304716
0.865985 0.201771 0.309254
0.883644 0.202581 0.309753
0.104249 0.277329 0.291658
0.208320 0.281790 0.295734
0.316446 0.286419 0.299989
0.427064 0.291152 0.304357
0.539569 0.295962 0.308814
0.653642 0.300838 0.313345
0.767892 0.305721 0.317893
0.881820 0.310591 0.322438
0.899279 0.311436 0.322966
0.118995 0.388327 0.304953
0.223533 0.392849 0.309086
0.332184 0.397542 0.313400
0.443388 0.402340 0.317830
0.556547 0.407219 0.322351
0.671347 0.412167 0.326950
0.785289 0.417079 0.331523
0.897834 0.421934 0.336047
0.914989 0.422809 0.336600
0.134316 0.501236 0.318613
0.239420 0.505821 0.322806
0.348713 0.510579 0.327184
0.460639 0.515448 0.331681
0.574606 0.520401 0.336273
0.690308 0.525427 0.340947
0.803592 0.530353 0.345530
0.913967 0.535159 0.350001
0.930693 0.536059 0.350574
0.150273 0.615699 0.332596
0.256068 0.620351 0.336855
0.366150 0.625182 0.341302
0.478964 0.630127 0.345874
0.593923 0.635162 0.350544
0.710729 0.640276 0.355301
0.822929 0.645200 0.359876
0.930197 0.649920 0.364255
0.946346 0.650840 0.364842
0.166945 0.731493 0.346876
0.273584 0.736219 0.351208
0.384629 0.741131 0.355733
0.498524 0.746163 0.360386
0.614688 0.751291 0.365145
0.732832 0.756505 0.369995
0.843443 0.761407 0.374542
0.946518 0.765998 0.378783
0.961920 0.766935 0.379377
0.184417 0.848469 0.361440
0.292083 0.853280 0.365852
0.404293 0.858284 0.370463
0.519492 0.863415 0.375209
0.637104 0.868650 0.380065
0.756846 0.873978 0.385021
0.865287 0.878839 0.389515
0.962935 0.883255 0.393568
0.977398 0.884205 0.394161
0.200165 0.946024 0.373659
0.309038 0.950731 0.378134
0.422616 0.955625 0.382814
0.539340 0.960640 0.387633
0.658640 0.965753 0.392569
0.780236 0.970952 0.397608
0.885816 0.975474 0.401988
0.976618 0.979369 0.405759
0.989888 0.980020 0.406304
0.077639 0.065722 0.342650
0.180995 0.070060 0.346578
0.288344 0.074563 0.350683
0.398118 0.079168 0.354901
0.509702 0.083849 0.359204
0.622762 0.088591 0.363581
0.736910 0.093379 0.368013
0.851838 0.098201 0.372489
0.869607 0.098970 0.372922
0.091192 0.170020 0.354723
0.194903 0.174421 0.358708
0.302632 0.178988 0.362871
0.412815 0.183657 0.367148
0.524839 0.188403 0.371513
0.638380 0.193212 0.375951
0.752671 0.198053 0.380432
0.867295 0.202908 0.384937
0.884937 0.203717 0.385407
0.105405 0.278477 0.367454
0.209519 0.282939 0.371498
0.317692 0.287570 0.375722
0.428363 0.292303 0.380061
0.540927 0.297116 0.384490
0.655065 0.301994 0.388996
0.769296 0.306876 0.393516
0.883115 0.311741 0.398029
0.900548 0.312585 0.398532
0.120180 0.389489 0.380644
0.224769 0.394012 0.384749
0.333478 0.398707 0.389037
0.444748 0.403507 0.393443
0.557979 0.408389 0.397941
0.672862 0.413340 0.402519
0.786753 0.418249 0.407067
0.899116 0.423096 0.411561
0.916234 0.423970 0.412093
0.135541 0.502411 0.394212
0.240707 0.506998 0.398383
0.350072 0.511759 0.402740
0.462079 0.516630 0.407218
0.576136 0.521587 0.411792
0.691939 0.526618 0.416450
0.805134 0.531540 0.421010
0.915239 0.536335 0.425452
0.931913 0.537233 0.426007
0.151549 0.616888 0.408119
0.257421 0.621543 0.412360
0.367590 0.626377 0.416792
0.480503 0.631326 0.421349
0.595573 0.636367 0.426007
0.712502 0.641486 0.430754
0.824565 0.646404 0.435308
0.931461 0.651109 0.439658
0.947542 0.652027 0.440230
0.168282 0.732697 0.422338
0.275016 0.737427 0.426657
0.386167 0.742343 0.431171
0.500183 0.747381 0.435816
0.616481 0.752515 0.440567
0.734773 0.757736 0.445413
0.845192 0.762631 0.449941
0.947777 0.767203 0.454153
0.963093 0.768137 0.454736
0.185827 0.849689 0.436856
0.293607 0.854506 0.441260
0.405946 0.859515 0.445866
0.521289 0.864653 0.450608
0.639062 0.869896 0.455463
0.758980 0.875233 0.460419
0.867166 0.880085 0.464896
0.964192 0.884477 0.468920
0.978547 0.885424 0.469505
0.201650 0.947195 0.449035
0.310659 0.951905 0.453507
0.424391 0.956802 0.458186
0.541286 0.961820 0.463007
0.660774 0.966938 0.467946
0.782577 0.972142 0.472991
0.887831 0.976647 0.477355
0.977862 0.980507 0.481093
0.991001 0.981149 0.481633
0.078783 0.066854 0.419528
0.182171 0.071192 0.423415
0.289555 0.075696 0.427481
0.399367 0.080302 0.431660
0.510991 0.084984 0.435928
0.624094 0.089727 0.440269
0.738262 0.094516 0.444667
0.853176 0.099337 0.449108
0.870934 0.100105 0.449508
0.092343 0.171166 0.431466
0.196091 0.175567 0.435415
0.303861 0.180136 0.439544
0.414087 0.184806 0.443788
0.526160 0.189554 0.448120
0.639755 0.194365 0.452529
0.754049 0.199205 0.456978
0.868616 0.204057 0.461452
0.886240 0.204865 0.461892
0.106576 0.279638 0.444079
0.210732 0.284101 0.448091
0.318954 0.288732 0.452285
0.429679 0.293468 0.456596
0.542303 0.298282 0.460998
0.656508 0.303162 0.465478
0.770718 0.308043 0.469970
0.884421 0.312903 0.474454
0.901826 0.313746 0.474931
0.121381 0.390663 0.457164
0.226022 0.395188 0.461243
0.334790 0.399884 0.465506
0.446126 0.404686 0.469888
0.559433 0.409571 0.474364
0.674399 0.414525 0.478922
0.788236 0.419432 0.483444
0.900410 0.424271 0.487910
0.917488 0.425143 0.488420
0.136783 0.503599 0.470644
0.242013 0.508187 0.474793
0.351451 0.512951 0.479129
0.463540 0.517825 0.483588
0.577689 0.522786 0.488146
0.693595 0.527821 0.492788
0.806696 0.532739 0.497326
0.916522 0.537523 0.501740
0.933143 0.538419 0.502277
0.152842 0.618089 0.484476
0.258793 0.622747 0.488701
0.369052 0.627585 0.493117
0.482066 0.632539 0.497661
0.597248 0.637584 0.502307
0.714304 0.642709 0.507044
0.826224 0.647621 0.511579
0.932737 0.652311 0.515900
0.948748 0.653227 0.516458
0.169638 0.733913 0.498637
0.276468 0.738648 0.502944
0.387729 0.743569 0.507448
0.501867 0.748612 0.512084
0.618302 0.753753 0.516829
0.736744 0.758980 0.521670
0.846965 0.763868 0.526181
0.949048 0.768420 0.530364
0.964275 0.769352 0.530936
0.187257 0.850922 0.513111
0.295153 0.855744 0.517508
0.407624 0.860760 0.522109
0.523114 0.865905 0.526848
0.641050 0.871156 0.531702
0.761147 0.876502 0.536659
0.869072 0.881345 0.541121
0.965460 0.885711 0.545114
0.979707 0.886656 0.545693
0.203157 0.948378 0.525252
0.312304 0.953090 0.529723
0.426192 0.957990 0.534402
0.543261 0.963013 0.539225
0.662940 0.968135 0.544168
0.784953 0.973345 0.549219
0.889873 0.977832 0.553567
0.979117 0.981656 0.557273
0.992124 0.982290 0.557809
0.079936 0.067995 0.497081
0.183358 0.072334 0.500928
0.290778 0.076839 0.504956
0.400627 0.081446 0.509098
0.512291 0.086129 0.513329
0.625438 0.090874 0.517636
0.739625 0.095663 0.521999
0.854523 0.100483 0.526406
0.872269 0.101251 0.526773
0.093506 0.172322 0.508888
0.197292 0.176724 0.512801
0.305102 0.181294 0.516896
0.415373 0.185965 0.521107
0.527496 0.190714 0.525408
0.641145 0.195527 0.529787
0.755440 0.200367 0.534206
0.869945 0.205217 0.538647
0.887550 0.206024 0.539058
0.107759 0.280808 0.521383
0.211959 0.285272 0.525365
0.320230 0.289905 0.529529
0.431010 0.294642 0.533812
0.543695 0.299458 0.538187
0.657969 0.304341 0.542642
0.772155 0.309220 0.547107
0.885735 0.314075 0.551561
0.903112 0.314917 0.552013
0.122595 0.391847 0.534366
0.227290 0.396373 0.538419
0.336118 0.401071 0.542657
0.447522 0.405876 0.547016
0.560905 0.410763 0.551471
0.675956 0.415720 0.556009
0.789737 0.420625 0.560507
0.901712 0.425456 0.564944
0.918749 0.426327 0.565433
0.138039 0.504796 0.547759
0.243334 0.509387 0.551886
0.352847 0.514153 0.556203
0.465020 0.519031 0.560644
0.579264 0.523995 0.565185
0.695275 0.529034 0.569814
0.808277 0.533949 0.574330
0.917814 0.538721 0.578716
0.934380 0.539616 0.579235
0.154151 0.619301 0.561519
0.260182 0.623962 0.565727
0.370533 0.628804 0.570129
0.483650 0.633761 0.574660
0.598948 0.638812 0.579295
0.716131 0.643942 0.584023
0.827904 0.648849 0.588539
0.934022 0.653523 0.592832
0.949962 0.654437 0.593377
0.171011 0.735140 0.575623
0.277939 0.739879 0.579919
0.389311 0.744805 0.584414
0.503574 0.749853 0.589043
0.620148 0.755001 0.593782
0.738745 0.760236 0.598620
0.848762 0.765116 0.603113
0.950328 0.769648 0.607267
0.965465 0.770578 0.607830
0.188706 0.852166 0.590056
0.296719 0.856993 0.594447
0.409324 0.862016 0.599044
0.524965 0.867168 0.603782
0.643066 0.872427 0.608636
0.763345 0.877782 0.613595
0.871002 0.882615 0.618041
0.966739 0.886957 0.622004
0.980874 0.887899 0.622576
0.204682 0.949571 0.602162
0.313970 0.954285 0.606632
0.428017 0.959188 0.611312
0.545262 0.964215 0.616138
0.665136 0.969341 0.621086
0.787362 0.974557 0.626144
0.891941 0.979027 0.630478
0.980383 0.982815 0.634151
0.993254 0.983439 0.634683
0.081099 0.069145 0.575206
0.184555 0.073484 0.579014
0.292010 0.077990 0.583003
0.401898 0.082598 0.587108
0.513603 0.087282 0.591304
0.626794 0.092029 0.595577
0.740999 0.096819 0.599907
0.855875 0.101638 0.604280
0.873610 0.102405 0.604614
0.094679 0.173487 0.586883
0.198502 0.177889 0.590761
0.306355 0.182460 0.594822
0.416672 0.187133 0.599001
0.528844 0.191883 0.603271
0.642549 0.196698 0.607621
0.756844 0.201538 0.612010
0.871281 0.206384 0.616420
0.888866 0.207191 0.616803
0.108953 0.281986 0.599263
0.213198 0.286451 0.603214
0.321519 0.291086 0.607349
0.432355 0.295824 0.611605
0.545103 0.300643 0.615955
0.659447 0.305528 0.620386
0.773606 0.310406 0.624824
0.887057 0.315256 0.629248
0.904403 0.316096 0.629676
0.123821 0.393039 0.612146
0.228570 0.397567 0.616172
0.337460 0.402267 0.620387
0.448934 0.407074 0.624723
0.562395 0.411964 0.629158
0.677534 0.416925 0.633677
0.791253 0.421827 0.638152
0.903021 0.426650 0.642560
0.920016 0.427519 0.643028
0.139308 0.506002 0.625453
0.244670 0.510595 0.629560
0.354259 0.515365 0.633858
0.466518 0.520245 0.638282
0.580858 0.525214 0.642808
0.696977 0.530257 0.647423
0.809876 0.535168 0.651918
0.919114 0.539928 0.656275
0.935624 0.540821 0.656779
0.155474 0.620522 0.639144
0.261587 0.625186 0.643337
0.372032 0.630031 0.647725
0.485254 0.634993 0.652244
0.600669 0.640049 0.656869
0.717983 0.645185 0.661589
0.829603 0.650087 0.666086
0.935315 0.654744 0.670351
0.951181 0.655656 0.670883
0.172399 0.736376 0.653194
0.279427 0.741119 0.657479
0.390913 0.746050 0.661966
0.505304 0.751105 0.666588
0.622019 0.756259 0.671323
0.740772 0.761501 0.676158
0.850579 0.766374 0.680635
0.951617 0.770885 0.684761
0.966662 0.771812 0.685314
0.190170 0.853418 0.667588
0.298305 0.858252 0.671974
0.411046 0.863281 0.676568
0.526839 0.868441 0.681305
0.645108 0.873709 0.686160
0.765573 0.879073 0.691122
0.872955 0.883896 0.695553
0.968026 0.888211 0.699487
0.982047 0.889151 0.700054
0.206225 0.950771 0.679662
0.315656 0.955488 0.684131
0.429864 0.960394 0.688813
0.547289 0.965425 0.693643
0.667361 0.970557 0.698597
0.789804 0.975778 0.703663
0.894033 0.980230 0.707984
0.981657 0.983980 0.711624
0.994390 0.984596 0.712154
0.082084 0.070117 0.641187
0.185575 0.074457 0.644962
0.293066 0.078965 0.648921
0.402993 0.083574 0.652997
0.514740 0.088259 0.657165
0.627978 0.093008 0.661411
0.742198 0.097798 0.665714
0.857050 0.102616 0.670059
0.874772 0.103383 0.670368
0.095677 0.174474 0.652758
0.199539 0.178878 0.656609
0.307433 0.183450 0.660643
0.417797 0.188124 0.664797
0.530022 0.192876 0.669043
0.643784 0.197693 0.673370
0.758075 0.202533 0.677735
0.872439 0.207376 0.682119
0.890004 0.208182 0.682480
0.109974 0.282989 0.665047
0.214264 0.287455 0.668974
0.322637 0.292091 0.673087
0.433530 0.296831 0.677321
0.546343 0.301652 0.681651
0.660758 0.306540 0.686064
0.774887 0.311417 0.690481
0.888201 0.316261 0.694880
0.905517 0.317100 0.695289
0.124875 0.394056 0.677851
0.229680 0.398585 0.681858
0.338633 0.403287 0.686054
0.450178 0.408097 0.690374
0.563719 0.412990 0.694793
0.678947 0.417955 0.699298
0.792601 0.422854 0.703754
0.904154 0.427668 0.708138
0.921106 0.428535 0.708590
0.140406 0.507033 0.691092
0.245837 0.511628 0.695184
0.355503 0.516400 0.699468
0.467851 0.521285 0.703879
0.582289 0.526257 0.708394
0.698518 0.531306 0.713000
0.811309 0.536212 0.717478
0.920238 0.540960 0.721811
0.936689 0.541851 0.722302
0.156628 0.621567 0.704730
0.262825 0.626234 0.708912
0.373365 0.631084 0.713291
0.486694 0.636051 0.717802
0.602230 0.641111 0.722421
0.719676 0.646254 0.727136
0.831138 0.651150 0.731618
0.936432 0.655791 0.735858
0.952223 0.656700 0.736380
0.173620 0.737437 0.718740
0.280749 0.742185 0.723019
0.392351 0.747121 0.727501
0.506872 0.752182 0.732120
0.623731 0.757343 0.736854
0.742644 0.762593 0.741689
0.852234 0.767458 0.746152
0.952730 0.771948 0.750251
0.967681 0.772873 0.750797
0.191468 0.854497 0.733107
0.299725 0.859336 0.737492
0.412606 0.864372 0.742086
0.528554 0.869540 0.746824
0.646995 0.874816 0.751683
0.767648 0.880189 0.756650
0.874747 0.885003 0.761069
0.969138 0.889292 0.764974
0.983044 0.890229 0.765537
0.207603 0.951795 0.745158
0.317179 0.956515 0.749630
0.431552 0.961424 0.754316
0.549159 0.966460 0.759152
0.669431 0.971597 0.764114
0.792094 0.976824 0.769191
0.895967 0.981258 0.773498
0.982756 0.984970 0.777106
0.995349 0.985578 0.777634
