library/cube/Night_Still_004.cube
# CINEGRADE LAB — Premium Cinematic LUT
# Title: Night Still
# Category: CineStill 800T Emulation
# Description: Tungsten balance, halation glow, night film characteristics
# Mood: Nocturnal, glowing, cinematic
# Variant: 5
# Generated: 2026-05-21T16:12:55.348951
TITLE "Night Still"
LUT_3D_SIZE 5
0.073243 0.061372 0.047194
0.283679 0.070207 0.055549
0.504743 0.079485 0.064372
0.731694 0.089009 0.073464
0.864448 0.094603 0.078649
0.100921 0.274011 0.073022
0.312858 0.283096 0.081543
0.535661 0.292630 0.090540
0.763835 0.302385 0.099784
0.895586 0.308117 0.105029
0.130796 0.497838 0.100574
0.344807 0.507169 0.109281
0.570207 0.516973 0.118485
0.799146 0.526924 0.127861
0.927146 0.532666 0.133049
0.163100 0.728010 0.129264
0.380204 0.737625 0.138198
0.609529 0.747752 0.147665
0.838395 0.757869 0.157138
0.958515 0.763459 0.162098
0.195888 0.942632 0.156324
0.417501 0.952220 0.165499
0.652483 0.962325 0.175250
0.879992 0.972080 0.184708
0.986661 0.976754 0.189142
0.075393 0.063499 0.191609
0.285962 0.072337 0.199804
0.507171 0.081618 0.208476
0.734251 0.091146 0.217427
0.866984 0.096738 0.222474
0.103111 0.276196 0.216927
0.315219 0.285285 0.225321
0.538234 0.294824 0.234203
0.766508 0.304582 0.243337
0.898024 0.310303 0.248468
0.133112 0.500076 0.244081
0.347377 0.509415 0.252696
0.573102 0.519231 0.261823
0.802075 0.529183 0.271119
0.929486 0.534901 0.276211
0.165630 0.730305 0.272484
0.383117 0.739935 0.281366
0.612927 0.750084 0.290795
0.841721 0.760200 0.300217
0.960761 0.765749 0.305093
0.198704 0.944867 0.299357
0.420870 0.954463 0.308517
0.656541 0.964584 0.318269
0.883833 0.974316 0.327700
0.988788 0.978905 0.332055
0.077639 0.065722 0.342650
0.288344 0.074563 0.350683
0.509702 0.083849 0.359204
0.736910 0.093379 0.368013
0.869607 0.098970 0.372922
0.105405 0.278477 0.367454
0.317692 0.287570 0.375722
0.540927 0.297116 0.384490
0.769296 0.306876 0.393516
0.900548 0.312585 0.398532
0.135541 0.502411 0.394212
0.350072 0.511759 0.402740
0.576136 0.521587 0.411792
0.805134 0.531540 0.421010
0.931913 0.537233 0.426007
0.168282 0.732697 0.422338
0.386167 0.742343 0.431171
0.616481 0.752515 0.440567
0.845192 0.762631 0.449941
0.963093 0.768137 0.454736
0.201650 0.947195 0.449035
0.424391 0.956802 0.458186
0.660774 0.966938 0.467946
0.887831 0.976647 0.477355
0.991001 0.981149 0.481633
0.079936 0.067995 0.497081
0.290778 0.076839 0.504956
0.512291 0.086129 0.513329
0.739625 0.095663 0.521999
0.872269 0.101251 0.526773
0.107759 0.280808 0.521383
0.320230 0.289905 0.529529
0.543695 0.299458 0.538187
0.772155 0.309220 0.547107
0.903112 0.314917 0.552013
0.138039 0.504796 0.547759
0.352847 0.514153 0.556203
0.579264 0.523995 0.565185
0.808277 0.533949 0.574330
0.934380 0.539616 0.579235
0.171011 0.735140 0.575623
0.389311 0.744805 0.584414
0.620148 0.755001 0.593782
0.848762 0.765116 0.603113
0.965465 0.770578 0.607830
0.204682 0.949571 0.602162
0.428017 0.959188 0.611312
0.665136 0.969341 0.621086
0.891941 0.979027 0.630478
0.993254 0.983439 0.634683
0.082084 0.070117 0.641187
0.293066 0.078965 0.648921
0.514740 0.088259 0.657165
0.742198 0.097798 0.665714
0.874772 0.103383 0.670368
0.109974 0.282989 0.665047
0.322637 0.292091 0.673087
0.546343 0.301652 0.681651
0.774887 0.311417 0.690481
0.905517 0.317100 0.695289
0.140406 0.507033 0.691092
0.355503 0.516400 0.699468
0.582289 0.526257 0.708394
0.811309 0.536212 0.717478
0.936689 0.541851 0.722302
0.173620 0.737437 0.718740
0.392351 0.747121 0.727501
0.623731 0.757343 0.736854
0.852234 0.767458 0.746152
0.967681 0.772873 0.750797
0.207603 0.951795 0.745158
0.431552 0.961424 0.754316
0.669431 0.971597 0.764114
0.895967 0.981258 0.773498
0.995349 0.985578 0.777634
