library/cube/Nocturne_Lux_000.cube
# CINEGRADE LAB — Premium Cinematic LUT
# Title: Nocturne Lux
# Category: Luxury Editorial
# Description: Rich blacks, soft contrast, warm skin tones for high-end editorial photography
# Mood: Sophisticated, elegant, polished
# Variant: 1
# Generated: 2026-05-21T16:12:10.038726
TITLE "Nocturne Lux"
LUT_3D_SIZE 5
0.000000 0.000000 0.000000
0.187930 0.003413 0.003411
0.432670 0.007859 0.007854
0.684666 0.012440 0.012428
0.937009 0.017030 0.017009
0.011893 0.202101 0.011834
0.199936 0.205532 0.015248
0.444878 0.210000 0.019696
0.697157 0.214605 0.024276
0.948847 0.219204 0.028847
0.027056 0.458018 0.026821
0.215310 0.461483 0.030241
0.460580 0.465990 0.034696
0.713270 0.470638 0.039286
0.963838 0.475254 0.043838
0.042612 0.718594 0.042083
0.231173 0.722110 0.045511
0.476897 0.726673 0.049977
0.730129 0.731380 0.054580
0.979106 0.736020 0.059106
0.058175 0.977233 0.057233
0.247130 0.980663 0.060663
0.493425 0.985134 0.065134
0.747318 0.989742 0.069742
0.994224 0.994224 0.074224
0.001003 0.001003 0.160678
0.188940 0.004416 0.164089
0.433694 0.008864 0.168532
0.685714 0.013446 0.173107
0.938012 0.018036 0.177687
0.012908 0.203109 0.172512
0.200968 0.206542 0.175927
0.445938 0.211011 0.180375
0.698252 0.215619 0.184956
0.949850 0.220218 0.189525
0.028085 0.459037 0.187500
0.216365 0.462505 0.190921
0.461675 0.467014 0.195377
0.714413 0.471665 0.199968
0.964842 0.476281 0.204518
0.043653 0.719628 0.202763
0.232250 0.723147 0.206192
0.478027 0.727714 0.210659
0.731321 0.732426 0.215263
0.980111 0.737065 0.219786
0.059226 0.978237 0.217912
0.248228 0.981667 0.221343
0.494588 0.986139 0.225814
0.748554 0.990749 0.230424
0.995226 0.995226 0.234902
0.002544 0.002542 0.407353
0.190489 0.005957 0.410764
0.435259 0.010406 0.415207
0.687302 0.014990 0.419783
0.939551 0.019580 0.424362
0.014462 0.204654 0.419188
0.202539 0.208089 0.422603
0.447537 0.212560 0.427051
0.699888 0.217170 0.431633
0.951389 0.221769 0.436200
0.029651 0.460593 0.434176
0.217958 0.464063 0.437597
0.463309 0.468576 0.442054
0.716098 0.473230 0.446647
0.966383 0.477845 0.451194
0.045232 0.721199 0.449440
0.233867 0.724723 0.452870
0.479698 0.729293 0.457339
0.733054 0.734009 0.461944
0.981653 0.738648 0.466464
0.060815 0.979777 0.464588
0.249864 0.983208 0.468019
0.496290 0.987681 0.472492
0.750333 0.992292 0.477103
0.996766 0.996766 0.481576
0.004163 0.004159 0.666427
0.192118 0.007575 0.669839
0.436905 0.012025 0.674283
0.688973 0.016611 0.678859
0.941168 0.021201 0.683437
0.016094 0.206278 0.678263
0.204190 0.209714 0.681678
0.449218 0.214187 0.686127
0.701607 0.218799 0.690710
0.953007 0.223398 0.695276
0.031295 0.462227 0.693252
0.219631 0.465700 0.696674
0.465025 0.470215 0.701132
0.717865 0.474873 0.705725
0.968001 0.479488 0.710270
0.046890 0.722849 0.708517
0.235562 0.726376 0.711948
0.481449 0.730951 0.716418
0.734869 0.735671 0.721024
0.983272 0.740309 0.725541
0.062483 0.981394 0.723663
0.251579 0.984826 0.727095
0.498074 0.989301 0.731570
0.752193 0.993913 0.736182
0.998382 0.998382 0.740651
0.005786 0.005779 0.925776
0.193750 0.009196 0.929188
0.438556 0.013647 0.933632
0.690651 0.018234 0.938209
0.942786 0.022824 0.942786
0.017728 0.207903 0.937613
0.205845 0.211341 0.941028
0.450904 0.215817 0.945478
0.703332 0.220431 0.950062
0.954625 0.225029 0.954625
0.032943 0.463863 0.952603
0.221308 0.467339 0.956025
0.466746 0.471858 0.960484
0.719639 0.476518 0.965078
0.969620 0.481133 0.969620
0.048551 0.724502 0.967869
0.237262 0.728033 0.971301
0.483205 0.732611 0.975772
0.736691 0.737336 0.980380
0.984893 0.741973 0.984893
0.064154 0.983013 0.983013
0.253299 0.986446 0.986446
0.499862 0.990922 0.990922
0.754060 0.995536 0.995536
1.000000 1.000000 1.000000
