library/cube/Nocturne_Lux_000.cube
# CINEGRADE LAB — Premium Cinematic LUT
# Title: Nocturne Lux
# Category: Luxury Editorial
# Description: Rich blacks, soft contrast, warm skin tones for high-end editorial photography
# Mood: Sophisticated, elegant, polished
# Variant: 1
# Generated: 2026-05-21T16:12:10.038726
TITLE "Nocturne Lux"
LUT_3D_SIZE 9
0.000000 0.000000 0.000000
0.070629 0.001282 0.001282
0.187930 0.003413 0.003411
0.309110 0.005614 0.005611
0.432670 0.007859 0.007854
0.557974 0.010137 0.010129
0.684666 0.012440 0.012428
0.812518 0.014765 0.014749
0.937009 0.017030 0.017009
0.004546 0.077381 0.004531
0.075191 0.078667 0.005813
0.192520 0.080800 0.007943
0.313738 0.083006 0.010144
0.437345 0.085255 0.012388
0.562707 0.087537 0.014664
0.689467 0.089846 0.016965
0.817396 0.092176 0.019288
0.941542 0.094439 0.021542
0.011893 0.202101 0.011834
0.082564 0.203392 0.013117
0.199936 0.205532 0.015248
0.321207 0.207743 0.017450
0.444878 0.210000 0.019696
0.570313 0.212289 0.021973
0.697157 0.214605 0.024276
0.825179 0.216943 0.026601
0.948847 0.219204 0.028847
0.019415 0.329300 0.019283
0.090120 0.330598 0.020567
0.207551 0.332746 0.022700
0.328891 0.334966 0.024903
0.452642 0.337231 0.027150
0.578166 0.339530 0.029430
0.705110 0.341856 0.031735
0.833243 0.344204 0.034063
0.956298 0.346462 0.036298
0.027056 0.458018 0.026821
0.097805 0.459326 0.028107
0.215310 0.461483 0.030241
0.336734 0.463714 0.032446
0.460580 0.465990 0.034696
0.586211 0.468300 0.036978
0.713270 0.470638 0.039286
0.841530 0.472999 0.041616
0.963838 0.475254 0.043838
0.034793 0.587856 0.034425
0.105595 0.589175 0.035712
0.223188 0.591344 0.037849
0.344713 0.593588 0.040057
0.468669 0.595877 0.042309
0.594422 0.598201 0.044594
0.721614 0.600553 0.046905
0.850017 0.602928 0.049239
0.971445 0.605179 0.051445
0.042612 0.718594 0.042083
0.113476 0.719926 0.043372
0.231173 0.722110 0.045511
0.352814 0.724368 0.047722
0.476897 0.726673 0.049977
0.602788 0.729012 0.052265
0.730129 0.731380 0.054580
0.858691 0.733773 0.056917
0.979106 0.736020 0.059106
0.050506 0.850094 0.049786
0.121441 0.851441 0.051077
0.239257 0.853642 0.053219
0.361029 0.855917 0.055433
0.485255 0.858239 0.057691
0.611300 0.860597 0.059983
0.738806 0.862983 0.062302
0.867545 0.865395 0.064643
0.986812 0.867637 0.066812
0.058175 0.977233 0.057233
0.129185 0.978522 0.058522
0.247130 0.980663 0.060663
0.369045 0.982876 0.062876
0.493425 0.985134 0.065134
0.619635 0.987425 0.067425
0.747318 0.989742 0.069742
0.876243 0.992082 0.072082
0.994224 0.994224 0.074224
0.000290 0.000290 0.046431
0.070920 0.001572 0.047713
0.188223 0.003703 0.049842
0.309406 0.005904 0.052042
0.432970 0.008150 0.054285
0.558279 0.010428 0.056560
0.684978 0.012732 0.058860
0.812837 0.015057 0.061181
0.937299 0.017322 0.063440
0.004839 0.077672 0.050962
0.075486 0.078958 0.052244
0.192819 0.081092 0.054374
0.314041 0.083298 0.056575
0.437654 0.085547 0.058819
0.563023 0.087830 0.061095
0.689790 0.090139 0.063397
0.817728 0.092470 0.065719
0.941831 0.094732 0.067973
0.012189 0.202394 0.058265
0.082863 0.203685 0.059548
0.200240 0.205825 0.061680
0.321518 0.208037 0.063882
0.445196 0.210294 0.066127
0.570639 0.212584 0.068405
0.697492 0.214900 0.070708
0.825525 0.217239 0.073033
0.949137 0.219499 0.075278
0.019714 0.329595 0.065714
0.090424 0.330894 0.066998
0.207861 0.333042 0.069131
0.329209 0.335262 0.071335
0.452968 0.337528 0.073582
0.578503 0.339827 0.075862
0.705457 0.342154 0.078168
0.833602 0.344503 0.080495
0.956588 0.346761 0.082729
0.027359 0.458316 0.073253
0.098113 0.459624 0.074538
0.215625 0.461782 0.076673
0.337059 0.464013 0.078878
0.460915 0.466290 0.081128
0.586557 0.468601 0.083411
0.713630 0.470940 0.085719
0.841903 0.473302 0.088049
0.964129 0.475556 0.090270
0.035099 0.588157 0.080857
0.105906 0.589476 0.082144
0.223509 0.591647 0.084281
0.345045 0.593891 0.086489
0.469014 0.596181 0.088742
0.594779 0.598506 0.091027
0.721986 0.600859 0.093339
0.850404 0.603236 0.095672
0.971736 0.605486 0.097877
0.042921 0.718899 0.088515
0.113792 0.720232 0.089804
0.231500 0.722417 0.091943
0.353153 0.724676 0.094154
0.477250 0.726982 0.096410
0.603156 0.729322 0.098699
0.730513 0.731691 0.101014
0.859092 0.734085 0.103351
0.979397 0.736331 0.105538
0.050818 0.850404 0.096218
0.121761 0.851752 0.097509
0.239589 0.853954 0.099651
0.361376 0.856230 0.101866
0.485617 0.858553 0.104125
0.611679 0.860912 0.106417
0.739202 0.863300 0.108736
0.867959 0.865713 0.111078
0.987104 0.867953 0.113245
0.058489 0.977524 0.103665
0.129508 0.978813 0.104954
0.247467 0.980954 0.107095
0.369397 0.983167 0.109308
0.493795 0.985425 0.111566
0.620023 0.987716 0.113857
0.747724 0.990034 0.116175
0.876670 0.992375 0.118516
0.994514 0.994514 0.120655
0.001003 0.001003 0.160678
0.071635 0.002286 0.161960
0.188940 0.004416 0.164089
0.310126 0.006618 0.166289
0.433694 0.008864 0.168532
0.559009 0.011142 0.170807
0.685714 0.013446 0.173107
0.813580 0.015772 0.175428
0.938012 0.018036 0.177687
0.005555 0.078386 0.165209
0.076205 0.079672 0.166492
0.193541 0.081807 0.168622
0.314768 0.084013 0.170822
0.438387 0.086263 0.173067
0.563762 0.088546 0.175343
0.690538 0.090855 0.177644
0.818484 0.093187 0.179967
0.942544 0.095448 0.182220
0.012908 0.203109 0.172512
0.083585 0.204401 0.173796
0.200968 0.206542 0.175927
0.322252 0.208754 0.178129
0.445938 0.211011 0.180375
0.571390 0.213302 0.182653
0.698252 0.215619 0.184956
0.826295 0.217959 0.187281
0.949850 0.220218 0.189525
0.020437 0.330313 0.179962
0.091150 0.331612 0.181246
0.208595 0.333761 0.183379
0.329951 0.335982 0.185583
0.453719 0.338248 0.187830
0.579264 0.340548 0.190110
0.706229 0.342876 0.192416
0.834386 0.345226 0.194744
0.957301 0.347482 0.196976
0.028085 0.459037 0.187500
0.098843 0.460345 0.188786
0.216365 0.462505 0.190921
0.337808 0.464736 0.193127
0.461675 0.467014 0.195377
0.587329 0.469326 0.197659
0.714413 0.471665 0.199968
0.842701 0.474028 0.202298
0.964842 0.476281 0.204518
0.035828 0.588882 0.195105
0.106641 0.590202 0.196392
0.224254 0.592373 0.198529
0.345801 0.594618 0.200738
0.469782 0.596909 0.202991
0.595561 0.599235 0.205276
0.722782 0.601588 0.207588
0.851215 0.603966 0.209922
0.972450 0.606215 0.212125
0.043653 0.719628 0.202763
0.114531 0.720961 0.204052
0.232250 0.723147 0.206192
0.353916 0.725408 0.208403
0.478027 0.727714 0.210659
0.603948 0.730056 0.212948
0.731321 0.732426 0.215263
0.859917 0.734821 0.217601
0.980111 0.737065 0.219786
0.051554 0.851137 0.210466
0.122504 0.852487 0.211758
0.240346 0.854690 0.213900
0.362146 0.856967 0.216115
0.486403 0.859291 0.218375
0.612481 0.861651 0.220667
0.740022 0.864040 0.222986
0.868798 0.866454 0.225328
0.987818 0.868693 0.227493
0.059226 0.978237 0.217912
0.130254 0.979526 0.219201
0.248228 0.981667 0.221343
0.370173 0.983881 0.223556
0.494588 0.986139 0.225814
0.620834 0.988431 0.228106
0.748554 0.990749 0.230424
0.877521 0.993090 0.232765
0.995226 0.995226 0.234902
0.001761 0.001760 0.281956
0.072394 0.003043 0.283239
0.189702 0.005174 0.285368
0.310891 0.007376 0.287568
0.434464 0.009622 0.289811
0.559784 0.011901 0.292086
0.686495 0.014205 0.294386
0.814368 0.016531 0.296708
0.938769 0.018795 0.298966
0.006315 0.079144 0.286488
0.076967 0.080430 0.287770
0.194308 0.082565 0.289901
0.315540 0.084772 0.292101
0.439165 0.087022 0.294346
0.564547 0.089306 0.296622
0.691331 0.091616 0.298924
0.819286 0.093947 0.301247
0.943301 0.096209 0.303499
0.013672 0.203869 0.293791
0.084352 0.205161 0.295075
0.201741 0.207302 0.297206
0.323031 0.209515 0.299408
0.446724 0.211773 0.301654
0.572185 0.214064 0.303932
0.699057 0.216382 0.306236
0.827111 0.218722 0.308561
0.950607 0.220981 0.310804
0.021204 0.331075 0.301241
0.091921 0.332375 0.302525
0.209373 0.334524 0.304658
0.330737 0.336746 0.306862
0.454514 0.339013 0.309110
0.580069 0.341314 0.311390
0.707046 0.343641 0.313696
0.835215 0.345992 0.316024
0.958058 0.348248 0.318255
0.028855 0.459802 0.308780
0.099618 0.461111 0.310065
0.217148 0.463271 0.312200
0.338601 0.465504 0.314406
0.462479 0.467782 0.316657
0.588145 0.470094 0.318940
0.715242 0.472435 0.321248
0.843544 0.474798 0.323579
0.965600 0.477050 0.325797
0.036601 0.589650 0.316385
0.107420 0.590971 0.317672
0.225043 0.593143 0.319809
0.346601 0.595389 0.322018
0.470595 0.597681 0.324271
0.596387 0.600008 0.326557
0.723623 0.602362 0.328869
0.852072 0.604741 0.331203
0.973208 0.606989 0.333405
0.044430 0.720400 0.324043
0.115314 0.721735 0.325332
0.233045 0.723922 0.327472
0.354724 0.726183 0.329684
0.478849 0.728491 0.331940
0.604785 0.730833 0.334229
0.732174 0.733205 0.336545
0.860788 0.735600 0.338883
0.980869 0.737844 0.341066
0.052334 0.851915 0.331747
0.123292 0.853265 0.333038
0.241146 0.855469 0.335181
0.362961 0.857748 0.337396
0.487234 0.860073 0.339656
0.613329 0.862434 0.341949
0.740888 0.864825 0.344269
0.869683 0.867240 0.346611
0.988576 0.869477 0.348773
0.060008 0.978994 0.339191
0.131044 0.980283 0.340481
0.249032 0.982425 0.342622
0.370994 0.984639 0.344836
0.495426 0.986897 0.347095
0.621690 0.989189 0.349386
0.749430 0.991508 0.351705
0.878417 0.993849 0.354046
0.995983 0.995983 0.356180
0.002544 0.002542 0.407353
0.073178 0.003826 0.408635
0.190489 0.005957 0.410764
0.311682 0.008159 0.412964
0.435259 0.010406 0.415207
0.560585 0.012685 0.417483
0.687302 0.014990 0.419783
0.815183 0.017316 0.422104
0.939551 0.019580 0.424362
0.007102 0.079927 0.411884
0.077756 0.081214 0.413167
0.195101 0.083350 0.415297
0.316338 0.085556 0.417498
0.439969 0.087808 0.419742
0.565359 0.090091 0.422019
0.692150 0.092402 0.424321
0.820115 0.094734 0.426644
0.944084 0.096995 0.428895
0.014462 0.204654 0.419188
0.085145 0.205947 0.420471
0.202539 0.208089 0.422603
0.323836 0.210302 0.424805
0.447537 0.212560 0.427051
0.573007 0.214852 0.429329
0.699888 0.217170 0.431633
0.827954 0.219511 0.433959
0.951389 0.221769 0.436200
0.021997 0.331863 0.426637
0.092718 0.333163 0.427922
0.210177 0.335313 0.430055
0.331549 0.337536 0.432259
0.455336 0.339803 0.434507
0.580901 0.342104 0.436788
0.707890 0.344433 0.439094
0.836072 0.346785 0.441422
0.958841 0.349039 0.443652
0.029651 0.460593 0.434176
0.100420 0.461903 0.435462
0.217958 0.464063 0.437597
0.339421 0.466297 0.439804
0.463309 0.468576 0.442054
0.588987 0.470889 0.444337
0.716098 0.473230 0.446647
0.844414 0.475594 0.448978
0.966383 0.477845 0.451194
0.037400 0.590445 0.441782
0.108226 0.591766 0.443069
0.225859 0.593939 0.445207
0.347428 0.596186 0.447416
0.471434 0.598479 0.449669
0.597240 0.600806 0.451955
0.724491 0.603162 0.454267
0.852956 0.605541 0.456602
0.973991 0.607788 0.458802
0.045232 0.721199 0.449440
0.116124 0.722535 0.450730
0.233867 0.724723 0.452870
0.355558 0.726985 0.455082
0.479698 0.729293 0.457339
0.605648 0.731637 0.459628
0.733054 0.734009 0.461944
0.861685 0.736406 0.464282
0.981653 0.738648 0.466464
0.053140 0.852719 0.457144
0.124106 0.854070 0.458436
0.241973 0.856275 0.460579
0.363803 0.858555 0.462795
0.488092 0.860881 0.465055
0.614203 0.863244 0.467348
0.741780 0.865635 0.469668
0.870594 0.868051 0.472011
0.989360 0.870287 0.474171
0.060815 0.979777 0.464588
0.131861 0.981066 0.465877
0.249864 0.983208 0.468019
0.371841 0.985422 0.470233
0.496290 0.987681 0.472492
0.622573 0.989973 0.474784
0.750333 0.992292 0.477103
0.879340 0.994634 0.479445
0.996766 0.996766 0.481576
0.003346 0.003343 0.535720
0.073982 0.004627 0.537002
0.191296 0.006759 0.539131
0.312493 0.008962 0.541331
0.436074 0.011208 0.543575
0.561406 0.013487 0.545850
0.688130 0.015793 0.548150
0.816019 0.018120 0.550472
0.940352 0.020383 0.552729
0.007907 0.080730 0.540251
0.078564 0.082017 0.541534
0.195913 0.084153 0.543664
0.317156 0.086360 0.545865
0.440793 0.088611 0.548110
0.566190 0.090896 0.550386
0.692990 0.093206 0.552689
0.820964 0.095539 0.555012
0.944885 0.097799 0.557262
0.015270 0.205459 0.547555
0.085957 0.206752 0.548839
0.203357 0.208894 0.550970
0.324661 0.211108 0.553173
0.448370 0.213367 0.555419
0.573848 0.215659 0.557697
0.700740 0.217977 0.560002
0.828816 0.220319 0.562327
0.952191 0.222576 0.564568
0.022808 0.332669 0.555005
0.093534 0.333970 0.556289
0.211000 0.336121 0.558423
0.332381 0.338344 0.560627
0.456177 0.340612 0.562875
0.581753 0.342914 0.565156
0.708753 0.345243 0.567463
0.836948 0.347596 0.569791
0.959643 0.349849 0.572020
0.030465 0.461402 0.562544
0.101240 0.462713 0.563830
0.218787 0.464874 0.565965
0.340260 0.467108 0.568172
0.464159 0.469388 0.570423
0.589850 0.471702 0.572706
0.716974 0.474044 0.575015
0.845303 0.476409 0.577347
0.967184 0.478659 0.579561
0.038218 0.591258 0.570150
0.109050 0.592580 0.571437
0.226693 0.594754 0.573575
0.348275 0.597002 0.575784
0.472293 0.599296 0.578038
0.598113 0.601624 0.580324
0.725378 0.603980 0.582637
0.853859 0.606361 0.584972
0.974793 0.608606 0.587170
0.046054 0.722017 0.577809
0.116952 0.723353 0.579098
0.234707 0.725542 0.581239
0.356412 0.727805 0.583451
0.480565 0.730115 0.585708
0.606532 0.732459 0.587998
0.733954 0.734833 0.590314
0.862603 0.737231 0.592653
0.982455 0.739471 0.594832
0.053964 0.853541 0.585513
0.124938 0.854893 0.586805
0.242819 0.857100 0.588948
0.364664 0.859380 0.591164
0.488968 0.861708 0.593424
0.615097 0.864072 0.595718
0.742692 0.866464 0.598039
0.871525 0.868881 0.600382
0.990163 0.871116 0.602540
0.061642 0.980578 0.592955
0.132696 0.981868 0.594245
0.250714 0.984010 0.596387
0.372708 0.986224 0.598601
0.497174 0.988484 0.600861
0.623476 0.990776 0.603153
0.751255 0.993096 0.605473
0.880283 0.995438 0.607815
0.997566 0.997566 0.609943
0.004163 0.004159 0.666427
0.074801 0.005443 0.667709
0.192118 0.007575 0.669839
0.313318 0.009778 0.672039
0.436905 0.012025 0.674283
0.562242 0.014305 0.676558
0.688973 0.016611 0.678859
0.816870 0.018938 0.681180
0.941168 0.021201 0.683437
0.008728 0.081547 0.670959
0.079387 0.082835 0.672242
0.196741 0.084971 0.674372
0.317989 0.087178 0.676573
0.441633 0.089430 0.678818
0.567037 0.091715 0.681095
0.693845 0.094026 0.683397
0.821829 0.096359 0.685721
0.945701 0.098619 0.687970
0.016094 0.206278 0.678263
0.086784 0.207571 0.679546
0.204190 0.209714 0.681678
0.325501 0.211928 0.683881
0.449218 0.214187 0.686127
0.574705 0.216480 0.688406
0.701607 0.218799 0.690710
0.829695 0.221141 0.693036
0.953007 0.223398 0.695276
0.023635 0.333491 0.685713
0.094365 0.334792 0.686997
0.211839 0.336943 0.689131
0.333228 0.339167 0.691335
0.457034 0.341436 0.693584
0.582621 0.343739 0.695865
0.709632 0.346068 0.698172
0.837840 0.348421 0.700500
0.960459 0.350674 0.702728
0.031295 0.462227 0.693252
0.102075 0.463538 0.694538
0.219631 0.465700 0.696674
0.341114 0.467935 0.698881
0.465025 0.470215 0.701132
0.590727 0.472530 0.703415
0.717865 0.474873 0.705725
0.846209 0.477239 0.708057
0.968001 0.479488 0.710270
0.039051 0.592086 0.700858
0.109889 0.593409 0.702146
0.227543 0.595584 0.704284
0.349136 0.597832 0.706493
0.473168 0.600127 0.708747
0.599002 0.602456 0.711034
0.726282 0.604814 0.713347
0.854779 0.607195 0.715682
0.975609 0.609439 0.717878
0.046890 0.722849 0.708517
0.117796 0.724186 0.709807
0.235562 0.726376 0.711948
0.357281 0.728640 0.714160
0.481449 0.730951 0.716418
0.607431 0.733297 0.718708
0.734869 0.735671 0.721024
0.863536 0.738070 0.723364
0.983272 0.740309 0.725541
0.054804 0.854379 0.716222
0.125786 0.855732 0.717514
0.243681 0.857939 0.719658
0.365540 0.860221 0.721874
0.489860 0.862550 0.724135
0.616006 0.864914 0.726429
0.743620 0.867308 0.728750
0.872473 0.869727 0.731093
0.990980 0.871960 0.733249
0.062483 0.981394 0.723663
0.133546 0.982684 0.724953
0.251579 0.984826 0.727095
0.373590 0.987041 0.729310
0.498074 0.989301 0.731570
0.624394 0.991593 0.733862
0.752193 0.993913 0.736182
0.881243 0.996256 0.738525
0.998382 0.998382 0.740651
0.004993 0.004988 0.799073
0.075633 0.006272 0.800355
0.192952 0.008404 0.802485
0.314157 0.010607 0.804685
0.437749 0.012855 0.806929
0.563092 0.015135 0.809204
0.689830 0.017441 0.811505
0.817735 0.019768 0.813827
0.941996 0.022031 0.816083
0.009560 0.082376 0.803605
0.080223 0.083664 0.804888
0.197581 0.085801 0.807018
0.318834 0.088009 0.809220
0.442485 0.090261 0.811464
0.567897 0.092546 0.813741
0.694714 0.094858 0.816044
0.822707 0.097191 0.818368
0.946529 0.099450 0.820616
0.016929 0.207109 0.810909
0.087623 0.208403 0.812193
0.205036 0.210546 0.814325
0.326354 0.212761 0.816528
0.450079 0.215021 0.818774
0.575576 0.217314 0.821053
0.702488 0.219634 0.823357
0.830586 0.221976 0.825684
0.953835 0.224232 0.827922
0.024474 0.334324 0.818359
0.095209 0.335626 0.819644
0.212690 0.337778 0.821778
0.334088 0.340002 0.823982
0.457904 0.342272 0.826231
0.583502 0.344575 0.828512
0.710525 0.346906 0.830819
0.838746 0.349259 0.833148
0.961287 0.351511 0.835374
0.032137 0.463063 0.825899
0.102923 0.464375 0.827185
0.220488 0.466538 0.829321
0.341982 0.468774 0.831528
0.465904 0.471055 0.833779
0.591619 0.473371 0.836063
0.718770 0.475714 0.838373
0.847129 0.478081 0.840705
0.968829 0.480329 0.842916
0.039897 0.592926 0.833505
0.110741 0.594250 0.834793
0.228406 0.596426 0.836931
0.350011 0.598675 0.839141
0.474055 0.600971 0.841395
0.599903 0.603301 0.843682
0.727198 0.605659 0.845995
0.855712 0.608042 0.848331
0.976438 0.610285 0.850525
0.047739 0.723694 0.841165
0.118652 0.725032 0.842455
0.236431 0.727223 0.844596
0.358162 0.729488 0.846808
0.482345 0.731800 0.849066
0.608343 0.734146 0.851356
0.735798 0.736522 0.853673
0.864483 0.738922 0.856013
0.984101 0.741160 0.858188
0.055656 0.855228 0.848870
0.126646 0.856583 0.850162
0.244555 0.858791 0.852306
0.366429 0.861074 0.854522
0.490766 0.863404 0.856784
0.616929 0.865770 0.859078
0.744561 0.868165 0.861399
0.873433 0.870584 0.863743
0.991809 0.872816 0.865896
0.063337 0.982222 0.856309
0.134409 0.983512 0.857599
0.252457 0.985655 0.859742
0.374484 0.987870 0.861957
0.498986 0.990130 0.864217
0.625325 0.992423 0.866510
0.753145 0.994743 0.868830
0.882215 0.997086 0.871173
0.999209 0.999209 0.873297
0.005786 0.005779 0.925776
0.076427 0.007063 0.927059
0.193750 0.009196 0.929188
0.314959 0.011399 0.931389
0.438556 0.013647 0.933632
0.563905 0.015927 0.935908
0.690651 0.018234 0.938209
0.818564 0.020562 0.940531
0.942786 0.022824 0.942786
0.010356 0.083169 0.930308
0.081021 0.084457 0.931591
0.198384 0.086594 0.933722
0.319644 0.088802 0.935923
0.443301 0.091055 0.938168
0.568721 0.093340 0.940445
0.695546 0.095652 0.942748
0.823550 0.097986 0.945072
0.947319 0.100245 0.947319
0.017728 0.207903 0.937613
0.088426 0.209197 0.938896
0.205845 0.211341 0.941028
0.327170 0.213556 0.943231
0.450904 0.215817 0.945478
0.576410 0.218110 0.947757
0.703332 0.220431 0.950062
0.831443 0.222774 0.952388
0.954625 0.225029 0.954625
0.025276 0.335121 0.945063
0.096016 0.336423 0.946348
0.213505 0.338576 0.948482
0.334912 0.340801 0.950687
0.458737 0.343071 0.952936
0.584346 0.345375 0.955217
0.711382 0.347706 0.957524
0.839616 0.350061 0.959853
0.962078 0.352312 0.962078
0.032943 0.463863 0.952603
0.103734 0.465176 0.953889
0.221308 0.467339 0.956025
0.342812 0.469576 0.958233
0.466746 0.471858 0.960484
0.592474 0.474174 0.962768
0.719639 0.476518 0.965078
0.848012 0.478886 0.967411
0.969620 0.481133 0.969620
0.040705 0.593730 0.960209
0.111556 0.595055 0.961498
0.229232 0.597231 0.963636
0.350849 0.599481 0.965846
0.474906 0.601778 0.968100
0.600769 0.604109 0.970388
0.728079 0.606468 0.972701
0.856610 0.608851 0.975037
0.977229 0.611093 0.977229
0.048551 0.724502 0.967869
0.119471 0.725841 0.969160
0.237262 0.728033 0.971301
0.359008 0.730299 0.973514
0.483205 0.732611 0.975772
0.609219 0.734959 0.978062
0.736691 0.737336 0.980380
0.865394 0.739737 0.982720
0.984893 0.741973 0.984893
0.056471 0.856041 0.975575
0.127470 0.857397 0.976867
0.245392 0.859606 0.979012
0.367281 0.861890 0.981228
0.491635 0.864221 0.983490
0.617815 0.866588 0.985784
0.745466 0.868984 0.988106
0.874358 0.871405 0.990450
0.992601 0.873636 0.992601
0.064154 0.983013 0.983013
0.135235 0.984303 0.984303
0.253299 0.986446 0.986446
0.375342 0.988662 0.988662
0.499862 0.990922 0.990922
0.626220 0.993215 0.993215
0.754060 0.995536 0.995536
0.883152 0.997879 0.997879
1.000000 1.000000 1.000000
