library/cube/Nocturne_Lux_000.cube
# CINEGRADE LAB — Premium Cinematic LUT
# Title: Nocturne Lux
# Category: Luxury Editorial
# Description: Rich blacks, soft contrast, warm skin tones for high-end editorial photography
# Mood: Sophisticated, elegant, polished
# Variant: 1
# Generated: 2026-05-21T16:12:10.038726
TITLE "Nocturne Lux"
LUT_3D_SIZE 33
0.000000 0.000000 0.000000
0.000000 0.000000 0.000000
0.015108 0.000274 0.000274
0.042401 0.000770 0.000770
0.070629 0.001282 0.001282
0.099420 0.001805 0.001805
0.128620 0.002335 0.002335
0.158141 0.002872 0.002871
0.187930 0.003413 0.003411
0.217947 0.003958 0.003956
0.248163 0.004507 0.004505
0.278556 0.005059 0.005056
0.309110 0.005614 0.005611
0.339809 0.006172 0.006168
0.370642 0.006732 0.006728
0.401598 0.007294 0.007290
0.432670 0.007859 0.007854
0.463849 0.008426 0.008420
0.495130 0.008994 0.008988
0.526507 0.009565 0.009557
0.557974 0.010137 0.010129
0.589527 0.010710 0.010701
0.621163 0.011285 0.011276
0.652877 0.011862 0.011851
0.684666 0.012440 0.012428
0.716528 0.013019 0.013007
0.748459 0.013600 0.013586
0.780456 0.014182 0.014167
0.812518 0.014765 0.014749
0.844642 0.015350 0.015332
0.876715 0.015933 0.015915
0.908803 0.016517 0.016497
0.937009 0.017030 0.017009
0.000001 0.000000 0.000000
0.000002 0.000000 0.000000
0.015110 0.000275 0.000274
0.042404 0.000771 0.000770
0.070633 0.001283 0.001282
0.099425 0.001806 0.001805
0.128626 0.002337 0.002335
0.158150 0.002873 0.002871
0.187940 0.003414 0.003412
0.217958 0.003960 0.003956
0.248176 0.004509 0.004505
0.278572 0.005061 0.005057
0.309128 0.005616 0.005611
0.339829 0.006174 0.006169
0.370664 0.006735 0.006728
0.401623 0.007297 0.007290
0.432698 0.007862 0.007855
0.463880 0.008429 0.008421
0.495164 0.008998 0.008988
0.526544 0.009568 0.009558
0.558015 0.010141 0.010129
0.589572 0.010714 0.010702
0.621211 0.011290 0.011277
0.652929 0.011867 0.011852
0.684723 0.012445 0.012430
0.716588 0.013024 0.013008
0.748523 0.013605 0.013588
0.780525 0.014187 0.014169
0.812592 0.014771 0.014751
0.844721 0.015355 0.015334
0.876772 0.015939 0.015916
0.908830 0.016522 0.016498
0.937010 0.017035 0.017010
0.001002 0.017046 0.000998
0.001003 0.017046 0.000998
0.016112 0.017321 0.001272
0.043407 0.017816 0.001768
0.071638 0.018329 0.002280
0.100431 0.018852 0.002803
0.129634 0.019383 0.003333
0.159159 0.019920 0.003869
0.188951 0.020461 0.004410
0.218972 0.021007 0.004955
0.249192 0.021556 0.005503
0.279590 0.022108 0.006055
0.310148 0.022664 0.006610
0.340852 0.023222 0.007167
0.371690 0.023783 0.007727
0.402652 0.024346 0.008289
0.433729 0.024911 0.008853
0.464915 0.025478 0.009419
0.496202 0.026047 0.009987
0.527586 0.026618 0.010557
0.559060 0.027190 0.011128
0.590621 0.027764 0.011701
0.622265 0.028340 0.012276
0.653987 0.028917 0.012852
0.685784 0.029496 0.013429
0.717654 0.030076 0.014008
0.749594 0.030657 0.014587
0.781601 0.031239 0.015168
0.813673 0.031823 0.015751
0.845807 0.032408 0.016334
0.877833 0.032991 0.016915
0.909859 0.033574 0.017497
0.938008 0.034087 0.018008
0.002755 0.046908 0.002747
0.002757 0.046909 0.002747
0.017867 0.047183 0.003021
0.045163 0.047679 0.003516
0.073395 0.048193 0.004029
0.102191 0.048716 0.004552
0.131395 0.049247 0.005082
0.160922 0.049784 0.005618
0.190716 0.050325 0.006159
0.220739 0.050871 0.006704
0.250961 0.051421 0.007252
0.281362 0.051974 0.007804
0.311923 0.052529 0.008359
0.342630 0.053088 0.008916
0.373471 0.053649 0.009476
0.404436 0.054212 0.010038
0.435517 0.054777 0.010603
0.466706 0.055345 0.011169
0.497997 0.055914 0.011737
0.529384 0.056485 0.012307
0.560863 0.057058 0.012878
0.592428 0.057633 0.013451
0.624075 0.058209 0.014026
0.655802 0.058786 0.014602
0.687604 0.059365 0.015179
0.719479 0.059945 0.015758
0.751423 0.060527 0.016338
0.783435 0.061110 0.016919
0.815512 0.061694 0.017501
0.847652 0.062279 0.018085
0.879651 0.062862 0.018666
0.911641 0.063445 0.019246
0.939757 0.063957 0.019757
0.004546 0.077381 0.004531
0.004548 0.077382 0.004531
0.019659 0.077657 0.004805
0.046957 0.078153 0.005301
0.075191 0.078667 0.005813
0.103988 0.079190 0.006336
0.133194 0.079721 0.006866
0.162724 0.080258 0.007402
0.192520 0.080800 0.007943
0.222545 0.081347 0.008488
0.252771 0.081896 0.009037
0.283174 0.082450 0.009589
0.313738 0.083006 0.010144
0.344448 0.083565 0.010701
0.375292 0.084126 0.011261
0.406261 0.084689 0.011824
0.437345 0.085255 0.012388
0.468538 0.085823 0.012954
0.499833 0.086393 0.013522
0.531224 0.086964 0.014092
0.562707 0.087537 0.014664
0.594276 0.088112 0.015237
0.625928 0.088689 0.015812
0.657660 0.089267 0.016388
0.689467 0.089846 0.016965
0.721346 0.090427 0.017544
0.753296 0.091009 0.018124
0.785313 0.091592 0.018705
0.817396 0.092176 0.019288
0.849541 0.092762 0.019871
0.881511 0.093345 0.020452
0.913462 0.093927 0.021032
0.941542 0.094439 0.021542
0.006360 0.108218 0.006337
0.006362 0.108219 0.006337
0.021475 0.108495 0.006611
0.048775 0.108991 0.007107
0.077010 0.109505 0.007619
0.105810 0.110029 0.008142
0.135018 0.110560 0.008672
0.164550 0.111098 0.009208
0.194349 0.111640 0.009749
0.224377 0.112187 0.010295
0.254605 0.112737 0.010843
0.285012 0.113290 0.011395
0.315578 0.113847 0.011950
0.346292 0.114406 0.012508
0.377140 0.114967 0.013068
0.408112 0.115531 0.013630
0.439200 0.116098 0.014195
0.470397 0.116666 0.014761
0.501696 0.117236 0.015329
0.533092 0.117808 0.015899
0.564579 0.118381 0.016471
0.596153 0.118957 0.017044
0.627810 0.119533 0.017619
0.659546 0.120112 0.018195
0.691358 0.120692 0.018773
0.723243 0.121273 0.019351
0.755198 0.121855 0.019932
0.787221 0.122439 0.020513
0.819309 0.123024 0.021096
0.851460 0.123610 0.021679
0.883398 0.124192 0.022259
0.915307 0.124774 0.022839
0.943348 0.125286 0.023348
0.008191 0.139318 0.008158
0.008194 0.139319 0.008158
0.023308 0.139595 0.008432
0.050610 0.140092 0.008928
0.078848 0.140606 0.009440
0.107649 0.141130 0.009963
0.136860 0.141662 0.010494
0.166395 0.142200 0.011030
0.196197 0.142743 0.011571
0.226228 0.143289 0.012116
0.256459 0.143840 0.012665
0.286869 0.144394 0.013217
0.317439 0.144951 0.013772
0.348156 0.145510 0.014330
0.379007 0.146072 0.014890
0.409984 0.146637 0.015452
0.441076 0.147203 0.016017
0.472277 0.147772 0.016583
0.503581 0.148342 0.017152
0.534981 0.148915 0.017722
0.566472 0.149489 0.018293
0.598051 0.150064 0.018867
0.629713 0.150642 0.019442
0.661455 0.151221 0.020018
0.693272 0.151801 0.020596
0.725162 0.152382 0.021175
0.757123 0.152965 0.021755
0.789152 0.153550 0.022336
0.821246 0.154135 0.022919
0.853403 0.154722 0.023503
0.885307 0.155304 0.024082
0.917170 0.155885 0.024661
0.945169 0.156397 0.025169
0.010036 0.170624 0.009991
0.010040 0.170626 0.009991
0.025155 0.170902 0.010265
0.052459 0.171399 0.010761
0.080699 0.171914 0.011274
0.109504 0.172438 0.011797
0.138717 0.172971 0.012327
0.168255 0.173509 0.012863
0.198060 0.174052 0.013405
0.228094 0.174599 0.013950
0.258329 0.175150 0.014499
0.288742 0.175704 0.015051
0.319316 0.176262 0.015606
0.350037 0.176822 0.016164
0.380892 0.177384 0.016724
0.411873 0.177949 0.017286
0.442969 0.178516 0.017851
0.474175 0.179085 0.018418
0.505483 0.179656 0.018986
0.536888 0.180229 0.019556
0.568385 0.180803 0.020128
0.599969 0.181379 0.020702
0.631636 0.181957 0.021277
0.663383 0.182536 0.021853
0.695206 0.183117 0.022431
0.727102 0.183699 0.023010
0.759069 0.184283 0.023590
0.791103 0.184868 0.024172
0.823203 0.185454 0.024755
0.855367 0.186041 0.025339
0.887234 0.186623 0.025918
0.919048 0.187204 0.026495
0.947003 0.187715 0.027003
0.011893 0.202101 0.011834
0.011898 0.202103 0.011834
0.027014 0.202380 0.012109
0.054321 0.202877 0.012605
0.082564 0.203392 0.013117
0.111371 0.203917 0.013640
0.140587 0.204450 0.014171
0.170128 0.204988 0.014707
0.199936 0.205532 0.015248
0.229974 0.206079 0.015794
0.260212 0.206631 0.016343
0.290629 0.207186 0.016895
0.321207 0.207743 0.017450
0.351932 0.208304 0.018008
0.382792 0.208867 0.018568
0.413777 0.209432 0.019131
0.444878 0.210000 0.019696
0.476088 0.210569 0.020262
0.507401 0.211141 0.020831
0.538811 0.211714 0.021401
0.570313 0.212289 0.021973
0.601902 0.212866 0.022547
0.633575 0.213444 0.023122
0.665328 0.214024 0.023698
0.697157 0.214605 0.024276
0.729059 0.215188 0.024856
0.761032 0.215772 0.025436
0.793073 0.216357 0.026018
0.825179 0.216943 0.026601
0.857350 0.217531 0.027185
0.889177 0.218113 0.027763
0.920939 0.218693 0.028340
0.948847 0.219204 0.028847
0.013760 0.233724 0.013686
0.013765 0.233726 0.013686
0.028884 0.234003 0.013961
0.056193 0.234501 0.014456
0.084439 0.235016 0.014969
0.113249 0.235542 0.015492
0.142469 0.236075 0.016023
0.172013 0.236614 0.016559
0.201825 0.237158 0.017101
0.231866 0.237706 0.017646
0.262108 0.238258 0.018195
0.292529 0.238813 0.018748
0.323111 0.239371 0.019303
0.353840 0.239932 0.019861
0.384705 0.240495 0.020421
0.415694 0.241061 0.020984
0.446800 0.241629 0.021549
0.478016 0.242199 0.022116
0.509334 0.242771 0.022684
0.540749 0.243345 0.023255
0.572257 0.243921 0.023827
0.603852 0.244498 0.024400
0.635530 0.245077 0.024976
0.667288 0.245657 0.025552
0.699123 0.246239 0.026130
0.731032 0.246822 0.026710
0.763011 0.247407 0.027291
0.795059 0.247993 0.027873
0.827172 0.248580 0.028456
0.859349 0.249168 0.029040
0.891134 0.249750 0.029617
0.922841 0.250330 0.030193
0.950699 0.250840 0.030699
0.015637 0.265473 0.015545
0.015643 0.265476 0.015545
0.030763 0.265753 0.015820
0.058075 0.266252 0.016316
0.086324 0.266767 0.016829
0.115137 0.267293 0.017352
0.144361 0.267827 0.017883
0.173908 0.268366 0.018419
0.203724 0.268911 0.018960
0.233769 0.269459 0.019506
0.264015 0.270012 0.020055
0.294441 0.270568 0.020608
0.325027 0.271126 0.021163
0.355761 0.271688 0.021721
0.386630 0.272252 0.022282
0.417625 0.272818 0.022844
0.448736 0.273387 0.023409
0.479956 0.273957 0.023976
0.511280 0.274530 0.024545
0.542701 0.275104 0.025116
0.574214 0.275680 0.025688
0.605815 0.276258 0.026262
0.637499 0.276838 0.026837
0.669264 0.277419 0.027414
0.701105 0.278001 0.027992
0.733020 0.278585 0.028572
0.765006 0.279170 0.029153
0.797060 0.279757 0.029735
0.829181 0.280344 0.030318
0.861365 0.280933 0.030902
0.893105 0.281515 0.031479
0.924754 0.282094 0.032054
0.952559 0.282604 0.032559
0.017522 0.297336 0.017411
0.017529 0.297339 0.017411
0.032651 0.297617 0.017686
0.059966 0.298116 0.018182
0.088218 0.298632 0.018695
0.117035 0.299158 0.019218
0.146262 0.299692 0.019749
0.175813 0.300232 0.020285
0.205633 0.300777 0.020827
0.235682 0.301326 0.021373
0.265933 0.301879 0.021922
0.296363 0.302436 0.022475
0.326954 0.302995 0.023030
0.357693 0.303557 0.023588
0.388567 0.304122 0.024149
0.419566 0.304688 0.024712
0.450683 0.305258 0.025277
0.481909 0.305829 0.025844
0.513238 0.306402 0.026413
0.544665 0.306977 0.026984
0.576184 0.307554 0.027556
0.607791 0.308132 0.028130
0.639482 0.308712 0.028705
0.671253 0.309294 0.029282
0.703101 0.309877 0.029861
0.735023 0.310461 0.030440
0.767015 0.311047 0.031021
0.799077 0.311634 0.031604
0.831205 0.312223 0.032187
0.863396 0.312813 0.032772
0.895089 0.313393 0.033347
0.926676 0.313972 0.033921
0.954425 0.314482 0.034425
0.019415 0.329300 0.019283
0.019422 0.329304 0.019283
0.034546 0.329582 0.019558
0.061865 0.330082 0.020054
0.090120 0.330598 0.020567
0.118941 0.331125 0.021090
0.148172 0.331660 0.021621
0.177727 0.332201 0.022158
0.207551 0.332746 0.022700
0.237605 0.333296 0.023245
0.267861 0.333849 0.023795
0.298295 0.334406 0.024347
0.328891 0.334966 0.024903
0.359635 0.335529 0.025461
0.390515 0.336094 0.026022
0.421519 0.336661 0.026585
0.452642 0.337231 0.027150
0.483873 0.337803 0.027718
0.515208 0.338377 0.028287
0.546641 0.338952 0.028857
0.578166 0.339530 0.029430
0.609780 0.340109 0.030004
0.641477 0.340690 0.030580
0.673255 0.341272 0.031157
0.705110 0.341856 0.031735
0.737039 0.342441 0.032315
0.769039 0.343027 0.032896
0.801108 0.343615 0.033479
0.833243 0.344204 0.034063
0.865442 0.344795 0.034647
0.897085 0.345375 0.035222
0.928607 0.345953 0.035795
0.956298 0.346462 0.036298
0.021316 0.361358 0.021160
0.021323 0.361362 0.021161
0.036449 0.361641 0.021435
0.063772 0.362141 0.021932
0.092031 0.362658 0.022445
0.120855 0.363186 0.022968
0.150091 0.363721 0.023499
0.179650 0.364262 0.024036
0.209479 0.364808 0.024578
0.239537 0.365358 0.025124
0.269798 0.365912 0.025673
0.300237 0.366470 0.026226
0.330839 0.367030 0.026782
0.361588 0.367593 0.027340
0.392472 0.368159 0.027901
0.423483 0.368727 0.028464
0.454611 0.369298 0.029029
0.485849 0.369870 0.029597
0.517190 0.370445 0.030166
0.548629 0.371021 0.030737
0.580161 0.371599 0.031310
0.611781 0.372179 0.031884
0.643485 0.372760 0.032460
0.675270 0.373343 0.033037
0.707132 0.373928 0.033616
0.739068 0.374514 0.034196
0.771075 0.375101 0.034777
0.803152 0.375690 0.035360
0.835295 0.376279 0.035944
0.867502 0.376871 0.036528
0.899092 0.377451 0.037102
0.930547 0.378028 0.037674
0.958176 0.378537 0.038176
0.023223 0.393501 0.023043
0.023231 0.393505 0.023043
0.038360 0.393784 0.023318
0.065685 0.394285 0.023814
0.093949 0.394803 0.024327
0.122777 0.395331 0.024851
0.152017 0.395867 0.025382
0.181581 0.396409 0.025919
0.211415 0.396955 0.026461
0.241478 0.397506 0.027007
0.271743 0.398061 0.027556
0.302188 0.398619 0.028109
0.332795 0.399180 0.028665
0.363550 0.399744 0.029224
0.394440 0.400311 0.029785
0.425457 0.400880 0.030348
0.456591 0.401451 0.030914
0.487835 0.402024 0.031481
0.519182 0.402599 0.032050
0.550628 0.403176 0.032622
0.582166 0.403755 0.033194
0.613793 0.404335 0.033769
0.645505 0.404917 0.034345
0.677297 0.405501 0.034922
0.709166 0.406086 0.035501
0.741110 0.406673 0.036081
0.773125 0.407261 0.036663
0.805209 0.407850 0.037246
0.837360 0.408441 0.037830
0.869576 0.409033 0.038415
0.901111 0.409613 0.038988
0.932494 0.410190 0.039558
0.960059 0.410698 0.040059
0.025136 0.425723 0.024930
0.025145 0.425728 0.024930
0.040276 0.426008 0.025205
0.067606 0.426509 0.025701
0.095874 0.427027 0.026215
0.124707 0.427556 0.026739
0.153951 0.428093 0.027270
0.183520 0.428635 0.027807
0.213358 0.429182 0.028349
0.243427 0.429734 0.028895
0.273698 0.430289 0.029445
0.304148 0.430848 0.029998
0.334760 0.431410 0.030554
0.365521 0.431975 0.031112
0.396417 0.432542 0.031674
0.427440 0.433111 0.032237
0.458580 0.433683 0.032803
0.489831 0.434257 0.033370
0.521185 0.434833 0.033940
0.552638 0.435411 0.034511
0.584183 0.435990 0.035084
0.615817 0.436571 0.035659
0.647536 0.437154 0.036235
0.679335 0.437739 0.036812
0.711212 0.438325 0.037391
0.743164 0.438912 0.037972
0.775187 0.439501 0.038554
0.807279 0.440091 0.039137
0.839439 0.440683 0.039721
0.871663 0.441275 0.040306
0.903140 0.441855 0.040878
0.934449 0.442431 0.041447
0.961946 0.442938 0.041946
0.027056 0.458018 0.026821
0.027066 0.458024 0.026822
0.042199 0.458305 0.027097
0.069533 0.458807 0.027593
0.097805 0.459326 0.028107
0.126643 0.459855 0.028630
0.155892 0.460392 0.029162
0.185466 0.460935 0.029699
0.215310 0.461483 0.030241
0.245384 0.462036 0.030787
0.275660 0.462592 0.031337
0.306116 0.463151 0.031890
0.336734 0.463714 0.032446
0.367501 0.464279 0.033005
0.398404 0.464847 0.033567
0.429433 0.465417 0.034130
0.460580 0.465990 0.034696
0.491837 0.466565 0.035264
0.523198 0.467141 0.035833
0.554658 0.467720 0.036405
0.586211 0.468300 0.036978
0.617852 0.468882 0.037553
0.649578 0.469466 0.038129
0.681385 0.470051 0.038707
0.713270 0.470638 0.039286
0.745230 0.471226 0.039867
0.777261 0.471816 0.040449
0.809362 0.472407 0.041032
0.841530 0.472999 0.041616
0.873763 0.473593 0.042202
0.905180 0.474171 0.042773
0.936411 0.474747 0.043340
0.963838 0.475254 0.043838
0.028982 0.490383 0.028717
0.028992 0.490390 0.028717
0.044128 0.490671 0.028992
0.071467 0.491173 0.029489
0.099744 0.491693 0.030002
0.128586 0.492223 0.030526
0.157841 0.492761 0.031058
0.187420 0.493305 0.031595
0.217269 0.493854 0.032137
0.247348 0.494407 0.032684
0.277630 0.494964 0.033234
0.308092 0.495524 0.033787
0.338717 0.496087 0.034343
0.369490 0.496653 0.034902
0.400399 0.497222 0.035464
0.431435 0.497793 0.036028
0.462589 0.498366 0.036594
0.493853 0.498942 0.037162
0.525221 0.499519 0.037731
0.556688 0.500099 0.038303
0.588248 0.500680 0.038876
0.619897 0.501263 0.039451
0.651631 0.501847 0.040028
0.683446 0.502433 0.040606
0.715339 0.503021 0.041185
0.747307 0.503610 0.041766
0.779347 0.504200 0.042348
0.811457 0.504792 0.042931
0.843633 0.505385 0.043516
0.875875 0.505980 0.044102
0.907230 0.506558 0.044671
0.938380 0.507133 0.045237
0.965734 0.507639 0.045734
0.030914 0.522813 0.030616
0.030924 0.522820 0.030616
0.046063 0.523102 0.030892
0.073406 0.523606 0.031388
0.101688 0.524126 0.031902
0.130536 0.524657 0.032426
0.159795 0.525196 0.032958
0.189380 0.525740 0.033495
0.219235 0.526290 0.034038
0.249320 0.526844 0.034584
0.279608 0.527401 0.035134
0.310077 0.527962 0.035688
0.340708 0.528526 0.036244
0.371487 0.529093 0.036803
0.402403 0.529663 0.037365
0.433446 0.530235 0.037929
0.464607 0.530809 0.038495
0.495878 0.531385 0.039063
0.527254 0.531963 0.039633
0.558728 0.532543 0.040205
0.590296 0.533125 0.040779
0.621953 0.533709 0.041354
0.653695 0.534294 0.041930
0.685519 0.534881 0.042509
0.717420 0.535470 0.043088
0.749396 0.536060 0.043669
0.781445 0.536651 0.044251
0.813564 0.537244 0.044835
0.845749 0.537838 0.045420
0.878000 0.538434 0.046006
0.909289 0.539012 0.046574
0.940355 0.539586 0.047139
0.967635 0.540091 0.047635
0.032851 0.555305 0.032519
0.032862 0.555313 0.032520
0.048004 0.555596 0.032795
0.075352 0.556100 0.033292
0.103638 0.556621 0.033806
0.132492 0.557153 0.034330
0.161757 0.557692 0.034861
0.191347 0.558237 0.035399
0.221208 0.558788 0.035941
0.251300 0.559342 0.036488
0.281594 0.559901 0.037039
0.312069 0.560463 0.037592
0.342706 0.561027 0.038149
0.373493 0.561595 0.038708
0.404416 0.562165 0.039270
0.435465 0.562738 0.039834
0.466634 0.563313 0.040400
0.497913 0.563890 0.040969
0.529296 0.564469 0.041539
0.560778 0.565051 0.042111
0.592354 0.565633 0.042685
0.624019 0.566218 0.043260
0.655770 0.566804 0.043837
0.687602 0.567392 0.044415
0.719512 0.567982 0.044995
0.751497 0.568572 0.045576
0.783555 0.569165 0.046159
0.815682 0.569758 0.046742
0.847877 0.570353 0.047327
0.880138 0.570950 0.047914
0.911359 0.571527 0.048481
0.942337 0.572101 0.049044
0.969538 0.572606 0.049538
0.034793 0.587856 0.034425
0.034805 0.587864 0.034426
0.049950 0.588148 0.034701
0.077303 0.588652 0.035198
0.105595 0.589175 0.035712
0.134454 0.589707 0.036237
0.163725 0.590247 0.036769
0.193321 0.590793 0.037306
0.223188 0.591344 0.037849
0.253286 0.591900 0.038396
0.283587 0.592459 0.038946
0.314068 0.593022 0.039500
0.344713 0.593588 0.040057
0.375506 0.594156 0.040616
0.406436 0.594727 0.041178
0.437494 0.595301 0.041743
0.468669 0.595877 0.042309
0.499956 0.596455 0.042878
0.531347 0.597035 0.043448
0.562838 0.597617 0.044020
0.594422 0.598201 0.044594
0.626096 0.598786 0.045170
0.657854 0.599373 0.045747
0.689695 0.599962 0.046325
0.721614 0.600553 0.046905
0.753608 0.601144 0.047487
0.785675 0.601738 0.048069
0.817812 0.602332 0.048653
0.850017 0.602928 0.049239
0.882287 0.603526 0.049825
0.913438 0.604103 0.050391
0.944326 0.604675 0.050952
0.971445 0.605179 0.051445
0.036740 0.620462 0.036335
0.036753 0.620471 0.036336
0.051901 0.620755 0.036611
0.079259 0.621261 0.037108
0.107557 0.621784 0.037623
0.136422 0.622317 0.038147
0.165699 0.622858 0.038679
0.195301 0.623405 0.039217
0.225175 0.623957 0.039760
0.255279 0.624514 0.040307
0.285587 0.625074 0.040857
0.316075 0.625637 0.041411
0.346727 0.626204 0.041968
0.377528 0.626774 0.042528
0.408465 0.627346 0.043090
0.439530 0.627920 0.043655
0.470714 0.628497 0.044221
0.502008 0.629076 0.044790
0.533408 0.629657 0.045361
0.564907 0.630240 0.045933
0.596499 0.630825 0.046507
0.628182 0.631411 0.047083
0.659949 0.631999 0.047660
0.691799 0.632589 0.048239
0.723727 0.633180 0.048819
0.755731 0.633773 0.049401
0.787807 0.634367 0.049984
0.819954 0.634963 0.050568
0.852168 0.635560 0.051153
0.884448 0.636158 0.051740
0.915526 0.636735 0.052305
0.946320 0.637307 0.052864
0.973356 0.637810 0.053356
0.038693 0.653122 0.038248
0.038706 0.653132 0.038249
0.053857 0.653417 0.038524
0.081221 0.653923 0.039022
0.109525 0.654447 0.039536
0.138395 0.654981 0.040061
0.167679 0.655523 0.040593
0.197288 0.656071 0.041131
0.227168 0.656624 0.041674
0.257279 0.657181 0.042221
0.287594 0.657742 0.042772
0.318089 0.658307 0.043326
0.348748 0.658874 0.043883
0.379557 0.659445 0.044443
0.410502 0.660018 0.045005
0.441575 0.660593 0.045570
0.472767 0.661171 0.046137
0.504070 0.661751 0.046706
0.535478 0.662333 0.047277
0.566985 0.662917 0.047849
0.598586 0.663503 0.048423
0.630277 0.664090 0.048999
0.662054 0.664679 0.049577
0.693913 0.665270 0.050156
0.725851 0.665862 0.050736
0.757864 0.666456 0.051318
0.789950 0.667051 0.051901
0.822107 0.667648 0.052486
0.854331 0.668246 0.053071
0.886622 0.668846 0.053658
0.917624 0.669422 0.054222
0.948321 0.669992 0.054780
0.975270 0.670495 0.055270
0.040650 0.685833 0.040164
0.040664 0.685844 0.040165
0.055819 0.686130 0.040441
0.083188 0.686637 0.040938
0.111498 0.687162 0.041452
0.140375 0.687697 0.041977
0.169664 0.688240 0.042510
0.199280 0.688788 0.043048
0.229167 0.689342 0.043591
0.259286 0.689900 0.044138
0.289608 0.690462 0.044689
0.320111 0.691028 0.045244
0.350777 0.691596 0.045801
0.381593 0.692168 0.046361
0.412547 0.692742 0.046924
0.443628 0.693318 0.047488
0.474828 0.693897 0.048055
0.506139 0.694478 0.048625
0.537556 0.695061 0.049196
0.569072 0.695646 0.049768
0.600682 0.696232 0.050343
0.632383 0.696821 0.050919
0.664169 0.697411 0.051497
0.696037 0.698003 0.052076
0.727985 0.698596 0.052657
0.760008 0.699191 0.053239
0.792104 0.699787 0.053822
0.824271 0.700385 0.054407
0.856506 0.700984 0.054993
0.888807 0.701585 0.055580
0.919730 0.702160 0.056142
0.950327 0.702730 0.056698
0.977186 0.703232 0.057186
0.042612 0.718594 0.042083
0.042626 0.718605 0.042084
0.057785 0.718892 0.042360
0.085160 0.719400 0.042857
0.113476 0.719926 0.043372
0.142360 0.720462 0.043897
0.171656 0.721005 0.044429
0.201279 0.721555 0.044968
0.231173 0.722110 0.045511
0.261299 0.722669 0.046058
0.291628 0.723232 0.046610
0.322139 0.723798 0.047164
0.352814 0.724368 0.047722
0.383638 0.724940 0.048282
0.414599 0.725515 0.048845
0.445689 0.726093 0.049410
0.476897 0.726673 0.049977
0.508218 0.727254 0.050546
0.539643 0.727838 0.051118
0.571168 0.728424 0.051691
0.602788 0.729012 0.052265
0.634498 0.729602 0.052842
0.666293 0.730193 0.053420
0.698172 0.730786 0.053999
0.730129 0.731380 0.054580
0.762162 0.731976 0.055162
0.794268 0.732574 0.055746
0.826446 0.733173 0.056331
0.858691 0.733773 0.056917
0.891003 0.734374 0.057504
0.921846 0.734949 0.058065
0.952339 0.735518 0.058619
0.979106 0.736020 0.059106
0.044579 0.751401 0.044005
0.044594 0.751414 0.044006
0.059756 0.751701 0.044281
0.087137 0.752210 0.044779
0.115460 0.752737 0.045294
0.144350 0.753274 0.045819
0.173653 0.753819 0.046352
0.203284 0.754369 0.046890
0.233185 0.754925 0.047434
0.263318 0.755485 0.047982
0.293656 0.756049 0.048533
0.324174 0.756617 0.049088
0.354857 0.757187 0.049645
0.385689 0.757761 0.050206
0.416659 0.758337 0.050769
0.447758 0.758915 0.051334
0.478975 0.759496 0.051902
0.510304 0.760079 0.052471
0.541739 0.760664 0.053042
0.573273 0.761251 0.053616
0.604902 0.761840 0.054191
0.636622 0.762431 0.054767
0.668428 0.763023 0.055345
0.700316 0.763617 0.055925
0.732283 0.764213 0.056506
0.764327 0.764810 0.057089
0.796444 0.765408 0.057673
0.828632 0.766008 0.058258
0.860888 0.766610 0.058844
0.893211 0.767212 0.059432
0.923970 0.767787 0.059991
0.954357 0.768355 0.060544
0.981029 0.768855 0.061029
0.046550 0.784255 0.045929
0.046566 0.784268 0.045930
0.061731 0.784556 0.046206
0.089119 0.785067 0.046704
0.117448 0.785594 0.047219
0.146346 0.786132 0.047744
0.175656 0.786678 0.048277
0.205294 0.787230 0.048816
0.235203 0.787787 0.049359
0.265344 0.788348 0.049907
0.295689 0.788913 0.050459
0.326216 0.789481 0.051014
0.356907 0.790053 0.051572
0.387748 0.790627 0.052132
0.418727 0.791205 0.052696
0.449834 0.791784 0.053261
0.481060 0.792366 0.053829
0.512399 0.792950 0.054399
0.543843 0.793536 0.054970
