library/cube/Noir_Social_003.cube
# CINEGRADE LAB — Premium Cinematic LUT
# Title: Noir Social
# Category: Dark Instagram Mood
# Description: Desaturated, crushed blacks, cool tones for social media aesthetics
# Mood: Moody, cool, modern
# Variant: 4
# Generated: 2026-05-21T16:12:36.715677
TITLE "Noir Social"
LUT_3D_SIZE 9
0.037500 0.037500 0.047500
0.037500 0.037500 0.047500
0.120836 0.037500 0.047500
0.226643 0.037500 0.047500
0.332759 0.037500 0.047500
0.439169 0.047559 0.048208
0.545860 0.059063 0.059820
0.652817 0.070578 0.071427
0.703208 0.075967 0.076821
0.037500 0.037500 0.047500
0.037500 0.037500 0.047500
0.126989 0.037500 0.047500
0.233295 0.044259 0.047500
0.339879 0.055769 0.047500
0.446725 0.067289 0.053864
0.553821 0.078820 0.065466
0.661153 0.090360 0.077063
0.711657 0.095762 0.082454
0.043717 0.154273 0.047500
0.059275 0.156028 0.047500
0.165808 0.167601 0.058088
0.272600 0.179182 0.069689
0.379636 0.190771 0.081284
0.486903 0.202367 0.092875
0.594387 0.213970 0.104462
0.702074 0.225579 0.116044
0.752698 0.231036 0.121425
0.082220 0.289403 0.083831
0.097880 0.291214 0.085505
0.204868 0.302855 0.097094
0.312082 0.314501 0.108679
0.419508 0.326152 0.120260
0.527132 0.337806 0.131838
0.634941 0.349463 0.143412
0.742920 0.361123 0.154983
0.793628 0.366621 0.160357
0.120989 0.424903 0.122809
0.136731 0.426754 0.124475
0.244111 0.438446 0.136052
0.351685 0.450140 0.147625
0.459437 0.461835 0.159195
0.567356 0.473529 0.170763
0.675426 0.485223 0.182328
0.783634 0.496916 0.193891
0.834391 0.502437 0.199262
0.159967 0.560695 0.161744
0.175774 0.562570 0.163407
0.283483 0.574296 0.174973
0.391352 0.586020 0.186538
0.499368 0.597741 0.198101
0.607518 0.609458 0.209662
0.715786 0.621171 0.221221
0.824161 0.632879 0.232780
0.874932 0.638407 0.238149
0.199098 0.696701 0.200649
0.214951 0.698585 0.202310
0.322926 0.710327 0.213870
0.431028 0.722063 0.225429
0.539245 0.733792 0.236988
0.647562 0.745515 0.248545
0.755967 0.757229 0.260103
0.864444 0.768935 0.271660
0.915193 0.774453 0.277031
0.238328 0.832843 0.239534
0.254208 0.834721 0.241195
0.362385 0.846461 0.252753
0.470657 0.858191 0.264310
0.579012 0.869911 0.275868
0.687434 0.881620 0.287425
0.795910 0.893318 0.298984
0.904427 0.905004 0.310543
0.955120 0.910496 0.315919
0.256845 0.896598 0.257597
0.272725 0.898440 0.259263
0.381033 0.910149 0.270823
0.489406 0.921846 0.282383
0.597828 0.933531 0.293944
0.706287 0.945202 0.305506
0.814768 0.956860 0.317070
0.923258 0.968503 0.328635
0.973856 0.973947 0.334018
0.037500 0.037500 0.047500
0.037500 0.037500 0.047500
0.121457 0.037500 0.047500
0.227317 0.037500 0.047500
0.333483 0.037500 0.051341
0.439939 0.048136 0.062954
0.546673 0.059642 0.074561
0.653671 0.071160 0.086163
0.704075 0.076549 0.091553
0.037500 0.037500 0.047500
0.037500 0.037500 0.047500
0.127610 0.037500 0.047500
0.233963 0.044836 0.047500
0.340591 0.056347 0.056994
0.447479 0.067870 0.068597
0.554613 0.079402 0.080194
0.661980 0.090944 0.091788
0.712493 0.096346 0.097174
0.044299 0.154869 0.059540
0.059863 0.156624 0.061218
0.166441 0.168198 0.072820
0.273275 0.179780 0.084416
0.380349 0.191370 0.096007
0.487651 0.202967 0.107594
0.595167 0.214570 0.119177
0.702883 0.226180 0.130756
0.753514 0.231637 0.136134
0.082817 0.290018 0.098556
0.098482 0.291828 0.100226
0.205509 0.303470 0.111811
0.312759 0.315116 0.123393
0.420217 0.326766 0.134971
0.527871 0.338420 0.146545
0.635706 0.350077 0.158116
0.743708 0.361737 0.169685
0.794420 0.367233 0.175057
0.121597 0.425532 0.137521
0.137344 0.427381 0.139185
0.244757 0.439073 0.150758
0.352360 0.450766 0.162328
0.460139 0.462459 0.173896
0.568081 0.474153 0.185461
0.676171 0.485845 0.197023
0.784397 0.497537 0.208584
0.835155 0.503055 0.213953
0.160583 0.561333 0.176446
0.176392 0.563205 0.178106
0.284128 0.574930 0.189670
0.392021 0.586651 0.201233
0.500058 0.598370 0.212793
0.608225 0.610085 0.224352
0.716508 0.621796 0.235910
0.824894 0.633501 0.247467
0.875663 0.639026 0.252835
0.199718 0.697342 0.215342
0.215572 0.699223 0.217001
0.323567 0.710962 0.228560
0.431688 0.722695 0.240118
0.539920 0.734421 0.251674
0.648249 0.746140 0.263231
0.756661 0.757851 0.274787
0.865144 0.769553 0.286343
0.915888 0.775067 0.291714
0.238946 0.833482 0.254221
0.254826 0.835355 0.255882
0.363019 0.847091 0.267438
0.471303 0.858817 0.278994
0.579666 0.870533 0.290551
0.688094 0.882238 0.302108
0.796574 0.893932 0.313666
0.905090 0.905613 0.325225
0.955774 0.911100 0.330600
0.257456 0.897226 0.272281
0.273335 0.899062 0.273947
0.381653 0.910767 0.285506
0.490031 0.922459 0.297065
0.598457 0.934139 0.308626
0.706916 0.945805 0.320188
0.815394 0.957458 0.331752
0.923878 0.969095 0.343318
0.974464 0.974534 0.348701
0.037500 0.037500 0.116084
0.037500 0.037500 0.117745
0.125350 0.037500 0.129346
0.231267 0.037500 0.140941
0.337486 0.040544 0.152531
0.443993 0.052042 0.164115
0.550775 0.063552 0.175695
0.657817 0.075073 0.187270
0.708237 0.080465 0.192634
0.037500 0.037500 0.121672
0.037500 0.037500 0.123334
0.131517 0.037500 0.134925
0.237922 0.048744 0.146512
0.344598 0.060259 0.158094
0.451530 0.071785 0.169671
0.558706 0.083321 0.181244
0.666111 0.094866 0.192813
0.716638 0.100270 0.198178
0.048174 0.158798 0.160656
0.063749 0.160554 0.162309
0.170376 0.172130 0.173885
0.277254 0.183715 0.185457
0.384370 0.195307 0.197025
0.491710 0.206907 0.208589
0.599261 0.218512 0.220150
0.707009 0.230124 0.231709
0.757650 0.235582 0.237067
0.086721 0.293971 0.199587
0.102395 0.295781 0.201235
0.209464 0.307424 0.212798
0.316752 0.319072 0.224359
0.424246 0.330724 0.235916
0.531931 0.342379 0.247471
0.639795 0.354037 0.259024
0.747822 0.365697 0.270574
0.798541 0.371193 0.275930
0.125524 0.429503 0.238478
0.141278 0.431352 0.240123
0.248727 0.443044 0.251677
0.356362 0.454737 0.263229
0.464170 0.466430 0.274779
0.572137 0.478124 0.286328
0.680250 0.489816 0.297875
0.788495 0.501507 0.309422
0.839255 0.507024 0.314777
0.164528 0.565316 0.277340
0.180343 0.567187 0.278984
0.288107 0.578911 0.290532
0.396027 0.590632 0.302079
0.504086 0.602349 0.313625
0.612272 0.614063 0.325171
0.720571 0.625772 0.336717
0.828969 0.637476 0.348262
0.879737 0.642997 0.353621
0.203675 0.701332 0.316183
0.219532 0.703210 0.317829
0.327550 0.714947 0.329375
0.435690 0.726678 0.340920
0.543938 0.738401 0.352466
0.652280 0.750118 0.364012
0.760702 0.761826 0.375559
0.869191 0.773525 0.387107
0.919931 0.779035 0.392471
0.242910 0.837473 0.355019
0.258791 0.839342 0.356669
0.367000 0.851075 0.368216
0.475297 0.862797 0.379763
0.583670 0.874510 0.391312
0.692105 0.886211 0.402862
0.800587 0.897900 0.414414
0.909104 0.909578 0.425968
0.959780 0.915059 0.431339
0.261417 0.901206 0.373048
0.277295 0.903039 0.374706
0.385624 0.914739 0.386258
0.494009 0.926427 0.397812
0.602439 0.938102 0.409367
0.710898 0.949764 0.420926
0.819373 0.961412 0.432486
0.927851 0.973044 0.444050
0.978426 0.978478 0.449432
0.037500 0.037500 0.217375
0.037500 0.037500 0.219006
0.129246 0.037500 0.230576
0.235220 0.037500 0.242141
0.341492 0.044447 0.253702
0.448049 0.055950 0.265258
0.554877 0.067464 0.276810
0.661962 0.078988 0.288359
0.712399 0.084382 0.293699
0.037500 0.037500 0.222864
0.037500 0.037500 0.224497
0.135428 0.041145 0.236061
0.241884 0.052653 0.247621
0.348607 0.064172 0.259177
0.455583 0.075702 0.270729
0.562799 0.087241 0.282278
0.670242 0.098789 0.293824
0.720782 0.104195 0.299167
0.052052 0.162727 0.261754
0.067638 0.164484 0.263383
0.174312 0.176064 0.274934
0.281234 0.187651 0.286482
0.388392 0.199246 0.298027
0.495770 0.210847 0.309570
0.603355 0.222455 0.321110
0.711134 0.234068 0.332648
0.761784 0.239528 0.337988
0.090628 0.297924 0.300603
0.106311 0.299735 0.302230
0.213421 0.311379 0.313771
0.320747 0.323029 0.325311
0.428275 0.334682 0.336848
0.535992 0.346338 0.348384
0.643883 0.357996 0.359919
0.751936 0.369657 0.371453
0.802660 0.375153 0.376793
0.129454 0.433474 0.339422
0.145215 0.435322 0.341048
0.252698 0.447015 0.352584
0.360364 0.458708 0.364118
0.468201 0.470402 0.375652
0.576193 0.482094 0.387185
0.684328 0.493786 0.398717
0.792590 0.505477 0.410250
0.843353 0.510992 0.415593
0.168474 0.569300 0.378222
0.184294 0.571169 0.379851
0.292087 0.582892 0.391383
0.400032 0.594611 0.402916
0.508113 0.606327 0.414449
0.616318 0.618040 0.425982
0.724632 0.629747 0.437516
0.833042 0.641449 0.449051
0.883809 0.646968 0.454399
0.207632 0.705322 0.417014
0.223493 0.707197 0.418647
0.331534 0.718932 0.430181
0.439692 0.730660 0.441715
0.547955 0.742381 0.453250
0.656310 0.754095 0.464787
0.764741 0.765800 0.476325
0.873235 0.777496 0.487866
0.923970 0.783003 0.493223
0.246873 0.841462 0.455810
0.262756 0.843327 0.457450
0.370980 0.855057 0.468988
0.479290 0.866776 0.480527
0.587672 0.878485 0.492068
0.696113 0.890182 0.503611
0.804598 0.901867 0.515158
0.913113 0.913540 0.526707
0.963781 0.919017 0.532075
0.265378 0.905186 0.473808
0.281256 0.907013 0.475460
0.389594 0.918710 0.487006
0.497986 0.930394 0.498554
0.606418 0.942064 0.510106
0.714877 0.953721 0.521660
0.823349 0.965364 0.533219
0.931820 0.976991 0.544781
0.982384 0.982420 0.550162
0.037500 0.037500 0.318645
0.037500 0.037500 0.320246
0.133145 0.037500 0.331786
0.239175 0.037500 0.343322
0.345500 0.048352 0.354854
0.452106 0.059859 0.366383
0.558980 0.071376 0.377909
0.666108 0.082905 0.389432
0.716560 0.088301 0.394747
0.037500 0.037500 0.324036
0.037500 0.037500 0.325643
0.139342 0.045052 0.337179
0.245847 0.056564 0.348713
0.352617 0.068086 0.360243
0.459637 0.079619 0.371771
0.566893 0.091161 0.383296
0.674372 0.102713 0.394820
0.724925 0.108121 0.400141
0.055933 0.166657 0.362836
0.071530 0.168416 0.364440
0.178251 0.179998 0.375967
0.285217 0.191588 0.387492
0.392414 0.203185 0.399015
0.499830 0.214789 0.410536
0.607449 0.226398 0.422056
0.715258 0.238013 0.433575
0.765917 0.243474 0.438896
0.094537 0.301878 0.401604
0.110228 0.303689 0.403209
0.217379 0.315335 0.414730
0.324742 0.326986 0.426249
0.432305 0.338640 0.437768
0.540052 0.350297 0.449286
0.647971 0.361956 0.460803
0.756047 0.373617 0.472321
0.806777 0.379113 0.477645
0.133385 0.437446 0.440353
0.149153 0.439293 0.441961
0.256670 0.450986 0.453479
0.364368 0.462679 0.464996
0.472232 0.474373 0.476514
0.580248 0.486065 0.488031
0.688404 0.497757 0.499550
0.796684 0.509446 0.511069
0.847449 0.514961 0.516400
0.172422 0.573283 0.479094
0.188247 0.575150 0.480707
0.296068 0.586872 0.492225
0.404037 0.598591 0.503744
0.512139 0.610305 0.515263
0.620362 0.622016 0.526784
0.728691 0.633722 0.538307
0.837112 0.645422 0.549832
0.887877 0.650939 0.555171
0.211591 0.709310 0.517837
0.227455 0.711183 0.519458
0.335517 0.722915 0.530979
0.443693 0.734641 0.542503
0.551972 0.746360 0.554028
0.660337 0.758071 0.565556
0.768777 0.769773 0.577086
0.877276 0.781466 0.588619
0.928006 0.786969 0.593970
0.250837 0.845451 0.556594
0.266721 0.847312 0.558225
0.374960 0.859038 0.569753
0.483282 0.870754 0.581285
0.591673 0.882459 0.592819
0.700118 0.894152 0.604357
0.808605 0.905833 0.615898
0.917119 0.917501 0.627443
0.967779 0.922974 0.632808
0.269338 0.909164 0.574564
0.285216 0.910987 0.576209
0.393563 0.922679 0.587750
0.501960 0.934359 0.599293
0.610395 0.946025 0.610841
0.718853 0.957677 0.622393
0.827321 0.969314 0.633949
0.935785 0.980937 0.645510
0.986336 0.986360 0.650892
0.037500 0.037500 0.419895
0.037500 0.037500 0.421466
0.137047 0.037500 0.432976
0.243132 0.040760 0.444483
0.349509 0.052259 0.455988
0.456164 0.063769 0.467490
0.563084 0.075290 0.478990
0.670254 0.086822 0.490488
0.720721 0.092220 0.495780
0.037500 0.037500 0.425190
0.037500 0.037500 0.426770
0.143258 0.048960 0.438280
0.249813 0.060476 0.449787
0.356629 0.072002 0.461293
0.463691 0.083538 0.472797
0.570987 0.095083 0.484300
0.678503 0.106638 0.495801
0.729068 0.112047 0.501102
0.059817 0.170588 0.463901
0.075425 0.172348 0.465481
0.182192 0.183933 0.476985
0.289201 0.195526 0.488487
0.396438 0.207125 0.499988
0.503890 0.218731 0.511489
0.611542 0.230342 0.522989
0.719381 0.241959 0.534488
0.770049 0.247420 0.539793
0.098448 0.305832 0.502591
0.114149 0.307643 0.504175
0.221339 0.319291 0.515675
0.328739 0.330943 0.527175
0.436334 0.342598 0.538675
0.544112 0.354256 0.550175
0.652058 0.365916 0.561676
0.760158 0.377578 0.573178
0.810892 0.383073 0.578488
0.137318 0.441418 0.541272
0.153092 0.443264 0.542862
0.260643 0.454957 0.554362
0.368371 0.466650 0.565863
0.476262 0.478344 0.577365
0.584302 0.490036 0.588868
0.692478 0.501727 0.600373
0.800776 0.513415 0.611880
0.851542 0.518928 0.617199
0.176371 0.577266 0.579954
0.192201 0.579131 0.581553
0.300049 0.590852 0.593057
0.408041 0.602569 0.604562
0.516165 0.614283 0.616069
0.624405 0.625992 0.627579
0.732748 0.637696 0.639091
0.841180 0.649394 0.650606
0.891943 0.654908 0.655937
0.215550 0.713299 0.618650
0.231417 0.715168 0.620259
0.339500 0.726898 0.631770
0.447694 0.738622 0.643283
0.555986 0.750338 0.654799
0.664363 0.762046 0.666319
0.772810 0.773745 0.677841
0.881314 0.785435 0.689368
0.932038 0.790934 0.694713
0.254801 0.849438 0.657370
0.270686 0.851295 0.658993
0.378940 0.863018 0.670513
0.487273 0.874730 0.682037
0.595671 0.886431 0.693566
0.704121 0.898120 0.705098
0.812609 0.909797 0.716635
0.921122 0.921461 0.728177
0.971772 0.926928 0.733539
0.273298 0.913140 0.675315
0.289175 0.914959 0.676954
0.397531 0.926647 0.688490
0.505933 0.938322 0.700029
0.614370 0.949983 0.711574
0.722827 0.961631 0.723124
0.831290 0.973263 0.734679
0.939745 0.984880 0.746239
0.990285 0.990298 0.751622
0.037500 0.037500 0.521124
0.037500 0.037500 0.522666
0.140953 0.037500 0.534147
0.247092 0.044664 0.545626
0.353521 0.056166 0.557104
0.460224 0.067680 0.568579
0.567188 0.079205 0.580054
0.674399 0.090741 0.591528
0.724882 0.096141 0.596797
0.037500 0.039667 0.526325
0.040845 0.041362 0.527879
0.147177 0.052870 0.539363
0.253781 0.064389 0.550845
0.360642 0.075919 0.562327
0.467747 0.087458 0.573808
0.575081 0.099006 0.585288
0.682632 0.110563 0.596768
0.733210 0.115975 0.602049
0.063705 0.174521 0.564949
0.079322 0.176282 0.566507
0.186135 0.187869 0.577987
0.293186 0.199464 0.589467
0.400463 0.211066 0.600947
0.507950 0.222674 0.612428
0.615635 0.234287 0.623908
0.723503 0.245905 0.635390
0.774179 0.251367 0.640677
0.102362 0.309788 0.603563
0.118071 0.311599 0.605127
0.225301 0.323248 0.616607
0.332736 0.334901 0.628088
0.440365 0.346557 0.639570
0.548172 0.358216 0.651053
0.656143 0.369876 0.662538
0.764266 0.381538 0.674024
0.815006 0.387033 0.679320
0.141253 0.445390 0.642177
0.157034 0.447235 0.643751
0.264618 0.458928 0.655234
0.372375 0.470622 0.666719
0.480292 0.482314 0.678206
0.588356 0.494006 0.689696
0.696551 0.505696 0.701187
0.804865 0.517384 0.712682
0.855633 0.522896 0.717990
0.180321 0.581248 0.680804
0.196156 0.583112 0.682389
0.304030 0.594832 0.693879
0.412046 0.606548 0.705372
0.520189 0.618260 0.716867
0.628446 0.629967 0.728366
0.736802 0.641669 0.739868
0.845245 0.653365 0.751374
0.896005 0.658877 0.756697
0.219510 0.717286 0.719455
0.235380 0.719152 0.721053
0.343483 0.730881 0.732553
0.451694 0.742602 0.744057
0.560000 0.754315 0.755564
0.668387 0.766020 0.767076
0.776841 0.777716 0.778592
0.885348 0.789403 0.790113
0.936067 0.794898 0.795453
0.258765 0.853424 0.758140
0.274651 0.855277 0.759755
0.382918 0.866997 0.771268
0.491262 0.878705 0.782786
0.599667 0.890402 0.794308
0.708122 0.902087 0.805836
0.816610 0.913760 0.817369
0.925120 0.925419 0.828908
0.975761 0.930882 0.834268
0.277258 0.917116 0.776061
0.293134 0.918930 0.777695
0.401497 0.930613 0.789226
0.509905 0.942284 0.800763
0.618342 0.953940 0.812305
0.726797 0.965583 0.823853
0.835254 0.977210 0.835407
0.943701 0.988822 0.846968
0.994228 0.994234 0.852351
0.037500 0.037500 0.622333
0.038967 0.037500 0.623846
0.144862 0.037500 0.635299
0.251055 0.048569 0.646751
0.357534 0.060075 0.658202
0.464284 0.071593 0.669652
0.571292 0.083122 0.681101
0.678545 0.094660 0.692551
0.729042 0.100063 0.697798
0.037500 0.043571 0.627442
0.044715 0.045269 0.628970
0.151099 0.056781 0.640429
0.257751 0.068303 0.651887
0.364656 0.079836 0.663345
0.471803 0.091379 0.674803
0.579176 0.102930 0.686261
0.686762 0.114490 0.697721
0.737350 0.119903 0.702982
0.067595 0.178454 0.665981
0.083223 0.180216 0.667516
0.190080 0.191806 0.678975
0.297173 0.203403 0.690433
0.404488 0.215007 0.701893
0.512010 0.226617 0.713353
0.619727 0.238232 0.724816
0.727624 0.249852 0.736279
0.778308 0.255314 0.741550
0.106279 0.313743 0.704520
0.121995 0.315554 0.706065
0.229264 0.327205 0.717526
0.336735 0.338859 0.728989
0.444395 0.350516 0.740453
0.552231 0.362176 0.751920
0.660228 0.373837 0.763389
0.768373 0.385499 0.774861
0.819117 0.390993 0.780144
0.145190 0.449362 0.743071
0.160977 0.451206 0.744628
0.268593 0.462899 0.756095
0.376379 0.474593 0.767565
0.484322 0.486285 0.779038
0.592408 0.497977 0.790514
0.700623 0.509666 0.801993
0.808953 0.521353 0.813476
0.859721 0.526863 0.818774
0.184273 0.585231 0.781644
0.200112 0.587093 0.783215
0.308012 0.598811 0.794693
0.416051 0.610526 0.806173
0.524213 0.622236 0.817657
0.632486 0.633942 0.829146
0.740855 0.645642 0.840639
0.849307 0.657336 0.852136
0.900065 0.662845 0.857452
0.223471 0.721273 0.820252
0.239343 0.723136 0.821840
0.347465 0.734862 0.833330
0.455693 0.746581 0.844824
0.564012 0.758291 0.856323
0.672408 0.769993 0.867828
0.780869 0.781686 0.879338
0.889379 0.793369 0.890853
0.940091 0.798861 0.896189
0.262729 0.857409 0.858904
0.278616 0.859258 0.860511
0.386896 0.870974 0.872017
0.495250 0.882679 0.883529
0.603662 0.894372 0.895047
0.712119 0.906053 0.906570
0.820608 0.917721 0.918100
0.929114 0.929376 0.929637
0.979745 0.934833 0.934996
0.281218 0.921090 0.876803
0.297093 0.922899 0.878433
0.405463 0.934578 0.889960
0.513874 0.946244 0.901494
0.622312 0.957896 0.913034
0.730764 0.969533 0.924580
0.839215 0.981155 0.936135
0.947653 0.992762 0.947696
0.998166 0.998168 0.953081
0.037500 0.037500 0.669432
0.040773 0.037500 0.670933
0.146721 0.038895 0.682374
0.252965 0.050393 0.693813
0.359491 0.061902 0.705252
0.466286 0.073423 0.716691
0.573335 0.084954 0.728130
0.680624 0.096495 0.739570
0.731134 0.101899 0.744807
0.037500 0.045395 0.674502
0.046530 0.047093 0.676020
0.152962 0.058608 0.687467
0.259659 0.070133 0.698914
0.366606 0.081668 0.710362
0.473791 0.093213 0.721810
0.581199 0.104766 0.733260
0.688817 0.116328 0.744710
0.739415 0.121742 0.749963
0.069423 0.180302 0.713004
0.085059 0.182064 0.714530
0.191958 0.193656 0.725979
0.299090 0.205254 0.737428
0.406440 0.216859 0.748879
0.513995 0.228470 0.760332
0.621741 0.240086 0.771786
0.729664 0.251707 0.783243
0.780353 0.257169 0.788507
0.108125 0.315610 0.751511
0.123847 0.317420 0.753048
0.231151 0.329071 0.764502
0.338655 0.340726 0.775957
0.446345 0.352383 0.787414
0.554207 0.364042 0.798874
0.662227 0.375703 0.810337
0.770392 0.387365 0.821803
0.821139 0.392858 0.827081
0.147049 0.451242 0.790035
0.162840 0.453084 0.791586
0.270486 0.464777 0.803047
0.378299 0.476469 0.814511
0.486265 0.488161 0.825978
0.594371 0.499851 0.837449
0.702603 0.511539 0.848924
0.810947 0.523225 0.860402
0.861715 0.528733 0.865697
0.186140 0.587119 0.828587
0.201981 0.588978 0.830154
0.309906 0.600694 0.841626
0.417965 0.612407 0.853102
0.526145 0.624115 0.864583
0.634431 0.635819 0.876068
0.742811 0.647516 0.887557
0.851271 0.659208 0.899052
0.902025 0.664714 0.904366
0.225342 0.723163 0.867179
0.241215 0.725022 0.868763
0.349355 0.736745 0.880250
0.457597 0.748461 0.891742
0.565927 0.760168 0.903239
0.674332 0.771867 0.914741
0.782797 0.783556 0.926249
0.891309 0.795236 0.937764
0.942014 0.800723 0.943099
0.264599 0.859296 0.905821
0.280485 0.861140 0.907426
0.388777 0.872852 0.918930
0.497139 0.884552 0.930441
0.605556 0.896241 0.941957
0.714016 0.907917 0.953481
0.822503 0.919581 0.965011
0.931005 0.931231 0.976548
0.981626 0.936683 0.981908
0.283080 0.922963 0.923714
0.298953 0.924767 0.925344
0.407329 0.936442 0.936871
0.515742 0.948103 0.948404
0.624180 0.959750 0.959945
0.732628 0.971382 0.971493
0.841073 0.982999 0.983049
0.949500 0.994600 0.994612
1.000000 1.000000 1.000000
