library/cube/Noir_Social_003.cube
# CINEGRADE LAB — Premium Cinematic LUT
# Title: Noir Social
# Category: Dark Instagram Mood
# Description: Desaturated, crushed blacks, cool tones for social media aesthetics
# Mood: Moody, cool, modern
# Variant: 4
# Generated: 2026-05-21T16:12:36.715677
TITLE "Noir Social"
LUT_3D_SIZE 5
0.037500 0.037500 0.047500
0.120836 0.037500 0.047500
0.332759 0.037500 0.047500
0.545860 0.059063 0.059820
0.703208 0.075967 0.076821
0.043717 0.154273 0.047500
0.165808 0.167601 0.058088
0.379636 0.190771 0.081284
0.594387 0.213970 0.104462
0.752698 0.231036 0.121425
0.120989 0.424903 0.122809
0.244111 0.438446 0.136052
0.459437 0.461835 0.159195
0.675426 0.485223 0.182328
0.834391 0.502437 0.199262
0.199098 0.696701 0.200649
0.322926 0.710327 0.213870
0.539245 0.733792 0.236988
0.755967 0.757229 0.260103
0.915193 0.774453 0.277031
0.256845 0.896598 0.257597
0.381033 0.910149 0.270823
0.597828 0.933531 0.293944
0.814768 0.956860 0.317070
0.973856 0.973947 0.334018
0.037500 0.037500 0.116084
0.125350 0.037500 0.129346
0.337486 0.040544 0.152531
0.550775 0.063552 0.175695
0.708237 0.080465 0.192634
0.048174 0.158798 0.160656
0.170376 0.172130 0.173885
0.384370 0.195307 0.197025
0.599261 0.218512 0.220150
0.757650 0.235582 0.237067
0.125524 0.429503 0.238478
0.248727 0.443044 0.251677
0.464170 0.466430 0.274779
0.680250 0.489816 0.297875
0.839255 0.507024 0.314777
0.203675 0.701332 0.316183
0.327550 0.714947 0.329375
0.543938 0.738401 0.352466
0.760702 0.761826 0.375559
0.919931 0.779035 0.392471
0.261417 0.901206 0.373048
0.385624 0.914739 0.386258
0.602439 0.938102 0.409367
0.819373 0.961412 0.432486
0.978426 0.978478 0.449432
0.037500 0.037500 0.318645
0.133145 0.037500 0.331786
0.345500 0.048352 0.354854
0.558980 0.071376 0.377909
0.716560 0.088301 0.394747
0.055933 0.166657 0.362836
0.178251 0.179998 0.375967
0.392414 0.203185 0.399015
0.607449 0.226398 0.422056
0.765917 0.243474 0.438896
0.133385 0.437446 0.440353
0.256670 0.450986 0.453479
0.472232 0.474373 0.476514
0.688404 0.497757 0.499550
0.847449 0.514961 0.516400
0.211591 0.709310 0.517837
0.335517 0.722915 0.530979
0.551972 0.746360 0.554028
0.768777 0.769773 0.577086
0.928006 0.786969 0.593970
0.269338 0.909164 0.574564
0.393563 0.922679 0.587750
0.610395 0.946025 0.610841
0.827321 0.969314 0.633949
0.986336 0.986360 0.650892
0.037500 0.037500 0.521124
0.140953 0.037500 0.534147
0.353521 0.056166 0.557104
0.567188 0.079205 0.580054
0.724882 0.096141 0.596797
0.063705 0.174521 0.564949
0.186135 0.187869 0.577987
0.400463 0.211066 0.600947
0.615635 0.234287 0.623908
0.774179 0.251367 0.640677
0.141253 0.445390 0.642177
0.264618 0.458928 0.655234
0.480292 0.482314 0.678206
0.696551 0.505696 0.701187
0.855633 0.522896 0.717990
0.219510 0.717286 0.719455
0.343483 0.730881 0.732553
0.560000 0.754315 0.755564
0.776841 0.777716 0.778592
0.936067 0.794898 0.795453
0.277258 0.917116 0.776061
0.401497 0.930613 0.789226
0.618342 0.953940 0.812305
0.835254 0.977210 0.835407
0.994228 0.994234 0.852351
0.037500 0.037500 0.669432
0.146721 0.038895 0.682374
0.359491 0.061902 0.705252
0.573335 0.084954 0.728130
0.731134 0.101899 0.744807
0.069423 0.180302 0.713004
0.191958 0.193656 0.725979
0.406440 0.216859 0.748879
0.621741 0.240086 0.771786
0.780353 0.257169 0.788507
0.147049 0.451242 0.790035
0.270486 0.464777 0.803047
0.486265 0.488161 0.825978
0.702603 0.511539 0.848924
0.861715 0.528733 0.865697
0.225342 0.723163 0.867179
0.349355 0.736745 0.880250
0.565927 0.760168 0.903239
0.782797 0.783556 0.926249
0.942014 0.800723 0.943099
0.283080 0.922963 0.923714
0.407329 0.936442 0.936871
0.624180 0.959750 0.959945
0.841073 0.982999 0.983049
1.000000 1.000000 1.000000
