library/cube/Noir_Social_003.cube
# CINEGRADE LAB — Premium Cinematic LUT
# Title: Noir Social
# Category: Dark Instagram Mood
# Description: Desaturated, crushed blacks, cool tones for social media aesthetics
# Mood: Moody, cool, modern
# Variant: 4
# Generated: 2026-05-21T16:12:36.715677
TITLE "Noir Social"
LUT_3D_SIZE 33
0.037500 0.037500 0.047500
0.037500 0.037500 0.047500
0.037500 0.037500 0.047500
0.037500 0.037500 0.047500
0.037500 0.037500 0.047500
0.041691 0.037500 0.047500
0.068052 0.037500 0.047500
0.094434 0.037500 0.047500
0.120836 0.037500 0.047500
0.147258 0.037500 0.047500
0.173700 0.037500 0.047500
0.200162 0.037500 0.047500
0.226643 0.037500 0.047500
0.253144 0.037500 0.047500
0.279663 0.037500 0.047500
0.306202 0.037500 0.047500
0.332759 0.037500 0.047500
0.359334 0.038939 0.047500
0.385928 0.041811 0.047500
0.412540 0.044685 0.047500
0.439169 0.047559 0.048208
0.465816 0.050434 0.051112
0.492480 0.053309 0.054015
0.519161 0.056186 0.056918
0.545860 0.059063 0.059820
0.572574 0.061941 0.062723
0.599306 0.064819 0.065624
0.626053 0.067698 0.068526
0.652817 0.070578 0.071427
0.679597 0.073459 0.074328
0.702755 0.075947 0.076830
0.702983 0.075957 0.076826
0.703208 0.075967 0.076821
0.037500 0.037500 0.047500
0.037500 0.037500 0.047500
0.037500 0.037500 0.047500
0.037500 0.037500 0.047500
0.037500 0.037500 0.047500
0.041746 0.037500 0.047500
0.068141 0.037500 0.047500
0.094556 0.037500 0.047500
0.120992 0.037500 0.047500
0.147447 0.037500 0.047500
0.173921 0.037500 0.047500
0.200414 0.037500 0.047500
0.226927 0.037500 0.047500
0.253458 0.037500 0.047500
0.280008 0.037500 0.047500
0.306576 0.037500 0.047500
0.333162 0.037500 0.047500
0.359767 0.038957 0.047500
0.386388 0.041831 0.047500
0.413028 0.044706 0.047500
0.439685 0.047581 0.048197
0.466358 0.050457 0.051100
0.493049 0.053334 0.054003
0.519756 0.056211 0.056905
0.546480 0.059089 0.059807
0.573220 0.061968 0.062709
0.599975 0.064848 0.065610
0.626747 0.067728 0.068511
0.653534 0.070609 0.071412
0.680337 0.073491 0.074312
0.703513 0.075980 0.076814
0.703735 0.075989 0.076809
0.703954 0.075998 0.076805
0.037500 0.037500 0.047500
0.037500 0.037500 0.047500
0.037500 0.037500 0.047500
0.037500 0.037500 0.047500
0.037500 0.037500 0.047500
0.041800 0.037500 0.047500
0.068228 0.037500 0.047500
0.094676 0.037500 0.047500
0.121144 0.037500 0.047500
0.147630 0.037500 0.047500
0.174136 0.037500 0.047500
0.200660 0.037500 0.047500
0.227203 0.037500 0.047500
0.253764 0.037500 0.047500
0.280344 0.037500 0.047500
0.306941 0.037500 0.047500
0.333556 0.037500 0.047500
0.360188 0.038975 0.047500
0.386837 0.041850 0.047500
0.413504 0.044726 0.047500
0.440187 0.047602 0.048187
0.466887 0.050480 0.051089
0.493603 0.053357 0.053991
0.520335 0.056236 0.056893
0.547083 0.059115 0.059794
0.573847 0.061995 0.062695
0.600627 0.064876 0.065596
0.627421 0.067757 0.068497
0.654231 0.070639 0.071397
0.681056 0.073521 0.074296
0.704251 0.076011 0.076798
0.704466 0.076020 0.076794
0.704679 0.076029 0.076789
0.037500 0.037500 0.047500
0.037500 0.037500 0.047500
0.037500 0.037500 0.047500
0.037500 0.037500 0.047500
0.037500 0.037500 0.047500
0.041852 0.037500 0.047500
0.068313 0.037500 0.047500
0.094793 0.037500 0.047500
0.121292 0.037500 0.047500
0.147810 0.037500 0.047500
0.174346 0.037500 0.047500
0.200900 0.037500 0.047500
0.227473 0.037500 0.047500
0.254063 0.037500 0.047500
0.280671 0.037500 0.047500
0.307296 0.037500 0.047500
0.333939 0.037500 0.047500
0.360598 0.038993 0.047500
0.387274 0.041869 0.047500
0.413967 0.044746 0.047500
0.440676 0.047623 0.048176
0.467401 0.050502 0.051078
0.494142 0.053380 0.053980
0.520898 0.056260 0.056881
0.547670 0.059140 0.059782
0.574457 0.062021 0.062682
0.601260 0.064903 0.065583
0.628077 0.067785 0.068483
0.654908 0.070668 0.071382
0.681754 0.073551 0.074282
0.704966 0.076042 0.076783
0.705175 0.076051 0.076779
0.705382 0.076059 0.076774
0.037500 0.037500 0.047500
0.037500 0.037500 0.047500
0.037500 0.037500 0.047500
0.037500 0.037500 0.047500
0.037500 0.037500 0.047500
0.047449 0.037500 0.047500
0.073944 0.037500 0.047500
0.100457 0.037500 0.047500
0.126989 0.037500 0.047500
0.153539 0.037500 0.047500
0.180106 0.038509 0.047500
0.206692 0.041384 0.047500
0.233295 0.044259 0.047500
0.259916 0.047136 0.047500
0.286553 0.050013 0.047500
0.313207 0.052890 0.047500
0.339879 0.055769 0.047500
0.366566 0.058648 0.047500
0.393270 0.061528 0.048061
0.419990 0.064408 0.050963
0.446725 0.067289 0.053864
0.473476 0.070171 0.056765
0.500243 0.073053 0.059666
0.527025 0.075936 0.062566
0.553821 0.078820 0.065466
0.580633 0.081704 0.068366
0.607459 0.084589 0.071265
0.634299 0.087474 0.074164
0.661153 0.090360 0.077063
0.688022 0.093247 0.079962
0.711252 0.095740 0.082463
0.711455 0.095751 0.082458
0.711657 0.095762 0.082454
0.037500 0.053216 0.047500
0.037500 0.053224 0.047500
0.037500 0.053231 0.047500
0.037500 0.053239 0.047500
0.037500 0.054919 0.047500
0.057028 0.057795 0.047500
0.083557 0.060672 0.047500
0.110103 0.063550 0.047500
0.136668 0.066428 0.047500
0.163251 0.069307 0.047500
0.189850 0.072187 0.047500
0.216468 0.075067 0.047500
0.243102 0.077948 0.047500
0.269753 0.080830 0.047500
0.296420 0.083713 0.047500
0.323104 0.086596 0.049117
0.349804 0.089479 0.052019
0.376520 0.092364 0.054920
0.403252 0.095249 0.057821
0.429999 0.098134 0.060722
0.456762 0.101020 0.063622
0.483540 0.103907 0.066522
0.510332 0.106794 0.069421
0.537139 0.109682 0.072321
0.563961 0.112571 0.075220
0.590797 0.115460 0.078119
0.617647 0.118349 0.081017
0.644510 0.121239 0.083915
0.671388 0.124130 0.086813
0.698278 0.127021 0.089711
0.721527 0.129519 0.092211
0.721727 0.129533 0.092206
0.721925 0.129547 0.092201
0.037500 0.086872 0.047500
0.037500 0.086884 0.047500
0.037500 0.086896 0.047500
0.037500 0.086908 0.047500
0.040083 0.088593 0.047500
0.066627 0.091475 0.047500
0.093189 0.094357 0.047500
0.119768 0.097240 0.047500
0.146365 0.100124 0.047500
0.172979 0.103009 0.047500
0.199610 0.105894 0.047500
0.226258 0.108780 0.047500
0.252922 0.111666 0.050174
0.279603 0.114553 0.053075
0.306299 0.117440 0.055976
0.333012 0.120329 0.058877
0.359740 0.123217 0.061778
0.386483 0.126107 0.064678
0.413242 0.128996 0.067578
0.440016 0.131887 0.070477
0.466804 0.134778 0.073376
0.493608 0.137669 0.076275
0.520425 0.140561 0.079174
0.547257 0.143454 0.082072
0.574102 0.146347 0.084970
0.600962 0.149240 0.087868
0.627834 0.152134 0.090765
0.654721 0.155029 0.093663
0.681620 0.157924 0.096560
0.708532 0.160819 0.099456
0.731798 0.163321 0.101956
0.731994 0.163338 0.101950
0.732188 0.163356 0.101945
0.037500 0.120558 0.047500
0.037500 0.120574 0.047500
0.037500 0.120590 0.047500
0.037500 0.120606 0.047500
0.049669 0.122296 0.047500
0.076246 0.125184 0.047500
0.102840 0.128071 0.047500
0.129451 0.130960 0.047500
0.156079 0.133849 0.048328
0.182723 0.136739 0.051230
0.209385 0.139629 0.054131
0.236062 0.142519 0.057032
0.262755 0.145411 0.059933
0.289464 0.148303 0.062833
0.316189 0.151195 0.065733
0.342929 0.154088 0.068633
0.369684 0.156981 0.071533
0.396454 0.159875 0.074432
0.423239 0.162770 0.077331
0.450038 0.165665 0.080229
0.476852 0.168560 0.083127
0.503679 0.171456 0.086025
0.530521 0.174353 0.088923
0.557376 0.177249 0.091820
0.584245 0.180147 0.094717
0.611127 0.183045 0.097614
0.638021 0.185943 0.100511
0.664929 0.188841 0.103407
0.691849 0.191740 0.106303
0.718781 0.194640 0.109199
0.742064 0.197145 0.111698
0.742256 0.197166 0.111692
0.742446 0.197186 0.111686
0.043717 0.154273 0.047500
0.043732 0.154294 0.047500
0.043746 0.154314 0.047500
0.043760 0.154334 0.047500
0.059275 0.156028 0.047500
0.085883 0.158921 0.049385
0.112509 0.161813 0.052286
0.139150 0.164707 0.055188
0.165808 0.167601 0.058088
0.192483 0.170495 0.060989
0.219173 0.173390 0.063889
0.245879 0.176286 0.066789
0.272600 0.179182 0.069689
0.299337 0.182078 0.072588
0.326089 0.184975 0.075487
0.352855 0.187873 0.078386
0.379636 0.190771 0.081284
0.406432 0.193669 0.084182
0.433242 0.196568 0.087080
0.460066 0.199467 0.089978
0.486903 0.202367 0.092875
0.513754 0.205267 0.095772
0.540619 0.208167 0.098669
0.567497 0.211068 0.101565
0.594387 0.213970 0.104462
0.621290 0.216871 0.107358
0.648206 0.219773 0.110253
0.675134 0.222676 0.113149
0.702074 0.225579 0.116044
0.729026 0.228482 0.118939
0.752325 0.230991 0.121437
0.752512 0.231014 0.121431
0.752698 0.231036 0.121425
0.053315 0.188017 0.054564
0.053332 0.188041 0.054560
0.053349 0.188064 0.054557
0.053366 0.188088 0.054553
0.068900 0.189787 0.056244
0.095539 0.192684 0.059144
0.122194 0.195582 0.062045
0.148866 0.198480 0.064945
0.175553 0.201378 0.067845
0.202256 0.204278 0.070744
0.228974 0.207177 0.073644
0.255708 0.210077 0.076542
0.282456 0.212977 0.079441
0.309219 0.215878 0.082339
0.335997 0.218780 0.085237
0.362789 0.221681 0.088135
0.389596 0.224583 0.091033
0.416416 0.227486 0.093930
0.443250 0.230389 0.096827
0.470097 0.233292 0.099723
0.496958 0.236196 0.102620
0.523832 0.239100 0.105516
0.550718 0.242004 0.108412
0.577617 0.244909 0.111308
0.604529 0.247814 0.114203
0.631453 0.250719 0.117098
0.658388 0.253625 0.119993
0.685336 0.256531 0.122888
0.712295 0.259437 0.125782
0.739265 0.262344 0.128677
0.762579 0.264856 0.131174
0.762762 0.264881 0.131168
0.762943 0.264906 0.131161
0.062932 0.221787 0.064323
0.062952 0.221814 0.064319
0.062971 0.221842 0.064315
0.062991 0.221869 0.064311
0.078543 0.223572 0.066001
0.105212 0.226473 0.068900
0.131896 0.229375 0.071800
0.158596 0.232278 0.074699
0.185312 0.235181 0.077598
0.212042 0.238084 0.080496
0.238788 0.240988 0.083394
0.265548 0.243892 0.086292
0.292322 0.246797 0.089190
0.319111 0.249702 0.092087
0.345914 0.252607 0.094985
0.372731 0.255513 0.097881
0.399561 0.258419 0.100778
0.426405 0.261325 0.103674
0.453262 0.264232 0.106570
0.480132 0.267139 0.109466
0.507015 0.270046 0.112362
0.533910 0.272954 0.115257
0.560818 0.275862 0.118152
0.587737 0.278770 0.121047
0.614669 0.281678 0.123942
0.641612 0.284587 0.126836
0.668567 0.287496 0.129730
0.695533 0.290405 0.132624
0.722510 0.293315 0.135518
0.749498 0.296225 0.138412
0.772825 0.298740 0.140908
0.773004 0.298768 0.140902
0.773180 0.298795 0.140896
0.072567 0.255583 0.074079
0.072589 0.255613 0.074074
0.072611 0.255644 0.074070
0.072633 0.255674 0.074066
0.088203 0.257381 0.075754
0.114901 0.260287 0.078653
0.141613 0.263193 0.081551
0.168341 0.266100 0.084450
0.195084 0.269007 0.087347
0.221841 0.271914 0.090245
0.248612 0.274822 0.093142
0.275398 0.277730 0.096039
0.302198 0.280638 0.098936
0.329011 0.283547 0.101832
0.355839 0.286456 0.104729
0.382679 0.289366 0.107625
0.409532 0.292275 0.110520
0.436399 0.295185 0.113416
0.463278 0.298095 0.116311
0.490169 0.301006 0.119206
0.517073 0.303917 0.122101
0.543989 0.306828 0.124995
0.570917 0.309739 0.127890
0.597856 0.312650 0.130784
0.624807 0.315562 0.133678
0.651768 0.318474 0.136572
0.678741 0.321386 0.139465
0.705725 0.324298 0.142359
0.732719 0.327211 0.145252
0.759723 0.330123 0.148145
0.783064 0.332641 0.150641
0.783237 0.332671 0.150634
0.783409 0.332700 0.150627
0.082220 0.289403 0.083831
0.082244 0.289437 0.083826
0.082268 0.289470 0.083821
0.082292 0.289503 0.083817
0.097880 0.291214 0.085505
0.124605 0.294124 0.088402
0.151345 0.297034 0.091300
0.178099 0.299944 0.094197
0.204868 0.302855 0.097094
0.231651 0.305766 0.099990
0.258448 0.308678 0.102887
0.285258 0.311589 0.105783
0.312082 0.314501 0.108679
0.338919 0.317414 0.111574
0.365769 0.320326 0.114470
0.392632 0.323239 0.117365
0.419508 0.326152 0.120260
0.446396 0.329065 0.123155
0.473296 0.331979 0.126049
0.500208 0.334892 0.128944
0.527132 0.337806 0.131838
0.554067 0.340720 0.134731
0.581014 0.343634 0.137625
0.607972 0.346549 0.140519
0.634941 0.349463 0.143412
0.661920 0.352378 0.146305
0.688910 0.355293 0.149198
0.715910 0.358208 0.152091
0.742920 0.361123 0.154983
0.769940 0.364038 0.157875
0.793293 0.366559 0.160371
0.793461 0.366590 0.160364
0.793628 0.366621 0.160357
0.091889 0.323246 0.093580
0.091916 0.323283 0.093575
0.091942 0.323319 0.093569
0.091967 0.323355 0.093564
0.107572 0.325069 0.095252
0.134323 0.327982 0.098148
0.161090 0.330896 0.101045
0.187870 0.333810 0.103941
0.214664 0.336724 0.106837
0.241471 0.339639 0.109733
0.268292 0.342554 0.112629
0.295126 0.345469 0.115524
0.321973 0.348384 0.118419
0.348833 0.351300 0.121314
0.375706 0.354215 0.124209
0.402590 0.357131 0.127103
0.429487 0.360047 0.129997
0.456396 0.362964 0.132891
0.483316 0.365880 0.135785
0.510248 0.368797 0.138679
0.537191 0.371713 0.141572
0.564145 0.374630 0.144465
0.591109 0.377547 0.147358
0.618085 0.380464 0.150251
0.645071 0.383381 0.153144
0.672066 0.386299 0.156036
0.699072 0.389216 0.158928
0.726088 0.392134 0.161821
0.753113 0.395051 0.164713
0.780147 0.397969 0.167604
0.803512 0.400492 0.170099
0.803675 0.400524 0.170093
0.803837 0.400556 0.170086
0.101575 0.357111 0.103326
0.101603 0.357150 0.103320
0.101630 0.357189 0.103315
0.101658 0.357228 0.103309
0.117278 0.358944 0.104996
0.144056 0.361861 0.107892
0.170847 0.364779 0.110787
0.197652 0.367696 0.113683
0.224470 0.370614 0.116578
0.251301 0.373531 0.119473
0.278146 0.376449 0.122368
0.305002 0.379367 0.125262
0.331872 0.382286 0.128157
0.358753 0.385204 0.131051
0.385647 0.388123 0.133945
0.412552 0.391042 0.136838
0.439469 0.393960 0.139732
0.466397 0.396879 0.142625
0.493337 0.399799 0.145518
0.520287 0.402718 0.148411
0.547248 0.405637 0.151304
0.574220 0.408556 0.154197
0.601201 0.411476 0.157089
0.628193 0.414395 0.159981
0.655195 0.417315 0.162873
0.682207 0.420235 0.165765
0.709228 0.423154 0.168657
0.736258 0.426074 0.171549
0.763297 0.428993 0.174440
0.790345 0.431913 0.177332
0.813720 0.434438 0.179826
0.813878 0.434472 0.179819
0.814034 0.434505 0.179812
0.111275 0.390997 0.113069
0.111304 0.391039 0.113063
0.111334 0.391080 0.113057
0.111363 0.391120 0.113051
0.126998 0.392840 0.114737
0.153801 0.395760 0.117632
0.180616 0.398680 0.120527
0.207445 0.401601 0.123422
0.234286 0.404521 0.126316
0.261140 0.407442 0.129210
0.288007 0.410363 0.132104
0.314885 0.413284 0.134998
0.341776 0.416205 0.137892
0.368678 0.419126 0.140785
0.395592 0.422047 0.143679
0.422516 0.424969 0.146572
0.449453 0.427890 0.149465
0.476399 0.430811 0.152357
0.503357 0.433733 0.155250
0.530325 0.436655 0.158142
0.557303 0.439576 0.161034
0.584291 0.442498 0.163926
0.611289 0.445419 0.166818
0.638297 0.448341 0.169710
0.665314 0.451263 0.172602
0.692340 0.454184 0.175493
0.719375 0.457106 0.178384
0.746419 0.460027 0.181275
0.773471 0.462949 0.184166
0.800531 0.465870 0.187057
0.823916 0.468397 0.189552
0.824069 0.468431 0.189545
0.824219 0.468465 0.189538
0.120989 0.424903 0.122809
0.121020 0.424946 0.122802
0.121051 0.424989 0.122796
0.121081 0.425032 0.122790
0.136731 0.426754 0.124475
0.163557 0.429677 0.127370
0.190396 0.432600 0.130264
0.217248 0.435523 0.133158
0.244111 0.438446 0.136052
0.270987 0.441370 0.138945
0.297875 0.444293 0.141839
0.324774 0.447217 0.144732
0.351685 0.450140 0.147625
0.378606 0.453064 0.150518
0.405539 0.455987 0.153410
0.432483 0.458911 0.156303
0.459437 0.461835 0.159195
0.486402 0.464758 0.162087
0.513377 0.467682 0.164979
0.540361 0.470606 0.167871
0.567356 0.473529 0.170763
0.594359 0.476453 0.173654
0.621373 0.479376 0.176546
0.648395 0.482300 0.179437
0.675426 0.485223 0.182328
0.702465 0.488147 0.185219
0.729513 0.491070 0.188110
0.756570 0.493993 0.191001
0.783634 0.496916 0.193891
0.810706 0.499839 0.196782
0.834099 0.502367 0.199276
0.834246 0.502402 0.199269
0.834391 0.502437 0.199262
0.130716 0.458826 0.132546
0.130748 0.458872 0.132539
0.130780 0.458916 0.132533
0.130812 0.458961 0.132527
0.146476 0.460685 0.134211
0.173325 0.463611 0.137105
0.200186 0.466536 0.139999
0.227059 0.469462 0.142892
0.253944 0.472388 0.145785
0.280841 0.475313 0.148678
0.307749 0.478239 0.151571
0.334668 0.481165 0.154463
0.361598 0.484091 0.157356
0.388538 0.487016 0.160248
0.415489 0.489942 0.163140
0.442451 0.492868 0.166032
0.469422 0.495793 0.168924
0.496403 0.498719 0.171815
0.523394 0.501644 0.174707
0.550395 0.504570 0.177598
0.577404 0.507495 0.180489
0.604423 0.510420 0.183380
0.631450 0.513346 0.186271
0.658486 0.516271 0.189162
0.685530 0.519196 0.192053
0.712582 0.522120 0.194944
0.739642 0.525045 0.197834
0.766710 0.527970 0.200724
0.793785 0.530894 0.203615
0.820868 0.533818 0.206505
0.844269 0.536347 0.208999
0.844411 0.536383 0.208992
0.844550 0.536418 0.208985
0.140455 0.492767 0.142281
0.140489 0.492814 0.142274
0.140522 0.492860 0.142267
0.140555 0.492906 0.142261
0.156232 0.494632 0.143945
0.183103 0.497560 0.146838
0.209985 0.500488 0.149731
0.236879 0.503416 0.152624
0.263784 0.506344 0.155516
0.290701 0.509272 0.158409
0.317628 0.512200 0.161301
0.344566 0.515127 0.164193
0.371514 0.518055 0.167085
0.398472 0.520983 0.169977
0.425440 0.523910 0.172868
0.452418 0.526837 0.175760
0.479406 0.529765 0.178651
0.506403 0.532692 0.181542
0.533409 0.535619 0.184433
0.560424 0.538546 0.187324
0.587448 0.541473 0.190215
0.614480 0.544400 0.193105
0.641520 0.547326 0.195996
0.668569 0.550252 0.198886
0.695625 0.553179 0.201777
0.722689 0.556105 0.204667
0.749760 0.559030 0.207557
0.776839 0.561956 0.210447
0.803924 0.564881 0.213337
0.831016 0.567807 0.216227
0.854425 0.570336 0.218721
0.854560 0.570372 0.218714
0.854693 0.570408 0.218707
0.150206 0.526723 0.152013
0.150240 0.526772 0.152007
0.150274 0.526819 0.152000
0.150308 0.526867 0.151993
0.165998 0.528595 0.153677
0.192890 0.531525 0.156569
0.219793 0.534454 0.159462
0.246706 0.537384 0.162354
0.273631 0.540314 0.165246
0.300566 0.543244 0.168138
0.327511 0.546173 0.171029
0.354467 0.549103 0.173921
0.381432 0.552032 0.176812
0.408407 0.554961 0.179703
0.435392 0.557890 0.182594
0.462386 0.560819 0.185485
0.489388 0.563748 0.188376
0.516400 0.566676 0.191267
0.543420 0.569605 0.194158
0.570449 0.572533 0.197048
0.597486 0.575461 0.199939
0.624531 0.578389 0.202829
0.651583 0.581316 0.205719
0.678644 0.584244 0.208609
0.705711 0.587171 0.211499
0.732786 0.590098 0.214389
0.759867 0.593024 0.217279
0.786955 0.595951 0.220169
0.814050 0.598877 0.223059
0.841150 0.601803 0.225949
0.864565 0.604333 0.228442
0.864694 0.604369 0.228435
0.864821 0.604404 0.228428
0.159967 0.560695 0.161744
0.160002 0.560744 0.161737
0.160037 0.560793 0.161730
0.160071 0.560841 0.161723
0.175774 0.562570 0.163407
0.202685 0.565502 0.166299
0.229607 0.568434 0.169190
0.256540 0.571365 0.172082
0.283483 0.574296 0.174973
0.310435 0.577228 0.177865
0.337398 0.580159 0.180756
0.364370 0.583090 0.183647
0.391352 0.586020 0.186538
0.418343 0.588951 0.189429
0.445343 0.591881 0.192319
0.472351 0.594811 0.195210
0.499368 0.597741 0.198101
0.526394 0.600671 0.200991
0.553427 0.603600 0.203881
0.580469 0.606529 0.206771
0.607518 0.609458 0.209662
0.634574 0.612387 0.212552
0.661638 0.615315 0.215441
0.688709 0.618243 0.218331
0.715786 0.621171 0.221221
0.742871 0.624099 0.224111
0.769961 0.627026 0.227001
0.797058 0.629953 0.229890
0.824161 0.632879 0.232780
0.851269 0.635806 0.235669
0.874689 0.638336 0.238162
0.874812 0.638372 0.238156
0.874932 0.638407 0.238149
0.169737 0.594679 0.171473
0.169773 0.594729 0.171466
0.169809 0.594779 0.171458
0.169844 0.594828 0.171451
0.185558 0.596559 0.173135
0.212488 0.599492 0.176026
0.239428 0.602425 0.178917
0.266379 0.605358 0.181808
0.293339 0.608290 0.184699
0.320308 0.611223 0.187590
0.347287 0.614155 0.190481
0.374276 0.617087 0.193372
0.401272 0.620019 0.196262
0.428278 0.622950 0.199153
0.455292 0.625881 0.202043
0.482314 0.628812 0.204933
0.509345 0.631743 0.207824
0.536383 0.634674 0.210714
0.563429 0.637604 0.213604
0.590482 0.640534 0.216494
0.617542 0.643463 0.219383
0.644609 0.646393 0.222273
0.671683 0.649321 0.225163
0.698764 0.652250 0.228053
0.725851 0.655178 0.230942
0.752943 0.658106 0.233832
0.780042 0.661034 0.236721
0.807147 0.663961 0.239611
0.834256 0.666888 0.242500
0.861372 0.669814 0.245390
0.884796 0.672345 0.247883
0.884912 0.672380 0.247876
0.885026 0.672414 0.247870
0.179517 0.628676 0.181200
0.179553 0.628727 0.181192
0.179589 0.628777 0.181185
0.179625 0.628826 0.181178
0.195349 0.630558 0.182861
0.222297 0.633492 0.185752
0.249255 0.636427 0.188643
0.276222 0.639360 0.191534
0.303199 0.642294 0.194424
0.330184 0.645228 0.197315
0.357178 0.648161 0.200205
0.384181 0.651094 0.203095
0.411193 0.654026 0.205986
0.438212 0.656958 0.208876
0.465239 0.659890 0.211766
0.492274 0.662822 0.214656
0.519317 0.665753 0.217546
0.546367 0.668684 0.220436
0.573424 0.671615 0.223325
0.600488 0.674545 0.226215
0.627558 0.677475 0.229105
0.654635 0.680405 0.231994
0.681718 0.683334 0.234884
0.708808 0.686263 0.237773
0.735903 0.689191 0.240663
0.763003 0.692119 0.243552
0.790109 0.695047 0.246442
0.817220 0.697974 0.249331
0.844336 0.700901 0.252220
0.871457 0.703827 0.255110
0.894885 0.706357 0.257603
0.894994 0.706391 0.257596
0.895101 0.706425 0.257590
0.189304 0.662684 0.190925
0.189341 0.662735 0.190918
0.189377 0.662785 0.190910
0.189413 0.662835 0.190903
0.205147 0.664567 0.192586
0.232112 0.667503 0.195477
0.259086 0.670438 0.198367
0.286070 0.673372 0.201257
0.313061 0.676307 0.204148
0.340062 0.679241 0.207038
0.367070 0.682175 0.209928
0.394087 0.685108 0.212818
0.421111 0.688041 0.215708
0.448144 0.690974 0.218598
0.475183 0.693907 0.221488
0.502230 0.696839 0.224377
0.529284 0.699770 0.227267
0.556345 0.702701 0.230157
0.583412 0.705632 0.233046
0.610486 0.708563 0.235936
0.637565 0.711493 0.238825
0.664651 0.714422 0.241715
0.691742 0.717351 0.244604
0.718839 0.720280 0.247493
0.745942 0.723208 0.250383
0.773049 0.726136 0.253272
0.800161 0.729064 0.256161
0.827278 0.731990 0.259051
0.854399 0.734917 0.261940
0.881524 0.737842 0.264829
0.904955 0.740372 0.267323
0.905057 0.740406 0.267316
0.905157 0.740438 0.267311
0.199098 0.696701 0.200649
0.199135 0.696752 0.200642
0.199171 0.696803 0.200634
0.199207 0.696853 0.200627
0.214951 0.698585 0.202310
0.241932 0.701521 0.205200
0.268922 0.704457 0.208090
0.295920 0.707392 0.210980
0.322926 0.710327 0.213870
0.349940 0.713262 0.216760
0.376962 0.716196 0.219650
0.403991 0.719130 0.222540
0.431028 0.722063 0.225429
0.458072 0.724996 0.228319
0.485123 0.727929 0.231209
0.512181 0.730861 0.234098
0.539245 0.733792 0.236988
0.566316 0.736724 0.239877
0.593392 0.739654 0.242767
0.620474 0.742585 0.245656
0.647562 0.745515 0.248545
0.674656 0.748444 0.251435
0.701755 0.751373 0.254324
0.728858 0.754301 0.257213
0.755967 0.757229 0.260103
0.783080 0.760156 0.262992
0.810197 0.763083 0.265881
0.837318 0.766009 0.268771
0.864444 0.768935 0.271660
0.891573 0.771860 0.274549
0.915005 0.774389 0.277043
0.915100 0.774421 0.277037
0.915193 0.774453 0.277031
0.208899 0.730727 0.210372
0.208935 0.730778 0.210364
0.208972 0.730828 0.210357
0.209007 0.730878 0.210350
0.224760 0.732611 0.212032
0.251756 0.735547 0.214922
0.278760 0.738483 0.217812
0.305772 0.741419 0.220702
0.332791 0.744354 0.223592
0.359818 0.747289 0.226481
0.386853 0.750223 0.229371
0.413894 0.753157 0.232261
0.440942 0.756090 0.235150
0.467997 0.759023 0.238040
0.495058 0.761955 0.240929
0.522126 0.764887 0.243819
0.549199 0.767819 0.246708
0.576278 0.770750 0.249597
0.603363 0.773680 0.252487
0.630453 0.776610 0.255376
0.657549 0.779539 0.258265
0.684649 0.782468 0.261155
0.711754 0.785397 0.264044
0.738863 0.788324 0.266933
0.765977 0.791251 0.269823
0.793095 0.794178 0.272712
0.820216 0.797104 0.275601
0.847341 0.800029 0.278491
0.874470 0.802954 0.281380
0.901602 0.805878 0.284270
0.925035 0.808406 0.286763
0.925123 0.808437 0.286757
0.925209 0.808467 0.286752
0.218704 0.764760 0.220093
0.218741 0.764811 0.220086
0.218777 0.764861 0.220079
0.218812 0.764910 0.220072
0.234573 0.766643 0.221754
0.261583 0.769579 0.224644
0.288600 0.772515 0.227533
0.315625 0.775451 0.230423
0.342657 0.778386 0.233313
0.369696 0.781321 0.236202
0.396741 0.784255 0.239092
0.423794 0.787188 0.241981
0.450852 0.790121 0.244870
0.477917 0.793054 0.247760
0.504987 0.795986 0.250649
0.532064 0.798917 0.253539
0.559146 0.801848 0.256428
0.586233 0.804779 0.259317
0.613325 0.807708 0.262207
0.640422 0.810638 0.265096
