library/cube/Nordic_Air_000.cube
# CINEGRADE LAB — Premium Cinematic LUT
# Title: Nordic Air
# Category: Minimal Scandinavian
# Description: Clean, bright, muted, airy aesthetic inspired by Scandinavian design
# Mood: Calm, airy, minimal
# Variant: 1
# Generated: 2026-05-21T16:12:25.419530
TITLE "Nordic Air"
LUT_3D_SIZE 33
0.224162 0.224929 0.239789
0.237408 0.226904 0.241729
0.250938 0.228922 0.243711
0.264728 0.230978 0.245732
0.278763 0.233070 0.247789
0.293024 0.235195 0.249880
0.307501 0.237352 0.252002
0.322180 0.239540 0.254155
0.337051 0.241755 0.256336
0.352105 0.243997 0.258544
0.367334 0.246266 0.260778
0.382730 0.248558 0.263037
0.398287 0.250875 0.265319
0.413997 0.253214 0.267624
0.429857 0.255575 0.269951
0.445860 0.257957 0.272300
0.462001 0.260359 0.274668
0.478276 0.262781 0.277056
0.494682 0.265222 0.279464
0.511213 0.267682 0.281890
0.527867 0.270160 0.284334
0.544640 0.272655 0.286795
0.561528 0.275167 0.289273
0.578530 0.277695 0.291768
0.595642 0.280240 0.294279
0.612861 0.282801 0.296806
0.630185 0.285377 0.299349
0.647612 0.287967 0.301906
0.665138 0.290573 0.304478
0.679240 0.292670 0.306538
0.679286 0.292679 0.306500
0.679333 0.292688 0.306463
0.679378 0.292698 0.306426
0.230820 0.242881 0.246315
0.244070 0.244858 0.248255
0.257604 0.246876 0.250237
0.271398 0.248932 0.252258
0.285436 0.251025 0.254315
0.299702 0.253151 0.256406
0.314183 0.255309 0.258529
0.328865 0.257497 0.260682
0.343740 0.259713 0.262863
0.358799 0.261956 0.265071
0.374031 0.264225 0.267305
0.389431 0.266519 0.269564
0.404992 0.268836 0.271846
0.420706 0.271176 0.274152
0.436569 0.273537 0.276479
0.452576 0.275920 0.278827
0.468721 0.278323 0.281196
0.485000 0.280746 0.283584
0.501409 0.283188 0.285992
0.517944 0.285648 0.288418
0.534601 0.288126 0.290862
0.551378 0.290622 0.293324
0.568270 0.293135 0.295802
0.585275 0.295664 0.298297
0.602391 0.298209 0.300809
0.619613 0.300771 0.303336
0.636940 0.303347 0.305878
0.654370 0.305938 0.308436
0.671900 0.308545 0.311008
0.686004 0.310642 0.313068
0.686050 0.310651 0.313031
0.686095 0.310661 0.312995
0.686140 0.310671 0.312959
0.237621 0.261218 0.252983
0.250875 0.263195 0.254923
0.264412 0.265214 0.256905
0.278210 0.267272 0.258926
0.292252 0.269365 0.260984
0.306522 0.271492 0.263075
0.321006 0.273651 0.265197
0.335693 0.275839 0.267350
0.350572 0.278056 0.269532
0.365633 0.280300 0.271740
0.380870 0.282570 0.273974
0.396274 0.284864 0.276233
0.411838 0.287182 0.278516
0.427556 0.289522 0.280821
0.443423 0.291884 0.283149
0.459433 0.294268 0.285497
0.475582 0.296671 0.287866
0.491864 0.299095 0.290254
0.508277 0.301537 0.292662
0.524815 0.303998 0.295088
0.541476 0.306477 0.297533
0.558256 0.308973 0.299994
0.575152 0.311487 0.302473
0.592160 0.314017 0.304969
0.609279 0.316563 0.307480
0.626505 0.319124 0.310007
0.643835 0.321701 0.312550
0.661268 0.324293 0.315108
0.678801 0.326900 0.317680
0.692907 0.328998 0.319741
0.692952 0.329008 0.319705
0.692997 0.329018 0.319669
0.693041 0.329027 0.319633
0.244553 0.279911 0.259782
0.257811 0.281888 0.261722
0.271351 0.283908 0.263704
0.285154 0.285966 0.265726
0.299199 0.288060 0.267783
0.313473 0.290188 0.269874
0.327960 0.292347 0.271997
0.342651 0.294537 0.274150
0.357533 0.296754 0.276332
0.372599 0.298999 0.278540
0.387839 0.301269 0.280775
0.403246 0.303564 0.283034
0.418814 0.305882 0.285316
0.434536 0.308223 0.287622
0.450406 0.310586 0.289950
0.466420 0.312970 0.292298
0.482572 0.315374 0.294667
0.498858 0.317799 0.297056
0.515274 0.320242 0.299464
0.531816 0.322703 0.301890
0.548480 0.325183 0.304335
0.565263 0.327680 0.306797
0.582162 0.330194 0.309276
0.599174 0.332724 0.311771
0.616296 0.335270 0.314283
0.633525 0.337833 0.316811
0.650858 0.340410 0.319354
0.668294 0.343003 0.321912
0.685830 0.345610 0.324484
0.699939 0.347708 0.326546
0.699983 0.347719 0.326510
0.700026 0.347729 0.326475
0.700070 0.347739 0.326440
0.251608 0.298934 0.266703
0.264869 0.300912 0.268643
0.278413 0.302932 0.270626
0.292219 0.304991 0.272647
0.306268 0.307086 0.274704
0.320545 0.309214 0.276796
0.335036 0.311374 0.278919
0.349730 0.313564 0.281072
0.364616 0.315782 0.283254
0.379686 0.318028 0.285462
0.394929 0.320298 0.287697
0.410340 0.322594 0.289956
0.425911 0.324913 0.292239
0.441637 0.327255 0.294545
0.457510 0.329618 0.296873
0.473528 0.332003 0.299222
0.489683 0.334408 0.301591
0.505972 0.336832 0.303980
0.522392 0.339276 0.306388
0.538937 0.341738 0.308815
0.555604 0.344218 0.311259
0.572391 0.346716 0.313722
0.589293 0.349230 0.316201
0.606308 0.351761 0.318697
0.623432 0.354308 0.321209
0.640664 0.356871 0.323736
0.658001 0.359449 0.326280
0.675440 0.362042 0.328838
0.692979 0.364650 0.331411
0.707089 0.366749 0.333473
0.707132 0.366759 0.333438
0.707175 0.366769 0.333404
0.707217 0.366780 0.333369
0.258777 0.318266 0.273738
0.272041 0.320245 0.275678
0.285589 0.322266 0.277661
0.299399 0.324326 0.279682
0.313451 0.326421 0.281740
0.327732 0.328550 0.283832
0.342226 0.330711 0.285955
0.356924 0.332901 0.288108
0.371813 0.335120 0.290290
0.386886 0.337366 0.292499
0.402133 0.339637 0.294734
0.417547 0.341933 0.296993
0.433122 0.344253 0.299276
0.448851 0.346595 0.301582
0.464728 0.348959 0.303910
0.480748 0.351345 0.306259
0.496907 0.353750 0.308629
0.513199 0.356175 0.311018
0.529622 0.358620 0.313426
0.546170 0.361082 0.315853
0.562841 0.363563 0.318298
0.579630 0.366061 0.320761
0.596535 0.368576 0.323240
0.613553 0.371107 0.325737
0.630681 0.373655 0.328249
0.647916 0.376218 0.330777
0.665255 0.378797 0.333321
0.682697 0.381390 0.335879
0.700238 0.383999 0.338452
0.714351 0.386098 0.340515
0.714393 0.386108 0.340481
0.714434 0.386119 0.340447
0.714476 0.386129 0.340414
0.266054 0.337890 0.280880
0.279322 0.339870 0.282821
0.292873 0.341891 0.284803
0.306686 0.343951 0.286825
0.320742 0.346047 0.288883
0.335026 0.348177 0.290975
0.349524 0.350338 0.293098
0.364225 0.352529 0.295252
0.379117 0.354749 0.297434
0.394193 0.356995 0.299643
0.409444 0.359267 0.301878
0.424861 0.361564 0.304138
0.440439 0.363884 0.306421
0.456171 0.366227 0.308727
0.472051 0.368591 0.311056
0.488075 0.370977 0.313405
0.504237 0.373383 0.315775
0.520532 0.375809 0.318164
0.536958 0.378254 0.320573
0.553509 0.380717 0.323000
0.570183 0.383198 0.325445
0.586975 0.385696 0.327908
0.603883 0.388212 0.330388
0.620904 0.390744 0.332884
0.638034 0.393292 0.335397
0.655272 0.395856 0.337925
0.672614 0.398435 0.340469
0.690058 0.401029 0.343028
0.707602 0.403637 0.345602
0.721716 0.405737 0.347665
0.721758 0.405748 0.347631
0.721798 0.405758 0.347598
0.721839 0.405769 0.347566
0.273433 0.357789 0.288123
0.286704 0.359769 0.290064
0.300258 0.361791 0.292047
0.314074 0.363852 0.294069
0.328134 0.365949 0.296128
0.342421 0.368079 0.298220
0.356922 0.370241 0.300343
0.371626 0.372432 0.302497
0.386522 0.374652 0.304679
0.401601 0.376899 0.306889
0.416855 0.379172 0.309124
0.432276 0.381469 0.311384
0.447857 0.383790 0.313668
0.463592 0.386133 0.315974
0.479475 0.388498 0.318303
0.495502 0.390884 0.320652
0.511666 0.393291 0.323022
0.527965 0.395717 0.325412
0.544394 0.398162 0.327821
0.560948 0.400626 0.330249
0.577624 0.403107 0.332694
0.594419 0.405606 0.335157
0.611330 0.408122 0.337637
0.628353 0.410655 0.340134
0.645486 0.413203 0.342647
0.662727 0.415767 0.345176
0.680071 0.418347 0.347720
0.697518 0.420941 0.350280
0.715065 0.423550 0.352854
0.729181 0.425650 0.354917
0.729221 0.425661 0.354884
0.729261 0.425672 0.354852
0.729300 0.425683 0.354821
0.280908 0.377949 0.295463
0.294183 0.379930 0.297404
0.307740 0.381952 0.299388
0.321559 0.384014 0.301410
0.335622 0.386111 0.303468
0.349912 0.388241 0.305561
0.364417 0.390404 0.307685
0.379124 0.392596 0.309839
0.394023 0.394816 0.312021
0.409105 0.397064 0.314231
0.424362 0.399337 0.316466
0.439786 0.401635 0.318727
0.455370 0.403956 0.321011
0.471108 0.406300 0.323318
0.486994 0.408665 0.325646
0.503023 0.411052 0.327996
0.519191 0.413459 0.330367
0.535493 0.415886 0.332757
0.551924 0.418331 0.335166
0.568481 0.420795 0.337594
0.585160 0.423277 0.340040
0.601958 0.425777 0.342503
0.618871 0.428293 0.344984
0.635897 0.430826 0.347481
0.653033 0.433375 0.349994
0.670275 0.435939 0.352524
0.687622 0.438519 0.355068
0.705071 0.441114 0.357628
0.722620 0.443723 0.360202
0.736738 0.445823 0.362266
0.736777 0.445835 0.362235
0.736816 0.445846 0.362203
0.736854 0.445856 0.362172
0.288476 0.398357 0.302895
0.301753 0.400338 0.304836
0.315314 0.402362 0.306820
0.329136 0.404423 0.308842
0.343202 0.406521 0.310901
0.357495 0.408652 0.312994
0.372003 0.410815 0.315118
0.386713 0.413008 0.317272
0.401615 0.415229 0.319455
0.416700 0.417477 0.321665
0.431960 0.419750 0.323901
0.447386 0.422048 0.326161
0.462973 0.424370 0.328446
0.478714 0.426714 0.330753
0.494603 0.429080 0.333082
0.510635 0.431467 0.335432
0.526806 0.433875 0.337803
0.543110 0.436302 0.340193
0.559544 0.438748 0.342603
0.576103 0.441212 0.345031
0.592785 0.443695 0.347478
0.609585 0.446195 0.349942
0.626501 0.448711 0.352423
0.643530 0.451245 0.354920
0.660668 0.453794 0.357434
0.677913 0.456359 0.359964
0.695262 0.458939 0.362509
0.712713 0.461534 0.365069
0.730265 0.464144 0.367644
0.744384 0.466244 0.369708
0.744422 0.466255 0.369677
0.744460 0.466266 0.369647
0.744497 0.466277 0.369617
0.296131 0.419002 0.310414
0.309412 0.420984 0.312356
0.322975 0.423008 0.314340
0.336800 0.425070 0.316362
0.350869 0.427168 0.318421
0.365165 0.429300 0.320514
0.379675 0.431463 0.322639
0.394388 0.433656 0.324793
0.409294 0.435878 0.326977
0.424381 0.438126 0.329187
0.439644 0.440400 0.331423
0.455073 0.442699 0.333684
0.470663 0.445021 0.335969
0.486406 0.447365 0.338276
0.502298 0.449732 0.340606
0.518333 0.452119 0.342956
0.534506 0.454527 0.345327
0.550813 0.456955 0.347718
0.567250 0.459401 0.350128
0.583812 0.461866 0.352557
0.600496 0.464349 0.355004
0.617298 0.466849 0.357468
0.634217 0.469366 0.359949
0.651247 0.471899 0.362448
0.668388 0.474449 0.364962
0.685635 0.477014 0.367492
0.702986 0.479595 0.370037
0.720440 0.482190 0.372598
0.737993 0.484800 0.375173
0.752113 0.486901 0.377238
0.752151 0.486912 0.377208
0.752187 0.486923 0.377179
0.752224 0.486934 0.377149
0.303870 0.439874 0.318017
0.317154 0.441857 0.319959
0.330720 0.443881 0.321943
0.344548 0.445943 0.323966
0.358619 0.448042 0.326026
0.372918 0.450174 0.328119
0.387431 0.452338 0.330244
0.402147 0.454531 0.332399
0.417055 0.456753 0.334582
0.432146 0.459002 0.336793
0.447411 0.461276 0.339029
0.462843 0.463575 0.341291
0.478435 0.465898 0.343576
0.494181 0.468243 0.345884
0.510076 0.470610 0.348214
0.526113 0.472997 0.350565
0.542289 0.475406 0.352936
0.558598 0.477833 0.355327
0.575037 0.480280 0.357738
0.591601 0.482745 0.360167
0.608288 0.485228 0.362614
0.625093 0.487729 0.365079
0.642013 0.490246 0.367561
0.659046 0.492780 0.370059
0.676188 0.495330 0.372574
0.693438 0.497895 0.375105
0.710791 0.500476 0.377651
0.728247 0.503072 0.380212
0.745802 0.505682 0.382788
0.759923 0.507783 0.384853
0.759960 0.507794 0.384824
0.759995 0.507805 0.384795
0.760031 0.507816 0.384767
0.311690 0.460964 0.325700
0.324976 0.462946 0.327642
0.338545 0.464971 0.329627
0.352376 0.467034 0.331651
0.366449 0.469133 0.333710
0.380751 0.471265 0.335804
0.395267 0.473429 0.337929
0.409986 0.475623 0.340085
0.424896 0.477845 0.342269
0.439989 0.480095 0.344480
0.455257 0.482369 0.346717
0.470692 0.484669 0.348978
0.486286 0.486991 0.351264
0.502035 0.489337 0.353572
0.517932 0.491704 0.355902
0.533972 0.494092 0.358254
0.550150 0.496501 0.360626
0.566461 0.498929 0.363018
0.582902 0.501376 0.365429
0.599469 0.503841 0.367858
0.616158 0.506325 0.370306
0.632965 0.508825 0.372771
0.649887 0.511343 0.375253
0.666922 0.513877 0.377752
0.684067 0.516427 0.380268
0.701318 0.518993 0.382799
0.718673 0.521574 0.385345
0.736131 0.524170 0.387907
0.753687 0.526780 0.390484
0.767810 0.528881 0.392549
0.767845 0.528892 0.392521
0.767880 0.528904 0.392493
0.767914 0.528915 0.392466
0.319587 0.482262 0.333461
0.332875 0.484245 0.335404
0.346447 0.486270 0.337389
0.360280 0.488333 0.339413
0.374357 0.490432 0.341473
0.388661 0.492565 0.343567
0.403179 0.494730 0.345692
0.417900 0.496924 0.347848
0.432813 0.499146 0.350033
0.447909 0.501396 0.352244
0.463179 0.503671 0.354482
0.478616 0.505970 0.356744
0.494214 0.508294 0.359030
0.509965 0.510639 0.361338
0.525864 0.513007 0.363669
0.541906 0.515395 0.366021
0.558086 0.517804 0.368393
0.574400 0.520232 0.370786
0.590843 0.522680 0.373197
0.607412 0.525145 0.375627
0.624102 0.527629 0.378075
0.640912 0.530130 0.380541
0.657836 0.532648 0.383024
0.674873 0.535182 0.385524
0.692019 0.537732 0.388039
0.709272 0.540298 0.390571
0.726629 0.542879 0.393118
0.744088 0.545475 0.395681
0.761647 0.548086 0.398258
0.775771 0.550187 0.400324
0.775805 0.550198 0.400297
0.775838 0.550210 0.400270
0.775871 0.550221 0.400243
0.327558 0.503761 0.341296
0.340849 0.505744 0.343240
0.354423 0.507769 0.345225
0.368259 0.509833 0.347249
0.382338 0.511933 0.349310
0.396644 0.514066 0.351404
0.411165 0.516231 0.353531
0.425889 0.518425 0.355687
0.440804 0.520648 0.357872
0.455902 0.522898 0.360084
0.471175 0.525173 0.362321
0.486614 0.527473 0.364584
0.502213 0.529796 0.366870
0.517967 0.532142 0.369180
0.533868 0.534510 0.371511
0.549912 0.536899 0.373863
0.566095 0.539308 0.376236
0.582410 0.541736 0.378629
0.598856 0.544184 0.381041
0.615426 0.546650 0.383472
0.632119 0.549134 0.385920
0.648930 0.551635 0.388387
0.665856 0.554153 0.390870
0.682895 0.556687 0.393370
0.700043 0.559238 0.395887
0.717297 0.561804 0.398419
0.734656 0.564385 0.400967
0.752117 0.566981 0.403530
0.769677 0.569592 0.406107
0.783802 0.571693 0.408174
0.783834 0.571704 0.408148
0.783867 0.571715 0.408122
0.783899 0.571726 0.408097
0.335600 0.525454 0.349204
0.348894 0.527437 0.351148
0.362470 0.529463 0.353134
0.376308 0.531527 0.355158
0.390390 0.533627 0.357219
0.404699 0.535760 0.359314
0.419222 0.537925 0.361441
0.433948 0.540120 0.363598
0.448865 0.542343 0.365783
0.463966 0.544593 0.367995
0.479240 0.546869 0.370234
0.494682 0.549169 0.372497
0.510283 0.551492 0.374784
0.526039 0.553839 0.377094
0.541942 0.556207 0.379425
0.557988 0.558596 0.381778
0.574173 0.561005 0.384152
0.590490 0.563433 0.386545
0.606938 0.565881 0.388958
0.623510 0.568347 0.391389
0.640204 0.570831 0.393838
0.657017 0.573332 0.396305
0.673945 0.575851 0.398789
0.690985 0.578385 0.401290
0.708135 0.580936 0.403807
0.725391 0.583502 0.406340
0.742751 0.586083 0.408888
0.760213 0.588680 0.411452
0.777775 0.591290 0.414030
0.791900 0.593392 0.416098
0.791932 0.593403 0.416072
0.791963 0.593414 0.416047
0.791994 0.593424 0.416023
0.343712 0.547334 0.357181
0.357008 0.549318 0.359126
0.370586 0.551343 0.361112
0.384427 0.553408 0.363137
0.398510 0.555508 0.365199
0.412821 0.557642 0.367294
0.427347 0.559807 0.369421
0.442075 0.562002 0.371579
0.456995 0.564225 0.373764
0.472097 0.566475 0.375977
0.487374 0.568751 0.378216
0.502817 0.571051 0.380480
0.518421 0.573375 0.382767
0.534178 0.575722 0.385078
0.550084 0.578090 0.387410
0.566132 0.580479 0.389764
0.582318 0.582888 0.392138
0.598637 0.585317 0.394532
0.615086 0.587765 0.396945
0.631661 0.590231 0.399376
0.648357 0.592715 0.401826
0.665171 0.595216 0.404294
0.682100 0.597735 0.406779
0.699142 0.600269 0.409280
0.716293 0.602820 0.411798
0.733551 0.605386 0.414331
0.750912 0.607968 0.416880
0.768376 0.610564 0.419444
0.785938 0.613175 0.422023
0.800064 0.615276 0.424092
0.800095 0.615287 0.424068
0.800125 0.615298 0.424044
0.800154 0.615308 0.424020
0.351890 0.569395 0.365226
0.365188 0.571379 0.367171
0.378769 0.573405 0.369158
0.392611 0.575469 0.371184
0.406697 0.577570 0.373246
0.421010 0.579703 0.375342
0.435538 0.581869 0.377470
0.450268 0.584064 0.379627
0.465190 0.586288 0.381814
0.480294 0.588538 0.384027
0.495573 0.590814 0.386267
0.511018 0.593114 0.388531
0.526624 0.595438 0.390819
0.542383 0.597785 0.393130
0.558290 0.600153 0.395463
0.574340 0.602542 0.397817
0.590528 0.604952 0.400192
0.606849 0.607381 0.402586
0.623300 0.609828 0.405000
0.639875 0.612295 0.407432
0.656573 0.614779 0.409883
0.673389 0.617280 0.412351
0.690320 0.619799 0.414836
0.707363 0.622333 0.417338
0.724515 0.624884 0.419857
0.741774 0.627450 0.422391
0.759137 0.630032 0.424941
0.776601 0.632628 0.427506
0.794165 0.635239 0.430085
0.808291 0.637340 0.432155
0.808321 0.637351 0.432131
0.808349 0.637361 0.432108
0.808378 0.637372 0.432086
0.360133 0.591631 0.373337
0.373433 0.593615 0.375282
0.387016 0.595641 0.377270
0.400860 0.597706 0.379296
0.414948 0.599806 0.381359
0.429263 0.601940 0.383455
0.443793 0.604106 0.385584
0.458525 0.606301 0.387742
0.473448 0.608525 0.389929
0.488555 0.610775 0.392143
0.503835 0.613051 0.394383
0.519282 0.615352 0.396648
0.534890 0.617676 0.398937
0.550651 0.620023 0.401248
0.566559 0.622391 0.403582
0.582611 0.624780 0.405936
0.598800 0.627190 0.408312
0.615123 0.629619 0.410707
0.631575 0.632067 0.413121
0.648152 0.634533 0.415555
0.664851 0.637017 0.418006
0.681668 0.639518 0.420475
0.698601 0.642037 0.422961
0.715645 0.644571 0.425463
0.732798 0.647122 0.427982
0.750058 0.649688 0.430517
0.767422 0.652270 0.433068
0.784887 0.654866 0.435633
0.802452 0.657477 0.438214
0.816579 0.659578 0.440284
0.816607 0.659589 0.440262
0.816635 0.659599 0.440240
0.816662 0.659609 0.440218
0.368438 0.614037 0.381512
0.381740 0.616021 0.383458
0.395325 0.618047 0.385446
0.409171 0.620112 0.387473
0.423261 0.622213 0.389536
0.437578 0.624347 0.391633
0.452109 0.626512 0.393762
0.466843 0.628708 0.395921
0.481768 0.630932 0.398108
0.496876 0.633182 0.400323
0.512159 0.635458 0.402564
0.527608 0.637759 0.404829
0.543216 0.640083 0.407119
0.558979 0.642430 0.409431
0.574889 0.644798 0.411765
0.590942 0.647187 0.414120
0.607133 0.649597 0.416496
0.623457 0.652026 0.418892
0.639911 0.654474 0.421307
0.656489 0.656940 0.423741
0.673189 0.659424 0.426193
0.690008 0.661926 0.428663
0.706941 0.664444 0.431149
0.723986 0.666978 0.433653
0.741141 0.669529 0.436173
0.758402 0.672095 0.438708
0.775766 0.674677 0.441260
0.793233 0.677273 0.443826
0.810798 0.679884 0.446407
0.824926 0.681984 0.448479
0.824952 0.681995 0.448457
0.824979 0.682005 0.448436
0.825004 0.682015 0.448416
0.376804 0.636607 0.389748
0.390107 0.638591 0.391695
0.403694 0.640618 0.393684
0.417542 0.642683 0.395711
0.431633 0.644783 0.397775
0.445952 0.646918 0.399873
0.460485 0.649083 0.402002
0.475221 0.651279 0.404162
0.490148 0.653503 0.406350
0.505258 0.655753 0.408565
0.520541 0.658029 0.410807
0.535992 0.660330 0.413073
0.551602 0.662654 0.415363
0.567366 0.665001 0.417676
0.583278 0.667369 0.420011
0.599332 0.669758 0.422367
0.615524 0.672168 0.424744
0.631850 0.674597 0.427140
0.648304 0.677045 0.429556
0.664884 0.679511 0.431991
0.681585 0.681995 0.434443
0.698405 0.684496 0.436914
0.715339 0.687014 0.439401
0.732385 0.689549 0.441905
0.749541 0.692100 0.444426
0.766802 0.694666 0.446962
0.784168 0.697247 0.449514
0.801635 0.699843 0.452082
0.819201 0.702454 0.454664
0.833329 0.704554 0.456736
0.833354 0.704564 0.456716
0.833379 0.704574 0.456696
0.833403 0.704584 0.456676
0.385228 0.659337 0.398046
0.398533 0.661322 0.399993
0.412122 0.663348 0.401982
0.425971 0.665413 0.404010
0.440064 0.667514 0.406075
0.454385 0.669648 0.408173
0.468920 0.671814 0.410303
0.483657 0.674009 0.412464
0.498585 0.676233 0.414653
0.513696 0.678484 0.416869
0.528982 0.680760 0.419111
0.544434 0.683060 0.421378
0.560045 0.685384 0.423668
0.575811 0.687731 0.425982
0.591724 0.690099 0.428317
0.607779 0.692489 0.430674
0.623973 0.694898 0.433052
0.640299 0.697327 0.435449
0.656755 0.699775 0.437866
0.673335 0.702241 0.440301
0.690038 0.704725 0.442755
0.706858 0.707226 0.445226
0.723793 0.709744 0.447714
0.740840 0.712279 0.450219
0.757996 0.714829 0.452741
0.775259 0.717395 0.455278
0.792625 0.719976 0.457831
0.810092 0.722572 0.460399
0.827659 0.725182 0.462982
0.841787 0.727283 0.465055
0.841811 0.727292 0.465036
0.841834 0.727302 0.465017
0.841858 0.727311 0.464998
0.393709 0.682223 0.406402
0.407016 0.684208 0.408350
0.420606 0.686234 0.410340
0.434457 0.688299 0.412369
0.448552 0.690400 0.414434
0.462874 0.692534 0.416533
0.477410 0.694700 0.418664
0.492148 0.696895 0.420825
0.507079 0.699119 0.423014
0.522191 0.701369 0.425231
0.537478 0.703645 0.427474
0.552931 0.705946 0.429742
0.568544 0.708270 0.432033
0.584310 0.710616 0.434347
0.600224 0.712984 0.436684
0.616281 0.715374 0.439041
0.632475 0.717783 0.441420
0.648803 0.720212 0.443818
0.665260 0.722659 0.446235
0.681841 0.725125 0.448671
0.698544 0.727609 0.451126
0.715365 0.730110 0.453598
0.732301 0.732628 0.456087
0.749349 0.735162 0.458593
0.766506 0.737713 0.461115
0.783769 0.740278 0.463653
0.801135 0.742859 0.466207
0.818603 0.745455 0.468776
0.836170 0.748065 0.471360
0.850298 0.750165 0.473434
0.850321 0.750175 0.473416
0.850343 0.750184 0.473398
0.850365 0.750193 0.473380
0.402246 0.705260 0.414816
0.415554 0.707245 0.416764
0.429146 0.709271 0.418755
0.442998 0.711336 0.420785
0.457094 0.713436 0.422850
0.471418 0.715571 0.424950
0.485955 0.717736 0.427082
0.500695 0.719932 0.429244
0.515626 0.722155 0.431434
0.530740 0.724406 0.433652
0.546028 0.726682 0.435895
0.561482 0.728982 0.438164
0.577096 0.731306 0.440456
0.592864 0.733652 0.442771
0.608779 0.736020 0.445108
0.624836 0.738409 0.447467
0.641032 0.740818 0.449846
0.657360 0.743247 0.452245
0.673818 0.745694 0.454663
0.690400 0.748160 0.457100
0.707104 0.750644 0.459555
0.723925 0.753145 0.462028
0.740862 0.755662 0.464518
0.757910 0.758196 0.467025
0.775067 0.760746 0.469548
0.792331 0.763312 0.472087
0.809698 0.765893 0.474642
0.827166 0.768488 0.477212
0.844733 0.771098 0.479796
0.858861 0.773198 0.481871
0.858882 0.773207 0.481854
0.858903 0.773215 0.481838
0.858923 0.773224 0.481821
0.410836 0.728444 0.423286
0.424146 0.730429 0.425235
0.437739 0.732455 0.427227
0.451593 0.734520 0.429257
0.465690 0.736620 0.431324
0.480015 0.738754 0.433424
0.494553 0.740920 0.435557
0.509294 0.743115 0.437719
0.524227 0.745339 0.439910
0.539341 0.747589 0.442129
0.554630 0.749865 0.444373
0.570086 0.752165 0.446642
0.585701 0.754489 0.448935
0.601469 0.756835 0.451251
0.617385 0.759203 0.453589
0.633444 0.761591 0.455949
0.649640 0.764000 0.458329
0.665969 0.766429 0.460728
0.682427 0.768876 0.463147
0.699010 0.771342 0.465585
0.715714 0.773825 0.468041
0.732537 0.776326 0.470515
0.749474 0.778843 0.473006
0.766522 0.781377 0.475514
0.783680 0.783926 0.478038
0.800943 0.786492 0.480578
0.818311 0.789072 0.483134
0.835779 0.791667 0.485704
0.853346 0.794277 0.488290
0.867474 0.796376 0.490366
0.867493 0.796385 0.490350
0.867513 0.796393 0.490335
0.867531 0.796401 0.490320
0.419479 0.751772 0.431811
0.432790 0.753756 0.433761
0.446384 0.755782 0.435754
0.460239 0.757847 0.437785
0.474337 0.759947 0.439852
0.488663 0.762081 0.441953
0.503203 0.764247 0.444087
0.517945 0.766442 0.446250
0.532878 0.768665 0.448442
0.547994 0.770915 0.450661
0.563284 0.773191 0.452906
0.578740 0.775491 0.455176
0.594356 0.777814 0.457470
0.610125 0.780160 0.459787
0.626042 0.782528 0.462126
0.642101 0.784916 0.464486
0.658298 0.787325 0.466867
0.674628 0.789753 0.469268
0.691086 0.792200 0.471688
0.707670 0.794665 0.474127
0.724375 0.797148 0.476584
0.741197 0.799649 0.479058
0.758135 0.802166 0.481550
0.775183 0.804699 0.484059
0.792341 0.807249 0.486584
0.809605 0.809813 0.489125
0.826972 0.812393 0.491682
0.844441 0.814988 0.494253
0.862008 0.817597 0.496840
0.876135 0.819696 0.498917
0.876153 0.819704 0.498903
0.876171 0.819712 0.498888
0.876188 0.819720 0.498874
0.428172 0.775239 0.440391
0.441484 0.777223 0.442341
0.455079 0.779249 0.444334
0.468936 0.781314 0.446366
0.483035 0.783414 0.448435
0.497362 0.785548 0.450537
0.511903 0.787713 0.452671
0.526646 0.789908 0.454835
0.541580 0.792131 0.457028
0.556697 0.794381 0.459248
0.571987 0.796656 0.461494
0.587444 0.798956 0.463765
0.603061 0.801279 0.466060
0.618831 0.803625 0.468377
0.634748 0.805992 0.470717
0.650808 0.808380 0.473078
0.667005 0.810789 0.475460
0.683335 0.813216 0.477862
0.699794 0.815663 0.480283
0.716378 0.818128 0.482723
