library/cube/Nordic_Air_000.cube
# CINEGRADE LAB — Premium Cinematic LUT
# Title: Nordic Air
# Category: Minimal Scandinavian
# Description: Clean, bright, muted, airy aesthetic inspired by Scandinavian design
# Mood: Calm, airy, minimal
# Variant: 1
# Generated: 2026-05-21T16:12:25.419530
TITLE "Nordic Air"
LUT_3D_SIZE 5
0.224162 0.224929 0.239789
0.337051 0.241755 0.256336
0.462001 0.260359 0.274668
0.595642 0.280240 0.294279
0.679378 0.292698 0.306426
0.280908 0.377949 0.295463
0.394023 0.394816 0.312021
0.519191 0.413459 0.330367
0.653033 0.433375 0.349994
0.736854 0.445856 0.362172
0.343712 0.547334 0.357181
0.456995 0.564225 0.373764
0.582318 0.582888 0.392138
0.716293 0.602820 0.411798
0.800154 0.615308 0.424020
0.410836 0.728444 0.423286
0.524227 0.745339 0.439910
0.649640 0.764000 0.458329
0.783680 0.783926 0.478038
0.867531 0.796401 0.490320
0.452907 0.841779 0.464492
0.566338 0.858647 0.481179
0.691770 0.877279 0.499664
0.825801 0.897171 0.519444
0.909591 0.909607 0.531803
0.229884 0.230642 0.342463
0.342799 0.247471 0.358961
0.467773 0.266077 0.377248
0.601438 0.285960 0.396816
0.685185 0.298418 0.408925
0.286644 0.383677 0.397986
0.399778 0.400545 0.414507
0.524964 0.419188 0.432817
0.658822 0.439104 0.452413
0.742650 0.451585 0.464563
0.349454 0.553070 0.459589
0.462750 0.569961 0.476145
0.588085 0.588622 0.494494
0.722070 0.608553 0.514134
0.805932 0.621039 0.526339
0.416578 0.734182 0.525615
0.529975 0.751074 0.542223
0.655394 0.769733 0.560628
0.789436 0.789656 0.580328
0.873284 0.802127 0.592604
0.458639 0.847509 0.566781
0.572071 0.864373 0.583462
0.697502 0.883000 0.601944
0.831528 0.902888 0.621725
0.915310 0.915319 0.634089
0.236208 0.236958 0.455969
0.349147 0.253789 0.472415
0.474147 0.272397 0.490653
0.607834 0.292282 0.510176
0.691592 0.304741 0.522243
0.292981 0.390007 0.511331
0.406134 0.406876 0.527811
0.531338 0.425520 0.546084
0.665212 0.445436 0.565647
0.749046 0.457917 0.577768
0.355798 0.559409 0.572812
0.469107 0.576299 0.589339
0.594453 0.594959 0.607664
0.728447 0.614888 0.627281
0.812310 0.627372 0.639469
0.422922 0.740523 0.638755
0.536326 0.757412 0.655347
0.661749 0.776067 0.673739
0.795793 0.795987 0.693429
0.879636 0.808454 0.705700
0.464973 0.853840 0.679881
0.578405 0.870700 0.696558
0.703834 0.889323 0.715039
0.837856 0.909207 0.734822
0.921628 0.921632 0.747191
0.242963 0.243706 0.577226
0.355928 0.260539 0.593619
0.480951 0.279149 0.611806
0.614661 0.299036 0.631283
0.698430 0.311496 0.643308
0.299749 0.396770 0.632423
0.412921 0.413639 0.648862
0.538143 0.432283 0.667098
0.672033 0.452200 0.686626
0.755872 0.464680 0.698718
0.362574 0.566180 0.693780
0.475895 0.583068 0.710279
0.601252 0.601728 0.728578
0.735254 0.621655 0.748175
0.819117 0.634137 0.760346
0.429697 0.747294 0.759642
0.543107 0.764181 0.776218
0.668534 0.782833 0.794598
0.802579 0.802750 0.814280
0.886418 0.815213 0.826545
0.471738 0.860603 0.800729
0.585170 0.877458 0.817403
0.710597 0.896077 0.835884
0.844613 0.915956 0.855672
0.928375 0.928377 0.868050
0.247206 0.247934 0.652930
0.360194 0.264768 0.669293
0.485240 0.283380 0.687453
0.618970 0.303267 0.706905
0.702747 0.315728 0.718909
0.304001 0.401009 0.708037
0.417189 0.417878 0.724455
0.542427 0.436522 0.742672
0.676330 0.456438 0.762184
0.760173 0.468917 0.774262
0.366827 0.570425 0.769332
0.480159 0.587312 0.785818
0.605526 0.605969 0.804107
0.739534 0.625895 0.823695
0.823397 0.638374 0.835861
0.433946 0.751539 0.835159
0.547361 0.768422 0.851731
0.672791 0.787071 0.870109
0.806836 0.806984 0.889791
0.890669 0.819443 0.902059
0.475974 0.864837 0.876242
0.589406 0.881688 0.892919
0.714829 0.900302 0.911407
0.848838 0.920176 0.931202
0.932591 0.932591 0.943591
