library/cube/Nordic_Air_000.cube
# CINEGRADE LAB — Premium Cinematic LUT
# Title: Nordic Air
# Category: Minimal Scandinavian
# Description: Clean, bright, muted, airy aesthetic inspired by Scandinavian design
# Mood: Calm, airy, minimal
# Variant: 1
# Generated: 2026-05-21T16:12:25.419530
TITLE "Nordic Air"
LUT_3D_SIZE 9
0.224162 0.224929 0.239789
0.278763 0.233070 0.247789
0.337051 0.241755 0.256336
0.398287 0.250875 0.265319
0.462001 0.260359 0.274668
0.527867 0.270160 0.284334
0.595642 0.280240 0.294279
0.665138 0.290573 0.304478
0.679378 0.292698 0.306426
0.251608 0.298934 0.266703
0.306268 0.307086 0.274704
0.364616 0.315782 0.283254
0.425911 0.324913 0.292239
0.489683 0.334408 0.301591
0.555604 0.344218 0.311259
0.623432 0.354308 0.321209
0.692979 0.364650 0.331411
0.707217 0.366780 0.333369
0.280908 0.377949 0.295463
0.335622 0.386111 0.303468
0.394023 0.394816 0.312021
0.455370 0.403956 0.321011
0.519191 0.413459 0.330367
0.585160 0.423277 0.340040
0.653033 0.433375 0.349994
0.722620 0.443723 0.360202
0.736854 0.445856 0.362172
0.311690 0.460964 0.325700
0.366449 0.469133 0.333710
0.424896 0.477845 0.342269
0.486286 0.486991 0.351264
0.550150 0.496501 0.360626
0.616158 0.506325 0.370306
0.684067 0.516427 0.380268
0.753687 0.526780 0.390484
0.767914 0.528915 0.392466
0.343712 0.547334 0.357181
0.398510 0.555508 0.365199
0.456995 0.564225 0.373764
0.518421 0.573375 0.382767
0.582318 0.582888 0.392138
0.648357 0.592715 0.401826
0.716293 0.602820 0.411798
0.785938 0.613175 0.422023
0.800154 0.615308 0.424020
0.376804 0.636607 0.389748
0.431633 0.644783 0.397775
0.490148 0.653503 0.406350
0.551602 0.662654 0.415363
0.615524 0.672168 0.424744
0.681585 0.681995 0.434443
0.749541 0.692100 0.444426
0.819201 0.702454 0.454664
0.833403 0.704584 0.456676
0.410836 0.728444 0.423286
0.465690 0.736620 0.431324
0.524227 0.745339 0.439910
0.585701 0.754489 0.448935
0.649640 0.764000 0.458329
0.715714 0.773825 0.468041
0.783680 0.783926 0.478038
0.853346 0.794277 0.488290
0.867531 0.796401 0.490320
0.445707 0.822580 0.457707
0.500577 0.830753 0.465758
0.559128 0.839467 0.474358
0.620613 0.848613 0.483397
0.684561 0.858120 0.492806
0.750640 0.867939 0.502534
0.818607 0.878034 0.512547
0.888270 0.888377 0.522816
0.902435 0.890493 0.524865
0.452907 0.841779 0.464492
0.507783 0.849942 0.472561
0.566338 0.858647 0.481179
0.627824 0.867782 0.490237
0.691770 0.877279 0.499664
0.757843 0.887087 0.509412
0.825801 0.897171 0.519444
0.895451 0.907503 0.529733
0.909591 0.909607 0.531803
0.226931 0.227693 0.289464
0.281538 0.235835 0.297452
0.339833 0.244520 0.305988
0.401075 0.253641 0.314960
0.464795 0.263126 0.324298
0.530667 0.272927 0.333952
0.598448 0.283008 0.343888
0.667950 0.293341 0.354077
0.682190 0.295465 0.356016
0.254380 0.301702 0.316339
0.309046 0.309855 0.324330
0.367400 0.318552 0.332869
0.428701 0.327682 0.341845
0.492478 0.337178 0.351186
0.558404 0.346988 0.360846
0.626237 0.357079 0.370786
0.695788 0.367420 0.380980
0.710026 0.369550 0.382931
0.283684 0.380721 0.345065
0.338402 0.388883 0.353061
0.396808 0.397588 0.361605
0.458159 0.406728 0.370585
0.521985 0.416231 0.379933
0.587958 0.426050 0.389598
0.655835 0.436147 0.399545
0.725427 0.446496 0.409746
0.739660 0.448629 0.411709
0.314468 0.463738 0.375271
0.369231 0.471907 0.383274
0.427682 0.480620 0.391824
0.489076 0.489765 0.400812
0.552943 0.499275 0.410167
0.618954 0.509098 0.419840
0.686866 0.519201 0.429796
0.756490 0.529554 0.440006
0.770716 0.531688 0.441983
0.346491 0.550110 0.406727
0.401292 0.558284 0.414737
0.459780 0.567001 0.423297
0.521210 0.576150 0.432294
0.585109 0.585663 0.441658
0.651150 0.595490 0.451342
0.719089 0.605594 0.461308
0.788736 0.615949 0.471529
0.802951 0.618081 0.473522
0.379583 0.639384 0.439272
0.434415 0.647560 0.447293
0.492932 0.656279 0.455863
0.554389 0.665429 0.464871
0.618313 0.674943 0.474248
0.684376 0.684769 0.483943
0.752332 0.694873 0.493923
0.821994 0.705227 0.504157
0.836194 0.707356 0.506167
0.413615 0.731221 0.472793
0.468470 0.739396 0.480826
0.527009 0.748114 0.489409
0.588484 0.757263 0.498431
0.652425 0.766774 0.507821
0.718500 0.776598 0.517531
0.786466 0.786699 0.527525
0.856132 0.797048 0.537776
0.870316 0.799171 0.539804
0.448484 0.825356 0.507201
0.503355 0.833528 0.515249
0.561907 0.842241 0.523847
0.623393 0.851386 0.532884
0.687341 0.860892 0.542291
0.753420 0.870710 0.552018
0.821386 0.880804 0.562030
0.891049 0.891146 0.572298
0.905211 0.893261 0.574347
0.455680 0.844552 0.513979
0.510557 0.852714 0.522046
0.569112 0.861417 0.530663
0.630599 0.870552 0.539720
0.694543 0.880047 0.549147
0.760616 0.889854 0.558894
0.828572 0.899937 0.568927
0.898221 0.910268 0.579217
0.912358 0.912371 0.581288
0.229884 0.230642 0.342463
0.284497 0.238784 0.350438
0.342799 0.247471 0.358961
0.404047 0.256591 0.367921
0.467773 0.266077 0.377248
0.533651 0.275878 0.386892
0.601438 0.285960 0.396816
0.670945 0.296293 0.406995
0.685185 0.298418 0.408925
0.257337 0.304655 0.369297
0.312009 0.312808 0.377277
0.370368 0.321505 0.385805
0.431674 0.330636 0.394770
0.495457 0.340132 0.404101
0.561388 0.349943 0.413751
0.629226 0.360033 0.423682
0.698781 0.370376 0.433867
0.713019 0.372505 0.435810
0.286644 0.383677 0.397986
0.341367 0.391839 0.405972
0.399778 0.400545 0.414507
0.461134 0.409685 0.423478
0.524964 0.419188 0.432817
0.590941 0.429007 0.442474
0.658822 0.439104 0.452413
0.728417 0.449453 0.462606
0.742650 0.451585 0.464563
0.317429 0.466697 0.428161
0.372197 0.474866 0.436155
0.430652 0.483578 0.444697
0.492050 0.492724 0.453677
0.555921 0.502233 0.463025
0.621935 0.512057 0.472691
0.689850 0.522159 0.482640
0.759477 0.532512 0.492844
0.773701 0.534645 0.494816
0.349454 0.553070 0.459589
0.404259 0.561244 0.467593
0.462750 0.569961 0.476145
0.524182 0.579110 0.485136
0.588085 0.588622 0.494494
0.654129 0.598449 0.504172
0.722070 0.608553 0.514134
0.791718 0.618907 0.524350
0.805932 0.621039 0.526339
0.382547 0.642345 0.492112
0.437381 0.650521 0.500128
0.495901 0.659239 0.508692
0.557360 0.668390 0.517695
0.621286 0.677902 0.527067
0.687350 0.687728 0.536759
0.755308 0.697832 0.546734
0.824970 0.708184 0.556966
0.839169 0.710313 0.558973
0.416578 0.734182 0.525615
0.471435 0.742357 0.533644
0.529975 0.751074 0.542223
0.591452 0.760223 0.551241
0.655394 0.769733 0.560628
0.721470 0.779556 0.570336
0.789436 0.789656 0.580328
0.859102 0.800004 0.590576
0.873284 0.802127 0.592604
0.451446 0.828316 0.560010
0.506318 0.836487 0.568055
0.564870 0.845200 0.576651
0.626357 0.854343 0.585686
0.690305 0.863848 0.595091
0.756384 0.873665 0.604816
0.824350 0.883759 0.614827
0.894012 0.894100 0.625096
0.908172 0.896213 0.627144
0.458639 0.847509 0.566781
0.513516 0.855670 0.574846
0.572071 0.864373 0.583462
0.633557 0.873506 0.592518
0.697502 0.883000 0.601944
0.763574 0.892806 0.611692
0.831528 0.902888 0.621725
0.901175 0.913218 0.632016
0.915310 0.915319 0.634089
0.232984 0.233739 0.398107
0.287604 0.241881 0.406069
0.345911 0.250568 0.414580
0.407166 0.259689 0.423528
0.470899 0.269175 0.432842
0.536782 0.278977 0.442474
0.604575 0.289059 0.452388
0.674087 0.299393 0.462556
0.688327 0.301518 0.464476
0.260441 0.307755 0.424899
0.315118 0.315909 0.432867
0.373483 0.324606 0.441384
0.434795 0.333738 0.450338
0.498582 0.343233 0.459659
0.564519 0.353045 0.469299
0.632361 0.363135 0.479220
0.701921 0.373478 0.489396
0.716159 0.375607 0.491331
0.289750 0.386780 0.453551
0.344478 0.394943 0.461527
0.402894 0.403649 0.470051
0.464255 0.412789 0.479013
0.528090 0.422292 0.488343
0.594071 0.432111 0.497992
0.661955 0.442208 0.507923
0.731554 0.452557 0.518108
0.745786 0.454689 0.520058
0.320538 0.469803 0.483693
0.375310 0.477972 0.491678
0.433769 0.486684 0.500212
0.495171 0.495830 0.509184
0.559045 0.505339 0.518524
0.625063 0.515163 0.528184
0.692981 0.525265 0.538126
0.762610 0.535617 0.548324
0.776834 0.537750 0.550291
0.352564 0.556178 0.515093
0.407373 0.564352 0.523089
0.465867 0.573068 0.531635
0.527302 0.582217 0.540619
0.591207 0.591729 0.549972
0.657254 0.601555 0.559644
0.725197 0.611659 0.569600
0.794847 0.622013 0.579812
0.809059 0.624144 0.581797
0.385657 0.645454 0.547593
0.440495 0.653629 0.555603
0.499017 0.662347 0.564162
0.560478 0.671497 0.573160
0.624406 0.681009 0.582528
0.690471 0.690834 0.592215
0.758431 0.700937 0.602187
0.828093 0.711289 0.612415
0.842291 0.713417 0.614420
0.419688 0.737291 0.581078
0.474547 0.745465 0.589103
0.533089 0.754181 0.597678
0.594567 0.763329 0.606692
0.658510 0.772839 0.616077
0.724586 0.782661 0.625781
0.792553 0.792760 0.635771
0.862219 0.803107 0.646018
0.876399 0.805229 0.648044
0.454554 0.831423 0.615460
0.509427 0.839593 0.623502
0.567981 0.848305 0.632095
0.629468 0.857448 0.641129
0.693416 0.866952 0.650532
0.759495 0.876768 0.660256
0.827460 0.886860 0.670267
0.897121 0.897200 0.680535
0.911279 0.899313 0.682584
0.461744 0.850613 0.622223
0.516621 0.858773 0.630287
0.575177 0.867475 0.638902
0.636663 0.876607 0.647958
0.700606 0.886100 0.657384
0.766677 0.895905 0.667132
0.834631 0.905986 0.677166
0.904276 0.916314 0.687458
0.918408 0.918414 0.689532
0.236208 0.236958 0.455969
0.290834 0.245101 0.463917
0.349147 0.253789 0.472415
0.410408 0.262911 0.481350
0.474147 0.272397 0.490653
0.540037 0.282199 0.500273
0.607834 0.292282 0.510176
0.677352 0.302616 0.520333
0.691592 0.304741 0.522243
0.263668 0.310979 0.482717
0.318351 0.319133 0.490674
0.376721 0.327830 0.499179
0.438038 0.336962 0.508122
0.501831 0.346458 0.517433
0.567773 0.356270 0.527062
0.635620 0.366361 0.536974
0.705184 0.376704 0.547140
0.719421 0.378833 0.549067
0.292981 0.390007 0.511331
0.347713 0.398170 0.519296
0.406134 0.406876 0.527811
0.467499 0.416016 0.536764
0.531338 0.425520 0.546084
0.597324 0.435338 0.555724
0.665212 0.445436 0.565647
0.734814 0.455785 0.575825
0.749046 0.457917 0.577768
0.323771 0.473032 0.541440
0.378547 0.481201 0.549416
0.437009 0.489914 0.557942
0.498415 0.499059 0.566906
0.562293 0.508568 0.576238
0.628314 0.518392 0.585891
0.696235 0.528494 0.595826
0.765866 0.538846 0.606018
0.780089 0.540978 0.607979
0.355798 0.559409 0.572812
0.410610 0.567583 0.580801
0.469107 0.576299 0.589339
0.530545 0.585448 0.598317
0.594453 0.594959 0.607664
0.660502 0.604785 0.617331
0.728447 0.614888 0.627281
0.798099 0.625241 0.637488
0.812310 0.627372 0.639469
0.388891 0.648686 0.605289
0.443731 0.656861 0.613293
0.502256 0.665578 0.621846
0.563719 0.674727 0.630840
0.627648 0.684239 0.640202
0.693716 0.694064 0.649886
0.761676 0.704166 0.659854
0.831340 0.714518 0.670079
0.845535 0.716644 0.672081
0.422922 0.740523 0.638755
0.477783 0.748696 0.646776
0.536326 0.757412 0.655347
0.597805 0.766559 0.664358
0.661749 0.776067 0.673739
0.727826 0.785889 0.683442
0.795793 0.795987 0.693429
0.865459 0.806334 0.703675
0.879636 0.808454 0.705700
0.457786 0.834654 0.673124
0.512660 0.842823 0.681164
0.571215 0.851534 0.689755
0.632702 0.860676 0.698786
0.696650 0.870179 0.708188
0.762729 0.879994 0.717911
0.830693 0.890085 0.727921
0.900353 0.900424 0.738189
0.914508 0.902535 0.740238
0.464973 0.853840 0.679881
0.519850 0.861999 0.687943
0.578405 0.870700 0.696558
0.639891 0.879831 0.705613
0.703834 0.889323 0.715039
0.769904 0.899127 0.724787
0.837856 0.909207 0.734822
0.907499 0.919534 0.745115
0.921628 0.921632 0.747191
0.239538 0.240285 0.515749
0.294170 0.248428 0.523684
0.352490 0.257116 0.532168
0.413757 0.266239 0.541091
0.477502 0.275726 0.550381
0.543397 0.285529 0.559990
0.611201 0.295611 0.569881
0.680724 0.305946 0.580027
0.694964 0.308071 0.581928
0.267002 0.314310 0.542453
0.321690 0.322464 0.550398
0.380067 0.331162 0.558891
0.441389 0.340294 0.567823
0.505187 0.349790 0.577123
0.571133 0.359602 0.586743
0.638985 0.369694 0.596645
0.708553 0.380036 0.606801
0.722790 0.382165 0.608719
0.296318 0.393341 0.571028
0.351055 0.401504 0.578983
0.409480 0.410210 0.587488
0.470850 0.419350 0.596431
0.534694 0.428854 0.605743
0.600683 0.438673 0.615374
0.668575 0.448771 0.625288
0.738181 0.459119 0.635458
0.752411 0.461251 0.637395
0.327110 0.476369 0.601104
0.381890 0.484538 0.609071
0.440356 0.493250 0.617588
0.501766 0.502396 0.626544
0.565647 0.511905 0.635869
0.631671 0.521728 0.645514
0.699595 0.531829 0.655444
0.769229 0.542181 0.665629
0.783451 0.544314 0.667585
0.359139 0.562747 0.632447
0.413953 0.570920 0.640429
0.472454 0.579636 0.648961
0.533895 0.588785 0.657932
0.597805 0.598296 0.667273
0.663856 0.608121 0.676934
0.731803 0.618224 0.686880
0.801457 0.628577 0.697082
0.815666 0.630708 0.699059
0.392232 0.652025 0.664901
0.447075 0.660199 0.672899
0.505601 0.668916 0.681448
0.567066 0.678065 0.690436
0.630998 0.687576 0.699795
0.697066 0.697400 0.709474
0.765028 0.707502 0.719439
0.834692 0.717852 0.729660
0.848886 0.719979 0.731660
0.426262 0.743861 0.698350
0.481125 0.752034 0.706366
0.539669 0.760749 0.714934
0.601150 0.769895 0.723942
0.665094 0.779403 0.733320
0.731172 0.789224 0.743020
0.799139 0.799321 0.753006
0.868805 0.809667 0.763249
0.882980 0.811786 0.765273
0.461125 0.837991 0.732706
0.516000 0.846160 0.740743
0.574555 0.854870 0.749332
0.636043 0.864011 0.758361
0.699991 0.873512 0.767762
0.766069 0.883326 0.777485
0.834033 0.893416 0.787494
0.903691 0.903754 0.797762
0.917844 0.905864 0.799812
0.468308 0.857174 0.739456
0.523186 0.865332 0.747518
0.581741 0.874032 0.756131
0.643226 0.883162 0.765186
0.707168 0.892653 0.774612
0.773237 0.902456 0.784361
0.841187 0.912534 0.794397
0.910828 0.922860 0.804692
0.924955 0.924957 0.806771
0.242963 0.243706 0.577226
0.297601 0.251850 0.585147
0.355928 0.260539 0.593619
0.417201 0.269662 0.602528
0.480951 0.279149 0.611806
0.546853 0.288953 0.621403
0.614661 0.299036 0.631283
0.684190 0.309371 0.641418
0.698430 0.311496 0.643308
0.270431 0.317735 0.603887
0.325125 0.325889 0.611819
0.383506 0.334588 0.620301
0.444834 0.343720 0.629222
0.508637 0.353217 0.638511
0.574588 0.363029 0.648120
0.642444 0.373121 0.658012
0.712017 0.383464 0.668159
0.726254 0.385593 0.670069
0.299749 0.396770 0.632423
0.354492 0.404933 0.640367
0.412921 0.413639 0.648862
0.474295 0.422779 0.657795
0.538143 0.432283 0.667098
0.604137 0.442102 0.676720
0.672033 0.452200 0.686626
0.741642 0.462548 0.696789
0.755872 0.464680 0.698718
0.330544 0.479800 0.662464
0.385328 0.487969 0.670423
0.443798 0.496681 0.678931
0.505211 0.505827 0.687879
0.569096 0.515335 0.697197
0.635123 0.525158 0.706835
0.703050 0.535260 0.716757
0.772686 0.545612 0.726936
0.786907 0.547743 0.728887
0.362574 0.566180 0.693780
0.417392 0.574353 0.701754
0.475895 0.583068 0.710279
0.537339 0.592217 0.719244
0.601252 0.601728 0.728578
0.667305 0.611553 0.738234
0.735254 0.621655 0.748175
0.804909 0.632008 0.758373
0.819117 0.634137 0.760346
0.395668 0.655458 0.726211
0.450513 0.663632 0.734203
0.509041 0.672348 0.742746
0.570508 0.681497 0.751730
0.634442 0.691007 0.761084
0.700512 0.700831 0.770759
0.768474 0.710932 0.780720
0.838139 0.721282 0.790939
0.852331 0.723407 0.792937
0.429697 0.747294 0.759642
0.484561 0.755466 0.767654
0.543107 0.764181 0.776218
0.604589 0.773326 0.785222
0.668534 0.782833 0.794598
0.734612 0.792653 0.804296
0.802579 0.802750 0.814280
0.872245 0.813095 0.824522
0.886418 0.815213 0.826545
0.464558 0.841423 0.793986
0.519434 0.849591 0.802021
0.577989 0.858300 0.810607
0.639478 0.867440 0.819635
0.703426 0.876940 0.829034
0.769504 0.886753 0.838756
0.837466 0.896842 0.848766
0.907124 0.907179 0.859034
0.921274 0.909288 0.861085
0.471738 0.860603 0.800729
0.526615 0.868760 0.808790
0.585170 0.877458 0.817403
0.646655 0.886588 0.826458
0.710597 0.896077 0.835884
0.776664 0.905879 0.845634
0.844613 0.915956 0.855672
0.914252 0.926281 0.865969
0.928375 0.928377 0.868050
0.246473 0.247213 0.640229
0.301118 0.255357 0.648137
0.359450 0.264047 0.656595
0.420729 0.273170 0.665492
0.484486 0.282658 0.674757
0.550393 0.292462 0.684342
0.618207 0.302546 0.694211
0.687740 0.312881 0.704334
0.701980 0.315006 0.706215
0.273945 0.321245 0.666846
0.328644 0.329400 0.674766
0.387031 0.338099 0.683236
0.448364 0.347232 0.692146
0.512172 0.356729 0.701424
0.578128 0.366541 0.711023
0.645989 0.376633 0.720905
0.715566 0.386976 0.731043
0.729802 0.389105 0.732944
0.303266 0.400284 0.695343
0.358013 0.408447 0.703277
0.416448 0.417153 0.711761
0.477826 0.426294 0.720685
0.541678 0.435798 0.729978
0.607676 0.445617 0.739592
0.675575 0.455714 0.749490
0.745187 0.466063 0.759645
0.759416 0.468194 0.761567
0.334063 0.483316 0.725351
0.388851 0.491485 0.733300
0.447325 0.500197 0.741800
0.508741 0.509343 0.750741
0.572629 0.518851 0.760051
0.638660 0.528674 0.769682
0.706589 0.538775 0.779598
0.776228 0.549127 0.789771
0.790448 0.551258 0.791716
0.366094 0.569698 0.756638
0.420915 0.577870 0.764605
0.479421 0.586586 0.773123
0.540868 0.595734 0.782082
0.604784 0.605244 0.791411
0.670839 0.615069 0.801061
0.738790 0.625171 0.810997
0.808446 0.635523 0.821190
0.822653 0.637652 0.823160
0.399189 0.658977 0.789046
0.454036 0.667150 0.797033
0.512566 0.675866 0.805571
0.574035 0.685013 0.814550
0.637970 0.694523 0.823900
0.704041 0.704347 0.833572
0.772005 0.714447 0.843530
0.841670 0.724796 0.853746
0.855861 0.726921 0.855741
0.433217 0.750813 0.822460
0.488083 0.758984 0.830469
0.546630 0.767697 0.839029
0.608113 0.776842 0.848030
0.672058 0.786349 0.857403
0.738137 0.796168 0.867099
0.806104 0.806263 0.877081
0.875769 0.816607 0.887323
0.889940 0.818725 0.889346
0.468076 0.844940 0.856793
0.522953 0.853106 0.864825
0.581509 0.861815 0.873410
0.642997 0.870953 0.882436
0.706945 0.880453 0.891835
0.773023 0.890265 0.901557
0.840984 0.900353 0.911566
0.910640 0.910689 0.921834
0.924788 0.912796 0.923887
0.475252 0.864116 0.863531
0.530130 0.872272 0.871591
0.588685 0.880970 0.880204
0.650169 0.890098 0.889258
0.714110 0.899586 0.898686
0.780176 0.909387 0.908437
0.848122 0.919463 0.918476
0.917759 0.929786 0.928775
0.931880 0.931881 0.930858
0.247206 0.247934 0.652930
0.301856 0.256079 0.660837
0.360194 0.264768 0.669293
0.421478 0.273891 0.678189
0.485240 0.283380 0.687453
0.551151 0.293184 0.697038
0.618970 0.303267 0.706905
0.688508 0.313603 0.717028
0.702747 0.315728 0.718909
0.274679 0.321969 0.679543
0.329382 0.330124 0.687462
0.387774 0.338823 0.695932
0.449111 0.347955 0.704840
0.512923 0.357452 0.714118
0.578883 0.367265 0.723716
0.646748 0.377356 0.733598
0.716328 0.387700 0.743737
0.730564 0.389828 0.745638
0.304001 0.401009 0.708037
0.358751 0.409172 0.715971
0.417189 0.417878 0.724455
0.478572 0.427019 0.733379
0.542427 0.436522 0.742672
0.608428 0.446341 0.752286
0.676330 0.456438 0.762184
0.745945 0.466787 0.772339
0.760173 0.468917 0.774262
0.334797 0.484043 0.738044
0.389588 0.492211 0.745994
0.448065 0.500923 0.754494
0.509485 0.510068 0.763435
0.573375 0.519576 0.772745
0.639408 0.529399 0.782377
0.707339 0.539500 0.792293
0.776980 0.549851 0.802467
0.791198 0.551982 0.804413
0.366827 0.570425 0.769332
0.421651 0.578597 0.777299
0.480159 0.587312 0.785818
0.541608 0.596459 0.794777
0.605526 0.605969 0.804107
0.671583 0.615793 0.813758
0.739534 0.625895 0.823695
0.809192 0.636246 0.833890
0.823397 0.638374 0.835861
0.399920 0.659704 0.801742
0.454769 0.667876 0.809730
0.513301 0.676591 0.818269
0.574772 0.685738 0.827249
0.638708 0.695248 0.836600
0.704780 0.705070 0.846273
0.772743 0.715170 0.856233
0.842409 0.725518 0.866451
0.856597 0.727642 0.868448
0.433946 0.751539 0.835159
0.488813 0.759709 0.843169
0.547361 0.768422 0.851731
0.608845 0.777565 0.860734
0.672791 0.787071 0.870109
0.738869 0.796889 0.879806
0.806836 0.806984 0.889791
0.876500 0.817327 0.900034
0.890669 0.819443 0.902059
0.468803 0.845664 0.869497
0.523680 0.853829 0.877531
0.582236 0.862536 0.886118
0.643724 0.871674 0.895146
0.707672 0.881173 0.904547
0.773748 0.890984 0.914271
0.841709 0.901070 0.924283
0.911363 0.911405 0.934553
0.925508 0.913511 0.936606
0.475974 0.864837 0.876242
0.530852 0.872991 0.884304
0.589406 0.881688 0.892919
0.650890 0.890815 0.901977
0.714829 0.900302 0.911407
0.780894 0.910101 0.921161
0.848838 0.920176 0.931202
0.918473 0.930498 0.941504
0.932591 0.932591 0.943591
