library/cube/Obsidian_Teal_000.cube
# CINEGRADE LAB — Premium Cinematic LUT
# Title: Obsidian Teal
# Category: Cinematic Shadows
# Description: Crushed blacks with teal shadows and warm highlights for cinema-inspired images
# Mood: Dramatic, cinematic, bold
# Variant: 1
# Generated: 2026-05-21T16:12:11.975106
TITLE "Obsidian Teal"
LUT_3D_SIZE 5
0.000000 0.000000 0.000000
0.193535 0.005453 0.005453
0.439819 0.012392 0.012392
0.690926 0.019466 0.019466
0.905512 0.025512 0.025512
0.019062 0.214513 0.019062
0.212282 0.218328 0.024365
0.465731 0.224075 0.031385
0.722512 0.230137 0.038518
0.924114 0.234853 0.044114
0.043469 0.489185 0.043469
0.237530 0.493470 0.048835
0.496082 0.499827 0.056039
0.756920 0.506485 0.063328
0.948690 0.511417 0.068690
0.067952 0.764702 0.067952
0.264068 0.769740 0.073435
0.526271 0.776885 0.080802
0.790157 0.784298 0.088235
0.973413 0.789639 0.093413
0.085824 0.965824 0.085824
0.285334 0.971445 0.091445
0.550418 0.978914 0.098914
0.816999 0.986424 0.106424
0.991336 0.991336 0.111336
0.002159 0.002159 0.221498
0.195593 0.007562 0.221921
0.442692 0.014481 0.224386
0.694445 0.021536 0.227476
0.907505 0.027505 0.229935
0.021025 0.215946 0.225636
0.214252 0.219810 0.227561
0.468278 0.225622 0.231634
0.725513 0.231744 0.236197
0.925994 0.236475 0.239527
0.045350 0.490672 0.240256
0.239542 0.495029 0.243510
0.498500 0.501462 0.248912
0.759665 0.508192 0.254667
0.950532 0.513156 0.258697
0.069795 0.766368 0.258761
0.266181 0.771487 0.263024
0.528691 0.778708 0.269362
0.792847 0.786191 0.275924
0.975244 0.791563 0.280325
0.087651 0.967651 0.273197
0.287573 0.973277 0.278109
0.552927 0.980747 0.284945
0.819787 0.988260 0.291872
0.993138 0.993138 0.296181
0.004800 0.004800 0.492379
0.198164 0.010177 0.490290
0.446070 0.017098 0.490535
0.698464 0.024152 0.491648
0.910063 0.030063 0.492300
0.023544 0.217961 0.489050
0.216804 0.221890 0.489296
0.471400 0.227779 0.491905
0.729085 0.233972 0.495182
0.928485 0.238728 0.497345
0.047835 0.492791 0.498770
0.242181 0.497229 0.500948
0.501539 0.503745 0.505418
0.763029 0.510550 0.510354
0.953010 0.515550 0.513628
0.072271 0.768693 0.514144
0.268945 0.773897 0.517717
0.531758 0.781196 0.523438
0.796186 0.788748 0.529433
0.977721 0.794151 0.533269
0.090120 0.970120 0.526474
0.290472 0.975753 0.530860
0.556098 0.983226 0.537174
0.823241 0.990741 0.543569
0.995586 0.995586 0.547281
0.007424 0.007424 0.761428
0.200726 0.012776 0.757017
0.449413 0.019699 0.755219
0.702424 0.026753 0.754519
0.912610 0.032610 0.753515
0.026054 0.219992 0.751222
0.219359 0.223985 0.749933
0.474505 0.229950 0.751209
0.732623 0.236214 0.753318
0.930970 0.240995 0.754421
0.050315 0.494932 0.756477
0.244827 0.499450 0.757680
0.504574 0.506047 0.761304
0.766380 0.512926 0.765496
0.955484 0.517962 0.768077
0.074743 0.771042 0.769008
0.271721 0.776329 0.771948
0.534832 0.783703 0.777094
0.799529 0.791323 0.782554
0.980196 0.796753 0.785842
0.092586 0.972586 0.779369
0.293383 0.978226 0.783243
0.559282 0.985701 0.789036
0.826715 0.993220 0.794887
0.998030 0.998030 0.797977
0.008664 0.008664 0.888664
0.202032 0.014112 0.894112
0.451577 0.021143 0.901143
0.705277 0.028290 0.908290
0.914176 0.034176 0.914176
0.027534 0.221017 0.907534
0.220975 0.225154 0.912870
0.476719 0.231263 0.919981
0.735316 0.237656 0.927189
0.932689 0.242515 0.932689
0.051996 0.496302 0.931996
0.246738 0.500948 0.937410
0.506904 0.507668 0.944687
0.769056 0.514657 0.952039
0.957325 0.519759 0.957325
0.076563 0.772763 0.956563
0.273889 0.778162 0.962108
0.537320 0.785637 0.969535
0.802311 0.793346 0.977022
0.982123 0.798824 0.982123
0.094488 0.974488 0.974488
0.295768 0.980159 0.980159
0.561964 0.987659 0.987659
0.829716 0.995202 0.995202
1.000000 1.000000 1.000000
