library/cube/Obsidian_Teal_000.cube
# CINEGRADE LAB — Premium Cinematic LUT
# Title: Obsidian Teal
# Category: Cinematic Shadows
# Description: Crushed blacks with teal shadows and warm highlights for cinema-inspired images
# Mood: Dramatic, cinematic, bold
# Variant: 1
# Generated: 2026-05-21T16:12:11.975106
TITLE "Obsidian Teal"
LUT_3D_SIZE 33
0.000000 0.000000 0.000000
0.000000 0.000000 0.000000
0.012489 0.000352 0.000352
0.042426 0.001195 0.001195
0.072461 0.002042 0.002042
0.102591 0.002890 0.002890
0.132814 0.003742 0.003742
0.163130 0.004596 0.004596
0.193535 0.005453 0.005453
0.224029 0.006312 0.006312
0.254610 0.007173 0.007173
0.285275 0.008037 0.008037
0.316024 0.008904 0.008904
0.346854 0.009772 0.009772
0.377765 0.010643 0.010643
0.408753 0.011516 0.011516
0.439819 0.012392 0.012392
0.470960 0.013269 0.013269
0.502174 0.014148 0.014148
0.533461 0.015030 0.015030
0.564818 0.015913 0.015913
0.596245 0.016799 0.016799
0.627739 0.017686 0.017686
0.659300 0.018575 0.018575
0.690926 0.019466 0.019466
0.722615 0.020359 0.020359
0.754366 0.021254 0.021254
0.786178 0.022150 0.022150
0.817984 0.023046 0.023046
0.849818 0.023943 0.023943
0.881692 0.024841 0.024841
0.905512 0.025512 0.025512
0.905512 0.025512 0.025512
0.000000 0.000000 0.000000
0.000000 0.000000 0.000000
0.011473 0.000323 0.000323
0.041579 0.001171 0.001171
0.071778 0.002022 0.002022
0.102069 0.002876 0.002876
0.132449 0.003732 0.003732
0.162917 0.004590 0.004590
0.193471 0.005451 0.005451
0.224110 0.006314 0.006314
0.254832 0.007180 0.007180
0.285635 0.008048 0.008048
0.316518 0.008918 0.008918
0.347479 0.009790 0.009790
0.378516 0.010664 0.010664
0.409628 0.011541 0.011541
0.440814 0.012420 0.012420
0.472072 0.013300 0.013300
0.503400 0.014183 0.014183
0.534797 0.015067 0.015067
0.566261 0.015954 0.015954
0.597791 0.016842 0.016842
0.629387 0.017732 0.017732
0.661045 0.018624 0.018624
0.692765 0.019518 0.019518
0.724546 0.020413 0.020413
0.756386 0.021311 0.021311
0.788284 0.022209 0.022209
0.820145 0.023107 0.023107
0.852030 0.024005 0.024005
0.883949 0.024904 0.024904
0.905512 0.025512 0.025512
0.905512 0.025512 0.025512
0.000700 0.007876 0.000700
0.000680 0.007651 0.000680
0.011168 0.007725 0.000956
0.041416 0.008359 0.001790
0.071753 0.008999 0.002626
0.102179 0.009644 0.003465
0.132691 0.010295 0.004306
0.163287 0.010952 0.005150
0.193966 0.011614 0.005997
0.224726 0.012281 0.006847
0.255566 0.012954 0.007698
0.286483 0.013631 0.008553
0.317478 0.014315 0.009410
0.348547 0.015003 0.010269
0.379689 0.015696 0.011130
0.410903 0.016395 0.011994
0.442188 0.017098 0.012860
0.473542 0.017806 0.013728
0.504963 0.018520 0.014599
0.536450 0.019238 0.015471
0.568002 0.019960 0.016346
0.599617 0.020688 0.017222
0.631294 0.021420 0.018101
0.663032 0.022156 0.018981
0.694828 0.022897 0.019864
0.726683 0.023643 0.020748
0.758595 0.024393 0.021634
0.790562 0.025147 0.022522
0.822454 0.025902 0.023408
0.854368 0.026660 0.024295
0.886310 0.027422 0.025183
0.905718 0.027833 0.025718
0.905706 0.027700 0.025706
0.003768 0.042405 0.003768
0.003748 0.042178 0.003748
0.013319 0.042226 0.003998
0.043722 0.042863 0.004836
0.074211 0.043506 0.005676
0.104784 0.044155 0.006519
0.135440 0.044810 0.007365
0.166176 0.045470 0.008213
0.196992 0.046135 0.009064
0.227885 0.046806 0.009917
0.258854 0.047483 0.010772
0.289898 0.048164 0.011630
0.321015 0.048851 0.012491
0.352204 0.049543 0.013353
0.383463 0.050240 0.014218
0.414790 0.050942 0.015085
0.446184 0.051649 0.015954
0.477645 0.052361 0.016825
0.509169 0.053078 0.017699
0.540757 0.053800 0.018574
0.572407 0.054526 0.019451
0.604117 0.055257 0.020331
0.635886 0.055993 0.021212
0.667712 0.056734 0.022095
0.699596 0.057478 0.022980
0.731534 0.058228 0.023867
0.763527 0.058982 0.024756
0.795573 0.059740 0.025646
0.827497 0.060497 0.026533
0.859443 0.061258 0.027421
0.891413 0.062023 0.028310
0.908788 0.062379 0.028788
0.908776 0.062248 0.028776
0.006833 0.076891 0.006833
0.006812 0.076664 0.006812
0.015516 0.076687 0.007038
0.046068 0.077329 0.007880
0.076702 0.077976 0.008725
0.107416 0.078630 0.009572
0.138210 0.079289 0.010421
0.169081 0.079953 0.011273
0.200027 0.080623 0.012128
0.231048 0.081298 0.012984
0.262141 0.081979 0.013843
0.293306 0.082665 0.014705
0.324541 0.083356 0.015569
0.355844 0.084053 0.016434
0.387213 0.084754 0.017302
0.418649 0.085461 0.018173
0.450148 0.086172 0.019045
0.481711 0.086889 0.019919
0.513334 0.087610 0.020795
0.545019 0.088336 0.021674
0.576761 0.089067 0.022554
0.608562 0.089803 0.023436
0.640419 0.090543 0.024320
0.672331 0.091288 0.025206
0.704297 0.092037 0.026093
0.736315 0.092791 0.026982
0.768385 0.093549 0.027873
0.800501 0.094312 0.028766
0.832450 0.095073 0.029654
0.864420 0.095837 0.030543
0.896408 0.096605 0.031432
0.911856 0.096909 0.031856
0.911845 0.096781 0.031845
0.009894 0.111339 0.009894
0.009874 0.111114 0.009874
0.017758 0.111115 0.010077
0.048452 0.111762 0.010923
0.079226 0.112414 0.011771
0.110076 0.113073 0.012622
0.141001 0.113737 0.013475
0.172001 0.114406 0.014331
0.203073 0.115081 0.015189
0.234216 0.115762 0.016049
0.265428 0.116448 0.016912
0.296708 0.117139 0.017777
0.328055 0.117835 0.018644
0.359467 0.118537 0.019513
0.390944 0.119243 0.020384
0.422482 0.119955 0.021258
0.454082 0.120672 0.022133
0.485742 0.121393 0.023010
0.517461 0.122120 0.023889
0.549237 0.122851 0.024770
0.581069 0.123587 0.025653
0.612956 0.124328 0.026538
0.644897 0.125074 0.027425
0.676890 0.125824 0.028313
0.708935 0.126578 0.029203
0.741029 0.127337 0.030094
0.773173 0.128101 0.030988
0.805347 0.128868 0.031882
0.837317 0.129633 0.032771
0.869301 0.130401 0.033661
0.901298 0.131172 0.034551
0.914924 0.131429 0.034924
0.914913 0.131304 0.034913
0.012952 0.145756 0.012952
0.012932 0.145532 0.012932
0.020045 0.145513 0.013114
0.050877 0.146166 0.013964
0.081783 0.146825 0.014816
0.112763 0.147489 0.015671
0.143815 0.148159 0.016528
0.174938 0.148834 0.017387
0.206130 0.149515 0.018249
0.237389 0.150201 0.019113
0.268715 0.150893 0.019979
0.300106 0.151590 0.020847
0.331561 0.152292 0.021717
0.363078 0.153000 0.022590
0.394656 0.153712 0.023464
0.426293 0.154430 0.024340
0.457989 0.155152 0.025219
0.489742 0.155880 0.026099
0.521551 0.156612 0.026981
0.553415 0.157349 0.027865
0.585333 0.158091 0.028750
0.617302 0.158838 0.029638
0.649323 0.159589 0.030527
0.681394 0.160345 0.031417
0.713514 0.161106 0.032310
0.745682 0.161871 0.033204
0.777896 0.162640 0.034100
0.810121 0.163413 0.034996
0.842102 0.164182 0.035885
0.874092 0.164954 0.036775
0.906089 0.165730 0.037666
0.917991 0.165942 0.037991
0.917980 0.165822 0.037980
0.016008 0.180146 0.016008
0.015988 0.179925 0.015988
0.022378 0.179888 0.016150
0.053340 0.180548 0.017003
0.084374 0.181213 0.017860
0.115479 0.181884 0.018718
0.146652 0.182560 0.019579
0.177893 0.183242 0.020442
0.209199 0.183929 0.021307
0.240571 0.184622 0.022175
0.272005 0.185320 0.023044
0.303502 0.186024 0.023915
0.335060 0.186733 0.024789
0.366677 0.187447 0.025664
0.398352 0.188166 0.026542
0.430084 0.188890 0.027421
0.461871 0.189619 0.028302
0.493714 0.190353 0.029185
0.525609 0.191092 0.030070
0.557557 0.191835 0.030957
0.589556 0.192584 0.031845
0.621604 0.193337 0.032735
0.653702 0.194095 0.033627
0.685847 0.194857 0.034520
0.718039 0.195624 0.035415
0.750276 0.196395 0.036311
0.782558 0.197171 0.037209
0.814825 0.197950 0.038107
0.846809 0.198724 0.038997
0.878796 0.199501 0.039887
0.910784 0.200281 0.040778
0.921057 0.200452 0.041057
0.921047 0.200337 0.041047
0.019062 0.214513 0.019062
0.019043 0.214296 0.019043
0.024756 0.214244 0.019185
0.055843 0.214911 0.020043
0.087000 0.215583 0.020903
0.118223 0.216261 0.021765
0.149512 0.216945 0.022629
0.180866 0.217634 0.023496
0.212282 0.218328 0.024365
0.243761 0.219028 0.025235
0.275299 0.219734 0.026108
0.306897 0.220444 0.026983
0.338553 0.221160 0.027859
0.370266 0.221881 0.028738
0.402033 0.222608 0.029618
0.433856 0.223339 0.030501
0.465731 0.224075 0.031385
0.497658 0.224816 0.032270
0.529637 0.225562 0.033158
0.561664 0.226313 0.034047
0.593741 0.227068 0.034938
0.625865 0.227829 0.035831
0.658036 0.228594 0.036725
0.690252 0.229363 0.037620
0.722512 0.230137 0.038518
0.754816 0.230916 0.039416
0.787163 0.231698 0.040317
0.819465 0.232483 0.041216
0.851442 0.233262 0.042106
0.883417 0.234044 0.042997
0.915387 0.234829 0.043888
0.924124 0.234963 0.044124
0.924114 0.234853 0.044114
0.022114 0.248864 0.022114
0.022095 0.248651 0.022095
0.027178 0.248585 0.022220
0.058386 0.249260 0.023082
0.089659 0.249940 0.023946
0.120997 0.250626 0.024812
0.152397 0.251317 0.025679
0.183858 0.252014 0.026549
0.215380 0.252717 0.027422
0.246960 0.253425 0.028296
0.278598 0.254138 0.029171
0.310293 0.254856 0.030049
0.342043 0.255580 0.030929
0.373847 0.256309 0.031811
0.405703 0.257043 0.032694
0.437612 0.257782 0.033579
0.469571 0.258525 0.034466
0.501580 0.259274 0.035355
0.533637 0.260028 0.036245
0.565741 0.260786 0.037137
0.597892 0.261550 0.038030
0.630088 0.262317 0.038925
0.662329 0.263090 0.039822
0.694613 0.263867 0.040720
0.726939 0.264649 0.041619
0.759307 0.265435 0.042521
0.791715 0.266225 0.043423
0.824045 0.267017 0.044324
0.856006 0.267801 0.045214
0.887959 0.268589 0.046104
0.919902 0.269379 0.046995
0.927191 0.269478 0.047191
0.927182 0.269374 0.047182
0.025165 0.283201 0.025165
0.025147 0.282993 0.025147
0.029645 0.282916 0.025256
0.060968 0.283599 0.026121
0.092353 0.284288 0.026989
0.123799 0.284983 0.027858
0.155305 0.285682 0.028729
0.186870 0.286388 0.029603
0.218492 0.287099 0.030478
0.250170 0.287815 0.031355
0.281904 0.288536 0.032235
0.313691 0.289263 0.033116
0.345530 0.289995 0.033998
0.377421 0.290732 0.034883
0.409363 0.291475 0.035769
0.441354 0.292222 0.036657
0.473393 0.292974 0.037547
0.505480 0.293731 0.038438
0.537612 0.294493 0.039331
0.569790 0.295260 0.040225
0.602012 0.296031 0.041121
0.634277 0.296807 0.042019
0.666585 0.297588 0.042918
0.698933 0.298373 0.043818
0.731322 0.299163 0.044720
0.763751 0.299957 0.045624
0.796219 0.300756 0.046528
0.828567 0.301554 0.047430
0.860504 0.302345 0.048320
0.892427 0.303138 0.049210
0.924333 0.303934 0.050100
0.930259 0.304001 0.050259
0.930250 0.303904 0.050250
0.028216 0.317530 0.028216
0.028198 0.317328 0.028198
0.032157 0.317242 0.028292
0.063589 0.317934 0.029161
0.095081 0.318632 0.030032
0.126632 0.319335 0.030905
0.158239 0.320044 0.031780
0.189903 0.320758 0.032656
0.221621 0.321478 0.033535
0.253392 0.322203 0.034416
0.285216 0.322934 0.035298
0.317092 0.323670 0.036182
0.349017 0.324410 0.037067
0.380992 0.325156 0.037955
0.413015 0.325907 0.038844
0.445084 0.326663 0.039735
0.477200 0.327424 0.040627
0.509361 0.328190 0.041521
0.541566 0.328961 0.042417
0.573813 0.329736 0.043314
0.606103 0.330516 0.044212
0.638435 0.331301 0.045112
0.670806 0.332091 0.046014
0.703217 0.332885 0.046916
0.735666 0.333683 0.047821
0.768154 0.334486 0.048726
0.800678 0.335293 0.049633
0.833038 0.336099 0.050536
0.864940 0.336895 0.051426
0.896824 0.337694 0.052315
0.928685 0.338496 0.053205
0.933327 0.338534 0.053327
0.933319 0.338444 0.053319
0.031266 0.351854 0.031266
0.031249 0.351659 0.031249
0.034712 0.351565 0.031330
0.066250 0.352267 0.032202
0.097844 0.352974 0.033076
0.129494 0.353687 0.033953
0.161198 0.354406 0.034831
0.192956 0.355130 0.035711
0.224766 0.355859 0.036593
0.256627 0.356594 0.037476
0.288538 0.357334 0.038361
0.320498 0.358079 0.039248
0.352505 0.358829 0.040137
0.384560 0.359584 0.041027
0.416660 0.360345 0.041919
0.448805 0.361110 0.042813
0.480994 0.361880 0.043708
0.513226 0.362655 0.044604
0.545500 0.363435 0.045502
0.577814 0.364220 0.046402
0.610170 0.365009 0.047303
0.642564 0.365803 0.048205
0.674997 0.366602 0.049109
0.707467 0.367405 0.050014
0.739974 0.368212 0.050921
0.772518 0.369024 0.051829
0.805096 0.369841 0.052738
0.837459 0.370654 0.053641
0.869319 0.371457 0.054530
0.901154 0.372262 0.055419
0.932961 0.373070 0.056308
0.936397 0.373081 0.056397
0.936390 0.372999 0.056390
0.034316 0.386178 0.034316
0.034299 0.385990 0.034299
0.037311 0.385891 0.034368
0.068949 0.386603 0.035244
0.100641 0.387321 0.036122
0.132386 0.388044 0.037001
0.164183 0.388772 0.037883
0.196031 0.389506 0.038766
0.227929 0.390245 0.039651
0.259875 0.390990 0.040537
0.291869 0.391740 0.041426
0.323910 0.392495 0.042316
0.355996 0.393255 0.043207
0.388126 0.394020 0.044100
0.420301 0.394790 0.044995
0.452518 0.395565 0.045891
0.484777 0.396345 0.046789
0.517077 0.397130 0.047688
0.549417 0.397920 0.048589
0.581796 0.398714 0.049491
0.614213 0.399513 0.050394
0.646668 0.400317 0.051299
0.679160 0.401125 0.052205
0.711687 0.401937 0.053113
0.744250 0.402754 0.054021
0.776847 0.403576 0.054931
0.809478 0.404402 0.055843
0.841837 0.405223 0.056746
0.873645 0.406032 0.057635
0.905421 0.406844 0.058523
0.937165 0.407658 0.059411
0.939469 0.407646 0.059469
0.939462 0.407572 0.059462
0.037366 0.420505 0.037366
0.037350 0.420325 0.037350
0.039954 0.420223 0.037409
0.071687 0.420945 0.038288
0.103473 0.421674 0.039169
0.135309 0.422407 0.040052
0.167195 0.423146 0.040936
0.199129 0.423891 0.041823
0.231110 0.424640 0.042710
0.263138 0.425395 0.043600
0.295211 0.426156 0.044491
0.327329 0.426921 0.045384
0.359490 0.427691 0.046278
0.391694 0.428467 0.047174
0.423939 0.429247 0.048072
0.456225 0.430033 0.048971
0.488551 0.430823 0.049871
0.520916 0.431618 0.050773
0.553320 0.432417 0.051676
0.585760 0.433222 0.052580
0.618237 0.434031 0.053486
0.650750 0.434844 0.054393
0.683299 0.435662 0.055302
0.715881 0.436485 0.056211
0.748497 0.437312 0.057122
0.781146 0.438143 0.058035
0.813827 0.438979 0.058948
0.846174 0.439808 0.059852
0.877921 0.440624 0.060740
0.909631 0.441443 0.061627
0.941301 0.442263 0.062513
0.942542 0.442229 0.062542
0.942536 0.442164 0.062536
0.040418 0.454840 0.040418
0.040402 0.454668 0.040402
0.042639 0.454564 0.040451
0.074464 0.455298 0.041333
0.106339 0.456037 0.042218
0.138262 0.456782 0.043104
0.170232 0.457532 0.043991
0.202249 0.458287 0.044881
0.234310 0.459048 0.045772
0.266416 0.459813 0.046664
0.298565 0.460585 0.047558
0.330757 0.461361 0.048454
0.362990 0.462142 0.049351
0.395263 0.462928 0.050250
0.427577 0.463719 0.051150
0.459929 0.464515 0.052051
0.492319 0.465316 0.052954
0.524746 0.466121 0.053858
0.557210 0.466931 0.054764
0.589710 0.467746 0.055671
0.622245 0.468566 0.056579
0.654814 0.469390 0.057489
0.687416 0.470218 0.058399
0.720052 0.471051 0.059311
0.752719 0.471888 0.060224
0.785418 0.472730 0.061139
0.818148 0.473575 0.062054
0.850475 0.474413 0.062959
0.882151 0.475236 0.063845
0.913785 0.476061 0.064731
0.945375 0.476888 0.065615
0.945617 0.476835 0.065617
0.945612 0.476778 0.065612
0.043469 0.489185 0.043469
0.043455 0.489023 0.043455
0.045366 0.488918 0.043495
0.077279 0.489664 0.044381
0.109239 0.490414 0.045268
0.141246 0.491170 0.046158
0.173297 0.491932 0.047048
0.205392 0.492698 0.047941
0.237530 0.493470 0.048835
0.269711 0.494247 0.049730
0.301932 0.495030 0.050627
0.334195 0.495817 0.051525
0.366496 0.496609 0.052425
0.398837 0.497406 0.053327
0.431215 0.498208 0.054229
0.463630 0.499015 0.055133
0.496082 0.499827 0.056039
0.528570 0.500643 0.056945
0.561092 0.501464 0.057854
0.593649 0.502290 0.058763
0.626238 0.503120 0.059673
0.658861 0.503955 0.060585
0.691516 0.504794 0.061498
0.724202 0.505638 0.062412
0.756920 0.506485 0.063328
0.789667 0.507337 0.064244
0.822444 0.508194 0.065162
0.854743 0.509040 0.066066
0.886341 0.509870 0.066951
0.917890 0.510701 0.067835
0.948699 0.511515 0.068699
0.948694 0.511465 0.068694
0.948690 0.511417 0.068690
0.046523 0.523545 0.046523
0.046509 0.523392 0.046509
0.048135 0.523289 0.046542
0.080132 0.524046 0.047431
0.112174 0.524808 0.048322
0.144260 0.525576 0.049214
0.176388 0.526349 0.050108
0.208559 0.527128 0.051003
0.240770 0.527911 0.051900
0.273022 0.528700 0.052798
0.305313 0.529494 0.053698
0.337643 0.530293 0.054599
0.370011 0.531096 0.055501
0.402415 0.531905 0.056405
0.434856 0.532718 0.057311
0.467332 0.533537 0.058217
0.499843 0.534360 0.059125
0.532388 0.535187 0.060034
0.564967 0.536019 0.060945
0.597578 0.536856 0.061856
0.630221 0.537697 0.062769
0.662896 0.538543 0.063683
0.695601 0.539393 0.064599
0.728337 0.540248 0.065515
0.761102 0.541106 0.066433
0.793896 0.541969 0.067351
0.826719 0.542836 0.068271
0.858984 0.543691 0.069175
0.890493 0.544528 0.070059
0.921949 0.545366 0.070941
0.951777 0.546162 0.071777
0.951774 0.546121 0.071774
0.951770 0.546083 0.071770
0.049577 0.557922 0.049577
0.049565 0.557778 0.049565
0.050946 0.557679 0.049592
0.083023 0.558448 0.050484
0.115143 0.559223 0.051377
0.147305 0.560003 0.052273
0.179507 0.560788 0.053169
0.211750 0.561578 0.054068
0.244032 0.562374 0.054967
0.276352 0.563175 0.055868
0.308709 0.563980 0.056771
0.341104 0.564791 0.057675
0.373535 0.565606 0.058580
0.406001 0.566427 0.059486
0.438501 0.567252 0.060394
0.471036 0.568082 0.061303
0.503604 0.568916 0.062214
0.536204 0.569755 0.063125
0.568837 0.570599 0.064038
0.601501 0.571447 0.064952
0.634195 0.572300 0.065867
0.666920 0.573157 0.066784
0.699674 0.574018 0.067701
0.732458 0.574884 0.068620
0.765269 0.575754 0.069540
0.798109 0.576628 0.070460
0.830977 0.577506 0.071382
0.863200 0.578369 0.072286
0.894612 0.579213 0.073168
0.925965 0.580058 0.074048
0.954859 0.580838 0.074859
0.954856 0.580806 0.074856
0.954853 0.580777 0.074853
0.052634 0.592319 0.052634
0.052622 0.592186 0.052622
0.053798 0.592091 0.052644
0.085951 0.592873 0.053539
0.118146 0.593660 0.054436
0.150380 0.594452 0.055334
0.182654 0.595250 0.056234
0.214965 0.596053 0.057135
0.247314 0.596861 0.058037
0.279700 0.597674 0.058941
0.312121 0.598491 0.059846
0.344578 0.599314 0.060753
0.377069 0.600142 0.061661
0.409595 0.600974 0.062570
0.442153 0.601811 0.063480
0.474744 0.602653 0.064392
0.507366 0.603499 0.065304
0.540020 0.604350 0.066218
0.572705 0.605205 0.067134
0.605419 0.606065 0.068050
0.638164 0.606930 0.068967
0.670937 0.607798 0.069886
0.703739 0.608671 0.070806
0.736569 0.609548 0.071727
0.769426 0.610429 0.072649
0.802310 0.611315 0.073571
0.835221 0.612204 0.074495
0.867396 0.613076 0.075399
0.898702 0.613927 0.076278
0.929944 0.614779 0.077156
0.957943 0.615543 0.077943
0.957941 0.615521 0.077941
0.957939 0.615503 0.077939
0.055693 0.626739 0.055693
0.055682 0.626617 0.055682
0.056690 0.626528 0.055700
0.088917 0.627323 0.056598
0.121183 0.628123 0.057498
0.153486 0.628928 0.058399
0.185828 0.629738 0.059301
0.218205 0.630554 0.060205
0.250619 0.631374 0.061110
0.283067 0.632199 0.062017
0.315550 0.633030 0.062925
0.348067 0.633865 0.063834
0.380616 0.634705 0.064744
0.413198 0.635549 0.065656
0.445812 0.636399 0.066569
0.478457 0.637252 0.067483
0.511132 0.638111 0.068398
0.543838 0.638974 0.069314
0.576573 0.639841 0.070232
0.609337 0.640713 0.071150
0.642129 0.641589 0.072070
0.674950 0.642469 0.072991
0.707798 0.643354 0.073913
0.740673 0.644242 0.074836
0.773574 0.645135 0.075760
0.806502 0.646032 0.076685
0.839456 0.646933 0.077611
0.871576 0.647814 0.078514
0.902768 0.648672 0.079391
0.933889 0.649530 0.080266
0.961029 0.650280 0.081029
0.961028 0.650269 0.081028
0.961028 0.650260 0.081028
0.058753 0.661185 0.058753
0.058744 0.661074 0.058744
0.059621 0.660992 0.058759
0.091919 0.661800 0.059660
0.124253 0.662613 0.060563
0.156623 0.663432 0.061467
0.189030 0.664255 0.062372
0.221471 0.665083 0.063279
0.253946 0.665917 0.064186
0.286455 0.666755 0.065096
0.318996 0.667598 0.066006
0.351570 0.668445 0.066918
0.384176 0.669298 0.067831
0.416813 0.670155 0.068745
0.449480 0.671016 0.069660
0.482177 0.671883 0.070576
0.514904 0.672753 0.071494
0.547659 0.673628 0.072413
0.580443 0.674508 0.073333
0.613255 0.675392 0.074254
0.646094 0.676280 0.075176
0.678961 0.677172 0.076099
0.711854 0.678068 0.077023
0.744773 0.678969 0.077948
0.777718 0.679874 0.078874
0.810689 0.680782 0.079801
0.843685 0.681695 0.080729
0.875744 0.682584 0.081631
0.906812 0.683449 0.082506
0.937804 0.684314 0.083378
0.964119 0.685051 0.084119
0.964119 0.685050 0.084119
0.964119 0.685051 0.084119
0.061817 0.695659 0.061817
0.061808 0.695560 0.061808
0.062593 0.695487 0.061822
0.094957 0.696308 0.062726
0.127357 0.697135 0.063631
0.159791 0.697966 0.064538
0.192260 0.698803 0.065446
0.224762 0.699644 0.066355
0.257296 0.700490 0.067266
0.289863 0.701341 0.068178
0.322461 0.702197 0.069091
0.355091 0.703058 0.070005
0.387750 0.703923 0.070920
0.420440 0.704793 0.071837
0.453159 0.705667 0.072754
0.485907 0.706545 0.073673
0.518683 0.707429 0.074593
0.551487 0.708316 0.075514
0.584318 0.709208 0.076436
0.617177 0.710104 0.077360
0.650062 0.711004 0.078284
0.682973 0.711908 0.079209
0.715911 0.712817 0.080135
0.748873 0.713729 0.081063
0.781861 0.714646 0.081991
0.814874 0.715566 0.082920
0.847911 0.716491 0.083850
0.879905 0.717389 0.084752
0.910840 0.718260 0.085623
0.941694 0.719132 0.086493
0.967212 0.719857 0.087212
0.967213 0.719866 0.087213
0.967214 0.719877 0.087214
0.064883 0.730164 0.064883
0.064875 0.730077 0.064875
0.065602 0.730014 0.064889
0.098031 0.730849 0.065795
0.130494 0.731689 0.066704
0.162989 0.732534 0.067613
0.195518 0.733384 0.068524
0.228078 0.734238 0.069436
0.260670 0.735098 0.070349
0.293293 0.735962 0.071263
0.325946 0.736831 0.072179
0.358628 0.737704 0.073095
0.391340 0.738582 0.074013
0.424081 0.739464 0.074932
0.456850 0.740351 0.075852
0.489647 0.741243 0.076773
0.522471 0.742138 0.077696
0.555323 0.743038 0.078619
0.588201 0.743943 0.079543
0.621105 0.744851 0.080469
0.654035 0.745763 0.081395
0.686990 0.746680 0.082323
0.719971 0.747601 0.083251
0.752976 0.748525 0.084181
0.786006 0.749454 0.085111
0.819061 0.750386 0.086042
0.852139 0.751322 0.086975
0.884061 0.752229 0.087875
0.914855 0.753107 0.088743
0.945562 0.753985 0.089610
0.970308 0.754698 0.090308
0.970310 0.754718 0.090310
0.970312 0.754740 0.090312
0.067952 0.764702 0.067952
0.067945 0.764627 0.067945
0.068650 0.764576 0.067959
0.101141 0.765424 0.068869
0.133664 0.766278 0.069780
0.166218 0.767136 0.070692
0.198804 0.767999 0.071605
0.231421 0.768867 0.072520
0.264068 0.769740 0.073435
0.296745 0.770617 0.074352
0.329450 0.771499 0.075270
0.362185 0.772386 0.076189
0.394947 0.773277 0.077110
0.427738 0.774172 0.078031
0.460555 0.775072 0.078954
0.493400 0.775976 0.079877
0.526271 0.776885 0.080802
0.559169 0.777797 0.081727
0.592092 0.778714 0.082654
0.625041 0.779635 0.083582
0.658015 0.780559 0.084510
0.691013 0.781488 0.085440
0.724037 0.782421 0.086370
0.757085 0.783358 0.087302
0.790157 0.784298 0.088235
0.823252 0.785242 0.089168
0.856372 0.786190 0.090102
0.888217 0.787106 0.091001
0.918862 0.787990 0.091866
0.949413 0.788875 0.092729
0.973408 0.789577 0.093408
0.973410 0.789607 0.093410
0.973413 0.789639 0.093413
0.071024 0.799275 0.071024
0.071019 0.799212 0.071019
0.071736 0.799173 0.071034
0.104286 0.800036 0.071946
0.136866 0.800903 0.072860
0.169478 0.801775 0.073774
0.202119 0.802652 0.074690
0.234790 0.803533 0.075607
0.267490 0.804419 0.076526
0.300219 0.805310 0.077445
0.332976 0.806205 0.078366
0.365760 0.807105 0.079287
0.398572 0.808009 0.080210
0.431411 0.808918 0.081134
0.464276 0.809830 0.082058
0.497167 0.810747 0.082984
0.530084 0.811668 0.083911
0.563027 0.812594 0.084839
0.595995 0.813523 0.085768
0.628987 0.814456 0.086698
0.662005 0.815393 0.087629
0.695046 0.816335 0.088560
0.728112 0.817280 0.089493
0.761202 0.818228 0.090427
0.794315 0.819181 0.091362
0.827453 0.820137 0.092297
0.860613 0.821097 0.093234
0.892377 0.822021 0.094131
0.922863 0.822911 0.094993
0.953251 0.823802 0.095852
0.976510 0.824494 0.096510
0.976514 0.824534 0.096514
0.976518 0.824577 0.096518
0.074100 0.833884 0.074100
0.074095 0.833834 0.074095
0.074858 0.833809 0.074113
0.107465 0.834685 0.075028
0.140102 0.835566 0.075944
0.172768 0.836452 0.076861
0.205463 0.837343 0.077780
0.238186 0.838238 0.078699
0.270938 0.839138 0.079620
0.303717 0.840042 0.080542
0.336523 0.840950 0.081465
0.369356 0.841863 0.082389
0.402216 0.842780 0.083314
0.435102 0.843702 0.084240
0.468013 0.844627 0.085167
0.500950 0.845557 0.086095
0.533912 0.846491 0.087024
0.566899 0.847429 0.087955
0.599911 0.848371 0.088886
