library/cube/Obsidian_Teal_000.cube
# CINEGRADE LAB — Premium Cinematic LUT
# Title: Obsidian Teal
# Category: Cinematic Shadows
# Description: Crushed blacks with teal shadows and warm highlights for cinema-inspired images
# Mood: Dramatic, cinematic, bold
# Variant: 1
# Generated: 2026-05-21T16:12:11.975106
TITLE "Obsidian Teal"
LUT_3D_SIZE 9
0.000000 0.000000 0.000000
0.072461 0.002042 0.002042
0.193535 0.005453 0.005453
0.316024 0.008904 0.008904
0.439819 0.012392 0.012392
0.564818 0.015913 0.015913
0.690926 0.019466 0.019466
0.817984 0.023046 0.023046
0.905512 0.025512 0.025512
0.006833 0.076891 0.006833
0.076702 0.077976 0.008725
0.200027 0.080623 0.012128
0.324541 0.083356 0.015569
0.450148 0.086172 0.019045
0.576761 0.089067 0.022554
0.704297 0.092037 0.026093
0.832450 0.095073 0.029654
0.911845 0.096781 0.031845
0.019062 0.214513 0.019062
0.087000 0.215583 0.020903
0.212282 0.218328 0.024365
0.338553 0.221160 0.027859
0.465731 0.224075 0.031385
0.593741 0.227068 0.034938
0.722512 0.230137 0.038518
0.851442 0.233262 0.042106
0.924114 0.234853 0.044114
0.031266 0.351854 0.031266
0.097844 0.352974 0.033076
0.224766 0.355859 0.036593
0.352505 0.358829 0.040137
0.480994 0.361880 0.043708
0.610170 0.365009 0.047303
0.739974 0.368212 0.050921
0.869319 0.371457 0.054530
0.936390 0.372999 0.056390
0.043469 0.489185 0.043469
0.109239 0.490414 0.045268
0.237530 0.493470 0.048835
0.366496 0.496609 0.052425
0.496082 0.499827 0.056039
0.626238 0.503120 0.059673
0.756920 0.506485 0.063328
0.886341 0.509870 0.066951
0.948690 0.511417 0.068690
0.055693 0.626739 0.055693
0.121183 0.628123 0.057498
0.250619 0.631374 0.061110
0.380616 0.634705 0.064744
0.511132 0.638111 0.068398
0.642129 0.641589 0.072070
0.773574 0.645135 0.075760
0.902768 0.648672 0.079391
0.961028 0.650260 0.081028
0.067952 0.764702 0.067952
0.133664 0.766278 0.069780
0.264068 0.769740 0.073435
0.394947 0.773277 0.077110
0.526271 0.776885 0.080802
0.658015 0.780559 0.084510
0.790157 0.784298 0.088235
0.918862 0.787990 0.091866
0.973413 0.789639 0.093413
0.080248 0.903074 0.080248
0.146658 0.904897 0.082115
0.277901 0.908602 0.085813
0.409559 0.912373 0.089528
0.541616 0.916204 0.093258
0.674057 0.920094 0.097003
0.806874 0.924039 0.100763
0.934878 0.927890 0.104390
0.985851 0.929610 0.105851
0.085824 0.965824 0.085824
0.153360 0.967727 0.087727
0.285334 0.971445 0.091445
0.417689 0.975174 0.095174
0.550418 0.978914 0.098914
0.683520 0.982664 0.102664
0.816999 0.986424 0.106424
0.944096 0.990005 0.110005
0.991336 0.991336 0.111336
0.000832 0.000832 0.085338
0.072994 0.002847 0.085472
0.194304 0.006248 0.087092
0.317004 0.009689 0.088848
0.440989 0.013167 0.090735
0.566157 0.016679 0.092746
0.692412 0.020222 0.094875
0.819590 0.023793 0.097116
0.906222 0.026222 0.098297
0.007579 0.077357 0.086148
0.077213 0.078440 0.086462
0.200739 0.081097 0.088389
0.325432 0.083840 0.090441
0.451200 0.086665 0.092611
0.577955 0.089569 0.094895
0.705615 0.092548 0.097287
0.833854 0.095592 0.099774
0.912504 0.097285 0.100941
0.019761 0.214944 0.093438
0.087525 0.216018 0.093994
0.212976 0.218776 0.096260
0.339397 0.221622 0.098636
0.466709 0.224549 0.101116
0.594838 0.227555 0.103695
0.723714 0.230636 0.106368
0.852694 0.233772 0.109114
0.924747 0.235354 0.110323
0.031929 0.352276 0.101644
0.098392 0.353405 0.102429
0.225455 0.356306 0.104997
0.353320 0.359292 0.107660
0.481921 0.362359 0.110413
0.611197 0.365503 0.113252
0.741090 0.368720 0.116171
0.870452 0.371977 0.119136
0.937005 0.373517 0.120388
0.044105 0.489621 0.110679
0.109816 0.490863 0.111678
0.238226 0.493937 0.114510
0.367298 0.497094 0.117424
0.496979 0.500329 0.120414
0.627220 0.503639 0.123477
0.757978 0.507020 0.126608
0.887385 0.510417 0.129751
0.949293 0.511965 0.131040
0.056309 0.627206 0.120450
0.121794 0.628606 0.121649
0.251330 0.631877 0.124708
0.381418 0.635226 0.127836
0.512016 0.638650 0.131029
0.643088 0.642146 0.134281
0.774602 0.645709 0.137589
0.903754 0.649258 0.140872
0.961623 0.650849 0.142183
0.068557 0.765214 0.130864
0.134313 0.766809 0.132245
0.264803 0.770291 0.135496
0.395762 0.773847 0.138802
0.527159 0.777472 0.142161
0.658971 0.781164 0.145568
0.791179 0.784920 0.149020
0.919819 0.788623 0.152402
0.974005 0.790276 0.153712
0.080846 0.903652 0.141809
0.147348 0.905493 0.143356
0.278667 0.909216 0.146764
0.410397 0.913003 0.150216
0.542522 0.916851 0.153708
0.675030 0.920756 0.157237
0.807913 0.924716 0.160800
0.935835 0.928576 0.164242
0.986442 0.930297 0.165523
0.086415 0.966415 0.146412
0.154085 0.968319 0.148085
0.286128 0.972037 0.151594
0.418551 0.975766 0.155131
0.551346 0.979506 0.158693
0.684517 0.983256 0.162279
0.818066 0.987018 0.165884
0.945064 0.990594 0.169312
0.991913 0.991913 0.170485
0.002159 0.002159 0.221498
0.074041 0.004160 0.220942
0.195593 0.007562 0.221921
0.318512 0.011003 0.223072
0.442692 0.014481 0.224386
0.568034 0.017993 0.225856
0.694445 0.021536 0.227476
0.821747 0.025105 0.229235
0.907505 0.027505 0.229935
0.008859 0.078364 0.220126
0.078273 0.079454 0.219869
0.202005 0.082129 0.221269
0.326883 0.084890 0.222823
0.452816 0.087732 0.224526
0.579718 0.090653 0.226369
0.707508 0.093648 0.228346
0.835835 0.096707 0.230443
0.913759 0.098391 0.231221
0.021025 0.215946 0.225636
0.088628 0.217031 0.225725
0.214252 0.219810 0.227561
0.340828 0.222675 0.229533
0.468278 0.225622 0.231634
0.596529 0.228646 0.233857
0.725513 0.231744 0.236197
0.854545 0.234896 0.238630
0.925994 0.236475 0.239527
0.033181 0.353294 0.232391
0.099540 0.354439 0.232799
0.226748 0.357362 0.235020
0.354742 0.360368 0.237358
0.483459 0.363455 0.239808
0.612837 0.366618 0.242362
0.742821 0.369854 0.245015
0.872200 0.373127 0.247729
0.938247 0.374667 0.248732
0.045350 0.490672 0.240256
0.111012 0.491932 0.240954
0.239542 0.495029 0.243510
0.368722 0.498207 0.246164
0.498500 0.501462 0.248912
0.628829 0.504792 0.251749
0.759665 0.508192 0.254667
0.889057 0.511605 0.257609
0.950532 0.513156 0.258697
0.057550 0.628303 0.249093
0.123038 0.629724 0.250053
0.252675 0.633017 0.252892
0.382855 0.636388 0.255813
0.513536 0.639832 0.258811
0.644684 0.643347 0.261881
0.776269 0.646928 0.265017
0.905378 0.650492 0.268133
0.962862 0.652087 0.269277
0.069795 0.766368 0.258761
0.135604 0.767984 0.259952
0.266181 0.771487 0.263024
0.397219 0.775063 0.266163
0.528691 0.778708 0.269362
0.660573 0.782419 0.272618
0.792847 0.786191 0.275924
0.921422 0.789908 0.279162
0.975244 0.791563 0.280325
0.082086 0.904877 0.269105
0.148686 0.906738 0.270495
0.280081 0.910480 0.273754
0.411884 0.914285 0.277064
0.544078 0.918149 0.280418
0.676654 0.922070 0.283813
0.809604 0.926044 0.287244
0.937441 0.929915 0.290552
0.987682 0.931636 0.291690
0.087651 0.967651 0.273197
0.155460 0.969558 0.274735
0.287573 0.973277 0.278109
0.420063 0.977006 0.281513
0.552927 0.980747 0.284945
0.686166 0.984498 0.288399
0.819787 0.988260 0.291872
0.946685 0.991832 0.295160
0.993138 0.993138 0.296181
0.003482 0.003482 0.357174
0.075089 0.005469 0.355952
0.196880 0.008871 0.356317
0.320013 0.012313 0.356885
0.444386 0.015791 0.357649
0.569899 0.019303 0.358600
0.696462 0.022846 0.359730
0.823884 0.026414 0.361028
0.908785 0.028785 0.361266
0.010135 0.079372 0.353701
0.079336 0.080469 0.352896
0.203270 0.083163 0.353790
0.328330 0.085942 0.354868
0.454425 0.088802 0.356122
0.581471 0.091740 0.357543
0.709389 0.094751 0.359124
0.837801 0.097823 0.360848
0.915013 0.099500 0.361255
0.022286 0.216952 0.357503
0.089734 0.218048 0.357145
0.215528 0.220848 0.358570
0.342256 0.223733 0.360156
0.469841 0.226698 0.361894
0.598213 0.229741 0.363778
0.727303 0.232857 0.365799
0.856384 0.236024 0.367932
0.927241 0.237600 0.368532
0.034431 0.354317 0.362869
0.100693 0.355477 0.362917
0.228042 0.358421 0.364807
0.356163 0.361449 0.366836
0.484993 0.364556 0.368995
0.614472 0.367738 0.371278
0.744546 0.370992 0.373678
0.873938 0.374281 0.376152
0.939488 0.375822 0.376917
0.046593 0.491729 0.369617
0.112212 0.493007 0.370029
0.240860 0.496126 0.372320
0.370147 0.499325 0.374728
0.500021 0.502601 0.377245
0.630435 0.505950 0.379865
0.761349 0.509368 0.382581
0.890723 0.512797 0.385330
0.951771 0.514351 0.386225
0.058789 0.629407 0.377563
0.124285 0.630848 0.378295
0.254022 0.634163 0.380924
0.384292 0.637554 0.383647
0.515056 0.641019 0.386460
0.646280 0.644552 0.389355
0.777934 0.648152 0.392326
0.906999 0.651730 0.395283
0.964101 0.653329 0.396265
0.071033 0.767527 0.386520
0.136899 0.769165 0.387528
0.267562 0.772689 0.390430
0.398679 0.776285 0.393408
0.530224 0.779949 0.396454
0.662175 0.783678 0.399562
0.794516 0.787468 0.402728
0.923023 0.791196 0.405826
0.976483 0.792855 0.406844
0.083325 0.906107 0.396286
0.150027 0.907989 0.397527
0.281498 0.911749 0.400642
0.413373 0.915571 0.403812
0.545636 0.919452 0.407032
0.678280 0.923388 0.410294
0.811297 0.927377 0.413595
0.939049 0.931257 0.416769
0.988921 0.932978 0.417766
0.088886 0.968886 0.399884
0.156839 0.970796 0.401289
0.289021 0.974515 0.404530
0.421579 0.978245 0.407804
0.554511 0.981986 0.411105
0.687819 0.985738 0.414428
0.821512 0.989501 0.417767
0.948309 0.993069 0.420913
0.994363 0.994363 0.421780
0.004800 0.004800 0.492379
0.076139 0.006774 0.490517
0.198164 0.010177 0.490290
0.321509 0.013619 0.490299
0.446070 0.017098 0.490535
0.571752 0.020609 0.490988
0.698464 0.024152 0.491648
0.826003 0.027719 0.492504
0.910063 0.030063 0.492300
0.011408 0.080383 0.486886
0.080402 0.081488 0.485554
0.204535 0.084201 0.485964
0.329773 0.086997 0.486586
0.456028 0.089875 0.487410
0.583216 0.092829 0.488427
0.711258 0.095855 0.489629
0.839752 0.098943 0.490997
0.916265 0.100611 0.491048
0.023544 0.217961 0.489050
0.090844 0.219069 0.488264
0.216804 0.221890 0.489296
0.343682 0.224794 0.490512
0.471400 0.227779 0.491905
0.599890 0.230839 0.493464
0.729085 0.233972 0.495182
0.858210 0.237155 0.497030
0.928485 0.238728 0.497345
0.035679 0.355345 0.493088
0.101849 0.356520 0.492791
0.229337 0.359486 0.494366
0.357583 0.362534 0.496100
0.486524 0.365661 0.497983
0.616102 0.368862 0.500007
0.746265 0.372135 0.502165
0.875668 0.375439 0.504412
0.940729 0.376981 0.504949
0.047835 0.492791 0.498770
0.113416 0.494088 0.498908
0.242181 0.497229 0.500948
0.371572 0.500449 0.503120
0.501539 0.503745 0.505418
0.632039 0.507113 0.507831
0.763029 0.510550 0.510354
0.892383 0.513993 0.512919
0.953010 0.515550 0.513628
0.060028 0.630516 0.505866
0.125537 0.631977 0.506382
0.255372 0.635314 0.508810
0.385731 0.638726 0.511345
0.516576 0.642211 0.513980
0.647875 0.645763 0.516708
0.779599 0.649381 0.519520
0.908616 0.652973 0.522323
0.965339 0.654575 0.523148
0.072271 0.768693 0.514144
0.138198 0.770351 0.514979
0.268945 0.773897 0.517717
0.400140 0.777513 0.520539
0.531758 0.781196 0.523438
0.663778 0.784942 0.526404
0.796186 0.788748 0.529433
0.924623 0.792489 0.532394
0.977721 0.794151 0.533269
0.084564 0.907343 0.523357
0.151373 0.909244 0.524453
0.282919 0.913023 0.527429
0.414865 0.916862 0.530463
0.547197 0.920759 0.533551
0.679908 0.924710 0.536684
0.812994 0.928713 0.539855
0.940658 0.932602 0.542896
0.990159 0.934323 0.543749
0.090120 0.970120 0.526474
0.158221 0.972033 0.527749
0.290472 0.975753 0.530860
0.423098 0.979484 0.534003
0.556098 0.983226 0.537174
0.689476 0.986978 0.540364
0.823241 0.990741 0.543569
0.949936 0.994306 0.546571
0.995586 0.995586 0.547281
0.006114 0.006114 0.627126
0.077190 0.008074 0.624648
0.199446 0.011478 0.623853
0.322998 0.014921 0.623325
0.447746 0.018400 0.623054
0.573593 0.021912 0.623030
0.700451 0.025454 0.623241
0.828104 0.029021 0.623674
0.911338 0.031338 0.623047
0.012678 0.081397 0.619692
0.081471 0.082509 0.617855
0.205800 0.085241 0.617801
0.331213 0.088055 0.617985
0.457625 0.090950 0.618398
0.584951 0.093920 0.619030
0.713117 0.096963 0.619870
0.841688 0.100064 0.620899
0.917515 0.101725 0.620610
0.024800 0.218975 0.620286
0.091957 0.220095 0.619091
0.218082 0.222936 0.619747
0.345105 0.225860 0.620611
0.472955 0.228863 0.621673
0.601560 0.231941 0.622924
0.730858 0.235092 0.624353
0.860025 0.238289 0.625929
0.929728 0.239860 0.625972
0.036926 0.356377 0.623055
0.103009 0.357568 0.622430
0.230634 0.360556 0.623705
0.359003 0.363625 0.625157
0.488053 0.366771 0.626777
0.617728 0.369991 0.628555
0.747978 0.373282 0.630483
0.877388 0.376601 0.632512
0.941968 0.378144 0.632832
0.049076 0.493859 0.627721
0.114624 0.495174 0.627599
0.243503 0.498337 0.629399
0.372997 0.501578 0.631348
0.503057 0.504894 0.633436
0.633640 0.508281 0.635653
0.764706 0.511736 0.637991
0.894036 0.515194 0.640379
0.954248 0.516754 0.640911
0.061265 0.631632 0.634009
0.126793 0.633113 0.634318
0.256725 0.636471 0.636554
0.387172 0.639904 0.638909
0.518097 0.643408 0.641375
0.649469 0.646979 0.643943
0.781262 0.650614 0.646603
0.910229 0.654219 0.649256
0.966576 0.655826 0.649929
0.073507 0.769864 0.641639
0.139502 0.771544 0.642307
0.270332 0.775110 0.644889
0.401604 0.778745 0.647562
0.533294 0.782447 0.650317
0.665383 0.786211 0.653146
0.797857 0.790034 0.656041
0.926223 0.793786 0.658867
0.978959 0.795450 0.659601
0.085802 0.908584 0.650320
0.152723 0.910505 0.651277
0.284343 0.914301 0.654116
0.416360 0.918157 0.657019
0.548761 0.922070 0.659976
0.681540 0.926036 0.662981
0.814693 0.930053 0.666024
0.942268 0.933950 0.668932
0.991397 0.935671 0.669641
0.091353 0.971353 0.652969
0.159607 0.973269 0.654115
0.291926 0.976990 0.657097
0.424619 0.980722 0.660111
0.557688 0.984464 0.663151
0.691137 0.988217 0.666208
0.824976 0.991981 0.669276
0.951566 0.995541 0.672132
0.996809 0.996809 0.672680
0.007424 0.007424 0.761428
0.078244 0.009371 0.758358
0.200726 0.012776 0.757017
0.324482 0.016220 0.755975
0.449413 0.019699 0.755219
0.575423 0.023211 0.754737
0.702424 0.026753 0.754519
0.830187 0.030319 0.754547
0.912610 0.032610 0.753515
0.013945 0.082413 0.752129
0.082543 0.083533 0.749809
0.207064 0.086283 0.749310
0.332650 0.089116 0.749077
0.459215 0.092027 0.749098
0.586678 0.095014 0.749362
0.714965 0.098073 0.749857
0.843609 0.101188 0.750561
0.918763 0.102842 0.749948
0.026054 0.219992 0.751222
0.093074 0.221124 0.749635
0.219359 0.223985 0.749933
0.346527 0.226929 0.750461
0.474505 0.229950 0.751209
0.603224 0.233047 0.752165
0.732623 0.236214 0.753318
0.861827 0.239427 0.754636
0.930970 0.240995 0.754421
0.038171 0.357415 0.752779
0.104173 0.358622 0.751842
0.231932 0.361630 0.752830
0.360421 0.364719 0.754014
0.489579 0.367885 0.755384
0.619350 0.371124 0.756928
0.749685 0.374432 0.758637
0.879099 0.377767 0.760459
0.943207 0.379311 0.760572
0.050315 0.494932 0.756477
0.115836 0.496266 0.756107
0.244827 0.499450 0.757680
0.374422 0.502712 0.759416
0.504574 0.506047 0.761304
0.635239 0.509453 0.763334
0.766380 0.512926 0.765496
0.895684 0.516399 0.767716
0.955484 0.517962 0.768077
0.062502 0.632753 0.761995
0.128053 0.634254 0.762108
0.258080 0.637634 0.764162
0.388613 0.641087 0.766345
0.519618 0.644610 0.768649
0.651063 0.648200 0.771063
0.782924 0.651852 0.773576
0.911839 0.655471 0.776086
0.967813 0.657080 0.776611
0.074743 0.771042 0.769008
0.140809 0.772742 0.769517
0.271721 0.776329 0.771948
0.403070 0.779983 0.774477
0.534832 0.783703 0.777094
0.666989 0.787484 0.779789
0.799529 0.791323 0.782554
0.927822 0.795087 0.785247
0.980196 0.796753 0.785842
0.087039 0.909830 0.777178
0.154076 0.911771 0.778000
0.285770 0.915585 0.780707
0.417857 0.919457 0.783480
0.550327 0.923385 0.786310
0.683174 0.927366 0.789187
0.816397 0.931397 0.792103
0.943881 0.935302 0.794876
0.992635 0.937022 0.795441
0.092586 0.972586 0.779369
0.160995 0.974504 0.780390
0.293383 0.978226 0.783243
0.426144 0.981958 0.786128
0.559282 0.985701 0.789036
0.692801 0.989455 0.791958
0.826715 0.993220 0.794887
0.953201 0.996776 0.797594
0.998030 0.998030 0.797977
0.008375 0.008375 0.859061
0.078975 0.010340 0.858421
0.201708 0.013774 0.859385
0.325691 0.017245 0.860513
0.450825 0.020749 0.861796
0.577018 0.024284 0.863226
0.704182 0.027848 0.864795
0.832070 0.031433 0.866491
0.913716 0.033716 0.866985
0.014948 0.083171 0.857394
0.083380 0.084323 0.857058
0.208112 0.087114 0.858427
0.333889 0.089985 0.859940
0.460624 0.092933 0.861588
0.588240 0.095954 0.863363
0.716662 0.099045 0.865259
0.845392 0.102190 0.867255
0.919900 0.103852 0.867811
0.027118 0.220826 0.862680
0.094026 0.221990 0.862671
0.220487 0.224889 0.864441
0.347813 0.227868 0.866331
0.475932 0.230923 0.868335
0.604777 0.234051 0.870444
0.734288 0.237248 0.872652
0.863539 0.240487 0.874927
0.932142 0.242065 0.875563
0.039285 0.358329 0.869109
0.105227 0.359566 0.869385
0.233132 0.362609 0.871491
0.361752 0.365731 0.873696
0.491026 0.368928 0.875992
0.620902 0.372195 0.878374
0.751331 0.375531 0.880833
0.880755 0.378888 0.883322
0.944404 0.380441 0.884010
0.051470 0.495928 0.876499
0.116980 0.497291 0.877019
0.246091 0.500506 0.879398
0.375795 0.503797 0.881855
0.506044 0.507161 0.884384
0.636798 0.510592 0.886977
0.768019 0.514090 0.889629
0.897300 0.517582 0.892267
0.956700 0.519153 0.892970
0.063687 0.633830 0.884669
0.129275 0.635359 0.885392
0.259402 0.638766 0.887983
0.390027 0.642246 0.890632
0.521115 0.645793 0.893332
0.652638 0.649405 0.896079
0.784571 0.653079 0.898865
0.913435 0.656714 0.901587
0.969040 0.658329 0.902263
0.075952 0.772198 0.893439
0.142098 0.773924 0.894322
0.273096 0.777535 0.897064
0.404524 0.781212 0.899844
0.536361 0.784953 0.902658
0.668589 0.788754 0.905499
0.801197 0.792611 0.908361
0.929416 0.796387 0.911106
0.981430 0.798057 0.911703
0.088264 0.911068 0.902617
0.155424 0.913032 0.903617
0.287193 0.916865 0.906452
0.419353 0.920756 0.909307
0.551893 0.924701 0.912177
0.684809 0.928697 0.915056
0.818102 0.932742 0.917939
0.945494 0.936655 0.920643
0.993871 0.938375 0.921105
0.093812 0.973812 0.905202
0.162384 0.975736 0.906249
0.294840 0.979459 0.909089
0.427671 0.983193 0.911928
0.560878 0.986938 0.914762
0.694470 0.990692 0.917584
0.828460 0.994458 0.920391
0.954839 0.998009 0.922953
0.999251 0.999251 0.923169
0.008664 0.008664 0.888664
0.079050 0.010647 0.890647
0.202032 0.014112 0.894112
0.326240 0.017611 0.897611
0.451577 0.021143 0.901143
0.577951 0.024703 0.904703
0.705277 0.028290 0.908290
0.833291 0.031897 0.911897
0.914176 0.034176 0.914176
0.015294 0.083277 0.895294
0.083569 0.084464 0.897154
0.208511 0.087297 0.900615
0.334477 0.090209 0.904108
0.461383 0.093196 0.907633
0.589151 0.096254 0.911186
0.717709 0.099380 0.914765
0.846524 0.102558 0.918355
0.920401 0.104230 0.920401
0.027534 0.221017 0.907534
0.094338 0.222215 0.909357
0.220975 0.225154 0.912870
0.348458 0.228171 0.916412
0.476719 0.231263 0.919981
0.605692 0.234426 0.923574
0.735316 0.237656 0.927189
0.864613 0.240925 0.930800
0.932689 0.242515 0.932689
0.039760 0.358610 0.919760
0.105650 0.359880 0.921566
0.233702 0.362961 0.925128
0.362453 0.366119 0.928715
0.491846 0.369350 0.932325
0.621830 0.372650 0.935956
0.752355 0.376016 0.939606
0.881789 0.379401 0.943230
0.944992 0.380968 0.944992
0.051996 0.496302 0.931996
0.117504 0.497697 0.933803
0.246738 0.500948 0.937410
0.376553 0.504273 0.941038
0.506904 0.507668 0.944687
0.637749 0.511130 0.948354
0.769056 0.514657 0.952039
0.898315 0.518174 0.955670
0.957325 0.519759 0.957325
0.064259 0.634299 0.944259
0.129892 0.635860 0.946083
0.260123 0.639301 0.949732
0.390844 0.642811 0.953400
0.522020 0.646388 0.957086
0.653626 0.650029 0.960788
0.785637 0.653730 0.964505
0.914454 0.657388 0.968137
0.969700 0.659016 0.969700
0.076563 0.772763 0.956563
0.142801 0.774521 0.958419
0.273889 0.778162 0.962108
0.405402 0.781868 0.965814
0.537320 0.785637 0.969535
0.669626 0.789464 0.973271
0.802311 0.793346 0.977022
0.930463 0.797143 0.980648
0.982123 0.798824 0.982123
0.088912 0.911736 0.968912
0.156207 0.913729 0.970816
0.288059 0.917589 0.974544
0.420298 0.921506 0.978286
0.552916 0.925475 0.982042
0.685911 0.929496 0.985813
0.819283 0.933563 0.989598
0.946593 0.937494 0.993214
0.994599 0.939222 0.994599
0.094488 0.974488 0.974488
0.163233 0.976425 0.976425
0.295768 0.980159 0.980159
0.428677 0.983903 0.983903
0.561964 0.987659 0.987659
0.695639 0.991425 0.991425
0.829716 0.995202 0.995202
0.955999 0.998760 0.998760
1.000000 1.000000 1.000000
