library/cube/Opulence_002.cube
# CINEGRADE LAB — Premium Cinematic LUT
# Title: Opulence
# Category: Luxury Editorial
# Description: Rich blacks, soft contrast, warm skin tones for high-end editorial photography
# Mood: Sophisticated, elegant, polished
# Variant: 3
# Generated: 2026-05-21T16:12:10.811830
TITLE "Opulence"
LUT_3D_SIZE 5
0.000000 0.000000 0.000000
0.177966 0.004333 0.004331
0.423131 0.010304 0.010297
0.675788 0.016461 0.016446
0.917325 0.022352 0.022325
0.015106 0.194198 0.015035
0.193208 0.198554 0.019370
0.438623 0.204554 0.025345
0.691631 0.210744 0.031504
0.932365 0.216641 0.037365
0.035456 0.454240 0.035170
0.213809 0.458642 0.039515
0.459633 0.464694 0.045502
0.713154 0.470943 0.051677
0.952509 0.476855 0.057509
0.056332 0.719196 0.055688
0.235052 0.723667 0.060047
0.481443 0.729796 0.066053
0.735641 0.736126 0.072250
0.973038 0.742059 0.078038
0.076269 0.970125 0.075125
0.255455 0.974485 0.079485
0.502555 0.980498 0.085498
0.757575 0.986704 0.091704
0.992419 0.992419 0.097419
0.001266 0.001266 0.150667
0.179241 0.005600 0.154999
0.424424 0.011573 0.160966
0.677108 0.017732 0.167115
0.918591 0.023622 0.172993
0.016388 0.195470 0.165703
0.194510 0.199829 0.170039
0.439959 0.205831 0.176014
0.693011 0.212025 0.182175
0.933632 0.217921 0.188034
0.036753 0.455526 0.185839
0.215138 0.459932 0.190185
0.461012 0.465988 0.196174
0.714594 0.472241 0.202351
0.953777 0.478152 0.208178
0.057646 0.720503 0.206360
0.236409 0.724978 0.210720
0.482866 0.731113 0.216727
0.737141 0.737449 0.222926
0.974308 0.743380 0.228710
0.077595 0.971391 0.225793
0.256835 0.975753 0.230155
0.504016 0.981768 0.236170
0.759129 0.987977 0.242378
0.993684 0.993684 0.248086
0.003333 0.003331 0.396459
0.181317 0.007666 0.400790
0.426520 0.013641 0.406758
0.679234 0.019802 0.412908
0.920656 0.025692 0.418785
0.018470 0.197543 0.411495
0.196613 0.201904 0.415832
0.442098 0.207909 0.421808
0.695196 0.214105 0.427970
0.935698 0.220001 0.433826
0.038851 0.457613 0.431633
0.217269 0.462022 0.435980
0.463194 0.468083 0.441970
0.716838 0.474340 0.448149
0.955844 0.480249 0.453972
0.059760 0.722610 0.452155
0.238568 0.727090 0.456517
0.485092 0.733230 0.462526
0.739446 0.739572 0.468728
0.976377 0.745501 0.474506
0.079720 0.973457 0.471586
0.259016 0.977821 0.475949
0.506281 0.983838 0.481966
0.761488 0.990048 0.488177
0.995749 0.995749 0.493878
0.005508 0.005503 0.654964
0.183503 0.009840 0.659296
0.428727 0.015817 0.665264
0.681473 0.021980 0.671416
0.922828 0.027869 0.677290
0.020660 0.199723 0.670001
0.198826 0.204086 0.674339
0.444348 0.210094 0.680316
0.697493 0.216294 0.686480
0.937870 0.222188 0.692333
0.041057 0.459807 0.690141
0.219509 0.464220 0.694489
0.465488 0.470285 0.700480
0.719196 0.476546 0.706661
0.958018 0.482454 0.712480
0.061983 0.724825 0.710665
0.240836 0.729310 0.715028
0.487429 0.735456 0.721039
0.741863 0.741803 0.727243
0.978553 0.747731 0.733015
0.081955 0.975630 0.730093
0.261307 0.979995 0.734457
0.508656 0.986014 0.740476
0.763960 0.992227 0.746689
0.997920 0.997920 0.752383
0.007593 0.007585 0.902582
0.185600 0.011923 0.906914
0.430847 0.017901 0.912883
0.683625 0.024066 0.919035
0.924908 0.029955 0.924908
0.022761 0.201812 0.917620
0.200950 0.206178 0.921958
0.446511 0.212189 0.927937
0.699705 0.218391 0.934101
0.939951 0.224284 0.939951
0.043174 0.461910 0.937761
0.221661 0.466327 0.942110
0.467694 0.472396 0.948103
0.721467 0.478662 0.954285
0.960100 0.484569 0.960100
0.064116 0.726950 0.958287
0.243015 0.731440 0.962651
0.489679 0.737591 0.968665
0.744195 0.743945 0.974870
0.980637 0.749870 0.980637
0.084099 0.977712 0.977712
0.263509 0.982078 0.982078
0.510944 0.988099 0.988099
0.766346 0.994314 0.994314
1.000000 1.000000 1.000000
