library/cube/Opulence_002.cube
# CINEGRADE LAB — Premium Cinematic LUT
# Title: Opulence
# Category: Luxury Editorial
# Description: Rich blacks, soft contrast, warm skin tones for high-end editorial photography
# Mood: Sophisticated, elegant, polished
# Variant: 3
# Generated: 2026-05-21T16:12:10.811830
TITLE "Opulence"
LUT_3D_SIZE 9
0.000000 0.000000 0.000000
0.060761 0.001479 0.001479
0.177966 0.004333 0.004331
0.299312 0.007288 0.007284
0.423131 0.010304 0.010297
0.548747 0.013365 0.013355
0.675788 0.016461 0.016446
0.804015 0.019587 0.019567
0.917325 0.022352 0.022325
0.005257 0.067671 0.005239
0.066037 0.069154 0.006718
0.183277 0.072012 0.009572
0.304669 0.074973 0.012526
0.428547 0.077995 0.015541
0.554234 0.081062 0.018601
0.681358 0.084165 0.021695
0.809682 0.087298 0.024818
0.922566 0.090057 0.027566
0.015106 0.194198 0.015035
0.075915 0.195688 0.016515
0.193208 0.198554 0.019370
0.314667 0.201523 0.022327
0.438623 0.204554 0.025345
0.564402 0.207630 0.028407
0.691631 0.210744 0.031504
0.820072 0.213888 0.034631
0.932365 0.216641 0.037365
0.025200 0.323415 0.025040
0.086048 0.324914 0.026522
0.203414 0.327791 0.029379
0.324958 0.330771 0.032339
0.449014 0.333814 0.035359
0.574904 0.336904 0.038425
0.702257 0.340030 0.041526
0.830836 0.343189 0.044657
0.942374 0.345934 0.047374
0.035456 0.454240 0.035170
0.096352 0.455752 0.036654
0.213809 0.458642 0.039515
0.335459 0.461636 0.042478
0.459633 0.464694 0.045502
0.585656 0.467800 0.048572
0.713154 0.470943 0.051677
0.841891 0.474118 0.054813
0.952509 0.476855 0.057509
0.045839 0.586244 0.045392
0.106794 0.587771 0.046879
0.224361 0.590678 0.049743
0.346136 0.593689 0.052710
0.470449 0.596765 0.055739
0.596624 0.599889 0.058814
0.724288 0.603051 0.061924
0.853204 0.606247 0.065066
0.962736 0.608973 0.067736
0.056332 0.719196 0.055688
0.117355 0.720741 0.057178
0.235052 0.723667 0.060047
0.356971 0.726699 0.063019
0.481443 0.729796 0.066053
0.607791 0.732941 0.069133
0.735641 0.736126 0.072250
0.864757 0.739344 0.075397
0.973038 0.742059 0.078038
0.066924 0.852954 0.066048
0.128026 0.854518 0.067541
0.245871 0.857467 0.070415
0.367954 0.860522 0.073392
0.492605 0.863643 0.076432
0.619145 0.866813 0.079518
0.747202 0.870023 0.082642
0.876538 0.873268 0.085796
0.983404 0.875968 0.088404
0.076269 0.970125 0.075125
0.137451 0.971613 0.076613
0.255455 0.974485 0.079485
0.377714 0.977460 0.082460
0.502555 0.980498 0.085498
0.629300 0.983583 0.088583
0.757575 0.986704 0.091704
0.887142 0.989857 0.094857
0.992419 0.992419 0.097419
0.000314 0.000314 0.037414
0.061077 0.001794 0.038893
0.178285 0.004648 0.041745
0.299634 0.007603 0.044698
0.423458 0.010620 0.047712
0.549081 0.013681 0.050769
0.676129 0.016778 0.053861
0.804365 0.019905 0.056982
0.917640 0.022668 0.059739
0.005575 0.067986 0.042653
0.066357 0.069470 0.044133
0.183602 0.072329 0.046986
0.305000 0.075290 0.049941
0.428885 0.078312 0.052956
0.554580 0.081380 0.056016
0.681714 0.084483 0.059110
0.810049 0.087617 0.062234
0.922881 0.090375 0.064981
0.015428 0.194515 0.052449
0.076241 0.196006 0.053930
0.193540 0.198873 0.056785
0.315006 0.201842 0.059742
0.438972 0.204874 0.062760
0.564762 0.207951 0.065822
0.692002 0.211066 0.068920
0.820456 0.214211 0.072047
0.932680 0.216963 0.074780
0.025526 0.323735 0.062454
0.086379 0.325236 0.063937
0.203753 0.328113 0.066795
0.325306 0.331094 0.069754
0.449373 0.334138 0.072775
0.575276 0.337228 0.075841
0.702643 0.340356 0.078943
0.831237 0.343516 0.082074
0.942689 0.346260 0.084789
0.035786 0.454564 0.072585
0.096688 0.456077 0.074069
0.214155 0.458968 0.076930
0.335816 0.461964 0.079894
0.460004 0.465023 0.082918
0.586041 0.468129 0.085988
0.713555 0.471273 0.089095
0.842309 0.474450 0.092231
0.952824 0.477185 0.094924
0.046173 0.586573 0.082808
0.107134 0.588101 0.084294
0.224714 0.591009 0.087159
0.346502 0.594022 0.090127
0.470830 0.597099 0.093156
0.597022 0.600224 0.096231
0.724704 0.603388 0.099342
0.853639 0.606584 0.102485
0.963052 0.609309 0.105152
0.056670 0.719531 0.093105
0.117701 0.721076 0.094594
0.235412 0.724004 0.097464
0.357346 0.727037 0.100436
0.481836 0.730135 0.103470
0.608202 0.733282 0.106551
0.736072 0.736468 0.109668
0.865209 0.739688 0.112817
0.973355 0.742400 0.115455
0.067267 0.853295 0.103465
0.128377 0.854861 0.104958
0.246237 0.857811 0.107832
0.368338 0.860867 0.110810
0.493008 0.863990 0.113851
0.619569 0.867161 0.116937
0.747648 0.870373 0.120061
0.877007 0.873619 0.123217
0.983721 0.876318 0.125821
0.076613 0.970440 0.112539
0.137805 0.971929 0.114028
0.255826 0.974801 0.116900
0.378105 0.977776 0.119876
0.502967 0.980815 0.122915
0.629734 0.983900 0.125999
0.758033 0.987022 0.129122
0.887625 0.990175 0.132275
0.992733 0.992733 0.134833
0.001266 0.001266 0.150667
0.062030 0.002745 0.152146
0.179241 0.005600 0.154999
0.300594 0.008556 0.157952
0.424424 0.011573 0.160966
0.550053 0.014635 0.164023
0.677108 0.017732 0.167115
0.805354 0.020859 0.170237
0.918591 0.023622 0.172993
0.006531 0.068939 0.155907
0.067316 0.070423 0.157386
0.184565 0.073282 0.160240
0.305968 0.076244 0.163195
0.429861 0.079267 0.166210
0.555565 0.082335 0.169270
0.682708 0.085439 0.172365
0.811055 0.088574 0.175489
0.923832 0.091331 0.178234
0.016388 0.195470 0.165703
0.077204 0.196962 0.167184
0.194510 0.199829 0.170039
0.315984 0.202799 0.172996
0.439959 0.205831 0.176014
0.565759 0.208910 0.179077
0.693011 0.212025 0.182175
0.821478 0.215171 0.185303
0.933632 0.217921 0.188034
0.026490 0.324693 0.175708
0.087346 0.326194 0.177191
0.204729 0.329073 0.180049
0.326293 0.332054 0.183009
0.450371 0.335099 0.186030
0.576287 0.338191 0.189097
0.703667 0.341319 0.192199
0.832276 0.344480 0.195331
0.943641 0.347222 0.198043
0.036753 0.455526 0.185839
0.097660 0.457040 0.187324
0.215138 0.459932 0.190185
0.336811 0.462928 0.193149
0.461012 0.465988 0.196174
0.587064 0.469096 0.199244
0.714594 0.472241 0.202351
0.843365 0.475419 0.205488
0.953777 0.478152 0.208178
0.047145 0.587540 0.196062
0.108112 0.589068 0.197549
0.225704 0.591978 0.200415
0.347506 0.594992 0.203382
0.471850 0.598070 0.206412
0.598058 0.601196 0.209488
0.725758 0.604361 0.212600
0.854712 0.607559 0.215742
0.964005 0.610281 0.218407
0.057646 0.720503 0.206360
0.118684 0.722050 0.207850
0.236409 0.724978 0.210720
0.358360 0.728013 0.213692
0.482866 0.731113 0.216727
0.609251 0.734261 0.219809
0.737141 0.737449 0.222926
0.866299 0.740670 0.226075
0.974308 0.743380 0.228710
0.068246 0.854273 0.216721
0.129365 0.855840 0.218214
0.247242 0.858792 0.221089
0.369360 0.861850 0.224067
0.494050 0.864974 0.227108
0.620631 0.868147 0.230196
0.748732 0.871361 0.233320
0.878115 0.874608 0.236476
0.984675 0.877304 0.239077
0.077595 0.971391 0.225793
0.138795 0.972881 0.227283
0.256835 0.975753 0.230155
0.379133 0.978729 0.233131
0.504016 0.981768 0.236170
0.630806 0.984854 0.239256
0.759129 0.987977 0.242378
0.888747 0.991131 0.245533
0.993684 0.993684 0.248086
0.002282 0.002280 0.271435
0.063047 0.003760 0.272914
0.180261 0.006615 0.275766
0.301618 0.009571 0.278720
0.425453 0.012589 0.281734
0.551089 0.015651 0.284791
0.678153 0.018749 0.287884
0.806407 0.021877 0.291005
0.919606 0.024639 0.293761
0.007550 0.069955 0.276674
0.068337 0.071440 0.278154
0.185591 0.074299 0.281008
0.307001 0.077261 0.283963
0.430901 0.080285 0.286979
0.556614 0.083354 0.290039
0.683767 0.086458 0.293134
0.812125 0.089594 0.296258
0.924847 0.092350 0.299002
0.017411 0.196489 0.286471
0.078230 0.197980 0.287952
0.195543 0.200848 0.290808
0.317025 0.203819 0.293765
0.441010 0.206852 0.296783
0.566821 0.209931 0.299846
0.694085 0.213047 0.302945
0.822565 0.216194 0.306073
0.934647 0.218943 0.308802
0.027517 0.325715 0.296477
0.088378 0.327216 0.297959
0.205769 0.330095 0.300818
0.327343 0.333078 0.303778
0.451433 0.336124 0.306800
0.577361 0.339216 0.309866
0.704756 0.342346 0.312969
0.833380 0.345507 0.316101
0.944657 0.348248 0.318811
0.037784 0.456551 0.306608
0.098697 0.458066 0.308093
0.216185 0.460959 0.310954
0.337870 0.463956 0.313918
0.462085 0.467018 0.316944
0.588151 0.470126 0.320015
0.715697 0.473272 0.323122
0.844486 0.476451 0.326259
0.954792 0.479183 0.328947
0.048180 0.588570 0.316832
0.109154 0.590099 0.318319
0.226758 0.593010 0.321184
0.348574 0.596025 0.324153
0.472933 0.599104 0.327183
0.599158 0.602232 0.330259
0.726876 0.605398 0.333371
0.855850 0.608598 0.336514
0.965021 0.611318 0.339176
0.058685 0.721538 0.327130
0.119731 0.723086 0.328620
0.237470 0.726016 0.331490
0.359437 0.729052 0.334463
0.483961 0.732153 0.337499
0.610364 0.735303 0.340580
0.738275 0.738492 0.343699
0.867454 0.741715 0.346848
0.975325 0.744422 0.349480
0.069290 0.855315 0.337491
0.130417 0.856884 0.338985
0.248310 0.859837 0.341860
0.370447 0.862896 0.344839
0.495155 0.866022 0.347880
0.621758 0.869197 0.350968
0.749881 0.872412 0.354094
0.879287 0.875661 0.357250
0.985692 0.878354 0.359847
0.078639 0.972407 0.346562
0.139850 0.973896 0.348051
0.257907 0.976769 0.350924
0.380225 0.979746 0.353901
0.505130 0.982785 0.356940
0.631943 0.985871 0.360026
0.760290 0.988995 0.363149
0.889934 0.992149 0.366304
0.994699 0.994699 0.368854
0.003333 0.003331 0.396459
0.064101 0.004811 0.397938
0.181317 0.007666 0.400790
0.302679 0.010623 0.403744
0.426520 0.013641 0.406758
0.552162 0.016704 0.409816
0.679234 0.019802 0.412908
0.807498 0.022930 0.416030
0.920656 0.025692 0.418785
0.008605 0.071007 0.401698
0.069395 0.072492 0.403178
0.186654 0.075352 0.406032
0.308071 0.078315 0.408987
0.431978 0.081339 0.412003
0.557700 0.084408 0.415063
0.684864 0.087514 0.418159
0.813232 0.090649 0.421284
0.925898 0.093404 0.424026
0.018470 0.197543 0.411495
0.079293 0.199035 0.412976
0.196613 0.201904 0.415832
0.318104 0.204875 0.418790
0.442098 0.207909 0.421808
0.567919 0.210989 0.424872
0.695196 0.214105 0.427970
0.823690 0.217253 0.431099
0.935698 0.220001 0.433826
0.028580 0.326772 0.421501
0.089446 0.328274 0.422984
0.206846 0.331154 0.425843
0.328430 0.334138 0.428803
0.452531 0.337184 0.431825
0.578473 0.340277 0.434892
0.705882 0.343408 0.437995
0.834522 0.346570 0.441128
0.945708 0.349310 0.443836
0.038851 0.457613 0.431633
0.099770 0.459128 0.433118
0.217269 0.462022 0.435980
0.338966 0.465020 0.438944
0.463194 0.468083 0.441970
0.589276 0.471192 0.445041
0.716838 0.474340 0.448149
0.845645 0.477520 0.451287
0.955844 0.480249 0.453972
0.049251 0.589636 0.441857
0.110232 0.591166 0.443344
0.227849 0.594078 0.446210
0.349679 0.597094 0.449179
0.474054 0.600175 0.452210
0.600296 0.603304 0.455286
0.728032 0.606471 0.458399
0.857026 0.609672 0.461543
0.966073 0.612390 0.464201
0.059760 0.722610 0.452155
0.120814 0.724159 0.453646
0.238568 0.727090 0.456517
0.360550 0.730128 0.459490
0.485092 0.733230 0.462526
0.611515 0.736381 0.465608
0.739446 0.739572 0.468728
0.868647 0.742796 0.471878
0.976377 0.745501 0.474506
0.070369 0.856393 0.462517
0.131505 0.857963 0.464011
0.249415 0.860917 0.466887
0.371569 0.863979 0.469866
0.496298 0.867106 0.472909
0.622922 0.870282 0.475997
0.751067 0.873499 0.479123
0.880498 0.876750 0.482280
0.986745 0.879440 0.484874
0.079720 0.973457 0.471586
0.140940 0.974947 0.473076
0.259016 0.977821 0.475949
0.381354 0.980798 0.478926
0.506281 0.983838 0.481966
0.633116 0.986924 0.485053
0.761488 0.990048 0.488177
0.891158 0.993204 0.491332
0.995749 0.995749 0.493878
0.004410 0.004407 0.524521
0.065180 0.005888 0.526000
0.182400 0.008743 0.528853
0.303766 0.011700 0.531806
0.427613 0.014719 0.534820
0.553262 0.017782 0.537879
0.680343 0.020881 0.540972
0.808616 0.024010 0.544094
0.921732 0.026770 0.546847
0.009686 0.072085 0.529761
0.070479 0.073570 0.531241
0.187744 0.076431 0.534095
0.309167 0.079394 0.537050
0.433082 0.082418 0.540066
0.558813 0.085488 0.543127
0.685987 0.088594 0.546222
0.814367 0.091731 0.549347
0.926974 0.094485 0.552089
0.019555 0.198623 0.539558
0.080382 0.200115 0.541039
0.197709 0.202985 0.543895
0.319208 0.205957 0.546853
0.443212 0.208992 0.549872
0.569045 0.212072 0.552935
0.696334 0.215189 0.556035
0.824841 0.218338 0.559163
0.936774 0.221084 0.561889
0.029669 0.327855 0.549564
0.090540 0.329358 0.551047
0.207949 0.332239 0.553906
0.329543 0.335223 0.556867
0.453656 0.338271 0.559889
0.579611 0.341365 0.562957
0.707035 0.344496 0.566060
0.835690 0.347660 0.569193
0.946784 0.350397 0.571899
0.039944 0.458699 0.559696
0.100868 0.460215 0.561181
0.218379 0.463111 0.564044
0.340089 0.466110 0.567008
0.464330 0.469174 0.570035
0.590427 0.472284 0.573107
0.718006 0.475433 0.576215
0.846831 0.478614 0.579353
0.956921 0.481342 0.582036
0.050348 0.590727 0.569921
0.111335 0.592259 0.571409
0.228965 0.595172 0.574275
0.350810 0.598189 0.577244
0.475201 0.601271 0.580275
0.601460 0.604401 0.583352
0.729215 0.607570 0.586465
0.858229 0.610772 0.589610
0.967150 0.613488 0.592265
0.060861 0.723707 0.580220
0.121923 0.725257 0.581711
0.239691 0.728190 0.584582
0.361691 0.731229 0.587556
0.486250 0.734333 0.590592
0.612692 0.737485 0.593675
0.740644 0.740677 0.596795
0.869867 0.743903 0.599945
0.977455 0.746606 0.602570
0.071475 0.857497 0.590582
0.132619 0.859068 0.592077
0.250545 0.862024 0.594953
0.372719 0.865087 0.597933
0.497467 0.868215 0.600976
0.624112 0.871394 0.604065
0.752280 0.874612 0.607191
0.881735 0.877865 0.610349
0.987824 0.880552 0.612939
0.080827 0.974534 0.599649
0.142057 0.976024 0.601139
0.260151 0.978898 0.604013
0.382510 0.981875 0.606990
0.507458 0.984916 0.610031
0.634317 0.988003 0.613118
0.762713 0.991127 0.616243
0.892409 0.994284 0.619399
0.996825 0.996825 0.621940
0.005508 0.005503 0.654964
0.066279 0.006984 0.656443
0.183503 0.009840 0.659296
0.304874 0.012798 0.662250
0.428727 0.015817 0.665264
0.554384 0.018880 0.668322
0.681473 0.021980 0.671416
0.809756 0.025109 0.674538
0.922828 0.027869 0.677290
0.010788 0.073182 0.660204
0.071584 0.074668 0.661684
0.188854 0.077529 0.664538
0.310283 0.080493 0.667494
0.434207 0.083518 0.670510
0.559947 0.086588 0.673571
0.687132 0.089695 0.676667
0.815524 0.092832 0.679792
0.928070 0.095585 0.682532
0.020660 0.199723 0.670001
0.081491 0.201216 0.671483
0.198826 0.204086 0.674339
0.320334 0.207059 0.677297
0.444348 0.210094 0.680316
0.570192 0.213176 0.683380
0.697493 0.216294 0.686480
0.826015 0.219443 0.689609
0.937870 0.222188 0.692333
0.030778 0.328958 0.680008
0.091654 0.330462 0.681491
0.209072 0.333343 0.684350
0.330678 0.336329 0.687312
0.454803 0.339377 0.690334
0.580771 0.342472 0.693402
0.708209 0.345605 0.696506
0.836881 0.348769 0.699639
0.947881 0.351505 0.702343
0.041057 0.459807 0.690141
0.101988 0.461324 0.691626
0.219509 0.464220 0.694489
0.341232 0.467220 0.697454
0.465488 0.470285 0.700480
0.591600 0.473396 0.703553
0.719196 0.476546 0.706661
0.848038 0.479729 0.709800
0.958018 0.482454 0.712480
0.051465 0.591839 0.700366
0.112460 0.593372 0.701854
0.230103 0.596286 0.704720
0.351962 0.599305 0.707690
0.476369 0.602388 0.710721
0.602646 0.605519 0.713799
0.730420 0.608689 0.716913
0.859454 0.611893 0.720058
0.968248 0.614606 0.722710
0.061983 0.724825 0.710665
0.123052 0.726376 0.712156
0.240836 0.729310 0.715028
0.362852 0.732350 0.718002
0.487429 0.735456 0.721039
0.613891 0.738610 0.724123
0.741863 0.741803 0.727243
0.871109 0.745031 0.730394
0.978553 0.747731 0.733015
0.072600 0.858621 0.721028
0.133754 0.860194 0.722523
0.251697 0.863151 0.725400
0.373889 0.866215 0.728380
0.498657 0.869346 0.731423
0.625324 0.872525 0.734513
0.753515 0.875745 0.737640
0.882994 0.879000 0.740799
0.988922 0.881685 0.743385
0.081955 0.975630 0.730093
0.143194 0.977120 0.731583
0.261307 0.979995 0.734457
0.383686 0.982973 0.737435
0.508656 0.986014 0.740476
0.635539 0.989102 0.743564
0.763960 0.992227 0.746689
0.893682 0.995384 0.749846
0.997920 0.997920 0.752383
0.006623 0.006616 0.787372
0.067396 0.008098 0.788851
0.184624 0.010954 0.791704
0.306000 0.013912 0.794658
0.429859 0.016931 0.797673
0.555523 0.019995 0.800731
0.682620 0.023095 0.803825
0.810914 0.026225 0.806948
0.923940 0.028984 0.809699
0.011906 0.074297 0.792613
0.072705 0.075783 0.794093
0.189981 0.078644 0.796947
0.311417 0.081609 0.799903
0.435349 0.084634 0.802920
0.561099 0.087705 0.805980
0.688294 0.090813 0.809077
0.816699 0.093951 0.812202
0.929182 0.096702 0.814941
0.021783 0.200839 0.802410
0.082618 0.202333 0.803892
0.199960 0.205204 0.806748
0.321477 0.208178 0.809707
0.445501 0.211214 0.812726
0.571357 0.214296 0.815790
0.698671 0.217415 0.818890
0.827207 0.220565 0.822020
0.938983 0.223308 0.824741
0.031904 0.330078 0.812417
0.092785 0.331582 0.813901
0.210213 0.334465 0.816760
0.331829 0.337451 0.819722
0.455967 0.340500 0.822745
0.581948 0.343596 0.825813
0.709402 0.346730 0.828917
0.838090 0.349895 0.832051
0.948994 0.352629 0.834752
0.042188 0.460931 0.822550
0.103124 0.462448 0.824036
0.220657 0.465346 0.826899
0.342392 0.468347 0.829864
0.466662 0.471413 0.832891
0.592790 0.474525 0.835964
0.720403 0.477676 0.839073
0.849264 0.480860 0.842212
0.959131 0.483583 0.844890
0.052599 0.592968 0.832776
0.113601 0.594502 0.834264
0.231257 0.597417 0.837131
0.353132 0.600437 0.840101
0.477555 0.603521 0.843133
0.603849 0.606654 0.846211
0.731642 0.609826 0.849325
0.860696 0.613030 0.852471
0.969361 0.615741 0.855120
0.063121 0.725960 0.843076
0.124199 0.727512 0.844567
0.241997 0.730447 0.847439
0.364030 0.733489 0.850414
0.488626 0.736596 0.853452
0.615107 0.739751 0.856535
0.743101 0.742946 0.859656
0.872369 0.746175 0.862808
0.979667 0.748872 0.865426
0.073743 0.859762 0.853439
0.134905 0.861336 0.854934
0.252866 0.864295 0.857812
0.375076 0.867361 0.860792
0.499865 0.870493 0.863836
0.626553 0.873674 0.866927
0.754768 0.876896 0.870055
0.884271 0.880152 0.873214
0.990037 0.882834 0.875796
0.083099 0.976743 0.862502
0.144348 0.978234 0.863992
0.262480 0.981108 0.866867
0.384879 0.984087 0.869846
0.509872 0.987129 0.872887
0.636778 0.990217 0.875976
0.765224 0.993343 0.879101
0.894973 0.996500 0.882259
0.999032 0.999032 0.884791
0.007593 0.007585 0.902582
0.068369 0.009066 0.904061
0.185600 0.011923 0.906914
0.306982 0.014881 0.909868
0.430847 0.017901 0.912883
0.556519 0.020966 0.915941
0.683625 0.024066 0.919035
0.811929 0.027197 0.922158
0.924908 0.029955 0.924908
0.012880 0.075267 0.907822
0.073683 0.076753 0.909302
0.190964 0.079615 0.912157
0.312408 0.082580 0.915113
0.436348 0.085606 0.918130
0.562107 0.088678 0.921191
0.689314 0.091786 0.924287
0.817731 0.094925 0.927413
0.930150 0.097675 0.930150
0.022761 0.201812 0.917620
0.083600 0.203306 0.919101
0.200950 0.206178 0.921958
0.322476 0.209152 0.924917
0.446511 0.212189 0.927937
0.572378 0.215272 0.931001
0.699705 0.218391 0.934101
0.828256 0.221542 0.937231
0.939951 0.224284 0.939951
0.032887 0.331053 0.927627
0.093772 0.332559 0.929111
0.211210 0.335442 0.931970
0.332837 0.338429 0.934932
0.456987 0.341479 0.937956
0.582983 0.344576 0.941024
0.710451 0.347711 0.944129
0.839156 0.350877 0.947263
0.949962 0.353610 0.949962
0.043174 0.461910 0.937761
0.104116 0.463429 0.939246
0.221661 0.466327 0.942110
0.343409 0.469330 0.945075
0.467694 0.472396 0.948103
0.593838 0.475510 0.951176
0.721467 0.478662 0.954285
0.850347 0.481847 0.957425
0.960100 0.484569 0.960100
0.053590 0.593953 0.947986
0.114598 0.595488 0.949475
0.232268 0.598404 0.952342
0.354157 0.601425 0.955313
0.478597 0.604511 0.958345
0.604909 0.607645 0.961424
0.732721 0.610817 0.964539
0.861796 0.614024 0.967685
0.970331 0.616732 0.970331
0.064116 0.726950 0.958287
0.125201 0.728503 0.959779
0.243015 0.731440 0.962651
0.365065 0.734483 0.965627
0.489679 0.737591 0.968665
0.616180 0.740748 0.971749
0.744195 0.743945 0.974870
0.873486 0.747175 0.978023
0.980637 0.749870 0.980637
0.074741 0.860759 0.968651
0.135913 0.862334 0.970147
0.253891 0.865295 0.973024
0.376120 0.868362 0.976006
0.500929 0.871496 0.979050
0.627640 0.874679 0.982141
0.755877 0.877902 0.985270
0.885406 0.881160 0.988430
0.991008 0.883839 0.991008
0.084099 0.977712 0.977712
0.145358 0.979202 0.979202
0.263509 0.982078 0.982078
0.385929 0.985057 0.985057
0.510944 0.988099 0.988099
0.637874 0.991188 0.991188
0.766346 0.994314 0.994314
0.896121 0.997472 0.997472
1.000000 1.000000 1.000000
