library/cube/Opulence_002.cube
# CINEGRADE LAB — Premium Cinematic LUT
# Title: Opulence
# Category: Luxury Editorial
# Description: Rich blacks, soft contrast, warm skin tones for high-end editorial photography
# Mood: Sophisticated, elegant, polished
# Variant: 3
# Generated: 2026-05-21T16:12:10.811830
TITLE "Opulence"
LUT_3D_SIZE 33
0.000000 0.000000 0.000000
0.000000 0.000000 0.000000
0.005907 0.000144 0.000144
0.032701 0.000796 0.000796
0.060761 0.001479 0.001479
0.089476 0.002178 0.002177
0.118645 0.002888 0.002887
0.148163 0.003607 0.003606
0.177966 0.004333 0.004331
0.208011 0.005064 0.005062
0.238265 0.005801 0.005798
0.268705 0.006542 0.006539
0.299312 0.007288 0.007284
0.330069 0.008037 0.008033
0.360965 0.008789 0.008784
0.391988 0.009545 0.009539
0.423131 0.010304 0.010297
0.454384 0.011065 0.011058
0.485742 0.011830 0.011821
0.517198 0.012596 0.012587
0.548747 0.013365 0.013355
0.580385 0.014136 0.014125
0.612106 0.014909 0.014897
0.643908 0.015684 0.015671
0.675788 0.016461 0.016446
0.707741 0.017240 0.017224
0.739765 0.018021 0.018004
0.771857 0.018803 0.018785
0.804015 0.019587 0.019567
0.836220 0.020373 0.020351
0.868330 0.021156 0.021133
0.900476 0.021940 0.021915
0.917325 0.022352 0.022325
0.000001 0.000000 0.000000
0.000002 0.000001 0.000000
0.005910 0.000145 0.000144
0.032705 0.000797 0.000796
0.060766 0.001480 0.001479
0.089482 0.002179 0.002178
0.118653 0.002890 0.002888
0.148173 0.003609 0.003606
0.177978 0.004335 0.004331
0.208025 0.005067 0.005063
0.238282 0.005804 0.005799
0.268724 0.006545 0.006540
0.299333 0.007291 0.007285
0.330094 0.008040 0.008033
0.360992 0.008793 0.008785
0.392019 0.009549 0.009540
0.423165 0.010308 0.010298
0.454422 0.011070 0.011059
0.485784 0.011834 0.011822
0.517244 0.012601 0.012588
0.548797 0.013370 0.013356
0.580439 0.014141 0.014126
0.612166 0.014915 0.014898
0.643973 0.015690 0.015672
0.675857 0.016468 0.016449
0.707815 0.017247 0.017226
0.739845 0.018028 0.018006
0.771943 0.018811 0.018787
0.804107 0.019595 0.019570
0.836314 0.020381 0.020354
0.868389 0.021163 0.021135
0.900497 0.021946 0.021916
0.917326 0.022358 0.022326
0.000537 0.006878 0.000533
0.000538 0.006878 0.000533
0.006447 0.007022 0.000676
0.033244 0.007675 0.001329
0.061306 0.008359 0.002011
0.090024 0.009058 0.002710
0.119197 0.009769 0.003420
0.148719 0.010488 0.004139
0.178526 0.011214 0.004864
0.208576 0.011946 0.005596
0.238835 0.012683 0.006332
0.269281 0.013425 0.007073
0.299893 0.014171 0.007818
0.330656 0.014921 0.008567
0.361558 0.015674 0.009319
0.392589 0.016430 0.010074
0.423739 0.017190 0.010832
0.455000 0.017952 0.011593
0.486366 0.018716 0.012356
0.517830 0.019484 0.013122
0.549388 0.020253 0.013890
0.581035 0.021025 0.014660
0.612766 0.021798 0.015433
0.644578 0.022574 0.016207
0.676468 0.023352 0.016983
0.708432 0.024132 0.017761
0.740467 0.024913 0.018541
0.772571 0.025696 0.019322
0.804741 0.026481 0.020105
0.836950 0.027267 0.020889
0.868986 0.028048 0.021669
0.901053 0.028831 0.022449
0.917859 0.029242 0.022859
0.002863 0.036852 0.002853
0.002865 0.036853 0.002853
0.008775 0.036998 0.002997
0.035573 0.037651 0.003649
0.063637 0.038334 0.004332
0.092358 0.039034 0.005031
0.121532 0.039745 0.005741
0.151057 0.040465 0.006460
0.180867 0.041191 0.007185
0.210919 0.041924 0.007917
0.241181 0.042661 0.008653
0.271630 0.043403 0.009394
0.302245 0.044150 0.010139
0.333012 0.044900 0.010888
0.363918 0.045653 0.011640
0.394953 0.046410 0.012396
0.426107 0.047170 0.013154
0.457372 0.047932 0.013915
0.488742 0.048698 0.014678
0.520212 0.049465 0.015444
0.551774 0.050235 0.016213
0.583426 0.051007 0.016983
0.615163 0.051781 0.017755
0.646981 0.052558 0.018530
0.678876 0.053336 0.019306
0.710845 0.054116 0.020084
0.742887 0.054898 0.020864
0.774997 0.055682 0.021646
0.807174 0.056467 0.022429
0.839384 0.057253 0.023213
0.871377 0.058034 0.023992
0.903399 0.058816 0.024771
0.920180 0.059227 0.025180
0.005257 0.067671 0.005239
0.005260 0.067672 0.005239
0.011170 0.067817 0.005383
0.037970 0.068470 0.006035
0.066037 0.069154 0.006718
0.094759 0.069854 0.007417
0.123936 0.070565 0.008127
0.153463 0.071285 0.008846
0.183277 0.072012 0.009572
0.213332 0.072745 0.010303
0.243598 0.073483 0.011040
0.274049 0.074226 0.011781
0.304669 0.074973 0.012526
0.335439 0.075723 0.013275
0.366350 0.076477 0.014027
0.397388 0.077234 0.014783
0.428547 0.077995 0.015541
0.459817 0.078757 0.016302
0.491192 0.079523 0.017066
0.522666 0.080291 0.017832
0.554234 0.081062 0.018601
0.585891 0.081834 0.019371
0.617634 0.082609 0.020144
0.649457 0.083386 0.020918
0.681358 0.084165 0.021695
0.713334 0.084945 0.022473
0.745382 0.085728 0.023253
0.777499 0.086512 0.024035
0.809682 0.087298 0.024818
0.841894 0.088085 0.025602
0.873840 0.088865 0.026380
0.905812 0.089646 0.027158
0.922566 0.090057 0.027566
0.007686 0.098920 0.007658
0.007690 0.098921 0.007658
0.013601 0.099066 0.007802
0.040404 0.099720 0.008455
0.068472 0.100405 0.009138
0.097197 0.101105 0.009837
0.126377 0.101817 0.010547
0.155907 0.102537 0.011266
0.185724 0.103265 0.011992
0.215782 0.103998 0.012723
0.246052 0.104736 0.013460
0.276507 0.105480 0.014201
0.307130 0.106227 0.014947
0.337906 0.106978 0.015696
0.368820 0.107732 0.016448
0.399863 0.108490 0.017204
0.431026 0.109251 0.017962
0.462301 0.110014 0.018724
0.493682 0.110780 0.019487
0.525161 0.111549 0.020254
0.556735 0.112320 0.021022
0.588398 0.113093 0.021793
0.620146 0.113869 0.022566
0.651976 0.114646 0.023340
0.683883 0.115425 0.024117
0.715865 0.116207 0.024896
0.747920 0.116990 0.025676
0.780044 0.117775 0.026458
0.812235 0.118561 0.027242
0.844447 0.119348 0.028026
0.876342 0.120128 0.028802
0.908261 0.120908 0.029579
0.924986 0.121319 0.029986
0.010141 0.130466 0.010100
0.010145 0.130467 0.010101
0.016057 0.130613 0.010245
0.042862 0.131267 0.010897
0.070934 0.131952 0.011580
0.099662 0.132653 0.012280
0.128845 0.133365 0.012990
0.158378 0.134086 0.013709
0.188198 0.134814 0.014435
0.218260 0.135548 0.015166
0.248534 0.136287 0.015903
0.278993 0.137030 0.016645
0.309621 0.137778 0.017390
0.340400 0.138530 0.018139
0.371319 0.139285 0.018892
0.402367 0.140043 0.019648
0.433536 0.140804 0.020406
0.464816 0.141568 0.021168
0.496202 0.142335 0.021932
0.527687 0.143104 0.022698
0.559266 0.143876 0.023467
0.590935 0.144650 0.024238
0.622690 0.145426 0.025011
0.654526 0.146204 0.025786
0.686440 0.146984 0.026563
0.718429 0.147766 0.027341
0.750491 0.148549 0.028122
0.782622 0.149335 0.028904
0.814820 0.150122 0.029688
0.847034 0.150910 0.030472
0.878874 0.151689 0.031247
0.910735 0.152468 0.032023
0.927429 0.152878 0.032429
0.012615 0.162239 0.012560
0.012620 0.162241 0.012561
0.018534 0.162387 0.012705
0.045341 0.163042 0.013357
0.073416 0.163727 0.014041
0.102147 0.164429 0.014740
0.131333 0.165141 0.015450
0.160870 0.165863 0.016169
0.190694 0.166591 0.016895
0.220760 0.167325 0.017627
0.251038 0.168065 0.018364
0.281502 0.168809 0.019106
0.312134 0.169557 0.019851
0.342918 0.170310 0.020601
0.373842 0.171065 0.021353
0.404896 0.171824 0.022109
0.436069 0.172586 0.022868
0.467355 0.173351 0.023630
0.498746 0.174118 0.024394
0.530238 0.174888 0.025161
0.561823 0.175660 0.025930
0.593499 0.176434 0.026701
0.625260 0.177211 0.027474
0.657103 0.177990 0.028249
0.689024 0.178771 0.029026
0.721020 0.179553 0.029805
0.753089 0.180338 0.030586
0.785228 0.181124 0.031368
0.817434 0.181912 0.032152
0.849648 0.182700 0.032936
0.881429 0.183478 0.033710
0.913229 0.184256 0.034484
0.929890 0.184666 0.034890
0.015106 0.194198 0.015035
0.015112 0.194200 0.015035
0.021027 0.194347 0.015179
0.047837 0.195002 0.015832
0.075915 0.195688 0.016515
0.104650 0.196390 0.017215
0.133840 0.197103 0.017925
0.163381 0.197825 0.018644
0.193208 0.198554 0.019370
0.223279 0.199289 0.020102
0.253561 0.200029 0.020840
0.284030 0.200774 0.021581
0.314667 0.201523 0.022327
0.345456 0.202275 0.023077
0.376385 0.203032 0.023830
0.407444 0.203791 0.024586
0.438623 0.204554 0.025345
0.469915 0.205319 0.026106
0.501313 0.206087 0.026871
0.532810 0.206857 0.027638
0.564402 0.207630 0.028407
0.596085 0.208406 0.029178
0.627852 0.209183 0.029951
0.659702 0.209962 0.030727
0.691631 0.210744 0.031504
0.723635 0.211527 0.032283
0.755711 0.212312 0.033064
0.787858 0.213100 0.033847
0.820072 0.213888 0.034631
0.852287 0.214677 0.035415
0.884005 0.215454 0.036188
0.915740 0.216231 0.036960
0.932365 0.216641 0.037365
0.017612 0.226313 0.017521
0.017618 0.226316 0.017522
0.023534 0.226463 0.017666
0.050348 0.227118 0.018318
0.078429 0.227805 0.019002
0.107168 0.228508 0.019702
0.136362 0.229221 0.020412
0.165907 0.229944 0.021132
0.195739 0.230673 0.021858
0.225814 0.231409 0.022590
0.256101 0.232150 0.023327
0.286575 0.232895 0.024069
0.317217 0.233645 0.024815
0.348012 0.234398 0.025565
0.378947 0.235155 0.026318
0.410011 0.235915 0.027074
0.441197 0.236679 0.027833
0.472494 0.237445 0.028595
0.503899 0.238213 0.029360
0.535403 0.238985 0.030127
0.567002 0.239758 0.030896
0.598691 0.240534 0.031668
0.630466 0.241312 0.032441
0.662323 0.242093 0.033217
0.694259 0.242875 0.033995
0.726271 0.243659 0.034774
0.758355 0.244445 0.035555
0.790510 0.245233 0.036338
0.822733 0.246022 0.037123
0.854949 0.246812 0.037907
0.886600 0.247588 0.038678
0.918265 0.248364 0.039449
0.934853 0.248774 0.039853
0.020130 0.258564 0.020018
0.020137 0.258567 0.020019
0.026054 0.258715 0.020163
0.052872 0.259371 0.020816
0.080957 0.260058 0.021500
0.109699 0.260762 0.022199
0.138898 0.261476 0.022910
0.168447 0.262199 0.023629
0.198284 0.262929 0.024356
0.228364 0.263666 0.025088
0.258656 0.264407 0.025826
0.289135 0.265153 0.026568
0.319783 0.265903 0.027314
0.350583 0.266658 0.028064
0.381524 0.267415 0.028817
0.412595 0.268176 0.029574
0.443787 0.268940 0.030333
0.475091 0.269707 0.031095
0.506502 0.270476 0.031860
0.538013 0.271248 0.032627
0.569619 0.272023 0.033397
0.601316 0.272800 0.034168
0.633098 0.273579 0.034942
0.664963 0.274360 0.035718
0.696907 0.275143 0.036496
0.728927 0.275928 0.037275
0.761020 0.276715 0.038057
0.793183 0.277503 0.038840
0.825415 0.278294 0.039625
0.857631 0.279084 0.040409
0.889211 0.279859 0.041178
0.920802 0.280634 0.041948
0.937351 0.281043 0.042351
0.022660 0.290935 0.022525
0.022668 0.290939 0.022525
0.028586 0.291087 0.022669
0.055408 0.291744 0.023323
0.083497 0.292432 0.024006
0.112244 0.293136 0.024706
0.141446 0.293851 0.025417
0.171001 0.294575 0.026137
0.200843 0.295306 0.026863
0.230928 0.296043 0.027596
0.261225 0.296785 0.028333
0.291710 0.297532 0.029076
0.322364 0.298283 0.029822
0.353170 0.299038 0.030572
0.384117 0.299796 0.031326
0.415195 0.300558 0.032082
0.446393 0.301323 0.032842
0.477704 0.302090 0.033604
0.509122 0.302861 0.034369
0.540640 0.303633 0.035137
0.572254 0.304409 0.035907
0.603958 0.305186 0.036678
0.635748 0.305966 0.037453
0.667621 0.306748 0.038229
0.699574 0.307532 0.039007
0.731602 0.308318 0.039787
0.763703 0.309106 0.040568
0.795876 0.309895 0.041352
0.828116 0.310687 0.042137
0.860333 0.311478 0.042921
0.891838 0.312251 0.043689
0.923351 0.313025 0.044456
0.939858 0.313434 0.044858
0.025200 0.323415 0.025040
0.025209 0.323419 0.025040
0.031129 0.323568 0.025184
0.057955 0.324226 0.025838
0.086048 0.324914 0.026522
0.114799 0.325619 0.027222
0.144007 0.326335 0.027933
0.173567 0.327059 0.028653
0.203414 0.327791 0.029379
0.233505 0.328529 0.030112
0.263808 0.329272 0.030850
0.294298 0.330019 0.031592
0.324958 0.330771 0.032339
0.355771 0.331527 0.033089
0.386725 0.332286 0.033843
0.417808 0.333048 0.034600
0.449014 0.333814 0.035359
0.480332 0.334583 0.036122
0.511757 0.335354 0.036887
0.543283 0.336127 0.037655
0.574904 0.336904 0.038425
0.606616 0.337682 0.039197
0.638415 0.338463 0.039972
0.670297 0.339246 0.040748
0.702257 0.340030 0.041526
0.734295 0.340817 0.042306
0.766405 0.341606 0.043088
0.798586 0.342397 0.043872
0.830836 0.343189 0.044657
0.863053 0.343981 0.045442
0.894479 0.344753 0.046207
0.925911 0.345526 0.046973
0.942374 0.345934 0.047374
0.027751 0.355992 0.027562
0.027760 0.355998 0.027563
0.033682 0.356147 0.027707
0.060512 0.356805 0.028360
0.088610 0.357495 0.029045
0.117366 0.358200 0.029745
0.146579 0.358917 0.030456
0.176144 0.359642 0.031176
0.205997 0.360374 0.031903
0.236093 0.361113 0.032636
0.266402 0.361857 0.033374
0.296899 0.362605 0.034117
0.327565 0.363358 0.034863
0.358385 0.364114 0.035614
0.389345 0.364874 0.036368
0.420436 0.365638 0.037125
0.451649 0.366404 0.037885
0.482975 0.367174 0.038648
0.514407 0.367946 0.039413
0.545941 0.368720 0.040181
0.577571 0.369497 0.040951
0.609291 0.370277 0.041724
0.641098 0.371059 0.042498
0.672988 0.371842 0.043275
0.704958 0.372628 0.044054
0.737004 0.373416 0.044834
0.769124 0.374206 0.045616
0.801315 0.374997 0.046400
0.833574 0.375791 0.047186
0.865791 0.376583 0.047971
0.897134 0.377354 0.048734
0.928480 0.378126 0.049497
0.944898 0.378534 0.049898
0.030311 0.388660 0.030092
0.030321 0.388666 0.030092
0.036244 0.388816 0.030237
0.063078 0.389475 0.030890
0.091181 0.390165 0.031575
0.119943 0.390871 0.032275
0.149161 0.391589 0.032987
0.178732 0.392315 0.033707
0.208590 0.393048 0.034434
0.238693 0.393788 0.035167
0.269008 0.394532 0.035905
0.299512 0.395282 0.036648
0.330185 0.396035 0.037395
0.361011 0.396793 0.038146
0.391979 0.397554 0.038900
0.423077 0.398318 0.039657
0.454297 0.399085 0.040417
0.485631 0.399856 0.041180
0.517072 0.400629 0.041946
0.548614 0.401404 0.042714
0.580252 0.402182 0.043485
0.611981 0.402963 0.044258
0.643797 0.403745 0.045033
0.675696 0.404530 0.045809
0.707675 0.405317 0.046588
0.739730 0.406106 0.047369
0.771860 0.406897 0.048152
0.804061 0.407689 0.048936
0.836330 0.408484 0.049722
0.868547 0.409277 0.050507
0.899802 0.410047 0.051268
0.931059 0.410817 0.052029
0.947428 0.411225 0.052428
0.032879 0.421411 0.032628
0.032890 0.421418 0.032628
0.038815 0.421569 0.032773
0.065654 0.422229 0.033427
0.093762 0.422920 0.034111
0.122529 0.423627 0.034812
0.151753 0.424345 0.035523
0.181330 0.425072 0.036244
0.211195 0.425806 0.036971
0.241304 0.426546 0.037704
0.271626 0.427292 0.038443
0.302136 0.428042 0.039186
0.332816 0.428797 0.039933
0.363650 0.429555 0.040684
0.394625 0.430317 0.041438
0.425731 0.431082 0.042196
0.456959 0.431851 0.042957
0.488301 0.432622 0.043720
0.519750 0.433396 0.044486
0.551300 0.434173 0.045254
0.582947 0.434952 0.046025
0.614685 0.435733 0.046798
0.646510 0.436517 0.047573
0.678418 0.437303 0.048351
0.710407 0.438090 0.049130
0.742472 0.438880 0.049911
0.774612 0.439672 0.050694
0.806823 0.440466 0.051478
0.839102 0.441261 0.052264
0.871319 0.442055 0.053049
0.902484 0.442824 0.053808
0.933646 0.443593 0.054568
0.949965 0.444000 0.054965
0.035456 0.454240 0.035170
0.035467 0.454247 0.035171
0.041394 0.454399 0.035315
0.068238 0.455060 0.035969
0.096352 0.455752 0.036654
0.125125 0.456460 0.037355
0.154355 0.457179 0.038067
0.183938 0.457907 0.038787
0.213809 0.458642 0.039515
0.243925 0.459383 0.040248
0.274254 0.460130 0.040987
0.304772 0.460881 0.041730
0.335459 0.461636 0.042478
0.366300 0.462396 0.043229
0.397283 0.463159 0.043983
0.428397 0.463925 0.044741
0.459633 0.464694 0.045502
0.490984 0.465467 0.046266
0.522441 0.466242 0.047032
0.554001 0.467019 0.047801
0.585656 0.467800 0.048572
0.617403 0.468582 0.049345
0.649238 0.469367 0.050120
0.681156 0.470154 0.050898
0.713154 0.470943 0.051677
0.745230 0.471734 0.052459
0.777379 0.472527 0.053242
0.809601 0.473322 0.054027
0.841891 0.474118 0.054813
0.874108 0.474913 0.055598
0.905177 0.475680 0.056355
0.936242 0.476448 0.057112
0.952509 0.476855 0.057509
0.038041 0.487142 0.037718
0.038053 0.487150 0.037718
0.043981 0.487302 0.037863
0.070831 0.487964 0.038517
0.098950 0.488657 0.039202
0.127729 0.489366 0.039903
0.156966 0.490086 0.040615
0.186555 0.490815 0.041336
0.216433 0.491551 0.042064
0.246556 0.492293 0.042798
0.276893 0.493041 0.043537
0.307417 0.493793 0.044280
0.338112 0.494549 0.045028
0.368962 0.495310 0.045779
0.399953 0.496074 0.046534
0.431075 0.496841 0.047292
0.462320 0.497612 0.048053
0.493679 0.498385 0.048817
0.525145 0.499161 0.049584
0.556714 0.499940 0.050353
0.588379 0.500721 0.051124
0.620135 0.501505 0.051898
0.651980 0.502291 0.052673
0.683908 0.503079 0.053451
0.715916 0.503869 0.054231
0.748002 0.504661 0.055013
0.780163 0.505455 0.055796
0.812395 0.506251 0.056581
0.844696 0.507049 0.057368
0.876912 0.507845 0.058153
0.907882 0.508611 0.058908
0.938845 0.509376 0.059662
0.955058 0.509783 0.060058
0.040633 0.520112 0.040271
0.040646 0.520121 0.040272
0.046576 0.520274 0.040417
0.073431 0.520937 0.041071
0.101557 0.521631 0.041756
0.130342 0.522341 0.042457
0.159585 0.523062 0.043170
0.189182 0.523792 0.043891
0.219067 0.524529 0.044619
0.249197 0.525272 0.045352
0.279541 0.526021 0.046092
0.310074 0.526774 0.046835
0.340776 0.527532 0.047583
0.371634 0.528293 0.048335
0.402634 0.529058 0.049090
0.433765 0.529827 0.049849
0.465018 0.530598 0.050610
0.496386 0.531373 0.051374
0.527862 0.532150 0.052141
0.559440 0.532930 0.052910
0.591114 0.533712 0.053682
0.622881 0.534497 0.054456
0.654735 0.535284 0.055232
0.686674 0.536073 0.056010
0.718693 0.536865 0.056790
0.750789 0.537658 0.057572
0.782961 0.538454 0.058356
0.815204 0.539251 0.059142
0.847517 0.540050 0.059929
0.879732 0.540847 0.060714
0.910599 0.541611 0.061466
0.941456 0.542375 0.062218
0.957612 0.542782 0.062612
0.043232 0.553147 0.042829
0.043246 0.553157 0.042830
0.049178 0.553311 0.042975
0.076039 0.553975 0.043630
0.104172 0.554670 0.044315
0.132964 0.555381 0.045016
0.162213 0.556103 0.045729
0.191817 0.556834 0.046450
0.221710 0.557572 0.047178
0.251848 0.558317 0.047913
0.282199 0.559066 0.048652
0.312740 0.559821 0.049396
0.343451 0.560579 0.050144
0.374317 0.561342 0.050896
0.405325 0.562108 0.051652
0.436465 0.562878 0.052410
0.467728 0.563651 0.053172
0.499105 0.564426 0.053937
0.530591 0.565205 0.054704
0.562178 0.565986 0.055473
0.593863 0.566769 0.056245
0.625640 0.567555 0.057020
0.657505 0.568344 0.057796
0.689454 0.569134 0.058574
0.721484 0.569927 0.059355
0.753591 0.570721 0.060137
0.785774 0.571518 0.060921
0.818028 0.572317 0.061707
0.850353 0.573117 0.062495
0.882567 0.573915 0.063280
0.913327 0.574677 0.064030
0.944074 0.575440 0.064779
0.960172 0.575846 0.065172
0.045839 0.586244 0.045392
0.045854 0.586255 0.045393
0.051787 0.586410 0.045538
0.078655 0.587075 0.046193
0.106794 0.587771 0.046879
0.135593 0.588483 0.047580
0.164850 0.589206 0.048293
0.194461 0.589938 0.049015
0.224361 0.590678 0.049743
0.254507 0.591423 0.050478
0.284867 0.592174 0.051217
0.315416 0.592929 0.051962
0.346136 0.593689 0.052710
0.377011 0.594453 0.053462
0.408028 0.595221 0.054218
0.439177 0.595991 0.054977
0.470449 0.596765 0.055739
0.501836 0.597542 0.056504
0.533332 0.598322 0.057271
0.564929 0.599104 0.058041
0.596624 0.599889 0.058814
0.628412 0.600676 0.059588
0.660287 0.601466 0.060365
0.692247 0.602258 0.061144
0.724288 0.603051 0.061924
0.756407 0.603847 0.062707
0.788601 0.604645 0.063492
0.820868 0.605445 0.064278
0.853204 0.606247 0.065066
0.885418 0.607046 0.065851
0.916066 0.607807 0.066598
0.946699 0.608567 0.067345
0.962736 0.608973 0.067736
0.048453 0.619400 0.047960
0.048468 0.619412 0.047961
0.054404 0.619568 0.048106
0.081278 0.620234 0.048761
0.109424 0.620931 0.049447
0.138230 0.621644 0.050149
0.167494 0.622368 0.050862
0.197113 0.623102 0.051584
0.227021 0.623842 0.052312
0.257176 0.624589 0.053047
0.287544 0.625341 0.053787
0.318102 0.626098 0.054532
0.348830 0.626859 0.055281
0.379714 0.627624 0.056033
0.410741 0.628392 0.056789
0.441900 0.629164 0.057549
0.473181 0.629940 0.058311
0.504579 0.630718 0.059076
0.536084 0.631499 0.059844
0.567692 0.632282 0.060614
0.599398 0.633068 0.061387
0.631196 0.633857 0.062162
0.663083 0.634648 0.062939
0.695054 0.635441 0.063718
0.727106 0.636236 0.064499
0.759237 0.637033 0.065282
0.791443 0.637833 0.066067
0.823721 0.638634 0.066854
0.856070 0.639437 0.067642
0.888283 0.640237 0.068427
0.918815 0.640996 0.069171
0.949331 0.641755 0.069915
0.965305 0.642161 0.070305
0.051073 0.652612 0.050532
0.051089 0.652625 0.050533
0.057027 0.652782 0.050679
0.083907 0.653449 0.051334
0.112060 0.654147 0.052020
0.140874 0.654862 0.052722
0.170147 0.655587 0.053435
0.199773 0.656322 0.054157
0.229690 0.657063 0.054886
0.259853 0.657811 0.055621
0.290230 0.658564 0.056362
0.320797 0.659322 0.057107
0.351534 0.660085 0.057856
0.382428 0.660851 0.058609
0.413464 0.661621 0.059365
0.444633 0.662394 0.060125
0.475925 0.663171 0.060887
0.507332 0.663950 0.061653
0.538848 0.664733 0.062421
0.570467 0.665518 0.063191
0.602184 0.666305 0.063964
0.633993 0.667095 0.064740
0.665891 0.667887 0.065517
0.697874 0.668682 0.066297
0.729938 0.669478 0.067078
0.762081 0.670277 0.067862
0.794299 0.671078 0.068647
0.826590 0.671880 0.069434
0.858951 0.672685 0.070223
0.891163 0.673486 0.071008
0.921576 0.674243 0.071749
0.951969 0.675000 0.072490
0.967879 0.675405 0.072879
0.053699 0.685878 0.053108
0.053716 0.685892 0.053109
0.059656 0.686050 0.053255
0.086544 0.686719 0.053910
0.114704 0.687418 0.054597
0.143526 0.688133 0.055299
0.172807 0.688860 0.056013
0.202442 0.689596 0.056735
0.232367 0.690339 0.057464
0.262539 0.691088 0.058200
0.292925 0.691843 0.058940
0.323501 0.692602 0.059686
0.354248 0.693366 0.060435
0.385151 0.694133 0.061188
0.416198 0.694904 0.061945
0.447376 0.695679 0.062705
0.478679 0.696457 0.063468
0.510097 0.697238 0.064234
0.541624 0.698021 0.065002
0.573254 0.698808 0.065773
0.604981 0.699597 0.066546
0.636802 0.700388 0.067322
0.668712 0.701182 0.068100
0.700707 0.701977 0.068880
0.732783 0.702775 0.069662
0.764938 0.703576 0.070445
0.797169 0.704378 0.071231
0.829472 0.705182 0.072019
0.861847 0.705988 0.072808
0.894057 0.706790 0.073593
0.924347 0.707546 0.074332
0.954614 0.708301 0.075070
0.970456 0.708705 0.075456
0.056332 0.719196 0.055688
0.056350 0.719211 0.055690
0.062292 0.719371 0.055836
0.089187 0.720040 0.056491
0.117355 0.720741 0.057178
0.146185 0.721457 0.057881
0.175474 0.722186 0.058595
0.205118 0.722923 0.059317
0.235052 0.723667 0.060047
0.265233 0.724417 0.060782
0.295628 0.725173 0.061523
0.326214 0.725934 0.062269
0.356971 0.726699 0.063019
0.387884 0.727468 0.063772
0.418941 0.728240 0.064529
0.450130 0.729016 0.065289
0.481443 0.729796 0.066053
0.512872 0.730578 0.066819
0.544410 0.731363 0.067588
0.576052 0.732151 0.068359
0.607791 0.732941 0.069133
0.639624 0.733734 0.069909
0.671545 0.734529 0.070687
0.703552 0.735326 0.071467
0.735641 0.736126 0.072250
0.767809 0.736927 0.073034
0.800052 0.737731 0.073820
0.832369 0.738537 0.074608
0.864757 0.739344 0.075397
0.896965 0.740148 0.076183
0.927128 0.740901 0.076918
0.957265 0.741655 0.077653
0.973038 0.742059 0.078038
0.058971 0.752565 0.058273
0.058990 0.752581 0.058274
0.064934 0.752741 0.058420
0.091837 0.753412 0.059076
0.120013 0.754114 0.059763
0.148851 0.754832 0.060466
0.178149 0.755561 0.061180
0.207802 0.756300 0.061903
0.237745 0.757045 0.062633
0.267935 0.757797 0.063369
0.298340 0.758554 0.064110
0.328936 0.759316 0.064856
0.359703 0.760083 0.065606
0.390627 0.760853 0.066360
0.421694 0.761627 0.067117
0.452894 0.762405 0.067878
0.484218 0.763185 0.068642
0.515659 0.763969 0.069408
0.547208 0.764755 0.070177
0.578861 0.765545 0.070949
0.610612 0.766336 0.071723
0.642457 0.767131 0.072500
0.674391 0.767927 0.073278
0.706411 0.768726 0.074059
0.738512 0.769527 0.074842
0.770693 0.770330 0.075626
0.802949 0.771136 0.076413
0.835280 0.771943 0.077201
0.867681 0.772752 0.077991
0.899888 0.773557 0.078776
0.929919 0.774308 0.079509
0.959922 0.775060 0.080241
0.975624 0.775463 0.080624
0.061616 0.785981 0.060861
0.061636 0.785998 0.060863
0.067582 0.786160 0.061009
0.094493 0.786832 0.061665
0.122678 0.787535 0.062352
0.151524 0.788255 0.063055
0.180831 0.788986 0.063770
0.210493 0.789725 0.064493
0.240446 0.790472 0.065223
0.270646 0.791226 0.065960
0.301061 0.791984 0.066701
0.331667 0.792748 0.067447
0.362445 0.793515 0.068198
0.393379 0.794287 0.068952
0.424457 0.795063 0.069710
0.455668 0.795842 0.070471
0.487004 0.796624 0.071235
0.518455 0.797409 0.072002
0.550017 0.798197 0.072771
