library/cube/Orange_Wave_002.cube
# CINEGRADE LAB — Premium Cinematic LUT
# Title: Orange Wave
# Category: Teal & Orange Modern
# Description: Complementary colors with modern cinematic teal and orange grading
# Mood: Blockbuster, cinematic, contemporary
# Variant: 3
# Generated: 2026-05-21T16:12:58.774774
TITLE "Orange Wave"
LUT_3D_SIZE 9
0.000851 0.016559 0.014876
0.021823 0.015789 0.014213
0.144474 0.016545 0.015070
0.270894 0.017402 0.016018
0.400874 0.018355 0.017056
0.534207 0.019402 0.018180
0.670692 0.020538 0.019386
0.809487 0.021751 0.020662
0.841697 0.021453 0.020422
0.002794 0.055945 0.013797
0.024922 0.055266 0.013274
0.153644 0.056187 0.014340
0.285673 0.057204 0.015492
0.420813 0.058313 0.016724
0.558871 0.059510 0.018035
0.699662 0.060791 0.019421
0.841046 0.062126 0.020850
0.872312 0.061900 0.020710
0.010140 0.205547 0.018338
0.033283 0.204808 0.017941
0.167310 0.205743 0.019196
0.304215 0.206777 0.020529
0.443815 0.207907 0.021935
0.585930 0.209129 0.023413
0.730391 0.210441 0.024959
0.872808 0.211776 0.026508
0.902962 0.211530 0.026455
0.017626 0.354209 0.023219
0.041660 0.353487 0.022946
0.180293 0.354501 0.024378
0.321404 0.355618 0.025879
0.464824 0.356835 0.027448
0.610390 0.358146 0.029081
0.757839 0.359548 0.030773
0.899812 0.360932 0.032418
0.928727 0.360730 0.032446
0.025270 0.502332 0.028442
0.050081 0.501696 0.028288
0.192671 0.502850 0.029883
0.337371 0.504109 0.031542
0.484028 0.505469 0.033260
0.632492 0.506926 0.035036
0.781567 0.508461 0.036851
0.922403 0.509944 0.038576
0.949990 0.509843 0.038680
0.033089 0.650284 0.034002
0.058573 0.649794 0.033962
0.204524 0.651140 0.035708
0.352252 0.652592 0.037510
0.501616 0.654145 0.039366
0.652482 0.655795 0.041272
0.802337 0.657503 0.043192
0.941011 0.659121 0.044976
0.967218 0.659169 0.045147
0.041099 0.798393 0.039891
0.067160 0.798103 0.039958
0.215933 0.799685 0.041841
0.366182 0.801371 0.043774
0.517783 0.803156 0.045753
0.670619 0.805037 0.047777
0.820559 0.806951 0.049783
0.956147 0.808729 0.051605
0.980956 0.808962 0.051835
0.049100 0.942440 0.045882
0.075672 0.942804 0.046067
0.226803 0.945005 0.048090
0.379144 0.947248 0.050153
0.532588 0.949530 0.052253
0.687038 0.951849 0.054388
0.836568 0.954116 0.056470
0.968258 0.956144 0.058311
0.991696 0.956615 0.058592
0.052315 0.981576 0.047166
0.079291 0.981968 0.047429
0.232335 0.984196 0.049547
0.386367 0.986439 0.051697
0.541302 0.988696 0.053877
0.697064 0.990964 0.056085
0.845875 0.993131 0.058206
0.972960 0.994982 0.060023
0.995078 0.995304 0.060322
0.001117 0.016473 0.071427
0.022212 0.015719 0.070588
0.145511 0.016499 0.071279
0.272531 0.017379 0.072065
0.403064 0.018355 0.072942
0.536905 0.019423 0.073907
0.673855 0.020579 0.074957
0.812977 0.021810 0.076078
0.845100 0.021525 0.075679
0.003076 0.055880 0.069760
0.025314 0.055218 0.069071
0.154604 0.056163 0.069982
0.287158 0.057203 0.070979
0.422778 0.058333 0.072059
0.561276 0.059551 0.073220
0.702465 0.060853 0.074458
0.844025 0.062204 0.075738
0.875185 0.061991 0.075447
0.010437 0.205453 0.073745
0.033675 0.204735 0.073193
0.168199 0.205695 0.074299
0.305558 0.206755 0.075485
0.445571 0.207909 0.076748
0.588062 0.209155 0.078082
0.732860 0.210489 0.079487
0.875294 0.211842 0.080892
0.905327 0.211611 0.080695
0.017939 0.354113 0.078103
0.042056 0.353414 0.077682
0.181117 0.354457 0.078972
0.322617 0.355601 0.080334
0.466390 0.356844 0.081764
0.612273 0.358181 0.083260
0.759927 0.359606 0.084816
0.901834 0.361009 0.086321
0.930618 0.360825 0.086211
0.025600 0.502258 0.082829
0.050483 0.501648 0.082534
0.193438 0.502832 0.083994
0.338469 0.504119 0.085518
0.485422 0.505507 0.087103
0.634150 0.506991 0.088747
0.783339 0.508550 0.090428
0.924001 0.510053 0.092016
0.951450 0.509971 0.091985
0.033437 0.650253 0.087915
0.058983 0.649792 0.087739
0.205242 0.651169 0.089354
0.353246 0.652650 0.091026
0.502856 0.654232 0.092751
0.653939 0.655909 0.094528
0.803831 0.657642 0.096316
0.942233 0.659279 0.097964
0.968298 0.659347 0.098001
0.041466 0.798425 0.093348
0.067580 0.798164 0.093282
0.216610 0.799777 0.095037
0.367087 0.801493 0.096841
0.518890 0.803308 0.098691
0.671902 0.805216 0.100586
0.821820 0.807154 0.102460
0.957047 0.808949 0.104144
0.981716 0.809203 0.104241
0.049494 0.942697 0.098899
0.076109 0.943068 0.098953
0.227451 0.945280 0.100846
0.379978 0.947533 0.102779
0.533586 0.949824 0.104749
0.688180 0.952151 0.106752
0.837646 0.954424 0.108700
0.968900 0.956452 0.110399
0.992201 0.956926 0.110541
0.052725 0.981840 0.099737
0.079738 0.982233 0.099867
0.232954 0.984463 0.101854
0.387138 0.986707 0.103871
0.542208 0.988965 0.105918
0.698091 0.991234 0.107989
0.846822 0.993399 0.109970
0.973410 0.995242 0.111638
0.995401 0.995562 0.111792
0.001829 0.016835 0.216787
0.023043 0.016096 0.215476
0.146980 0.016898 0.215712
0.274592 0.017800 0.216049
0.405669 0.018796 0.216486
0.540010 0.019884 0.217017
0.677416 0.021060 0.217640
0.816850 0.022308 0.218339
0.848882 0.022033 0.217519
0.003800 0.056260 0.213560
0.026143 0.055614 0.212427
0.155994 0.056581 0.212907
0.289063 0.057641 0.213480
0.425156 0.058792 0.214144
0.564084 0.060029 0.214894
0.705664 0.061350 0.215727
0.847383 0.062716 0.216606
0.878435 0.062513 0.215915
0.011170 0.205800 0.216071
0.034502 0.205101 0.215099
0.169513 0.206086 0.215798
0.307318 0.207169 0.216583
0.447738 0.208346 0.217449
0.590596 0.209614 0.218394
0.735724 0.210969 0.219413
0.878157 0.212339 0.220434
0.908068 0.212121 0.219855
0.018683 0.354454 0.219035
0.042882 0.353778 0.218216
0.182363 0.354847 0.219119
0.324245 0.356017 0.220099
0.468363 0.357285 0.221152
0.614556 0.358646 0.222274
0.762405 0.360093 0.223459
0.904234 0.361514 0.224594
0.932885 0.361345 0.224116
0.026357 0.502618 0.222439
0.051311 0.502033 0.221764
0.194624 0.503245 0.222853
0.339978 0.504560 0.224010
0.487220 0.505974 0.225232
0.636206 0.507484 0.226515
0.785500 0.509066 0.227837
0.925977 0.510586 0.229065
0.953287 0.510522 0.228675
0.034209 0.650654 0.226261
0.059815 0.650219 0.225720
0.206376 0.651626 0.226976
0.354650 0.653136 0.228292
0.504499 0.654744 0.229664
0.655794 0.656448 0.231089
0.805714 0.658204 0.232524
0.943834 0.659858 0.233816
0.969757 0.659946 0.233501
0.042253 0.798885 0.230474
0.068418 0.798651 0.230053
0.217699 0.800294 0.231457
0.368399 0.802039 0.232912
0.520398 0.803881 0.234414
0.673582 0.805816 0.235960
0.823470 0.807776 0.237484
0.958329 0.809588 0.238811
0.982856 0.809860 0.238554
0.050304 0.943370 0.234841
0.076961 0.943748 0.234543
0.228508 0.945970 0.236088
0.381216 0.948231 0.237672
0.534984 0.950530 0.239292
0.689717 0.952865 0.240945
0.839117 0.955142 0.242536
0.969927 0.957168 0.243872
0.993090 0.957644 0.243652
0.053548 0.982516 0.234495
0.080595 0.982907 0.234273
0.233979 0.985138 0.235908
0.388311 0.987382 0.237572
0.543513 0.989640 0.239261
0.699514 0.991909 0.240973
0.848163 0.994072 0.242586
0.974248 0.995905 0.243877
0.996112 0.996221 0.243652
0.002541 0.017200 0.361818
0.023874 0.016476 0.360042
0.148441 0.017301 0.359827
0.276636 0.018224 0.359722
0.408250 0.019241 0.359723
0.543083 0.020349 0.359826
0.680938 0.021543 0.360027
0.820669 0.022807 0.360308
0.852608 0.022544 0.359072
0.004524 0.056644 0.357050
0.026971 0.056013 0.355478
0.157375 0.057002 0.355533
0.290953 0.058083 0.355688
0.427511 0.059254 0.355939
0.566864 0.060511 0.356283
0.708828 0.061850 0.356716
0.850689 0.063231 0.357196
0.881631 0.063039 0.356110
0.011904 0.206153 0.358105
0.035327 0.205473 0.356717
0.170819 0.206482 0.357014
0.309064 0.207589 0.357401
0.449883 0.208788 0.357876
0.593103 0.210078 0.358434
0.738556 0.211454 0.359072
0.880971 0.212839 0.359711
0.910758 0.212635 0.358754
0.019429 0.354802 0.359691
0.043707 0.354148 0.358478
0.183602 0.355244 0.358997
0.325860 0.356440 0.359598
0.470317 0.357732 0.360277
0.616814 0.359117 0.361029
0.764849 0.360586 0.361847
0.906588 0.362023 0.362613
0.935105 0.361871 0.361771
0.027116 0.502986 0.361785
0.052139 0.502425 0.360734
0.195804 0.503666 0.361455
0.341475 0.505008 0.362248
0.489002 0.506448 0.363109
0.638240 0.507983 0.364034
0.787631 0.509587 0.364999
0.927913 0.511125 0.365867
0.955082 0.511079 0.365121
0.034982 0.651063 0.364353
0.060647 0.650654 0.363449
0.207504 0.652090 0.364349
0.356042 0.653628 0.365312
0.506127 0.655264 0.366332
0.657629 0.656994 0.367406
0.807572 0.658772 0.368490
0.945400 0.660443 0.369426
0.971180 0.660549 0.368759
0.043042 0.799353 0.367354
0.069257 0.799147 0.366579
0.218783 0.800820 0.367634
0.369702 0.802593 0.368741
0.521893 0.804462 0.369895
0.675246 0.806422 0.371094
0.825100 0.808405 0.372266
0.959582 0.810232 0.373237
0.983967 0.810523 0.372624
0.051115 0.944045 0.370541
0.077813 0.944430 0.369892
0.229561 0.946661 0.371089
0.382447 0.948931 0.372324
0.536371 0.951238 0.373594
0.691241 0.953579 0.374894
0.840571 0.955860 0.376129
0.970931 0.957884 0.377098
0.993957 0.958362 0.376514
0.054372 0.983190 0.369012
0.081452 0.983579 0.368437
0.235000 0.985811 0.369720
0.389479 0.988056 0.371028
0.544810 0.990314 0.372359
0.700928 0.992583 0.373708
0.849495 0.994742 0.374951
0.975070 0.996567 0.375859
0.996810 0.996879 0.375252
0.003253 0.017570 0.506525
0.024703 0.016861 0.504289
0.149893 0.017708 0.503629
0.278663 0.018652 0.503087
0.410806 0.019689 0.502657
0.546124 0.020816 0.502336
0.684422 0.022030 0.502120
0.824435 0.023310 0.501988
0.856280 0.023057 0.500340
0.005248 0.057032 0.500234
0.027799 0.056416 0.498228
0.158748 0.057427 0.497862
0.292827 0.058529 0.497603
0.429844 0.059720 0.497447
0.569614 0.060995 0.497389
0.711956 0.062353 0.497426
0.853944 0.063748 0.497513
0.884775 0.063567 0.496035
0.012639 0.206511 0.499849
0.036152 0.205849 0.498051
0.172118 0.206883 0.497949
0.310795 0.208013 0.497944
0.452008 0.209235 0.498031
0.595583 0.210546 0.498206
0.741355 0.211943 0.498466
0.883737 0.213343 0.498727
0.913399 0.213153 0.497394
0.020175 0.355157 0.500072
0.044532 0.354524 0.498469
0.184834 0.355646 0.498609
0.327462 0.356868 0.498834
0.472253 0.358184 0.499142
0.619049 0.359593 0.499527
0.767259 0.361083 0.499979
0.908897 0.362538 0.500381
0.937280 0.362401 0.499175
0.027875 0.503361 0.500869
0.052966 0.502824 0.499445
0.196977 0.504093 0.499801
0.342961 0.505462 0.500233
0.490767 0.506929 0.500735
0.640253 0.508488 0.501304
0.789732 0.510114 0.501914
0.929808 0.511669 0.502424
0.956837 0.511641 0.501324
0.035755 0.651480 0.502194
0.061479 0.651098 0.500929
0.208627 0.652563 0.501475
0.357425 0.654128 0.502085
0.507740 0.655791 0.502755
0.659445 0.657546 0.503480
0.809403 0.659347 0.504213
0.946931 0.661035 0.504795
0.972568 0.661159 0.503775
0.043831 0.799830 0.503989
0.070095 0.799651 0.502862
0.219863 0.801353 0.503569
0.370995 0.803154 0.504328
0.523375 0.805050 0.505135
0.676893 0.807036 0.505986
0.826708 0.809040 0.506807
0.960806 0.810883 0.507420
0.985050 0.811192 0.506452
0.051926 0.944721 0.505999
0.078665 0.945114 0.505000
0.230610 0.947353 0.505849
0.383670 0.949631 0.506735
0.537747 0.951946 0.507653
0.692752 0.954295 0.508601
0.842010 0.956579 0.509476
0.971912 0.958601 0.510078
0.994803 0.959081 0.509126
0.055196 0.983862 0.503287
0.082309 0.984251 0.502359
0.236019 0.986483 0.503287
0.390640 0.988729 0.504238
0.546099 0.990986 0.505208
0.702332 0.993256 0.506192
0.850818 0.995412 0.507061
0.975879 0.997227 0.507584
0.997496 0.997535 0.506589
0.003967 0.017943 0.650909
0.025531 0.017249 0.648219
0.151336 0.018118 0.647120
0.280673 0.019083 0.646145
0.413339 0.020140 0.645290
0.549135 0.021287 0.644550
0.687868 0.022519 0.643921
0.828148 0.023815 0.643381
0.859897 0.023572 0.641326
0.005973 0.057424 0.643114
0.028626 0.056823 0.640679
0.160112 0.057855 0.639898
0.294686 0.058978 0.639230
0.432155 0.060189 0.638670
0.572336 0.061483 0.638215
0.715050 0.062859 0.637860
0.857149 0.064268 0.637557
0.887866 0.064098 0.635691
0.013374 0.206874 0.641305
0.036977 0.206231 0.639102
0.173409 0.207289 0.638606
0.312513 0.208442 0.638212
0.454112 0.209686 0.637915
0.598037 0.211019 0.637711
0.744123 0.212437 0.637596
0.886454 0.213851 0.637482
0.915990 0.213675 0.635778
0.020922 0.355518 0.640181
0.045357 0.354907 0.638192
0.186060 0.356055 0.637955
0.329051 0.357302 0.637809
0.474170 0.358643 0.637748
0.621259 0.360074 0.637769
0.769635 0.361586 0.637859
0.911162 0.363057 0.637897
0.939410 0.362936 0.636331
0.028636 0.503744 0.639693
0.053793 0.503231 0.637899
0.198145 0.504528 0.637893
0.344435 0.505924 0.637965
0.492515 0.507415 0.638112
0.642244 0.508999 0.638327
0.791803 0.510648 0.638583
0.931663 0.512219 0.638737
0.958551 0.512208 0.637283
0.036530 0.651905 0.639783
0.062311 0.651549 0.638161
0.209744 0.653042 0.638355
0.358798 0.654635 0.638614
0.509339 0.656324 0.638935
0.661243 0.658105 0.639312
0.811210 0.659928 0.639695
0.948427 0.661632 0.639922
0.973921 0.661775 0.638550
0.044621 0.800315 0.640380
0.070934 0.800164 0.638902
0.220938 0.801894 0.639262
0.372280 0.803723 0.639674
0.524845 0.805645 0.640134
0.678524 0.807656 0.640637
0.828297 0.809681 0.641106
0.962001 0.811540 0.641361
0.986104 0.811866 0.640036
0.052738 0.945399 0.641216
0.079517 0.945799 0.639867
0.231655 0.948047 0.640367
0.384886 0.950333 0.640903
0.539113 0.952655 0.641470
0.694250 0.955011 0.642063
0.843434 0.957299 0.642577
0.972873 0.959318 0.642809
0.995628 0.959800 0.641488
0.056020 0.984534 0.637320
0.083167 0.984921 0.636037
0.237034 0.987154 0.636610
0.391796 0.989400 0.637202
0.547381 0.991658 0.637808
0.703727 0.993927 0.638424
0.852132 0.996080 0.638916
0.976675 0.997885 0.639049
0.998171 0.998190 0.637662
0.004680 0.018320 0.794974
0.026359 0.017640 0.791835
0.152769 0.018531 0.790302
0.282667 0.019517 0.788900
0.415847 0.020595 0.787624
0.552114 0.021760 0.786470
0.691276 0.023011 0.785434
0.831809 0.024323 0.784490
0.863459 0.024090 0.782032
0.006699 0.057819 0.785693
0.029452 0.057235 0.782834
0.161469 0.058288 0.781642
0.296529 0.059431 0.780570
0.434444 0.060661 0.779611
0.575029 0.061975 0.778763
0.718109 0.063368 0.778020
0.860302 0.064791 0.777331
0.890905 0.064632 0.775080
0.014110 0.207242 0.782477
0.037801 0.206618 0.779872
0.174693 0.207700 0.778986
0.314216 0.208876 0.778207
0.456197 0.210142 0.777531
0.600465 0.211496 0.776951
0.746858 0.212934 0.776465
0.889124 0.214364 0.775979
0.918533 0.214200 0.773905
0.021670 0.355885 0.780019
0.046182 0.355296 0.777647
0.187279 0.356470 0.777038
0.330628 0.357741 0.776523
0.476068 0.359106 0.776097
0.623445 0.360561 0.775757
0.771979 0.362093 0.775487
0.913384 0.363581 0.775164
0.941495 0.363476 0.773240
0.029397 0.504134 0.778258
0.054621 0.503645 0.776097
0.199307 0.504969 0.775732
0.345898 0.506391 0.775448
0.494246 0.507909 0.775240
0.644213 0.509517 0.775103
0.793845 0.511187 0.775007
0.933480 0.512775 0.774806
0.960226 0.512781 0.772999
0.037306 0.652338 0.777123
0.063143 0.652008 0.775145
0.210857 0.653529 0.774988
0.360160 0.655150 0.774899
0.510923 0.656865 0.774872
0.663021 0.658671 0.774902
0.812991 0.660515 0.774935
0.949890 0.662235 0.774808
0.975241 0.662395 0.773084
0.045413 0.800809 0.776527
0.071773 0.800684 0.774700
0.222009 0.802443 0.774713
0.373557 0.804299 0.774779
0.526302 0.806247 0.774892
0.680140 0.808283 0.775047
0.829865 0.810329 0.775164
0.963169 0.812202 0.775060
0.987132 0.812546 0.773376
0.053551 0.946079 0.776192
0.080368 0.946485 0.774493
0.232696 0.948742 0.774644
0.386094 0.951036 0.774830
0.540468 0.953366 0.775043
0.695735 0.955728 0.775280
0.844843 0.958020 0.775432
0.973812 0.960036 0.775291
0.996434 0.960520 0.773597
0.056846 0.985205 0.771111
0.084024 0.985590 0.769471
0.238046 0.987824 0.769687
0.392946 0.990070 0.769918
0.548655 0.992328 0.770158
0.705115 0.994596 0.770402
0.853438 0.996746 0.770514
0.977459 0.998543 0.770252
0.998837 0.998844 0.768467
0.005200 0.018507 0.899901
0.027005 0.017855 0.899021
0.154027 0.018780 0.899648
0.284489 0.019800 0.900300
0.418189 0.020909 0.900973
0.554932 0.022105 0.901664
0.694526 0.023384 0.902369
0.835305 0.024722 0.903064
0.866865 0.024509 0.902140
0.007275 0.058068 0.897792
0.030138 0.057510 0.896838
0.162689 0.058596 0.897455
0.298240 0.059770 0.898089
0.436603 0.061029 0.898736
0.577596 0.062371 0.899393
0.721044 0.063791 0.900057
0.863324 0.065237 0.900674
0.893819 0.065095 0.899633
0.014733 0.207502 0.900571
0.038521 0.206906 0.899529
0.175875 0.208021 0.900114
0.315820 0.209228 0.900708
0.458183 0.210525 0.901308
0.602797 0.211908 0.901911
0.749500 0.213373 0.902513
0.891690 0.214824 0.903019
0.920977 0.214680 0.901848
0.022336 0.356176 0.902977
0.046931 0.355616 0.901844
0.188424 0.356824 0.902383
0.332132 0.358127 0.902924
0.477895 0.359522 0.903464
0.625561 0.361006 0.904000
0.774249 0.362564 0.904518
0.915525 0.364073 0.904894
0.943505 0.363988 0.903585
0.030102 0.504473 0.905006
0.055397 0.504015 0.903774
0.200418 0.505372 0.904255
0.347309 0.506826 0.904729
0.495927 0.508373 0.905196
0.646132 0.510011 0.905651
0.795833 0.511706 0.906063
0.935236 0.513314 0.906288
0.961844 0.513341 0.904834
0.038046 0.652742 0.906647
0.063943 0.652441 0.905310
0.211936 0.653996 0.905716
0.361489 0.655647 0.906110
0.512472 0.657392 0.906488
0.664765 0.659226 0.906848
0.814734 0.661094 0.907136
0.951309 0.662833 0.907189
0.976519 0.663013 0.905579
0.046183 0.801289 0.907884
0.072593 0.801193 0.906432
0.223060 0.802984 0.906750
0.374812 0.804869 0.907048
0.527737 0.806846 0.907323
0.681732 0.808909 0.907572
0.831408 0.810977 0.907717
0.964306 0.812866 0.907574
0.988130 0.813228 0.905797
0.054353 0.946748 0.908524
0.081211 0.947163 0.906960
0.233726 0.949430 0.907182
0.387290 0.951734 0.907375
0.541810 0.954073 0.907535
0.697205 0.956443 0.907661
0.846237 0.958739 0.907646
0.974731 0.960753 0.907280
0.997220 0.961239 0.905319
0.057667 0.985869 0.903636
0.084878 0.986255 0.901920
0.239053 0.988489 0.902005
0.394089 0.990737 0.902052
0.549921 0.992995 0.902059
0.706494 0.995264 0.902023
0.854737 0.997411 0.901810
0.978232 0.999198 0.901180
0.999494 0.999496 0.899001
0.005399 0.018375 0.940077
0.027322 0.017745 0.940122
0.154941 0.018698 0.941636
0.285954 0.019744 0.943130
0.420160 0.020879 0.944601
0.557366 0.022100 0.946046
0.697382 0.023403 0.947462
0.838387 0.024761 0.948823
0.869850 0.024564 0.948518
0.007508 0.057978 0.940896
0.030475 0.057441 0.940718
0.163548 0.058553 0.942075
0.299576 0.059753 0.943405
0.438376 0.061037 0.944705
0.579766 0.062402 0.945974
0.723572 0.063845 0.947208
0.865919 0.065308 0.948351
0.896301 0.065181 0.947794
0.014996 0.207406 0.946108
0.038874 0.206834 0.945701
0.176679 0.207977 0.946883
0.317036 0.209212 0.948034
0.459772 0.210535 0.949150
0.604722 0.211942 0.950229
0.751725 0.213432 0.951268
0.893822 0.214900 0.952167
0.922983 0.214773 0.951352
0.022628 0.356097 0.950477
0.047301 0.355563 0.949841
0.189180 0.356800 0.950844
0.333237 0.358132 0.951809
0.479315 0.359555 0.952735
0.627262 0.361065 0.953619
0.776092 0.362647 0.954448
0.917227 0.364174 0.955095
0.945073 0.364108 0.954024
0.030420 0.504433 0.954021
0.055783 0.504002 0.953158
0.201131 0.505389 0.953975
0.348316 0.506872 0.954749
0.497195 0.508448 0.955481
0.647632 0.510112 0.956166
0.797392 0.511831 0.956772
0.936552 0.513457 0.957156
0.963021 0.513503 0.955829
0.038391 0.652757 0.956755
0.064345 0.652485 0.955667
0.212611 0.654070 0.956293
0.362407 0.655751 0.956872
0.513606 0.657524 0.957403
0.666087 0.659384 0.957885
0.816050 0.661276 0.958262
0.952290 0.663032 0.958370
0.977360 0.663231 0.956790
0.046553 0.801375 0.958696
0.073011 0.801308 0.957383
0.223703 0.803129 0.957812
0.375655 0.805043 0.958191
0.528755 0.807047 0.958519
0.682904 0.809136 0.958793
0.832527 0.811225 0.958933
0.965012 0.813130 0.958755
0.988698 0.813510 0.956923
0.054752 0.947014 0.959686
0.081649 0.947438 0.958162
0.234347 0.949716 0.958399
0.388073 0.952029 0.958580
0.542737 0.954376 0.958704
0.698258 0.956754 0.958770
0.847214 0.959054 0.958670
0.975227 0.961066 0.958194
0.997586 0.961555 0.956108
0.058083 0.986127 0.954823
0.085327 0.986513 0.953060
0.239652 0.988750 0.953077
0.394824 0.990998 0.953034
0.550778 0.993258 0.952932
0.707463 0.995528 0.952768
0.855629 0.997673 0.952408
0.978594 0.999452 0.951609
0.999747 0.999747 0.949257
