library/cube/Orange_Wave_002.cube
# CINEGRADE LAB — Premium Cinematic LUT
# Title: Orange Wave
# Category: Teal & Orange Modern
# Description: Complementary colors with modern cinematic teal and orange grading
# Mood: Blockbuster, cinematic, contemporary
# Variant: 3
# Generated: 2026-05-21T16:12:58.774774
TITLE "Orange Wave"
LUT_3D_SIZE 33
0.000851 0.016559 0.014876
0.000838 0.016286 0.014631
0.000825 0.016015 0.014387
0.000814 0.015747 0.014146
0.021823 0.015789 0.014213
0.052121 0.015968 0.014419
0.082664 0.016154 0.014630
0.113449 0.016346 0.014847
0.144474 0.016545 0.015070
0.175734 0.016750 0.015298
0.207226 0.016961 0.015533
0.238947 0.017179 0.015773
0.270894 0.017402 0.016018
0.303064 0.017631 0.016270
0.335452 0.017867 0.016526
0.368057 0.018108 0.016789
0.400874 0.018355 0.017056
0.433901 0.018608 0.017329
0.467134 0.018867 0.017608
0.500570 0.019132 0.017891
0.534207 0.019402 0.018180
0.568040 0.019678 0.018474
0.602068 0.019959 0.018773
0.636286 0.020246 0.019077
0.670692 0.020538 0.019386
0.705284 0.020836 0.019700
0.740004 0.021138 0.020019
0.774679 0.021442 0.020338
0.809487 0.021751 0.020662
0.834601 0.021921 0.020847
0.836996 0.021763 0.020704
0.839361 0.021607 0.020562
0.841697 0.021453 0.020422
0.000810 0.015651 0.014059
0.000801 0.015387 0.013821
0.000792 0.015126 0.013586
0.000785 0.014868 0.013353
0.022086 0.014923 0.013432
0.052793 0.015118 0.013651
0.083738 0.015320 0.013876
0.114917 0.015527 0.014107
0.146329 0.015741 0.014343
0.177968 0.015961 0.014585
0.209833 0.016187 0.014833
0.241919 0.016419 0.015086
0.274223 0.016657 0.015345
0.306743 0.016901 0.015609
0.339475 0.017151 0.015879
0.372416 0.017406 0.016154
0.405562 0.017668 0.016434
0.438911 0.017935 0.016719
0.472459 0.018207 0.017010
0.506204 0.018485 0.017306
0.540142 0.018769 0.017607
0.574270 0.019058 0.017913
0.608586 0.019353 0.018224
0.643086 0.019653 0.018539
0.677767 0.019958 0.018860
0.712626 0.020268 0.019186
0.747527 0.020582 0.019514
0.782377 0.020898 0.019844
0.817348 0.021218 0.020178
0.842540 0.021398 0.020371
0.844836 0.021247 0.020233
0.847103 0.021099 0.020098
0.849341 0.020952 0.019963
0.000782 0.014775 0.013268
0.000777 0.014521 0.013039
0.000772 0.014270 0.012811
0.000768 0.014021 0.012586
0.022352 0.014090 0.012678
0.053456 0.014301 0.012911
0.084790 0.014517 0.013149
0.116352 0.014740 0.013393
0.148138 0.014968 0.013643
0.180145 0.015203 0.013898
0.212369 0.015444 0.014159
0.244808 0.015690 0.014425
0.277459 0.015942 0.014697
0.310317 0.016201 0.014974
0.343381 0.016464 0.015256
0.376646 0.016734 0.015543
0.410110 0.017009 0.015836
0.443770 0.017290 0.016133
0.477622 0.017576 0.016436
0.511665 0.017867 0.016744
0.545893 0.018164 0.017056
0.580306 0.018466 0.017374
0.614899 0.018774 0.017696
0.649670 0.019087 0.018024
0.684615 0.019405 0.018356
0.719733 0.019728 0.018693
0.754773 0.020052 0.019030
0.789779 0.020379 0.019370
0.824893 0.020710 0.019713
0.850148 0.020900 0.019915
0.852346 0.020756 0.019783
0.854515 0.020615 0.019653
0.856655 0.020476 0.019525
0.000977 0.018347 0.012714
0.000974 0.018100 0.012492
0.000974 0.017857 0.012273
0.000974 0.017616 0.012056
0.022831 0.017696 0.012159
0.054319 0.017919 0.012405
0.086031 0.018149 0.012657
0.117962 0.018384 0.012914
0.150111 0.018625 0.013177
0.182473 0.018873 0.013445
0.215045 0.019126 0.013718
0.247825 0.019385 0.013997
0.280810 0.019649 0.014281
0.313996 0.019919 0.014570
0.347379 0.020195 0.014865
0.380958 0.020476 0.015164
0.414729 0.020763 0.015469
0.448689 0.021055 0.015778
0.482834 0.021353 0.016093
0.517163 0.021656 0.016412
0.551672 0.021964 0.016736
0.586358 0.022278 0.017065
0.621218 0.022596 0.017399
0.656250 0.022920 0.017737
0.691450 0.023249 0.018080
0.726816 0.023583 0.018428
0.761950 0.023916 0.018774
0.797091 0.024252 0.019123
0.832329 0.024592 0.019475
0.857634 0.024789 0.019685
0.859735 0.024651 0.019559
0.861807 0.024516 0.019435
0.863850 0.024382 0.019312
0.002794 0.055945 0.013797
0.002795 0.055690 0.013582
0.002797 0.055438 0.013370
0.002800 0.055189 0.013159
0.024922 0.055266 0.013274
0.056782 0.055487 0.013532
0.088857 0.055714 0.013796
0.121146 0.055948 0.014066
0.153644 0.056187 0.014340
0.186349 0.056433 0.014620
0.219257 0.056684 0.014906
0.252366 0.056941 0.015196
0.285673 0.057204 0.015492
0.319174 0.057473 0.015792
0.352866 0.057747 0.016098
0.386747 0.058027 0.016409
0.420813 0.058313 0.016724
0.455061 0.058604 0.017045
0.489489 0.058900 0.017370
0.524093 0.059202 0.017700
0.558871 0.059510 0.018035
0.593820 0.059822 0.018375
0.628937 0.060140 0.018719
0.664218 0.060463 0.019068
0.699662 0.060791 0.019421
0.735266 0.061125 0.019779
0.770448 0.061454 0.020133
0.805704 0.061788 0.020490
0.841046 0.062126 0.020850
0.866386 0.062321 0.021067
0.868390 0.062178 0.020947
0.870365 0.062038 0.020827
0.872312 0.061900 0.020710
0.004618 0.093457 0.014900
0.004623 0.093195 0.014693
0.004628 0.092937 0.014487
0.004634 0.092681 0.014284
0.027013 0.092755 0.014409
0.059231 0.092975 0.014680
0.091659 0.093202 0.014956
0.124293 0.093435 0.015237
0.157129 0.093673 0.015524
0.190165 0.093918 0.015816
0.223399 0.094169 0.016113
0.256825 0.094425 0.016415
0.290443 0.094688 0.016722
0.324248 0.094956 0.017034
0.358238 0.095230 0.017351
0.392410 0.095510 0.017672
0.426760 0.095795 0.017999
0.461287 0.096086 0.018330
0.495986 0.096383 0.018666
0.530856 0.096685 0.019007
0.565893 0.096992 0.019353
0.601094 0.097305 0.019703
0.636457 0.097623 0.020057
0.671980 0.097947 0.020416
0.707658 0.098275 0.020780
0.743398 0.098608 0.021146
0.778671 0.098936 0.021508
0.814023 0.099269 0.021873
0.849448 0.099605 0.022241
0.874811 0.099798 0.022465
0.876719 0.099652 0.022349
0.878598 0.099509 0.022235
0.880450 0.099368 0.022123
0.006451 0.130890 0.016025
0.006458 0.130623 0.015824
0.006467 0.130359 0.015626
0.006476 0.130099 0.015430
0.029102 0.130171 0.015566
0.061669 0.130391 0.015848
0.094437 0.130618 0.016136
0.127404 0.130851 0.016430
0.160568 0.131090 0.016728
0.193924 0.131335 0.017031
0.227471 0.131587 0.017339
0.261204 0.131844 0.017653
0.295122 0.132107 0.017971
0.329221 0.132376 0.018294
0.363497 0.132651 0.018622
0.397950 0.132931 0.018955
0.432574 0.133218 0.019292
0.467369 0.133510 0.019634
0.502330 0.133807 0.019981
0.537455 0.134110 0.020332
0.572741 0.134419 0.020688
0.608185 0.134733 0.021048
0.643785 0.135053 0.021413
0.679538 0.135377 0.021782
0.715442 0.135707 0.022155
0.751261 0.136039 0.022529
0.786622 0.136368 0.022899
0.822050 0.136700 0.023272
0.857540 0.137036 0.023648
0.882912 0.137228 0.023878
0.884725 0.137080 0.023768
0.886510 0.136934 0.023659
0.888268 0.136791 0.023551
0.008291 0.168251 0.017171
0.008302 0.167980 0.016977
0.008314 0.167712 0.016786
0.008326 0.167448 0.016597
0.031192 0.167520 0.016743
0.064095 0.167741 0.017038
0.097192 0.167969 0.017337
0.130482 0.168204 0.017642
0.163961 0.168444 0.017952
0.197627 0.168691 0.018267
0.231476 0.168944 0.018586
0.265505 0.169203 0.018911
0.299712 0.169468 0.019240
0.334094 0.169739 0.019574
0.368647 0.170015 0.019913
0.403370 0.170298 0.020256
0.438258 0.170586 0.020604
0.473310 0.170880 0.020957
0.508523 0.171180 0.021314
0.543893 0.171485 0.021675
0.579419 0.171796 0.022041
0.615096 0.172112 0.022412
0.650924 0.172434 0.022786
0.686899 0.172761 0.023165
0.723018 0.173094 0.023548
0.758875 0.173426 0.023930
0.794305 0.173755 0.024307
0.829790 0.174088 0.024687
0.865325 0.174425 0.025070
0.890695 0.174617 0.025307
0.892414 0.174467 0.025201
0.894106 0.174321 0.025098
0.895770 0.174177 0.024995
0.010140 0.205547 0.018338
0.010154 0.205273 0.018151
0.010169 0.205002 0.017967
0.010185 0.204735 0.017785
0.033283 0.204808 0.017941
0.066510 0.205032 0.018248
0.099925 0.205263 0.018559
0.133527 0.205500 0.018875
0.167310 0.205743 0.019196
0.201274 0.205992 0.019522
0.235415 0.206247 0.019853
0.269730 0.206509 0.020188
0.304215 0.206777 0.020529
0.338870 0.207050 0.020873
0.373690 0.207330 0.021223
0.408672 0.207616 0.021577
0.443815 0.207907 0.021935
0.479114 0.208204 0.022298
0.514569 0.208507 0.022665
0.550175 0.208815 0.023037
0.585930 0.209129 0.023413
0.621832 0.209449 0.023793
0.657878 0.209774 0.024177
0.694065 0.210105 0.024566
0.730391 0.210441 0.024959
0.766242 0.210773 0.025347
0.801722 0.211104 0.025731
0.837246 0.211438 0.026118
0.872808 0.211776 0.026508
0.898162 0.211969 0.026751
0.899789 0.211820 0.026651
0.901389 0.211673 0.026552
0.902962 0.211530 0.026455
0.011998 0.242785 0.019526
0.012015 0.242508 0.019347
0.012033 0.242236 0.019169
0.012053 0.241968 0.018994
0.035374 0.242043 0.019161
0.068915 0.242270 0.019479
0.102637 0.242504 0.019801
0.136539 0.242745 0.020129
0.170617 0.242991 0.020461
0.204868 0.243244 0.020798
0.239290 0.243503 0.021140
0.273880 0.243769 0.021486
0.308634 0.244040 0.021837
0.343551 0.244318 0.022192
0.378627 0.244601 0.022552
0.413860 0.244891 0.022916
0.449247 0.245186 0.023285
0.484785 0.245487 0.023658
0.520471 0.245794 0.024035
0.556304 0.246107 0.024417
0.592280 0.246425 0.024803
0.628396 0.246749 0.025193
0.664651 0.247079 0.025587
0.701042 0.247414 0.025985
0.737565 0.247754 0.026387
0.773367 0.248088 0.026780
0.808879 0.248420 0.027172
0.844422 0.248757 0.027565
0.879993 0.249098 0.027962
0.905319 0.249292 0.028211
0.906855 0.249144 0.028116
0.908364 0.248998 0.028022
0.909847 0.248856 0.027930
0.013865 0.279970 0.020736
0.013885 0.279693 0.020563
0.013907 0.279421 0.020393
0.013930 0.279152 0.020225
0.037467 0.279230 0.020402
0.071311 0.279462 0.020731
0.105329 0.279700 0.021065
0.139521 0.279945 0.021403
0.173882 0.280196 0.021746
0.208410 0.280454 0.022094
0.243103 0.280718 0.022446
0.277957 0.280988 0.022803
0.312971 0.281264 0.023165
0.348140 0.281547 0.023530
0.383462 0.281835 0.023901
0.418936 0.282130 0.024275
0.454557 0.282430 0.024654
0.490324 0.282736 0.025037
0.526233 0.283048 0.025424
0.562283 0.283366 0.025815
0.598470 0.283690 0.026211
0.634793 0.284019 0.026610
0.671248 0.284354 0.027013
0.707833 0.284694 0.027421
0.744546 0.285040 0.027832
0.780254 0.285375 0.028231
0.815778 0.285710 0.028629
0.851324 0.286050 0.029029
0.886885 0.286394 0.029431
0.912171 0.286591 0.029686
0.913617 0.286445 0.029596
0.915038 0.286301 0.029507
0.916433 0.286161 0.029420
0.015741 0.317109 0.021967
0.015764 0.316833 0.021801
0.015789 0.316561 0.021638
0.015816 0.316294 0.021477
0.039562 0.316376 0.021664
0.073697 0.316613 0.022004
0.108002 0.316857 0.022348
0.142472 0.317108 0.022698
0.177107 0.317364 0.023052
0.211902 0.317628 0.023410
0.246856 0.317897 0.023773
0.281965 0.318173 0.024140
0.317226 0.318455 0.024512
0.352638 0.318743 0.024888
0.388198 0.319037 0.025268
0.423902 0.319338 0.025653
0.459748 0.319644 0.026041
0.495735 0.319956 0.026434
0.531858 0.320274 0.026831
0.568116 0.320598 0.027232
0.604506 0.320928 0.027637
0.641026 0.321263 0.028045
0.677672 0.321604 0.028458
0.714444 0.321951 0.028874
0.751338 0.322303 0.029295
0.786907 0.322640 0.029698
0.822426 0.322979 0.030102
0.857955 0.323323 0.030508
0.893490 0.323670 0.030917
0.918723 0.323871 0.031177
0.920082 0.323728 0.031092
0.921416 0.323588 0.031008
0.922724 0.323451 0.030925
0.017626 0.354209 0.023219
0.017653 0.353935 0.023061
0.017682 0.353665 0.022904
0.017712 0.353400 0.022750
0.041660 0.353487 0.022946
0.076076 0.353730 0.023297
0.110656 0.353981 0.023653
0.145395 0.354238 0.024013
0.180293 0.354501 0.024378
0.215345 0.354771 0.024746
0.250549 0.355047 0.025120
0.285903 0.355330 0.025497
0.321404 0.355618 0.025879
0.357049 0.355913 0.026265
0.392836 0.356214 0.026655
0.428762 0.356521 0.027049
0.464824 0.356835 0.027448
0.501021 0.357154 0.027850
0.537349 0.357479 0.028256
0.573806 0.357810 0.028667
0.610390 0.358146 0.029081
0.647099 0.358489 0.029498
0.683929 0.358837 0.029920
0.720878 0.359191 0.030346
0.757839 0.359548 0.030773
0.793331 0.359889 0.031181
0.828827 0.360233 0.031591
0.864322 0.360581 0.032004
0.899812 0.360932 0.032418
0.924981 0.361138 0.032683
0.926255 0.360998 0.032603
0.927503 0.360863 0.032524
0.928727 0.360730 0.032446
0.019522 0.391275 0.024493
0.019552 0.391004 0.024341
0.019585 0.390737 0.024192
0.019618 0.390475 0.024044
0.043760 0.390568 0.024250
0.078447 0.390819 0.024612
0.113292 0.391077 0.024978
0.148290 0.391341 0.025349
0.183441 0.391612 0.025724
0.218740 0.391890 0.026103
0.254185 0.392173 0.026486
0.289775 0.392463 0.026874
0.325505 0.392760 0.027266
0.361374 0.393062 0.027661
0.397379 0.393371 0.028061
0.433518 0.393686 0.028465
0.469787 0.394007 0.028873
0.506185 0.394334 0.029285
0.542710 0.394667 0.029700
0.579358 0.395005 0.030120
0.616128 0.395350 0.030543
0.653016 0.395700 0.030970
0.690021 0.396056 0.031400
0.727140 0.396418 0.031834
0.764068 0.396781 0.032268
0.799530 0.397127 0.032682
0.834986 0.397476 0.033097
0.870430 0.397829 0.033515
0.905858 0.398186 0.033934
0.930952 0.398396 0.034205
0.932142 0.398262 0.034129
0.933307 0.398131 0.034055
0.934448 0.398004 0.033982
0.021427 0.428314 0.025788
0.021462 0.428047 0.025643
0.021497 0.427784 0.025501
0.021534 0.427526 0.025360
0.045863 0.427626 0.025575
0.080812 0.427886 0.025948
0.115911 0.428152 0.026324
0.151159 0.428425 0.026705
0.186552 0.428704 0.027090
0.222089 0.428990 0.027479
0.257766 0.429282 0.027873
0.293581 0.429580 0.028270
0.329532 0.429885 0.028672
0.365616 0.430196 0.029077
0.401830 0.430513 0.029486
0.438172 0.430837 0.029900
0.474640 0.431166 0.030317
0.511231 0.431502 0.030738
0.547944 0.431844 0.031162
0.584774 0.432191 0.031591
0.621721 0.432544 0.032023
0.658782 0.432903 0.032458
0.695954 0.433268 0.032898
0.733235 0.433639 0.033340
0.770096 0.434007 0.033779
0.805511 0.434359 0.034198
0.840909 0.434714 0.034619
0.876285 0.435073 0.035042
0.911634 0.435436 0.035466
0.936642 0.435652 0.035741
0.937750 0.435524 0.035670
0.938834 0.435399 0.035601
0.939894 0.435278 0.035533
0.023343 0.465331 0.027104
0.023381 0.465069 0.026966
0.023421 0.464812 0.026830
0.023461 0.464559 0.026697
0.047970 0.464667 0.026921
0.083170 0.464936 0.027304
0.118514 0.465211 0.027691
0.154001 0.465493 0.028082
0.189628 0.465781 0.028477
0.225393 0.466076 0.028876
0.261293 0.466378 0.029279
0.297325 0.466685 0.029686
0.333487 0.467000 0.030097
0.369776 0.467320 0.030512
0.406191 0.467647 0.030930
0.442728 0.467980 0.031353
0.479386 0.468319 0.031779
0.516162 0.468664 0.032209
0.553054 0.469015 0.032643
0.590059 0.469372 0.033080
0.627175 0.469735 0.033521
0.664400 0.470103 0.033965
0.701731 0.470478 0.034412
0.739167 0.470858 0.034864
0.775927 0.471232 0.035307
0.811278 0.471591 0.035731
0.846601 0.471952 0.036157
0.881893 0.472318 0.036585
0.917146 0.472687 0.037013
0.942058 0.472909 0.037293
0.943086 0.472788 0.037227
0.944091 0.472670 0.037162
0.945072 0.472556 0.037099
0.025270 0.502332 0.028442
0.025312 0.502076 0.028311
0.025355 0.501825 0.028182
0.025399 0.501578 0.028054
0.050081 0.501696 0.028288
0.085522 0.501974 0.028681
0.121102 0.502259 0.029078
0.156819 0.502551 0.029478
0.192671 0.502850 0.029883
0.228654 0.503155 0.030292
0.264767 0.503466 0.030705
0.301007 0.503784 0.031121
0.337371 0.504109 0.031542
0.373858 0.504439 0.031966
0.410465 0.504776 0.032393
0.447189 0.505119 0.032825
0.484028 0.505469 0.033260
0.520980 0.505824 0.033699
0.558043 0.506185 0.034141
0.595215 0.506553 0.034587
0.632492 0.506926 0.035036
0.669874 0.507305 0.035489
0.707357 0.507690 0.035945
0.744940 0.508080 0.036404
0.781567 0.508461 0.036851
0.816837 0.508826 0.037281
0.852070 0.509195 0.037711
0.887260 0.509568 0.038143
0.922403 0.509944 0.038576
0.947207 0.510173 0.038860
0.948157 0.510059 0.038798
0.949085 0.509949 0.038738
0.949990 0.509843 0.038680
0.027208 0.539322 0.029801
0.027253 0.539074 0.029676
0.027300 0.538830 0.029554
0.027348 0.538590 0.029433
0.052196 0.538717 0.029676
0.087869 0.539007 0.030079
0.123676 0.539303 0.030485
0.159613 0.539606 0.030896
0.195680 0.539915 0.031310
0.231873 0.540231 0.031728
0.268191 0.540553 0.032150
0.304630 0.540882 0.032576
0.341188 0.541218 0.033005
0.377863 0.541559 0.033439
0.414654 0.541907 0.033875
0.451556 0.542261 0.034316
0.488569 0.542622 0.034759
0.525690 0.542988 0.035207
0.562916 0.543360 0.035658
0.600246 0.543738 0.036112
0.637678 0.544123 0.036569
0.675209 0.544513 0.037030
0.712837 0.544909 0.037494
0.750560 0.545310 0.037961
0.787022 0.545698 0.038412
0.822195 0.546071 0.038846
0.857321 0.546448 0.039281
0.892394 0.546828 0.039717
0.927410 0.547211 0.040154
0.952097 0.547449 0.040442
0.952971 0.547343 0.040385
0.953824 0.547242 0.040329
0.954655 0.547144 0.040275
0.029157 0.576308 0.031180
0.029206 0.576067 0.031062
0.029257 0.575831 0.030946
0.029309 0.575600 0.030833
0.054317 0.575738 0.031084
0.090212 0.576039 0.031497
0.126235 0.576346 0.031913
0.162385 0.576661 0.032333
0.198658 0.576982 0.032756
0.235052 0.577310 0.033184
0.271565 0.577644 0.033615
0.308195 0.577984 0.034050
0.344939 0.578331 0.034488
0.381795 0.578685 0.034930
0.418760 0.579044 0.035376
0.455833 0.579410 0.035825
0.493012 0.579782 0.036277
0.530293 0.580160 0.036733
0.567676 0.580544 0.037192
0.605157 0.580934 0.037654
0.642735 0.581330 0.038120
0.680408 0.581732 0.038589
0.718174 0.582140 0.039061
0.756030 0.582553 0.039536
0.792297 0.582948 0.039989
0.827358 0.583329 0.040427
0.862361 0.583714 0.040866
0.897301 0.584102 0.041306
0.932175 0.584494 0.041746
0.956735 0.584739 0.042038
0.957536 0.584643 0.041986
0.958316 0.584551 0.041935
0.959076 0.584462 0.041885
0.031117 0.613293 0.032581
0.031170 0.613061 0.032470
0.031225 0.612834 0.032360
0.031280 0.612613 0.032253
0.056442 0.612762 0.032513
0.092551 0.613075 0.032935
0.128783 0.613395 0.033360
0.165135 0.613722 0.033790
0.201606 0.614055 0.034222
0.238192 0.614396 0.034659
0.274893 0.614742 0.035099
0.311705 0.615095 0.035543
0.348626 0.615455 0.035990
0.385654 0.615820 0.036441
0.422788 0.616192 0.036895
0.460023 0.616571 0.037352
0.497360 0.616955 0.037813
0.534795 0.617345 0.038276
0.572326 0.617742 0.038744
0.609951 0.618144 0.039214
0.647669 0.618553 0.039688
0.685477 0.618967 0.040164
0.723373 0.619387 0.040644
0.761355 0.619813 0.041126
0.797400 0.620215 0.041583
0.832333 0.620605 0.042024
0.867197 0.620999 0.042467
0.901990 0.621395 0.042910
0.936706 0.621796 0.043354
0.961129 0.622050 0.043649
0.961860 0.621964 0.043601
0.962570 0.621881 0.043554
0.963260 0.621803 0.043509
0.033089 0.650284 0.034002
0.033146 0.650061 0.033897
0.033205 0.649845 0.033794
0.033264 0.649633 0.033693
0.058573 0.649794 0.033962
0.094886 0.650121 0.034393
0.131318 0.650454 0.034828
0.167864 0.650794 0.035266
0.204524 0.651140 0.035708
0.241295 0.651494 0.036153
0.278175 0.651853 0.036602
0.315161 0.652219 0.037055
0.352252 0.652592 0.037510
0.389445 0.652971 0.037969
0.426738 0.653356 0.038432
0.464129 0.653747 0.038897
0.501616 0.654145 0.039366
0.539196 0.654548 0.039838
0.576869 0.654958 0.040313
0.614632 0.655373 0.040791
0.652482 0.655795 0.041272
0.690419 0.656222 0.041757
0.728439 0.656655 0.042244
0.766542 0.657094 0.042734
0.802337 0.657503 0.043192
0.837126 0.657903 0.043637
0.871837 0.658306 0.044083
0.906467 0.658712 0.044529
0.941011 0.659121 0.044976
0.965288 0.659385 0.045274
0.965951 0.659309 0.045231
0.966594 0.659237 0.045188
0.967218 0.659169 0.045147
0.035073 0.687284 0.035444
0.035134 0.687073 0.035346
0.035196 0.686867 0.035249
0.035260 0.686666 0.035154
0.060710 0.686840 0.035432
0.097219 0.687180 0.035872
0.133842 0.687527 0.036315
0.170574 0.687881 0.036762
0.207415 0.688241 0.037213
0.244362 0.688608 0.037667
0.281413 0.688982 0.038124
0.318566 0.689362 0.038585
0.355818 0.689748 0.039049
0.393168 0.690141 0.039516
0.430613 0.690539 0.039987
0.468152 0.690944 0.040460
0.505783 0.691356 0.040937
0.543503 0.691773 0.041417
0.581310 0.692196 0.041900
0.619203 0.692625 0.042385
0.657180 0.693060 0.042874
0.695238 0.693501 0.043365
0.733376 0.693948 0.043860
0.771593 0.694400 0.044357
0.807114 0.694818 0.044817
0.841744 0.695227 0.045265
0.876288 0.695639 0.045714
0.910741 0.696055 0.046163
0.945099 0.696473 0.046612
0.969221 0.696747 0.046914
0.969818 0.696682 0.046874
0.970397 0.696621 0.046836
0.970956 0.696565 0.046799
0.037069 0.724300 0.036906
0.037134 0.724100 0.036814
0.037201 0.723905 0.036724
0.037268 0.723716 0.036636
0.062853 0.723904 0.036921
0.099550 0.724259 0.037370
0.136355 0.724620 0.037822
0.173266 0.724988 0.038278
0.210279 0.725363 0.038737
0.247395 0.725744 0.039199
0.284609 0.726132 0.039665
0.321920 0.726527 0.040134
0.359327 0.726927 0.040606
0.396827 0.727334 0.041081
0.434417 0.727747 0.041560
0.472097 0.728166 0.042041
0.509864 0.728592 0.042525
0.547716 0.729023 0.043013
0.585652 0.729461 0.043503
0.623669 0.729904 0.043996
0.661765 0.730353 0.044492
0.699940 0.730808 0.044991
0.738190 0.731269 0.045492
0.776514 0.731736 0.045997
0.811739 0.732161 0.046457
0.846196 0.732581 0.046908
0.880558 0.733003 0.047360
0.914820 0.733428 0.047811
0.948978 0.733856 0.048262
0.972936 0.734140 0.048567
0.973471 0.734087 0.048532
0.973987 0.734038 0.048498
0.974486 0.733993 0.048465
0.039078 0.761334 0.038389
0.039147 0.761147 0.038303
0.039217 0.760965 0.038219
0.039289 0.760788 0.038137
0.065003 0.760990 0.038430
0.101880 0.761360 0.038887
0.138859 0.761737 0.039348
0.175939 0.762120 0.039813
0.213118 0.762510 0.040280
0.250394 0.762906 0.040751
0.287764 0.763309 0.041224
0.325227 0.763718 0.041701
0.362781 0.764133 0.042181
0.400423 0.764555 0.042664
0.438152 0.764983 0.043150
0.475966 0.765417 0.043639
0.513863 0.765858 0.044131
0.551841 0.766304 0.044626
0.589898 0.766756 0.045123
0.628033 0.767214 0.045624
0.666244 0.767678 0.046127
0.704528 0.768148 0.046632
0.742884 0.768623 0.047141
0.781312 0.769104 0.047652
0.816218 0.769538 0.048113
0.850488 0.769968 0.048566
0.884655 0.770400 0.049020
0.918712 0.770836 0.049473
0.952658 0.771274 0.049927
0.976444 0.771568 0.050234
0.976918 0.771528 0.050202
0.977376 0.771491 0.050172
0.977816 0.771458 0.050144
0.041099 0.798393 0.039891
0.041172 0.798219 0.039812
0.041246 0.798050 0.039734
0.041322 0.797886 0.039657
0.067160 0.798103 0.039958
0.104208 0.798489 0.040424
0.141354 0.798881 0.040894
0.178597 0.799280 0.041366
0.215933 0.799685 0.041841
0.253362 0.800097 0.042320
0.290881 0.800515 0.042802
0.328489 0.800940 0.043286
0.366182 0.801371 0.043774
0.403960 0.801808 0.044265
0.441821 0.802251 0.044758
0.479763 0.802701 0.045254
0.517783 0.803156 0.045753
0.555881 0.803618 0.046255
0.594054 0.804085 0.046760
0.632300 0.804558 0.047267
0.670619 0.805037 0.047777
0.709008 0.805522 0.048289
0.747465 0.806012 0.048804
0.785989 0.806508 0.049322
0.820559 0.806951 0.049783
0.854629 0.807392 0.050239
0.888587 0.807835 0.050694
0.922427 0.808280 0.051150
0.956147 0.808729 0.051605
0.979753 0.809034 0.051914
0.980170 0.809006 0.051886
0.980571 0.808982 0.051860
0.980956 0.808962 0.051835
0.043126 0.835327 0.041406
0.043203 0.835172 0.041333
0.043282 0.835022 0.041261
0.043362 0.834878 0.041191
0.069319 0.835116 0.041500
0.106530 0.835522 0.041974
0.143836 0.835936 0.042452
0.181233 0.836356 0.042932
0.218721 0.836782 0.043416
0.256296 0.837215 0.043903
0.293957 0.837653 0.044392
0.331702 0.838099 0.044885
0.369529 0.838550 0.045380
0.407436 0.839007 0.045878
0.445423 0.839470 0.046379
0.483486 0.839940 0.046883
0.521624 0.840415 0.047389
0.559835 0.840896 0.047898
0.598118 0.841382 0.048409
0.636471 0.841875 0.048923
0.674892 0.842373 0.049440
0.713381 0.842876 0.049959
0.751934 0.843385 0.050481
0.790551 0.843899 0.051005
0.824768 0.844354 0.051466
0.858625 0.844808 0.051924
0.892361 0.845265 0.052381
0.925971 0.845724 0.052838
0.959453 0.846185 0.053294
0.982871 0.846504 0.053605
0.983235 0.846492 0.053582
0.983583 0.846483 0.053560
0.983916 0.846478 0.053538
0.045110 0.871129 0.042886
0.045194 0.871041 0.042820
0.045279 0.870956 0.042757
0.045366 0.870875 0.042695
0.071438 0.871177 0.043014
0.108808 0.871648 0.043498
0.146268 0.872123 0.043986
0.183815 0.872604 0.044476
0.221447 0.873090 0.044969
0.259163 0.873582 0.045466
0.296961 0.874078 0.045965
0.334839 0.874579 0.046466
0.372795 0.875086 0.046971
0.410827 0.875597 0.047478
0.448934 0.876113 0.047987
0.487114 0.876634 0.048499
0.525366 0.877159 0.049014
0.563687 0.877689 0.049531
0.602076 0.878224 0.050051
