library/cube/Orange_Wave_002.cube
# CINEGRADE LAB — Premium Cinematic LUT
# Title: Orange Wave
# Category: Teal & Orange Modern
# Description: Complementary colors with modern cinematic teal and orange grading
# Mood: Blockbuster, cinematic, contemporary
# Variant: 3
# Generated: 2026-05-21T16:12:58.774774
TITLE "Orange Wave"
LUT_3D_SIZE 5
0.000851 0.016559 0.014876
0.144474 0.016545 0.015070
0.400874 0.018355 0.017056
0.670692 0.020538 0.019386
0.841697 0.021453 0.020422
0.010140 0.205547 0.018338
0.167310 0.205743 0.019196
0.443815 0.207907 0.021935
0.730391 0.210441 0.024959
0.902962 0.211530 0.026455
0.025270 0.502332 0.028442
0.192671 0.502850 0.029883
0.484028 0.505469 0.033260
0.781567 0.508461 0.036851
0.949990 0.509843 0.038680
0.041099 0.798393 0.039891
0.215933 0.799685 0.041841
0.517783 0.803156 0.045753
0.820559 0.806951 0.049783
0.980956 0.808962 0.051835
0.052315 0.981576 0.047166
0.232335 0.984196 0.049547
0.541302 0.988696 0.053877
0.845875 0.993131 0.058206
0.995078 0.995304 0.060322
0.001829 0.016835 0.216787
0.146980 0.016898 0.215712
0.405669 0.018796 0.216486
0.677416 0.021060 0.217640
0.848882 0.022033 0.217519
0.011170 0.205800 0.216071
0.169513 0.206086 0.215798
0.447738 0.208346 0.217449
0.735724 0.210969 0.219413
0.908068 0.212121 0.219855
0.026357 0.502618 0.222439
0.194624 0.503245 0.222853
0.487220 0.505974 0.225232
0.785500 0.509066 0.227837
0.953287 0.510522 0.228675
0.042253 0.798885 0.230474
0.217699 0.800294 0.231457
0.520398 0.803881 0.234414
0.823470 0.807776 0.237484
0.982856 0.809860 0.238554
0.053548 0.982516 0.234495
0.233979 0.985138 0.235908
0.543513 0.989640 0.239261
0.848163 0.994072 0.242586
0.996112 0.996221 0.243652
0.003253 0.017570 0.506525
0.149893 0.017708 0.503629
0.410806 0.019689 0.502657
0.684422 0.022030 0.502120
0.856280 0.023057 0.500340
0.012639 0.206511 0.499849
0.172118 0.206883 0.497949
0.452008 0.209235 0.498031
0.741355 0.211943 0.498466
0.913399 0.213153 0.497394
0.027875 0.503361 0.500869
0.196977 0.504093 0.499801
0.490767 0.506929 0.500735
0.789732 0.510114 0.501914
0.956837 0.511641 0.501324
0.043831 0.799830 0.503989
0.219863 0.801353 0.503569
0.523375 0.805050 0.505135
0.826708 0.809040 0.506807
0.985050 0.811192 0.506452
0.055196 0.983862 0.503287
0.236019 0.986483 0.503287
0.546099 0.990986 0.505208
0.850818 0.995412 0.507061
0.997496 0.997535 0.506589
0.004680 0.018320 0.794974
0.152769 0.018531 0.790302
0.415847 0.020595 0.787624
0.691276 0.023011 0.785434
0.863459 0.024090 0.782032
0.014110 0.207242 0.782477
0.174693 0.207700 0.778986
0.456197 0.210142 0.777531
0.746858 0.212934 0.776465
0.918533 0.214200 0.773905
0.029397 0.504134 0.778258
0.199307 0.504969 0.775732
0.494246 0.507909 0.775240
0.793845 0.511187 0.775007
0.960226 0.512781 0.772999
0.045413 0.800809 0.776527
0.222009 0.802443 0.774713
0.526302 0.806247 0.774892
0.829865 0.810329 0.775164
0.987132 0.812546 0.773376
0.056846 0.985205 0.771111
0.238046 0.987824 0.769687
0.548655 0.992328 0.770158
0.853438 0.996746 0.770514
0.998837 0.998844 0.768467
0.005399 0.018375 0.940077
0.154941 0.018698 0.941636
0.420160 0.020879 0.944601
0.697382 0.023403 0.947462
0.869850 0.024564 0.948518
0.014996 0.207406 0.946108
0.176679 0.207977 0.946883
0.459772 0.210535 0.949150
0.751725 0.213432 0.951268
0.922983 0.214773 0.951352
0.030420 0.504433 0.954021
0.201131 0.505389 0.953975
0.497195 0.508448 0.955481
0.797392 0.511831 0.956772
0.963021 0.513503 0.955829
0.046553 0.801375 0.958696
0.223703 0.803129 0.957812
0.528755 0.807047 0.958519
0.832527 0.811225 0.958933
0.988698 0.813510 0.956923
0.058083 0.986127 0.954823
0.239652 0.988750 0.953077
0.550778 0.993258 0.952932
0.855629 0.997673 0.952408
0.999747 0.999747 0.949257
