library/cube/Oslo_Light_001.cube
# CINEGRADE LAB — Premium Cinematic LUT
# Title: Oslo Light
# Category: Minimal Scandinavian
# Description: Clean, bright, muted, airy aesthetic inspired by Scandinavian design
# Mood: Calm, airy, minimal
# Variant: 2
# Generated: 2026-05-21T16:12:25.876971
TITLE "Oslo Light"
LUT_3D_SIZE 9
0.231735 0.232528 0.248265
0.284676 0.241120 0.256717
0.341192 0.250287 0.265746
0.400565 0.259913 0.275235
0.462341 0.269924 0.285109
0.526204 0.280268 0.295318
0.591917 0.290908 0.305823
0.659298 0.301814 0.316594
0.673108 0.304056 0.318656
0.260700 0.305933 0.276697
0.313699 0.314537 0.285150
0.370274 0.323715 0.294181
0.429705 0.333352 0.303671
0.491537 0.343373 0.313548
0.555453 0.353727 0.323760
0.621217 0.364376 0.334267
0.688648 0.375292 0.345042
0.702456 0.377538 0.347114
0.291624 0.384308 0.307077
0.344675 0.392921 0.315532
0.401300 0.402108 0.324566
0.460782 0.411754 0.334060
0.522662 0.421783 0.343941
0.586624 0.432145 0.354157
0.652432 0.442802 0.364669
0.719903 0.453724 0.375449
0.733707 0.455974 0.377533
0.324111 0.466648 0.339012
0.377206 0.475269 0.347472
0.433876 0.484463 0.356511
0.493400 0.494115 0.366011
0.555321 0.504151 0.375897
0.619321 0.514519 0.386120
0.685164 0.525181 0.396639
0.752667 0.536107 0.407426
0.766463 0.538358 0.409523
0.357908 0.552316 0.372259
0.411041 0.560942 0.380726
0.467748 0.570141 0.389772
0.527306 0.579797 0.399279
0.589259 0.589836 0.409174
0.653289 0.600207 0.419405
0.719159 0.610871 0.429933
0.786684 0.621800 0.440731
0.800471 0.624050 0.442841
0.392835 0.640864 0.406650
0.445998 0.649492 0.415126
0.502734 0.658693 0.424181
0.562319 0.668350 0.433698
0.624297 0.678390 0.443603
0.688347 0.688761 0.453845
0.754235 0.699425 0.464385
0.821775 0.710352 0.475194
0.835548 0.712599 0.477321
0.428755 0.731953 0.442062
0.481941 0.740581 0.450550
0.538698 0.749781 0.459617
0.598302 0.759437 0.469146
0.660295 0.769475 0.479064
0.724359 0.779844 0.489319
0.790256 0.790504 0.499873
0.857801 0.801428 0.510697
0.871557 0.803669 0.512841
0.465561 0.825322 0.478405
0.518762 0.833947 0.486906
0.575532 0.843143 0.495987
0.635146 0.852795 0.505531
0.697147 0.862828 0.515464
0.761215 0.873191 0.525734
0.827112 0.883845 0.536305
0.894654 0.894762 0.547146
0.908389 0.896994 0.549310
0.473159 0.844366 0.485576
0.526365 0.852981 0.494095
0.583138 0.862168 0.503194
0.642752 0.871809 0.512756
0.704750 0.881832 0.522708
0.768811 0.892184 0.532999
0.834698 0.902827 0.543589
0.902227 0.913733 0.554451
0.915936 0.915953 0.556637
0.234657 0.235446 0.295960
0.287604 0.244038 0.304400
0.344127 0.253206 0.313417
0.403506 0.262832 0.322895
0.465288 0.272843 0.332760
0.529156 0.283188 0.342958
0.594875 0.293829 0.353453
0.662262 0.304735 0.364214
0.676072 0.306977 0.366268
0.263626 0.308855 0.324354
0.316631 0.317459 0.332797
0.373211 0.326638 0.341817
0.432647 0.336275 0.351299
0.494484 0.346296 0.361166
0.558405 0.356650 0.371369
0.624175 0.367300 0.381868
0.691609 0.378216 0.392634
0.705417 0.380462 0.394699
0.294553 0.387233 0.354700
0.347608 0.395846 0.363147
0.404239 0.405034 0.372172
0.463725 0.414679 0.381658
0.525610 0.424709 0.391531
0.589576 0.435071 0.401739
0.655388 0.445728 0.412244
0.722862 0.456650 0.423017
0.736665 0.458900 0.425095
0.327043 0.469576 0.386607
0.380142 0.478196 0.395059
0.436816 0.487391 0.404091
0.496343 0.497043 0.413583
0.558268 0.507078 0.423463
0.622271 0.517446 0.433679
0.688117 0.528108 0.444193
0.755622 0.539034 0.454975
0.769418 0.541285 0.457066
0.360841 0.555246 0.419829
0.413977 0.563871 0.428290
0.470687 0.573070 0.437329
0.530248 0.582726 0.446831
0.592204 0.592765 0.456720
0.656236 0.603135 0.466946
0.722108 0.613799 0.477470
0.789635 0.624727 0.488263
0.803421 0.626977 0.490370
0.395768 0.643794 0.454199
0.448934 0.652421 0.462670
0.505672 0.661622 0.471720
0.565259 0.671279 0.481233
0.627239 0.681318 0.491134
0.691291 0.691689 0.501372
0.757180 0.702352 0.511909
0.824721 0.713279 0.522715
0.838492 0.715525 0.524839
0.431688 0.734884 0.489596
0.484876 0.743511 0.498079
0.541634 0.752710 0.507142
0.601239 0.762365 0.516668
0.663234 0.772403 0.526583
0.727298 0.782770 0.536836
0.793195 0.793430 0.547388
0.860741 0.804353 0.558210
0.874494 0.806593 0.560354
0.468492 0.828252 0.525927
0.521694 0.836875 0.534425
0.578465 0.846071 0.543504
0.638080 0.855721 0.553045
0.700081 0.865753 0.562977
0.764149 0.876115 0.573246
0.830045 0.886769 0.583816
0.897586 0.897684 0.594657
0.911319 0.899915 0.596821
0.476087 0.847292 0.533091
0.529293 0.855906 0.541608
0.586066 0.865092 0.550706
0.645680 0.874732 0.560268
0.707678 0.884754 0.570220
0.771738 0.895105 0.580510
0.837624 0.905747 0.591101
0.905150 0.916651 0.601964
0.918857 0.918870 0.604151
0.237774 0.238558 0.346845
0.290727 0.247152 0.355273
0.347256 0.256320 0.364279
0.406641 0.265947 0.373745
0.468430 0.275958 0.383598
0.532303 0.286304 0.393786
0.598028 0.296945 0.404271
0.665420 0.307852 0.415022
0.679230 0.310094 0.417067
0.266747 0.311972 0.375200
0.319757 0.320576 0.383632
0.376342 0.329755 0.392642
0.435784 0.339392 0.402113
0.497626 0.349414 0.411971
0.561552 0.359769 0.422164
0.627326 0.370419 0.432654
0.694765 0.381334 0.443412
0.708573 0.383581 0.445470
0.297677 0.390353 0.405511
0.350737 0.398966 0.413949
0.407372 0.408154 0.422965
0.466862 0.417800 0.432442
0.528752 0.427829 0.442306
0.592722 0.438192 0.452506
0.658537 0.448849 0.463004
0.726015 0.459771 0.473770
0.739818 0.462020 0.475841
0.330169 0.472698 0.437387
0.383272 0.481319 0.445832
0.439950 0.490513 0.454856
0.499481 0.500165 0.464341
0.561409 0.510201 0.474214
0.625416 0.520568 0.484423
0.691264 0.531230 0.494931
0.758772 0.542156 0.505707
0.772567 0.544406 0.507793
0.363969 0.558370 0.470583
0.417108 0.566995 0.479038
0.473821 0.576194 0.488071
0.533385 0.585849 0.497566
0.595344 0.595888 0.507450
0.659378 0.606258 0.517671
0.725252 0.616922 0.528190
0.792781 0.627849 0.538978
0.806565 0.630098 0.541082
0.398896 0.646919 0.504932
0.452064 0.655546 0.513398
0.508805 0.664746 0.522443
0.568394 0.674403 0.531951
0.630375 0.684442 0.541848
0.694429 0.694812 0.552082
0.760319 0.705474 0.562616
0.827861 0.716400 0.573419
0.841630 0.718646 0.575541
0.434816 0.738009 0.540312
0.488005 0.746635 0.548792
0.544765 0.755834 0.557851
0.604371 0.765488 0.567374
0.666367 0.775525 0.577286
0.730432 0.785892 0.587536
0.796329 0.796551 0.598086
0.863875 0.807473 0.608907
0.877626 0.809712 0.611049
0.471618 0.831376 0.576631
0.524821 0.839998 0.585127
0.581592 0.849193 0.594203
0.641208 0.858843 0.603743
0.703209 0.868874 0.613673
0.767277 0.879234 0.623941
0.833173 0.889887 0.634510
0.900713 0.900801 0.645351
0.914443 0.903031 0.647515
0.479209 0.850413 0.583788
0.532416 0.859026 0.592305
0.589189 0.868210 0.601402
0.648803 0.877850 0.610963
0.710800 0.887870 0.620914
0.774859 0.898220 0.631205
0.840743 0.908861 0.641797
0.908268 0.919764 0.652660
0.921972 0.921982 0.654849
0.241046 0.241826 0.400270
0.294005 0.250420 0.408686
0.350540 0.259589 0.417679
0.409932 0.269216 0.427134
0.471726 0.279229 0.436976
0.535605 0.289574 0.447153
0.601335 0.300216 0.457627
0.668732 0.311123 0.468368
0.682542 0.313365 0.470404
0.270022 0.315243 0.428585
0.323038 0.323848 0.437006
0.379629 0.333028 0.446005
0.439076 0.342665 0.455466
0.500923 0.352687 0.465314
0.564854 0.363043 0.475498
0.630633 0.373693 0.485979
0.698076 0.384609 0.496727
0.711884 0.386855 0.498777
0.300956 0.393628 0.458861
0.354021 0.402242 0.467288
0.410660 0.411430 0.476295
0.470155 0.421076 0.485763
0.532049 0.431105 0.495619
0.596023 0.441468 0.505811
0.661842 0.452125 0.516301
0.729323 0.463047 0.527059
0.743126 0.465296 0.529124
0.333450 0.475976 0.490705
0.386557 0.484597 0.499142
0.443239 0.493791 0.508157
0.502774 0.503443 0.517635
0.564705 0.513478 0.527501
0.628715 0.523846 0.537703
0.694567 0.534507 0.548204
0.762077 0.545433 0.558975
0.775871 0.547683 0.561056
0.367251 0.561650 0.523875
0.420394 0.570275 0.532322
0.477110 0.579473 0.541349
0.536677 0.589128 0.550838
0.598638 0.599167 0.560716
0.662675 0.609536 0.570932
0.728551 0.620200 0.581446
0.796082 0.631127 0.592230
0.809864 0.633375 0.594330
0.402180 0.650199 0.558202
0.455350 0.658826 0.566662
0.512092 0.668026 0.575702
0.571684 0.677682 0.585206
0.633667 0.687720 0.595098
0.697723 0.698090 0.605328
0.763614 0.708752 0.615858
0.831156 0.719677 0.626659
0.844924 0.721922 0.628778
0.438098 0.741289 0.593565
0.491290 0.749915 0.602040
0.548051 0.759113 0.611096
0.607658 0.768767 0.620616
0.669655 0.778802 0.630525
0.733721 0.789168 0.640773
0.799618 0.799827 0.651321
0.867163 0.810748 0.662140
0.880913 0.812986 0.664281
0.474899 0.834655 0.629872
0.528103 0.843276 0.638365
0.584875 0.852470 0.647438
0.644491 0.862119 0.656977
0.706493 0.872149 0.666905
0.770560 0.882509 0.677172
0.836455 0.893160 0.687741
0.903994 0.904074 0.698581
0.917722 0.906302 0.700746
0.482487 0.853689 0.637022
0.535694 0.862301 0.645537
0.592466 0.871484 0.654633
0.652080 0.881123 0.664194
0.714076 0.891142 0.674145
0.778135 0.901491 0.684436
0.844017 0.912131 0.695029
0.911540 0.923032 0.705893
0.925242 0.925249 0.708084
0.244448 0.245224 0.455825
0.297413 0.253819 0.464227
0.353954 0.262988 0.473209
0.413352 0.272616 0.482651
0.475152 0.282629 0.492482
0.539037 0.292975 0.502647
0.604772 0.303617 0.513111
0.672175 0.314525 0.523841
0.685985 0.316767 0.525868
0.273428 0.318646 0.484098
0.326449 0.327251 0.492508
0.383046 0.336431 0.501496
0.442498 0.346069 0.510946
0.504350 0.356091 0.520784
0.568286 0.366447 0.530958
0.634069 0.377097 0.541429
0.701517 0.388013 0.552169
0.715324 0.390260 0.554211
0.304365 0.397033 0.514337
0.357434 0.405647 0.522755
0.414079 0.414836 0.531752
0.473578 0.424482 0.541211
0.535476 0.434512 0.551058
0.599454 0.444874 0.561242
0.665277 0.455531 0.571724
0.732762 0.466454 0.582475
0.746563 0.468702 0.584534
0.336861 0.479384 0.546150
0.389973 0.488005 0.554578
0.446658 0.497199 0.563585
0.506197 0.506851 0.573056
0.568131 0.516886 0.582914
0.632144 0.527254 0.593110
0.697999 0.537915 0.603605
0.765512 0.548841 0.614369
0.779305 0.551090 0.616445
0.370664 0.565060 0.579293
0.423810 0.573684 0.587733
0.480529 0.582882 0.596753
0.540099 0.592537 0.606236
0.602063 0.602575 0.616109
0.666102 0.612945 0.626319
0.731979 0.623608 0.636828
0.799512 0.634534 0.647608
0.813293 0.636782 0.649704
0.405593 0.653610 0.613598
0.458766 0.662236 0.622052
0.515511 0.671436 0.631088
0.575104 0.681091 0.640586
0.637089 0.691129 0.650474
0.701146 0.701498 0.660701
0.767038 0.712159 0.671227
0.834581 0.723084 0.682025
0.848347 0.725328 0.684142
0.441511 0.744699 0.648944
0.494704 0.753324 0.657415
0.551467 0.762522 0.666467
0.611076 0.772175 0.675984
0.673073 0.782210 0.685890
0.737139 0.792575 0.696135
0.803037 0.803233 0.706681
0.870582 0.814153 0.717499
0.884329 0.816390 0.719639
0.478311 0.838064 0.685238
0.531516 0.846685 0.693729
0.588288 0.855878 0.702800
0.647904 0.865526 0.712337
0.709906 0.875555 0.722264
0.773972 0.885914 0.732531
0.839867 0.896564 0.743099
0.907405 0.907476 0.753939
0.921130 0.909704 0.756104
0.485895 0.857095 0.692382
0.539102 0.865706 0.700896
0.595874 0.874888 0.709991
0.655488 0.884526 0.719552
0.717483 0.894544 0.729503
0.781540 0.904892 0.739795
0.847421 0.915530 0.750388
0.914942 0.926431 0.761255
0.928641 0.928646 0.763447
0.247962 0.248736 0.513221
0.300934 0.257331 0.521611
0.357481 0.266501 0.530580
0.416885 0.276129 0.540010
0.478691 0.286143 0.549829
0.542582 0.296490 0.559983
0.608322 0.307132 0.570435
0.675730 0.318040 0.581156
0.689540 0.320282 0.583173
0.276947 0.322161 0.541453
0.329973 0.330767 0.549851
0.386575 0.339947 0.558828
0.446032 0.349585 0.568268
0.507890 0.359608 0.578095
0.571831 0.369964 0.588259
0.637618 0.380615 0.598721
0.705070 0.391531 0.609452
0.718877 0.393777 0.611486
0.307887 0.400552 0.571655
0.360961 0.409166 0.580062
0.417610 0.418355 0.589050
0.477114 0.428001 0.598500
0.539016 0.438031 0.608338
0.602998 0.448394 0.618514
0.668824 0.459051 0.628988
0.736312 0.469973 0.639732
0.750113 0.472222 0.641783
0.340386 0.482905 0.603435
0.393501 0.491526 0.611855
0.450190 0.500720 0.620854
0.509732 0.510372 0.630317
0.571670 0.520407 0.640168
0.635686 0.530774 0.650357
0.701544 0.541436 0.660846
0.769059 0.552361 0.671604
0.782851 0.554610 0.673675
0.374190 0.568582 0.636551
0.427339 0.577207 0.644984
0.484061 0.586405 0.653998
0.543633 0.596059 0.663475
0.605600 0.606097 0.673342
0.669641 0.616466 0.683546
0.735521 0.627129 0.694051
0.803054 0.638055 0.704826
0.816834 0.640302 0.706919
0.409119 0.657133 0.670834
0.462295 0.665759 0.679283
0.519041 0.674958 0.688314
0.578637 0.684613 0.697808
0.640623 0.694650 0.707692
0.704681 0.705019 0.717914
0.770574 0.715680 0.728437
0.838118 0.726604 0.739232
0.851882 0.728847 0.741347
0.445037 0.748223 0.706163
0.498231 0.756847 0.714631
0.554995 0.766044 0.723679
0.614605 0.775696 0.733193
0.676603 0.785730 0.743096
0.740670 0.796095 0.753339
0.806568 0.806752 0.763884
0.874112 0.817671 0.774700
0.887858 0.819907 0.776840
0.481835 0.841586 0.742446
0.535040 0.850206 0.750934
0.591813 0.859398 0.760004
0.651430 0.869045 0.769539
0.713431 0.879073 0.779465
0.777498 0.889431 0.789731
0.843391 0.900080 0.800298
0.910928 0.910991 0.811139
0.924651 0.913217 0.813305
0.489415 0.860614 0.749584
0.542622 0.869224 0.758097
0.599395 0.878405 0.767192
0.659008 0.888041 0.776752
0.721002 0.898059 0.786704
0.785058 0.908405 0.796996
0.850938 0.919043 0.807591
0.918456 0.929942 0.818459
0.932153 0.932155 0.820653
0.251577 0.252347 0.572248
0.304555 0.260943 0.580624
0.361108 0.270113 0.589580
0.420518 0.279742 0.598998
0.482330 0.289756 0.608805
0.546226 0.300104 0.618948
0.611972 0.310746 0.629389
0.679385 0.321655 0.640099
0.693195 0.323898 0.642107
0.280566 0.325776 0.600437
0.333598 0.334382 0.608823
0.390204 0.343563 0.617789
0.449667 0.353201 0.627218
0.511530 0.363225 0.637035
0.575475 0.373581 0.647189
0.641267 0.384232 0.657642
0.708723 0.395148 0.668364
0.722529 0.397395 0.670390
0.311509 0.404170 0.630601
0.364588 0.412785 0.638999
0.421241 0.421973 0.647977
0.480749 0.431620 0.657418
0.542655 0.441650 0.667247
0.606641 0.452013 0.677414
0.672471 0.462670 0.687881
0.739962 0.473592 0.698617
0.753763 0.475841 0.700663
0.344010 0.486526 0.662350
0.397129 0.495147 0.670761
0.453822 0.504341 0.679752
0.513367 0.513993 0.689207
0.575309 0.524028 0.699051
0.639328 0.534395 0.709234
0.705188 0.545056 0.719716
0.772705 0.555981 0.730468
0.786496 0.558230 0.732535
0.377816 0.572205 0.695439
0.430968 0.580829 0.703865
0.487692 0.590027 0.712872
0.547268 0.599681 0.722343
0.609237 0.609718 0.732204
0.673280 0.620087 0.742404
0.739161 0.630749 0.752904
0.806697 0.641675 0.763674
0.820475 0.643922 0.765763
0.412745 0.660757 0.729700
0.465923 0.669382 0.738144
0.522672 0.678580 0.747169
0.582269 0.688235 0.756658
0.644257 0.698272 0.766538
0.708317 0.708639 0.776757
0.774210 0.719300 0.787277
0.841755 0.730223 0.798069
0.855517 0.732465 0.800182
0.448662 0.751846 0.765012
0.501858 0.760469 0.773476
0.558623 0.769665 0.782521
0.618235 0.779317 0.792031
0.680233 0.789351 0.801933
0.744300 0.799714 0.812174
0.810198 0.810370 0.822717
0.877742 0.821288 0.833532
0.891485 0.823523 0.835671
0.485458 0.845208 0.801284
0.538665 0.853827 0.809770
0.595438 0.863018 0.818837
0.655055 0.872664 0.828371
0.717056 0.882691 0.838296
0.781122 0.893048 0.848561
0.847015 0.903696 0.859129
0.914550 0.914606 0.869970
0.928270 0.916831 0.872137
0.493035 0.864232 0.808416
0.546242 0.872841 0.816928
0.603015 0.882022 0.826023
0.662627 0.891657 0.835583
0.724621 0.901673 0.845536
0.788675 0.912018 0.855829
0.854553 0.922654 0.866425
0.922069 0.933552 0.877295
0.935763 0.935764 0.879492
0.255282 0.256048 0.632739
0.308266 0.264644 0.641103
0.364825 0.273816 0.650046
0.424241 0.283445 0.659452
0.486058 0.293460 0.669247
0.549960 0.303808 0.679378
0.615711 0.314451 0.689808
0.683129 0.325360 0.700508
0.696939 0.327603 0.702506
0.284275 0.329481 0.660886
0.337312 0.338088 0.669261
0.393924 0.347269 0.678216
0.453391 0.356908 0.687634
0.515259 0.366931 0.697441
0.579209 0.377288 0.707585
0.645005 0.387939 0.718028
0.712465 0.398856 0.728742
0.726272 0.401102 0.730760
0.315221 0.407879 0.691013
0.368304 0.416493 0.699401
0.424962 0.425682 0.708369
0.484474 0.435329 0.717801
0.546384 0.445359 0.727622
0.610374 0.455722 0.737781
0.676208 0.466379 0.748239
0.743702 0.477301 0.758968
0.757502 0.479550 0.761007
0.347724 0.490237 0.722730
0.400847 0.498858 0.731132
0.457544 0.508052 0.740116
0.517093 0.517704 0.749563
0.579037 0.527739 0.759400
0.643059 0.538106 0.769576
0.708922 0.548766 0.780051
0.776441 0.559692 0.790798
0.790231 0.561940 0.792860
0.381531 0.575917 0.755791
0.434686 0.584541 0.764211
0.491414 0.593739 0.773212
0.550992 0.603393 0.782677
0.612963 0.613430 0.792532
0.677009 0.623798 0.802727
0.742891 0.634460 0.813222
0.810428 0.645385 0.823989
0.824205 0.647631 0.826074
0.416461 0.664470 0.790031
0.469641 0.673095 0.798470
0.526392 0.682293 0.807490
0.585991 0.691947 0.816975
0.647981 0.701983 0.826851
0.712041 0.712350 0.837067
0.777936 0.723010 0.847584
0.845480 0.733933 0.858373
0.859241 0.736174 0.860484
0.452378 0.755558 0.825327
0.505575 0.764181 0.833787
0.562341 0.773377 0.842829
0.621953 0.783028 0.852337
0.683953 0.793060 0.862236
0.748020 0.803423 0.872475
0.813918 0.814078 0.883016
0.881461 0.824996 0.893831
0.895203 0.827229 0.895969
0.489172 0.848919 0.861588
0.542379 0.857537 0.870072
0.599153 0.866727 0.879138
0.658770 0.876372 0.888670
0.720771 0.886398 0.898595
0.784836 0.896754 0.908860
0.850727 0.907401 0.919428
0.918261 0.918310 0.930269
0.931979 0.920534 0.932438
0.496745 0.867940 0.868716
0.549952 0.876548 0.877227
0.606724 0.885728 0.886322
0.666336 0.895362 0.895882
0.728328 0.905376 0.905835
0.792381 0.915721 0.916130
0.858257 0.926356 0.926728
0.925772 0.937252 0.937600
0.939463 0.939463 0.939800
0.256055 0.256809 0.644932
0.309044 0.265405 0.653294
0.365608 0.274577 0.662236
0.425029 0.284206 0.671641
0.486851 0.294221 0.681435
0.550758 0.304569 0.691565
0.616513 0.315212 0.701995
0.683935 0.326122 0.712694
0.697744 0.328364 0.714692
0.285049 0.330244 0.673075
0.338090 0.338851 0.681449
0.394706 0.348032 0.690403
0.454178 0.357671 0.699820
0.516050 0.367694 0.709627
0.580004 0.378051 0.719771
0.645804 0.388702 0.730214
0.713267 0.399619 0.740927
0.727072 0.401864 0.742945
0.315995 0.408644 0.703200
0.369082 0.417258 0.711587
0.425744 0.426447 0.720555
0.485260 0.436093 0.729986
0.547173 0.446123 0.739807
0.611166 0.456486 0.749966
0.677002 0.467143 0.760425
0.744499 0.478065 0.771154
0.758297 0.480313 0.773194
0.348499 0.491003 0.734915
0.401624 0.499624 0.743318
0.458324 0.508818 0.752301
0.517876 0.518469 0.761749
0.579823 0.528504 0.771587
0.643847 0.538870 0.781763
0.709712 0.549531 0.792239
0.777233 0.560455 0.802987
0.791021 0.562703 0.805049
0.382305 0.576684 0.767978
0.435462 0.585308 0.776398
0.492192 0.594505 0.785399
0.551772 0.604158 0.794865
0.613745 0.614195 0.804721
0.677792 0.624562 0.814916
0.743676 0.635224 0.825413
0.811213 0.646148 0.836181
0.824989 0.648393 0.838268
0.417233 0.665236 0.802219
0.470415 0.673861 0.810659
0.527167 0.683058 0.819680
0.586767 0.692711 0.829167
0.648758 0.702747 0.839044
0.712819 0.713113 0.849261
0.778714 0.723772 0.859780
0.846259 0.734694 0.870571
0.860018 0.736934 0.872684
0.453147 0.756324 0.837519
0.506346 0.764946 0.845980
0.563113 0.774141 0.855024
0.622725 0.783791 0.864533
0.684725 0.793822 0.874434
0.748792 0.804184 0.884675
0.814689 0.814838 0.895218
0.882232 0.825755 0.906035
0.895971 0.827987 0.908176
0.489938 0.849683 0.873785
0.543146 0.858300 0.882270
0.599920 0.867489 0.891339
0.659536 0.877133 0.900873
0.721537 0.887158 0.910799
0.785601 0.897512 0.921067
0.851491 0.908158 0.931638
0.919024 0.919066 0.942469
0.932739 0.921288 0.944643
0.497507 0.868700 0.880920
0.550714 0.877307 0.889433
0.607485 0.886485 0.898530
0.667096 0.896118 0.908093
0.729087 0.906132 0.918049
0.793139 0.916474 0.928347
0.859013 0.927108 0.938946
0.926525 0.938003 0.949821
0.940213 0.940213 0.952025
