library/cube/Oslo_Light_001.cube
# CINEGRADE LAB — Premium Cinematic LUT
# Title: Oslo Light
# Category: Minimal Scandinavian
# Description: Clean, bright, muted, airy aesthetic inspired by Scandinavian design
# Mood: Calm, airy, minimal
# Variant: 2
# Generated: 2026-05-21T16:12:25.876971
TITLE "Oslo Light"
LUT_3D_SIZE 33
0.231735 0.232528 0.248265
0.244579 0.234613 0.250315
0.257697 0.236742 0.252409
0.271068 0.238912 0.254544
0.284676 0.241120 0.256717
0.298504 0.243364 0.258925
0.312540 0.245640 0.261168
0.326773 0.247949 0.263442
0.341192 0.250287 0.265746
0.355788 0.252654 0.268078
0.370554 0.255048 0.270438
0.385482 0.257468 0.272824
0.400565 0.259913 0.275235
0.415798 0.262382 0.277670
0.431175 0.264874 0.280127
0.446691 0.267388 0.282608
0.462341 0.269924 0.285109
0.478122 0.272480 0.287632
0.494028 0.275057 0.290175
0.510056 0.277653 0.292737
0.526204 0.280268 0.295318
0.542466 0.282901 0.297918
0.558841 0.285553 0.300536
0.575326 0.288222 0.303171
0.591917 0.290908 0.305823
0.608612 0.293610 0.308492
0.625409 0.296329 0.311176
0.642305 0.299064 0.313877
0.659298 0.301814 0.316594
0.672971 0.304027 0.318770
0.673017 0.304037 0.318732
0.673063 0.304046 0.318694
0.673108 0.304056 0.318656
0.238762 0.250335 0.255160
0.251609 0.252421 0.257209
0.264731 0.254551 0.259303
0.278107 0.256721 0.261438
0.291718 0.258930 0.263612
0.305550 0.261174 0.265820
0.319590 0.263452 0.268063
0.333826 0.265761 0.270337
0.348249 0.268100 0.272641
0.362849 0.270468 0.274973
0.377619 0.272862 0.277333
0.392550 0.275283 0.279719
0.407638 0.277729 0.282130
0.422874 0.280198 0.284565
0.438255 0.282691 0.287023
0.453774 0.285206 0.289503
0.469428 0.287742 0.292005
0.485212 0.290299 0.294528
0.501122 0.292877 0.297071
0.517154 0.295473 0.299633
0.533305 0.298089 0.302214
0.549571 0.300723 0.304814
0.565949 0.303375 0.307432
0.582437 0.306045 0.310067
0.599031 0.308732 0.312720
0.615730 0.311435 0.315389
0.632530 0.314154 0.318074
0.649429 0.316889 0.320775
0.666426 0.319640 0.323491
0.680101 0.321854 0.325668
0.680146 0.321864 0.325630
0.680191 0.321874 0.325593
0.680236 0.321884 0.325556
0.245939 0.268523 0.262204
0.258790 0.270610 0.264254
0.271916 0.272741 0.266348
0.285295 0.274912 0.268483
0.298910 0.277122 0.270656
0.312746 0.279367 0.272865
0.326789 0.281645 0.275107
0.341029 0.283955 0.277381
0.355456 0.286295 0.279686
0.370060 0.288663 0.282018
0.384833 0.291058 0.284378
0.399768 0.293480 0.286764
0.414859 0.295926 0.289175
0.430099 0.298396 0.291610
0.445483 0.300889 0.294068
0.461007 0.303405 0.296549
0.476664 0.305942 0.299051
0.492451 0.308500 0.301574
0.508365 0.311078 0.304117
0.524400 0.313675 0.306679
0.540554 0.316291 0.309261
0.556823 0.318926 0.311861
0.573205 0.321579 0.314479
0.589696 0.324249 0.317114
0.606294 0.326936 0.319767
0.622995 0.329640 0.322436
0.639799 0.332360 0.325121
0.656701 0.335096 0.327822
0.673701 0.337847 0.330539
0.687378 0.340061 0.332716
0.687422 0.340071 0.332679
0.687467 0.340082 0.332642
0.687510 0.340092 0.332606
0.253255 0.287064 0.269387
0.266110 0.289152 0.271436
0.279239 0.291283 0.273530
0.292621 0.293455 0.275666
0.306240 0.295665 0.277839
0.320080 0.297911 0.280048
0.334127 0.300190 0.282290
0.348371 0.302501 0.284565
0.362801 0.304841 0.286869
0.377408 0.307210 0.289202
0.392185 0.309606 0.291562
0.407123 0.312028 0.293948
0.422218 0.314475 0.296359
0.437461 0.316946 0.298794
0.452849 0.319440 0.301252
0.468376 0.321956 0.303733
0.484037 0.324494 0.306235
0.499827 0.327052 0.308758
0.515744 0.329631 0.311301
0.531783 0.332229 0.313864
0.547940 0.334846 0.316446
0.564213 0.337481 0.319046
0.580597 0.340134 0.321664
0.597092 0.342805 0.324300
0.613692 0.345493 0.326952
0.630397 0.348197 0.329622
0.647203 0.350918 0.332307
0.664109 0.353654 0.335009
0.681111 0.356406 0.337726
0.694790 0.358620 0.339903
0.694834 0.358631 0.339867
0.694877 0.358641 0.339831
0.694920 0.358652 0.339795
0.260700 0.305933 0.276697
0.273558 0.308021 0.278747
0.286691 0.310153 0.280842
0.300077 0.312326 0.282977
0.313699 0.314537 0.285150
0.327542 0.316783 0.287359
0.341593 0.319063 0.289602
0.355840 0.321374 0.291876
0.370274 0.323715 0.294181
0.384885 0.326085 0.296514
0.399665 0.328481 0.298874
0.414607 0.330904 0.301260
0.429705 0.333352 0.303671
0.444952 0.335823 0.306107
0.460343 0.338318 0.308565
0.475873 0.340835 0.311046
0.491537 0.343373 0.313548
0.507331 0.345932 0.316071
0.523251 0.348511 0.318615
0.539292 0.351109 0.321178
0.555453 0.353727 0.323760
0.571729 0.356363 0.326360
0.588116 0.359017 0.328978
0.604614 0.361688 0.331614
0.621217 0.364376 0.334267
0.637925 0.367081 0.336937
0.654734 0.369802 0.339623
0.671642 0.372539 0.342324
0.688648 0.375292 0.345042
0.702329 0.377506 0.347219
0.702372 0.377517 0.347184
0.702414 0.377528 0.347149
0.702456 0.377538 0.347114
0.268266 0.325109 0.284129
0.281128 0.327198 0.286179
0.294264 0.329330 0.288273
0.307653 0.331504 0.290408
0.321279 0.333715 0.292582
0.335125 0.335962 0.294791
0.349180 0.338243 0.297034
0.363430 0.340554 0.299308
0.377867 0.342896 0.301613
0.392481 0.345266 0.303946
0.407265 0.347664 0.306306
0.422210 0.350087 0.308693
0.437311 0.352535 0.311104
0.452561 0.355007 0.313540
0.467956 0.357502 0.315999
0.483489 0.360020 0.318480
0.499156 0.362558 0.320982
0.514953 0.365118 0.323505
0.530876 0.367698 0.326049
0.546921 0.370297 0.328612
0.563084 0.372915 0.331194
0.579363 0.375551 0.333795
0.595754 0.378206 0.336414
0.612254 0.380878 0.339050
0.628861 0.383566 0.341703
0.645571 0.386272 0.344373
0.662383 0.388993 0.347059
0.679294 0.391731 0.349761
0.696302 0.394483 0.352478
0.709985 0.396699 0.354656
0.710027 0.396710 0.354622
0.710068 0.396721 0.354588
0.710109 0.396731 0.354554
0.275946 0.344574 0.291673
0.288811 0.346663 0.293723
0.301951 0.348796 0.295817
0.315343 0.350970 0.297953
0.328972 0.353182 0.300127
0.342822 0.355430 0.302336
0.356879 0.357711 0.304579
0.371133 0.360023 0.306854
0.385573 0.362366 0.309159
0.400191 0.364736 0.311492
0.414977 0.367134 0.313853
0.429926 0.369558 0.316239
0.445030 0.372007 0.318651
0.460284 0.374479 0.321087
0.475681 0.376975 0.323546
0.491217 0.379493 0.326027
0.506888 0.382032 0.328529
0.522688 0.384592 0.331053
0.538613 0.387173 0.333597
0.554661 0.389772 0.336160
0.570828 0.392391 0.338743
0.587109 0.395028 0.341344
0.603503 0.397683 0.343963
0.620006 0.400355 0.346599
0.636615 0.403044 0.349253
0.653328 0.405750 0.351923
0.670142 0.408472 0.354609
0.687056 0.411210 0.357312
0.704066 0.413963 0.360029
0.717751 0.416179 0.362208
0.717792 0.416190 0.362174
0.717833 0.416201 0.362140
0.717873 0.416212 0.362107
0.283734 0.364311 0.299324
0.296602 0.366401 0.301374
0.309745 0.368535 0.303469
0.323141 0.370710 0.305605
0.336773 0.372922 0.307779
0.350625 0.375170 0.309988
0.364686 0.377452 0.312232
0.378943 0.379765 0.314506
0.393386 0.382108 0.316811
0.408007 0.384479 0.319145
0.422797 0.386877 0.321506
0.437748 0.389302 0.323893
0.452856 0.391751 0.326305
0.468112 0.394224 0.328741
0.483512 0.396720 0.331200
0.499051 0.399239 0.333681
0.514725 0.401779 0.336184
0.530528 0.404339 0.338708
0.546456 0.406920 0.341252
0.562507 0.409520 0.343816
0.578676 0.412139 0.346399
0.594960 0.414776 0.349000
0.611357 0.417432 0.351619
0.627862 0.420105 0.354256
0.644474 0.422794 0.356910
0.661189 0.425500 0.359580
0.678006 0.428223 0.362267
0.694922 0.430961 0.364970
0.711935 0.433715 0.367688
0.725622 0.435931 0.369867
0.725662 0.435942 0.369834
0.725701 0.435953 0.369801
0.725741 0.435964 0.369769
0.291624 0.384308 0.307077
0.304495 0.386398 0.309127
0.317640 0.388532 0.311222
0.331040 0.390708 0.313358
0.344675 0.392921 0.315532
0.358530 0.395169 0.317742
0.372594 0.397451 0.319986
0.386854 0.399765 0.322261
0.401300 0.402108 0.324566
0.415924 0.404480 0.326900
0.430717 0.406879 0.329261
0.445671 0.409304 0.331648
0.460782 0.411754 0.334060
0.476041 0.414227 0.336496
0.491444 0.416724 0.338956
0.506986 0.419243 0.341438
0.522662 0.421783 0.343941
0.538468 0.424344 0.346465
0.554399 0.426925 0.349010
0.570452 0.429526 0.351574
0.586624 0.432145 0.354157
0.602911 0.434783 0.356758
0.619310 0.437439 0.359378
0.635818 0.440112 0.362015
0.652432 0.442802 0.364669
0.669150 0.445509 0.367340
0.685969 0.448232 0.370027
0.702888 0.450970 0.372730
0.719903 0.453724 0.375449
0.733591 0.455941 0.377628
0.733630 0.455952 0.377596
0.733669 0.455963 0.377564
0.733707 0.455974 0.377533
0.299611 0.404550 0.314926
0.312485 0.406641 0.316977
0.325633 0.408776 0.319072
0.339035 0.410952 0.321208
0.352673 0.413165 0.323383
0.366532 0.415415 0.325593
0.380599 0.417697 0.327836
0.394862 0.420011 0.330112
0.409311 0.422355 0.332417
0.423937 0.424727 0.334751
0.438733 0.427127 0.337113
0.453690 0.429552 0.339500
0.468803 0.432002 0.341913
0.484065 0.434476 0.344349
0.499471 0.436973 0.346809
0.515016 0.439493 0.349291
0.530695 0.442033 0.351795
0.546503 0.444595 0.354319
0.562437 0.447176 0.356864
0.578493 0.449777 0.359428
0.594667 0.452397 0.362012
0.610956 0.455035 0.364614
0.627358 0.457692 0.367234
0.643868 0.460365 0.369871
0.660484 0.463056 0.372526
0.677205 0.465763 0.375197
0.694026 0.468486 0.377885
0.710947 0.471225 0.380588
0.727964 0.473979 0.383307
0.741653 0.476196 0.385487
0.741691 0.476207 0.385456
0.741729 0.476218 0.385425
0.741766 0.476229 0.385394
0.307690 0.425028 0.322867
0.320567 0.427119 0.324918
0.333718 0.429255 0.327014
0.347123 0.431431 0.329151
0.360764 0.433645 0.331325
0.374626 0.435895 0.333536
0.388695 0.438178 0.335780
0.402961 0.440492 0.338055
0.417413 0.442836 0.340361
0.432042 0.445209 0.342695
0.446840 0.447609 0.345057
0.461801 0.450035 0.347445
0.476916 0.452485 0.349858
0.492181 0.454960 0.352295
0.507590 0.457457 0.354755
0.523137 0.459977 0.357237
0.538818 0.462518 0.359741
0.554629 0.465080 0.362266
0.570565 0.467662 0.364811
0.586624 0.470263 0.367376
0.602800 0.472883 0.369960
0.619092 0.475522 0.372562
0.635495 0.478178 0.375183
0.652008 0.480852 0.377821
0.668627 0.483543 0.380476
0.685349 0.486250 0.383147
0.702173 0.488974 0.385836
0.719095 0.491713 0.388539
0.736114 0.494468 0.391259
0.749805 0.496684 0.393439
0.749842 0.496696 0.393409
0.749879 0.496707 0.393379
0.749915 0.496719 0.393349
0.315858 0.445730 0.330897
0.328738 0.447822 0.332949
0.341892 0.449958 0.335044
0.355299 0.452135 0.337181
0.368943 0.454349 0.339356
0.382807 0.456599 0.341567
0.396880 0.458883 0.343811
0.411148 0.461198 0.346087
0.425603 0.463542 0.348394
0.440234 0.465915 0.350728
0.455035 0.468316 0.353090
0.469998 0.470742 0.355478
0.485116 0.473193 0.357892
0.500384 0.475668 0.360329
0.515795 0.478166 0.362789
0.531344 0.480686 0.365272
0.547028 0.483227 0.367777
0.562841 0.485789 0.370302
0.578780 0.488371 0.372848
0.594841 0.490973 0.375413
0.611019 0.493594 0.377997
0.627313 0.496233 0.380600
0.643719 0.498889 0.383221
0.660233 0.501563 0.385859
0.676854 0.504254 0.388515
0.693579 0.506962 0.391187
0.710404 0.509686 0.393875
0.727329 0.512425 0.396580
0.744350 0.515180 0.399300
0.758042 0.517397 0.401481
0.758078 0.517409 0.401451
0.758113 0.517420 0.401422
0.758149 0.517431 0.401393
0.324111 0.466648 0.339012
0.336993 0.468740 0.341064
0.350150 0.470877 0.343160
0.363560 0.473054 0.345297
0.377206 0.475269 0.347472
0.391073 0.477519 0.349683
0.405148 0.479803 0.351928
0.419419 0.482118 0.354205
0.433876 0.484463 0.356511
0.448511 0.486837 0.358846
0.463314 0.489237 0.361209
0.478280 0.491664 0.363597
0.493400 0.494115 0.366011
0.508670 0.496591 0.368448
0.524083 0.499089 0.370909
0.539635 0.501609 0.373393
0.555321 0.504151 0.375897
0.571137 0.506713 0.378423
0.587078 0.509296 0.380969
0.603140 0.511898 0.383535
0.619321 0.514519 0.386120
0.635617 0.517158 0.388723
0.652025 0.519815 0.391344
0.668541 0.522489 0.393983
0.685164 0.525181 0.396639
0.701890 0.527888 0.399312
0.718718 0.530612 0.402001
0.735644 0.533352 0.404706
0.752667 0.536107 0.407426
0.766360 0.538324 0.409608
0.766395 0.538336 0.409579
0.766429 0.538347 0.409551
0.766463 0.538358 0.409523
0.332446 0.487773 0.347208
0.345330 0.489866 0.349260
0.358490 0.492003 0.351357
0.371902 0.494180 0.353494
0.385551 0.496395 0.355670
0.399420 0.498646 0.357882
0.413498 0.500930 0.360127
0.427771 0.503246 0.362404
0.442231 0.505591 0.364710
0.456868 0.507965 0.367046
0.471673 0.510366 0.369409
0.486641 0.512793 0.371798
0.501764 0.515245 0.374212
0.517036 0.517720 0.376650
0.532452 0.520219 0.379111
0.548006 0.522739 0.381595
0.563694 0.525281 0.384100
0.579511 0.527844 0.386627
0.595454 0.530427 0.389173
0.611519 0.533029 0.391739
0.627702 0.535650 0.394324
0.644000 0.538289 0.396928
0.660409 0.540947 0.399550
0.676928 0.543621 0.402189
0.693552 0.546313 0.404846
0.710280 0.549021 0.407519
0.727109 0.551745 0.410209
0.744037 0.554485 0.412914
0.761061 0.557240 0.415636
0.774756 0.559457 0.417818
0.774790 0.559469 0.417790
0.774823 0.559480 0.417763
0.774856 0.559491 0.417735
0.340859 0.509098 0.355483
0.353746 0.511191 0.357536
0.366907 0.513328 0.359633
0.380322 0.515505 0.361771
0.393973 0.517721 0.363947
0.407845 0.519972 0.366159
0.421925 0.522257 0.368404
0.436201 0.524573 0.370681
0.450663 0.526918 0.372989
0.465302 0.529292 0.375325
0.480110 0.531694 0.377688
0.495080 0.534121 0.380078
0.510205 0.536573 0.382492
0.525479 0.539048 0.384931
0.540897 0.541547 0.387392
0.556453 0.544068 0.389877
0.572143 0.546610 0.392382
0.587962 0.549173 0.394909
0.603907 0.551756 0.397456
0.619974 0.554359 0.400023
0.636159 0.556980 0.402609
0.652458 0.559619 0.405213
0.668870 0.562277 0.407835
0.685390 0.564952 0.410475
0.702016 0.567643 0.413132
0.718746 0.570351 0.415806
0.735576 0.573076 0.418497
0.752506 0.575816 0.421203
0.769531 0.578571 0.423924
0.783226 0.580788 0.426107
0.783259 0.580800 0.426081
0.783292 0.580811 0.426054
0.783323 0.580822 0.426028
0.349347 0.530614 0.363834
0.362236 0.532708 0.365887
0.375400 0.534845 0.367985
0.388818 0.537023 0.370123
0.402471 0.539239 0.372300
0.416345 0.541490 0.374512
0.430427 0.543775 0.376758
0.444705 0.546091 0.379036
0.459169 0.548437 0.381343
0.473810 0.550811 0.383680
0.488621 0.553213 0.386044
0.503593 0.555640 0.388434
0.518720 0.558092 0.390849
0.533996 0.560568 0.393288
0.549416 0.563067 0.395750
0.564974 0.565588 0.398235
0.580666 0.568131 0.400741
0.596487 0.570694 0.403268
0.612434 0.573277 0.405816
0.628502 0.575880 0.408383
0.644689 0.578501 0.410970
0.660990 0.581141 0.413574
0.677403 0.583798 0.416197
0.693925 0.586473 0.418838
0.710552 0.589165 0.421496
0.727284 0.591873 0.424170
0.744116 0.594598 0.426861
0.761046 0.597338 0.429568
0.778073 0.600093 0.432290
0.791769 0.602311 0.434474
0.791801 0.602322 0.434448
0.791832 0.602333 0.434422
0.791863 0.602344 0.434397
0.357908 0.552316 0.372259
0.370800 0.554410 0.374312
0.383966 0.556548 0.376410
0.397386 0.558726 0.378549
0.411041 0.560942 0.380726
0.424917 0.563194 0.382939
0.439001 0.565479 0.385185
0.453281 0.567795 0.387464
0.467748 0.570141 0.389772
0.482391 0.572516 0.392109
0.497203 0.574917 0.394473
0.512177 0.577345 0.396864
0.527306 0.579797 0.399279
0.542584 0.582273 0.401719
0.558006 0.584772 0.404182
0.573566 0.587294 0.406667
0.589259 0.589836 0.409174
0.605083 0.592400 0.411702
0.621031 0.594983 0.414250
0.637101 0.597586 0.416818
0.653289 0.600207 0.419405
0.669592 0.602847 0.422010
0.686006 0.605505 0.424634
0.702530 0.608180 0.427275
0.719159 0.610871 0.429933
0.735891 0.613580 0.432609
0.752724 0.616304 0.435300
0.769656 0.619044 0.438007
0.786684 0.621800 0.440731
0.800381 0.624017 0.442915
0.800411 0.624028 0.442890
0.800441 0.624039 0.442865
0.800471 0.624050 0.442841
0.366540 0.574198 0.380755
0.379434 0.576292 0.382808
0.392602 0.578430 0.384907
0.406024 0.580608 0.387046
0.419681 0.582824 0.389224
0.433559 0.585076 0.391437
0.447645 0.587361 0.393684
0.461927 0.589678 0.395963
0.476395 0.592024 0.398272
0.491041 0.594399 0.400609
0.505855 0.596801 0.402974
0.520831 0.599228 0.405365
0.535961 0.601681 0.407781
0.551241 0.604157 0.410222
0.566665 0.606656 0.412685
0.582226 0.609178 0.415171
0.597922 0.611721 0.417679
0.613746 0.614284 0.420207
0.629696 0.616867 0.422756
0.645768 0.619470 0.425324
0.661958 0.622092 0.427912
0.678262 0.624732 0.430518
0.694677 0.627389 0.433142
0.711202 0.630064 0.435784
0.727832 0.632756 0.438443
0.744566 0.635465 0.441119
0.761400 0.638189 0.443811
0.778333 0.640929 0.446519
0.795362 0.643684 0.449243
0.809059 0.645902 0.451428
0.809089 0.645913 0.451404
0.809117 0.645924 0.451381
0.809146 0.645934 0.451358
0.375240 0.596253 0.389320
0.388135 0.598347 0.391374
0.401306 0.600485 0.393473
0.414729 0.602664 0.395613
0.428389 0.604880 0.397791
0.442269 0.607132 0.400005
0.456357 0.609418 0.402253
0.470641 0.611734 0.404532
0.485111 0.614081 0.406841
0.499758 0.616456 0.409179
0.514573 0.618858 0.411545
0.529551 0.621285 0.413937
0.544683 0.623738 0.416353
0.559965 0.626214 0.418794
0.575390 0.628714 0.421258
0.590953 0.631235 0.423745
0.606650 0.633778 0.426253
0.622476 0.636341 0.428782
0.638428 0.638925 0.431331
0.654501 0.641527 0.433901
0.670691 0.644149 0.436489
0.686997 0.646789 0.439096
0.703414 0.649447 0.441721
0.719939 0.652122 0.444363
0.736571 0.654814 0.447023
0.753306 0.657522 0.449699
0.770141 0.660246 0.452392
0.787075 0.662986 0.455101
0.804105 0.665742 0.457826
0.817802 0.667959 0.460012
0.817830 0.667970 0.459989
0.817858 0.667980 0.459966
0.817885 0.667991 0.459944
0.384006 0.618477 0.397952
0.396903 0.620571 0.400007
0.410075 0.622709 0.402106
0.423500 0.624888 0.404247
0.437162 0.627104 0.406426
0.451044 0.629356 0.408640
0.465133 0.631642 0.410888
0.479419 0.633959 0.413168
0.493891 0.636305 0.415478
0.508539 0.638680 0.417817
0.523357 0.641082 0.420183
0.538336 0.643510 0.422575
0.553470 0.645963 0.424993
0.568753 0.648439 0.427434
0.584179 0.650938 0.429899
0.599744 0.653460 0.432386
0.615442 0.656003 0.434895
0.631270 0.658566 0.437425
0.647223 0.661149 0.439975
0.663297 0.663752 0.442545
0.679489 0.666374 0.445134
0.695795 0.669014 0.447741
0.712213 0.671671 0.450367
0.728740 0.674346 0.453010
0.745372 0.677038 0.455671
0.762108 0.679746 0.458348
0.778944 0.682471 0.461042
0.795879 0.685211 0.463752
0.812910 0.687966 0.466477
0.826608 0.690183 0.468664
0.826634 0.690194 0.468642
0.826661 0.690204 0.468620
0.826686 0.690214 0.468599
0.392835 0.640864 0.406650
0.405734 0.642958 0.408705
0.418908 0.645096 0.410805
0.432335 0.647275 0.412946
0.445998 0.649492 0.415126
0.459882 0.651744 0.417341
0.473973 0.654029 0.419590
0.488260 0.656346 0.421870
0.502734 0.658693 0.424181
0.517384 0.661068 0.426520
0.532203 0.663470 0.428887
0.547183 0.665897 0.431280
0.562319 0.668350 0.433698
0.577603 0.670826 0.436140
0.593031 0.673326 0.438606
0.608597 0.675847 0.441094
0.624297 0.678390 0.443603
0.640125 0.680953 0.446134
0.656079 0.683537 0.448684
0.672154 0.686140 0.451255
0.688347 0.688761 0.453845
0.704655 0.691401 0.456453
0.721074 0.694058 0.459080
0.737602 0.696733 0.461724
0.754235 0.699425 0.464385
0.770971 0.702133 0.467063
0.787808 0.704857 0.469758
0.804744 0.707597 0.472468
0.821775 0.710352 0.475194
0.835473 0.712569 0.477382
0.835498 0.712579 0.477361
0.835523 0.712589 0.477341
0.835548 0.712599 0.477321
0.401727 0.663409 0.415411
0.414628 0.665503 0.417467
0.427803 0.667641 0.419568
0.441232 0.669820 0.421710
0.454896 0.672037 0.423890
0.468781 0.674289 0.426106
0.482874 0.676575 0.428355
0.497163 0.678892 0.430636
0.511638 0.681238 0.432948
0.526289 0.683613 0.435288
0.541110 0.686015 0.437655
0.556092 0.688443 0.440049
0.571228 0.690896 0.442468
0.586514 0.693372 0.444910
0.601943 0.695871 0.447377
0.617510 0.698393 0.449865
0.633211 0.700935 0.452376
0.649041 0.703499 0.454907
0.664995 0.706082 0.457458
0.681072 0.708685 0.460030
0.697266 0.711306 0.462620
0.713574 0.713946 0.465229
0.729994 0.716603 0.467857
0.746522 0.719278 0.470502
0.763156 0.721969 0.473164
0.779893 0.724677 0.475843
0.796731 0.727401 0.478538
0.813667 0.730141 0.481249
0.830698 0.732896 0.483977
0.844396 0.735113 0.486165
0.844421 0.735123 0.486146
0.844444 0.735132 0.486126
0.844467 0.735142 0.486107
0.410678 0.686109 0.424235
0.423581 0.688203 0.426292
0.436758 0.690341 0.428393
0.450188 0.692520 0.430535
0.463854 0.694737 0.432716
0.477740 0.696989 0.434933
0.491835 0.699274 0.437183
0.506125 0.701591 0.439465
0.520601 0.703938 0.441777
0.535254 0.706313 0.444118
0.550075 0.708714 0.446486
0.565058 0.711142 0.448880
0.580196 0.713595 0.451300
0.595483 0.716071 0.453743
0.610913 0.718570 0.456210
0.626481 0.721091 0.458700
0.642183 0.723634 0.461211
0.658014 0.726197 0.463743
0.673970 0.728780 0.466295
0.690047 0.731383 0.468867
0.706241 0.734004 0.471459
0.722551 0.736644 0.474069
0.738971 0.739301 0.476697
0.755500 0.741975 0.479343
0.772135 0.744667 0.482006
0.788872 0.747375 0.484685
0.805710 0.750098 0.487382
0.822646 0.752838 0.490094
0.839678 0.755593 0.492822
0.853376 0.757809 0.495012
0.853399 0.757819 0.494993
0.853421 0.757828 0.494975
0.853443 0.757837 0.494957
0.419689 0.708958 0.433119
0.432592 0.711052 0.435177
0.445770 0.713190 0.437279
0.459202 0.715369 0.439422
0.472869 0.717586 0.441603
0.486757 0.719838 0.443821
0.500853 0.722123 0.446071
0.515144 0.724440 0.448354
0.529621 0.726787 0.450667
0.544275 0.729161 0.453008
0.559098 0.731563 0.455377
0.574082 0.733991 0.457773
0.589221 0.736443 0.460193
0.604509 0.738919 0.462637
0.619940 0.741418 0.465105
0.635509 0.743940 0.467595
0.651212 0.746482 0.470107
0.667043 0.749045 0.472640
0.683000 0.751628 0.475193
0.699078 0.754230 0.477766
0.715273 0.756851 0.480359
0.731583 0.759491 0.482969
0.748004 0.762148 0.485598
0.764533 0.764822 0.488245
0.781168 0.767513 0.490909
0.797906 0.770221 0.493590
0.814744 0.772944 0.496287
0.831681 0.775683 0.499000
0.848713 0.778438 0.501729
0.862411 0.780654 0.503920
0.862432 0.780663 0.503902
0.862453 0.780672 0.503885
0.862473 0.780680 0.503869
0.428755 0.731953 0.442062
0.441660 0.734047 0.444121
0.454840 0.736186 0.446224
0.468273 0.738364 0.448368
0.481941 0.740581 0.450550
0.495830 0.742833 0.452768
0.509927 0.745118 0.455020
0.524220 0.747435 0.457303
0.538698 0.749781 0.459617
0.553353 0.752156 0.461959
0.568177 0.754557 0.464329
0.583162 0.756985 0.466725
0.598302 0.759437 0.469146
0.613591 0.761913 0.471591
0.629022 0.764412 0.474060
0.644592 0.766933 0.476551
0.660295 0.769475 0.479064
0.676128 0.772038 0.481597
0.692085 0.774621 0.484152
0.708163 0.777223 0.486725
0.724359 0.779844 0.489319
0.740669 0.782483 0.491930
0.757091 0.785139 0.494560
0.773620 0.787813 0.497208
0.790256 0.790504 0.499873
0.806994 0.793212 0.502554
0.823832 0.795935 0.505253
0.840769 0.798674 0.507967
0.857801 0.801428 0.510697
0.871499 0.803644 0.512888
0.871519 0.803652 0.512872
0.871538 0.803661 0.512856
0.871557 0.803669 0.512841
0.437878 0.755091 0.451064
0.450784 0.757185 0.453123
0.463964 0.759323 0.455227
0.477398 0.761502 0.457372
0.491068 0.763718 0.459555
0.504958 0.765970 0.461774
0.519056 0.768255 0.464026
0.533349 0.770571 0.466310
0.547829 0.772918 0.468625
0.562485 0.775292 0.470968
0.577309 0.777694 0.473338
0.592295 0.780121 0.475735
0.607436 0.782573 0.478157
0.622725 0.785049 0.480603
0.638158 0.787547 0.483073
0.653728 0.790068 0.485565
0.669432 0.792610 0.488079
0.685265 0.795172 0.490613
0.701223 0.797755 0.493168
0.717301 0.800357 0.495743
0.733498 0.802977 0.498337
0.749808 0.805616 0.500950
0.766230 0.808272 0.503581
0.782760 0.810946 0.506229
0.799395 0.813637 0.508895
0.816133 0.816343 0.511578
0.832972 0.819066 0.514277
0.849908 0.821805 0.516992
0.866941 0.824559 0.519723
0.880638 0.826774 0.521916
0.880656 0.826782 0.521901
0.880674 0.826790 0.521886
0.880691 0.826798 0.521872
0.447053 0.778367 0.460123
0.459961 0.780461 0.462183
0.473142 0.782599 0.464287
0.486577 0.784777 0.466433
0.500248 0.786994 0.468616
0.514139 0.789245 0.470836
0.528238 0.791530 0.473089
0.542532 0.793846 0.475375
0.557012 0.796192 0.477690
0.571669 0.798567 0.480034
0.586494 0.800968 0.482405
0.601481 0.803395 0.484803
0.616622 0.805846 0.487226
0.631912 0.808322 0.489673
0.647345 0.810820 0.492143
0.662916 0.813341 0.494636
0.678621 0.815882 0.497151
0.694454 0.818445 0.499687
0.710412 0.821027 0.502243
0.726491 0.823628 0.504818
