library/cube/Oslo_Light_001.cube
# CINEGRADE LAB — Premium Cinematic LUT
# Title: Oslo Light
# Category: Minimal Scandinavian
# Description: Clean, bright, muted, airy aesthetic inspired by Scandinavian design
# Mood: Calm, airy, minimal
# Variant: 2
# Generated: 2026-05-21T16:12:25.876971
TITLE "Oslo Light"
LUT_3D_SIZE 5
0.231735 0.232528 0.248265
0.341192 0.250287 0.265746
0.462341 0.269924 0.285109
0.591917 0.290908 0.305823
0.673108 0.304056 0.318656
0.291624 0.384308 0.307077
0.401300 0.402108 0.324566
0.522662 0.421783 0.343941
0.652432 0.442802 0.364669
0.733707 0.455974 0.377533
0.357908 0.552316 0.372259
0.467748 0.570141 0.389772
0.589259 0.589836 0.409174
0.719159 0.610871 0.429933
0.800471 0.624050 0.442841
0.428755 0.731953 0.442062
0.538698 0.749781 0.459617
0.660295 0.769475 0.479064
0.790256 0.790504 0.499873
0.871557 0.803669 0.512841
0.473159 0.844366 0.485576
0.583138 0.862168 0.503194
0.704750 0.881832 0.522708
0.834698 0.902827 0.543589
0.915936 0.915953 0.556637
0.237774 0.238558 0.346845
0.347256 0.256320 0.364279
0.468430 0.275958 0.383598
0.598028 0.296945 0.404271
0.679230 0.310094 0.417067
0.297677 0.390353 0.405511
0.407372 0.408154 0.422965
0.528752 0.427829 0.442306
0.658537 0.448849 0.463004
0.739818 0.462020 0.475841
0.363969 0.558370 0.470583
0.473821 0.576194 0.488071
0.595344 0.595888 0.507450
0.725252 0.616922 0.528190
0.806565 0.630098 0.541082
0.434816 0.738009 0.540312
0.544765 0.755834 0.557851
0.666367 0.775525 0.577286
0.796329 0.796551 0.598086
0.877626 0.809712 0.611049
0.479209 0.850413 0.583788
0.589189 0.868210 0.601402
0.710800 0.887870 0.620914
0.840743 0.908861 0.641797
0.921972 0.921982 0.654849
0.244448 0.245224 0.455825
0.353954 0.262988 0.473209
0.475152 0.282629 0.492482
0.604772 0.303617 0.513111
0.685985 0.316767 0.525868
0.304365 0.397033 0.514337
0.414079 0.414836 0.531752
0.535476 0.434512 0.551058
0.665277 0.455531 0.571724
0.746563 0.468702 0.584534
0.370664 0.565060 0.579293
0.480529 0.582882 0.596753
0.602063 0.602575 0.616109
0.731979 0.623608 0.636828
0.813293 0.636782 0.649704
0.441511 0.744699 0.648944
0.551467 0.762522 0.666467
0.673073 0.782210 0.685890
0.803037 0.803233 0.706681
0.884329 0.816390 0.719639
0.485895 0.857095 0.692382
0.595874 0.874888 0.709991
0.717483 0.894544 0.729503
0.847421 0.915530 0.750388
0.928641 0.928646 0.763447
0.251577 0.252347 0.572248
0.361108 0.270113 0.589580
0.482330 0.289756 0.608805
0.611972 0.310746 0.629389
0.693195 0.323898 0.642107
0.311509 0.404170 0.630601
0.421241 0.421973 0.647977
0.542655 0.441650 0.667247
0.672471 0.462670 0.687881
0.753763 0.475841 0.700663
0.377816 0.572205 0.695439
0.487692 0.590027 0.712872
0.609237 0.609718 0.732204
0.739161 0.630749 0.752904
0.820475 0.643922 0.765763
0.448662 0.751846 0.765012
0.558623 0.769665 0.782521
0.680233 0.789351 0.801933
0.810198 0.810370 0.822717
0.891485 0.823523 0.835671
0.493035 0.864232 0.808416
0.603015 0.882022 0.826023
0.724621 0.901673 0.845536
0.854553 0.922654 0.866425
0.935763 0.935764 0.879492
0.256055 0.256809 0.644932
0.365608 0.274577 0.662236
0.486851 0.294221 0.681435
0.616513 0.315212 0.701995
0.697744 0.328364 0.714692
0.315995 0.408644 0.703200
0.425744 0.426447 0.720555
0.547173 0.446123 0.739807
0.677002 0.467143 0.760425
0.758297 0.480313 0.773194
0.382305 0.576684 0.767978
0.492192 0.594505 0.785399
0.613745 0.614195 0.804721
0.743676 0.635224 0.825413
0.824989 0.648393 0.838268
0.453147 0.756324 0.837519
0.563113 0.774141 0.855024
0.684725 0.793822 0.874434
0.814689 0.814838 0.895218
0.895971 0.827987 0.908176
0.497507 0.868700 0.880920
0.607485 0.886485 0.898530
0.729087 0.906132 0.918049
0.859013 0.927108 0.938946
0.940213 0.940213 0.952025
