library/cube/Pastel_Promise_003.cube
# CINEGRADE LAB — Premium Cinematic LUT
# Title: Pastel Promise
# Category: Dreamy Wedding
# Description: Soft, romantic, warm highlights with pastel tones for wedding photography
# Mood: Romantic, ethereal, tender
# Variant: 4
# Generated: 2026-05-21T16:12:19.390348
TITLE "Pastel Promise"
LUT_3D_SIZE 9
0.198570 0.190445 0.190445
0.272421 0.190650 0.190649
0.351068 0.191168 0.191166
0.433381 0.191947 0.191941
0.518710 0.192956 0.192946
0.606635 0.194175 0.194159
0.696858 0.195591 0.195568
0.789094 0.197190 0.197159
0.820699 0.196042 0.196001
0.198382 0.265571 0.191505
0.272709 0.266098 0.192027
0.351866 0.266940 0.192863
0.434723 0.268044 0.193959
0.520633 0.269379 0.195286
0.609175 0.270927 0.196823
0.700054 0.272674 0.198558
0.793022 0.274606 0.200478
0.825147 0.273783 0.199640
0.200382 0.346940 0.194359
0.275233 0.347791 0.195200
0.354950 0.348959 0.196357
0.438404 0.350391 0.197776
0.524950 0.352057 0.199428
0.614169 0.353937 0.201292
0.705764 0.356017 0.203356
0.799521 0.358287 0.205608
0.832076 0.357783 0.205085
0.204374 0.433282 0.198824
0.279797 0.434460 0.199988
0.360126 0.435957 0.201468
0.444233 0.437720 0.203214
0.531473 0.439719 0.205193
0.621426 0.441933 0.207387
0.713799 0.444350 0.209782
0.808376 0.446959 0.212367
0.841481 0.446783 0.212166
0.210241 0.523859 0.204797
0.286287 0.525368 0.206285
0.367281 0.527197 0.208092
0.452097 0.529294 0.210166
0.540090 0.531629 0.212476
0.630839 0.534182 0.215002
0.723226 0.536962 0.217701
0.817183 0.539939 0.220566
0.849394 0.540116 0.220631
0.217908 0.618187 0.212209
0.294627 0.620029 0.214023
0.376337 0.622193 0.216159
0.461019 0.624700 0.218538
0.548676 0.627436 0.221143
0.638879 0.630378 0.223955
0.731326 0.633515 0.226959
0.825794 0.636835 0.230146
0.858601 0.637360 0.230536
0.226566 0.716069 0.220999
0.303206 0.718342 0.223123
0.384654 0.720929 0.225561
0.469768 0.723777 0.228257
0.557890 0.726854 0.231182
0.648592 0.730140 0.234315
0.741574 0.733623 0.237642
0.836615 0.737291 0.241154
0.870090 0.738168 0.241874
0.235878 0.817406 0.231141
0.312941 0.820020 0.233583
0.394843 0.822949 0.236340
0.480444 0.826141 0.239357
0.569088 0.829564 0.242604
0.660349 0.833199 0.246062
0.753928 0.837031 0.249715
0.849605 0.841051 0.253555
0.883782 0.842284 0.254606
0.237139 0.852761 0.232844
0.314674 0.855705 0.235605
0.397082 0.858966 0.238681
0.483224 0.862491 0.242020
0.572447 0.866250 0.245591
0.664326 0.870222 0.249373
0.758562 0.874395 0.253354
0.854937 0.878756 0.257523
0.889794 0.880331 0.258902
0.198484 0.190504 0.264562
0.272381 0.190741 0.264798
0.351077 0.191292 0.265347
0.433443 0.192104 0.266155
0.518829 0.193145 0.267191
0.606813 0.194398 0.268437
0.697099 0.195847 0.269879
0.789402 0.197479 0.271502
0.821054 0.196363 0.270377
0.198444 0.265738 0.265729
0.272822 0.266298 0.266283
0.352033 0.267173 0.267151
0.434948 0.268310 0.268280
0.520919 0.269678 0.269639
0.609527 0.271260 0.271210
0.700476 0.273039 0.272977
0.793527 0.275006 0.274931
0.825685 0.274215 0.274124
0.200590 0.347216 0.268690
0.275497 0.348100 0.269564
0.355273 0.349301 0.270753
0.438791 0.350767 0.272205
0.525404 0.352466 0.273890
0.614694 0.354379 0.275787
0.706365 0.356493 0.277884
0.800202 0.358797 0.280169
0.832808 0.358326 0.279679
0.204727 0.433667 0.273262
0.280211 0.434878 0.274458
0.360604 0.436409 0.275972
0.444780 0.438205 0.277750
0.532093 0.440237 0.279763
0.622124 0.442486 0.281990
0.714579 0.444937 0.284419
0.809243 0.447580 0.287038
0.842408 0.447437 0.286869
0.210738 0.524353 0.279342
0.286849 0.525895 0.280863
0.367914 0.527758 0.282703
0.452805 0.529889 0.284810
0.540876 0.532257 0.287153
0.631709 0.534844 0.289714
0.723747 0.537671 0.292431
0.817753 0.540680 0.295328
0.850020 0.540891 0.295425
0.218547 0.618790 0.286861
0.295337 0.620665 0.288709
0.376859 0.622890 0.290871
0.461581 0.625430 0.293281
0.549282 0.628197 0.295918
0.639533 0.631172 0.298762
0.732030 0.634341 0.301798
0.826553 0.637694 0.305017
0.859425 0.638253 0.305441
0.227163 0.716818 0.295755
0.303843 0.719123 0.297912
0.385334 0.721743 0.300381
0.470494 0.724622 0.303109
0.558666 0.727732 0.306066
0.649422 0.731051 0.309231
0.742461 0.734567 0.312591
0.837563 0.738268 0.316135
0.871108 0.739179 0.316889
0.236622 0.818270 0.306006
0.313731 0.820917 0.308480
0.395682 0.823879 0.311269
0.481335 0.827103 0.314318
0.570034 0.830559 0.317598
0.661355 0.834227 0.321088
0.754997 0.838093 0.324774
0.850741 0.842146 0.328647
0.884988 0.843413 0.329731
0.238030 0.853737 0.307816
0.315615 0.856714 0.310609
0.398077 0.860008 0.313718
0.484277 0.863566 0.317089
0.573562 0.867358 0.320693
0.665506 0.871364 0.324508
0.759813 0.875570 0.328522
0.856262 0.879966 0.332724
0.891183 0.881573 0.334136
0.198487 0.190648 0.343197
0.272431 0.190917 0.343466
0.351177 0.191501 0.344046
0.433595 0.192345 0.344886
0.519038 0.193420 0.345956
0.607082 0.194705 0.347234
0.697433 0.196187 0.348709
0.789804 0.197853 0.350365
0.821505 0.196770 0.349272
0.198595 0.265991 0.344472
0.273024 0.266583 0.345058
0.352290 0.267491 0.345958
0.435263 0.268660 0.347119
0.521297 0.270062 0.348512
0.609971 0.271677 0.350115
0.700990 0.273490 0.351916
0.794126 0.275491 0.353903
0.826318 0.274731 0.353128
0.200887 0.347577 0.347539
0.275850 0.348494 0.348446
0.355686 0.349729 0.349668
0.439267 0.351227 0.351153
0.525949 0.352959 0.352870
0.615311 0.354906 0.354801
0.707058 0.357054 0.356931
0.800975 0.359392 0.359250
0.833633 0.358954 0.358792
0.205168 0.434137 0.352219
0.280713 0.435381 0.353448
0.361172 0.436945 0.354994
0.445417 0.438775 0.356805
0.532804 0.440841 0.358851
0.622913 0.443124 0.361112
0.715451 0.445609 0.363574
0.810202 0.448286 0.366228
0.843429 0.448176 0.366091
0.211323 0.524932 0.358406
0.287500 0.526507 0.359960
0.368636 0.528404 0.361833
0.453602 0.530568 0.363973
0.541753 0.532971 0.366350
0.632299 0.535606 0.368931
0.724361 0.538465 0.371679
0.818416 0.541507 0.374608
0.850740 0.541750 0.374738
0.219275 0.619478 0.366031
0.296137 0.621387 0.367912
0.377470 0.623672 0.370101
0.462234 0.626244 0.372543
0.549980 0.629043 0.375211
0.640278 0.632051 0.378087
0.732827 0.635253 0.381156
0.827405 0.638638 0.384408
0.860342 0.639230 0.384864
0.227849 0.717652 0.375031
0.304569 0.719989 0.377219
0.386104 0.722641 0.379720
0.471311 0.725553 0.382480
0.559533 0.728695 0.385469
0.650343 0.732047 0.388667
0.743440 0.735595 0.392059
0.838603 0.739330 0.395636
0.872218 0.740274 0.396422
0.237456 0.819220 0.385389
0.314610 0.821899 0.387895
0.396610 0.824894 0.390716
0.482315 0.828151 0.393798
0.571071 0.831640 0.397110
0.662452 0.835341 0.400632
0.756158 0.839240 0.404352
0.851970 0.843327 0.408257
0.886287 0.844627 0.409374
0.239010 0.854798 0.387307
0.316646 0.857807 0.390132
0.399162 0.861135 0.393273
0.485421 0.864726 0.396677
0.574768 0.868551 0.400313
0.666778 0.872591 0.404162
0.761155 0.876830 0.408209
0.857679 0.881260 0.412444
0.892663 0.882901 0.413889
0.198561 0.190858 0.425242
0.272552 0.191160 0.425542
0.351348 0.191776 0.426155
0.433820 0.192653 0.427027
0.519320 0.193761 0.428129
0.607425 0.195079 0.429440
0.697841 0.196595 0.430948
0.790282 0.198294 0.432637
0.822033 0.197243 0.431576
0.198816 0.266310 0.426624
0.273297 0.266935 0.427242
0.352618 0.267875 0.428174
0.435650 0.269078 0.429368
0.521747 0.270513 0.430793
0.610488 0.272161 0.432429
0.701578 0.274008 0.434263
0.794799 0.276043 0.436284
0.827025 0.275315 0.435541
0.201254 0.348005 0.429798
0.276273 0.348955 0.430737
0.356170 0.350222 0.431991
0.439816 0.351754 0.433509
0.526566 0.353520 0.435260
0.616001 0.355500 0.437224
0.707825 0.357682 0.439387
0.801823 0.360054 0.441740
0.834534 0.359649 0.441314
0.205679 0.434673 0.434585
0.281286 0.435951 0.435846
0.361811 0.437548 0.437425
0.446126 0.439412 0.439270
0.533588 0.441511 0.441349
0.623776 0.443828 0.443643
0.716396 0.446347 0.446139
0.811235 0.449059 0.448826
0.844088 0.448985 0.448706
0.211978 0.525577 0.440879
0.288222 0.527186 0.442465
0.369429 0.529116 0.444372
0.454471 0.531314 0.446545
0.542703 0.533751 0.448956
0.632941 0.536435 0.451556
0.725049 0.539327 0.454336
0.819154 0.542401 0.457298
0.851535 0.542677 0.457460
0.220074 0.620233 0.448611
0.296991 0.622177 0.450525
0.378153 0.624521 0.452740
0.462958 0.627125 0.455214
0.550749 0.629956 0.457914
0.641096 0.632996 0.460822
0.733698 0.636231 0.463923
0.828332 0.639649 0.467207
0.861335 0.640274 0.467696
0.228605 0.718552 0.457715
0.305367 0.720922 0.459935
0.386946 0.723605 0.462467
0.472200 0.726550 0.465260
0.560473 0.729725 0.468281
0.651338 0.733110 0.471511
0.744493 0.736691 0.474936
0.839719 0.740458 0.478545
0.873404 0.741437 0.479365
0.238359 0.820236 0.468181
0.315560 0.822948 0.470720
0.397609 0.825975 0.473572
0.483368 0.829265 0.476686
0.572181 0.832787 0.480031
0.663622 0.836521 0.483586
0.757393 0.840453 0.487338
0.853274 0.844574 0.491277
0.887661 0.845908 0.492427
0.240060 0.855926 0.470207
0.317747 0.858968 0.473064
0.400319 0.862328 0.476238
0.486636 0.865953 0.479674
0.576046 0.869811 0.483343
0.668123 0.873884 0.487224
0.762571 0.878157 0.491304
0.859170 0.882621 0.495573
0.894218 0.884295 0.497050
0.198695 0.191125 0.510051
0.272733 0.191459 0.510383
0.351580 0.192108 0.511028
0.434106 0.193018 0.511933
0.519664 0.194158 0.513067
0.607831 0.195510 0.514411
0.698312 0.197058 0.515951
0.790824 0.198791 0.517674
0.822628 0.197773 0.516645
0.199097 0.266685 0.511540
0.273631 0.267343 0.512190
0.353007 0.268316 0.513155
0.436099 0.269552 0.514382
0.522259 0.271020 0.515839
0.611067 0.272701 0.517508
0.702228 0.274582 0.519375
0.795526 0.276651 0.521430
0.827797 0.275955 0.520718
0.201681 0.348489 0.514821
0.276757 0.349472 0.515793
0.356715 0.350772 0.517080
0.440426 0.352337 0.518630
0.527245 0.354137 0.520414
0.616753 0.356151 0.522411
0.708655 0.358366 0.524608
0.802735 0.360772 0.526994
0.835500 0.360400 0.526601
0.206251 0.435266 0.519715
0.281919 0.436577 0.521009
0.362510 0.438207 0.522621
0.446897 0.440104 0.524499
0.534433 0.442238 0.526611
0.624700 0.444588 0.528939
0.717405 0.447142 0.531468
0.812332 0.449888 0.534190
0.844750 0.449850 0.534082
0.212692 0.526279 0.526116
0.289004 0.527921 0.527736
0.370282 0.529885 0.529675
0.455401 0.532117 0.531882
0.543714 0.534588 0.534326
0.633646 0.537320 0.536947
0.725801 0.540244 0.539759
0.819956 0.543350 0.542752
0.852396 0.543659 0.542947
0.220931 0.621043 0.533955
0.297695 0.623050 0.535897
0.378897 0.625426 0.538144
0.463745 0.628061 0.540649
0.551582 0.630926 0.543382
0.641978 0.633998 0.546322
0.734632 0.637265 0.549455
0.829323 0.640717 0.552771
0.862392 0.641375 0.553293
0.229421 0.719509 0.543164
0.306224 0.721910 0.545415
0.387849 0.724626 0.547980
0.473151 0.727603 0.550804
0.561476 0.730811 0.553857
0.652395 0.734229 0.557120
0.745609 0.737843 0.560577
0.840898 0.741644 0.564220
0.874653 0.742655 0.565072
0.239323 0.821309 0.553738
0.316570 0.824053 0.556309
0.398670 0.827112 0.559193
0.484482 0.830435 0.562340
0.573352 0.833990 0.565717
0.664855 0.837757 0.569305
0.758691 0.841723 0.573090
0.854641 0.845878 0.577061
0.889098 0.847245 0.578244
0.241169 0.857110 0.555871
0.318909 0.860185 0.558761
0.401536 0.863578 0.561967
0.487913 0.867235 0.565436
0.577386 0.871127 0.569137
0.669531 0.875234 0.573052
0.764051 0.879541 0.577165
0.860726 0.884038 0.581467
0.895835 0.885746 0.582977
0.198883 0.191440 0.597199
0.272968 0.191807 0.597563
0.351866 0.192489 0.598240
0.434447 0.193431 0.599178
0.520063 0.194605 0.600344
0.608292 0.195989 0.601721
0.698839 0.197571 0.603294
0.791424 0.199337 0.605050
0.823283 0.198352 0.604053
0.199432 0.267109 0.598795
0.274018 0.267800 0.599478
0.353450 0.268806 0.600475
0.436602 0.270075 0.601734
0.522826 0.271576 0.603225
0.611702 0.273291 0.604927
0.702936 0.275205 0.606827
0.796309 0.277308 0.608915
0.828626 0.276644 0.608235
0.202160 0.349022 0.602184
0.277294 0.350038 0.603187
0.357313 0.351371 0.604507
0.441090 0.352970 0.606091
0.527979 0.354803 0.607907
0.617561 0.356850 0.609938
0.709541 0.359100 0.612168
0.803704 0.361540 0.614588
0.836524 0.361200 0.614227
0.206875 0.435908 0.607184
0.282606 0.437252 0.608511
0.363264 0.438916 0.610156
0.447721 0.440846 0.612067
0.535333 0.443014 0.614212
0.625681 0.445398 0.616574
0.718470 0.447986 0.619137
0.813486 0.450767 0.621892
0.845469 0.450764 0.621798
0.213460 0.527030 0.613692
0.289839 0.528705 0.615345
0.371190 0.530702 0.617317
0.456386 0.532969 0.619558
0.544431 0.535490 0.622024
0.634406 0.538254 0.624676
0.726609 0.541210 0.627520
0.820815 0.544349 0.630545
0.853315 0.544691 0.630773
0.221842 0.621903 0.621639
0.298453 0.623972 0.623608
0.379695 0.626380 0.625887
0.464586 0.629048 0.628424
0.552469 0.631944 0.631188
0.642915 0.635049 0.634161
0.735623 0.638349 0.637326
0.830371 0.641833 0.640675
0.863507 0.642525 0.641230
0.230290 0.720514 0.630952
0.307136 0.722948 0.633235
0.388805 0.725697 0.635831
0.474156 0.728706 0.638688
0.562533 0.731946 0.641773
0.653508 0.735397 0.645068
0.746782 0.739044 0.648558
0.842134 0.742878 0.652233
0.875960 0.743924 0.653119
0.240340 0.822431 0.641634
0.317634 0.825207 0.644236
0.399784 0.828299 0.647154
0.485651 0.831655 0.650332
0.574579 0.835243 0.653742
0.666143 0.839043 0.657362
0.760046 0.843043 0.661180
0.856066 0.847230 0.665185
0.890592 0.848632 0.666401
0.242332 0.858343 0.643874
0.320124 0.861451 0.646796
0.402807 0.864876 0.650035
0.489244 0.868567 0.653536
0.578782 0.872493 0.657271
0.670995 0.876633 0.661218
0.765587 0.880974 0.665365
0.862339 0.885505 0.669700
0.897508 0.887246 0.671243
0.199118 0.191800 0.686382
0.273252 0.192200 0.686778
0.352201 0.192914 0.687488
0.434838 0.193889 0.688457
0.520512 0.195095 0.689657
0.608804 0.196513 0.691066
0.699418 0.198128 0.692672
0.792077 0.199928 0.694461
0.823993 0.198976 0.693497
0.199814 0.267578 0.688085
0.274453 0.268301 0.688800
0.353943 0.269340 0.689830
0.437155 0.270642 0.691122
0.523444 0.272177 0.692645
0.612388 0.273925 0.694380
0.703694 0.275872 0.696313
0.797144 0.278009 0.698434
0.829508 0.277378 0.697787
0.202688 0.349599 0.691581
0.277880 0.350648 0.692617
0.357961 0.352015 0.693970
0.441804 0.353646 0.695586
0.528763 0.355513 0.697436
0.618419 0.357594 0.699499
0.710478 0.359877 0.701763
0.804724 0.362352 0.704217
0.837600 0.362045 0.703888
0.207546 0.436593 0.696688
0.283340 0.437971 0.698048
0.364066 0.439668 0.699726
0.448595 0.441633 0.701670
0.536284 0.443834 0.703849
0.626712 0.446252 0.706244
0.719586 0.448874 0.708841
0.814242 0.451693 0.711612
0.846242 0.451723 0.711548
0.214275 0.527824 0.703303
0.290722 0.529533 0.704989
0.372146 0.531564 0.706995
0.457419 0.533865 0.709269
0.545198 0.536436 0.711756
0.635218 0.539232 0.714440
0.727468 0.542221 0.717316
0.821726 0.545393 0.720374
0.854286 0.545768 0.720634
0.222775 0.622810 0.711356
0.299260 0.624938 0.713354
0.380542 0.627378 0.715665
0.465477 0.630078 0.718234
0.553407 0.633007 0.721030
0.643903 0.636144 0.724034
0.736665 0.639477 0.727232
0.831471 0.642994 0.730613
0.864674 0.643719 0.731201
0.231207 0.721564 0.720774
0.308095 0.724030 0.723089
0.389811 0.726811 0.725718
0.475211 0.729853 0.728606
0.563640 0.733126 0.731724
0.654672 0.736609 0.735051
0.748006 0.740290 0.738574
0.843422 0.744157 0.742282
0.877320 0.745236 0.743200
0.241404 0.823596 0.731565
0.318746 0.826405 0.734199
0.400947 0.829530 0.737149
0.486869 0.832919 0.740360
0.575856 0.836540 0.743802
0.667483 0.840373 0.747455
0.761452 0.844406 0.751306
0.857543 0.848628 0.755343
0.892137 0.850063 0.756593
0.243542 0.859620 0.733913
0.321387 0.862761 0.736867
0.404127 0.866220 0.740138
0.490625 0.869944 0.743672
0.580227 0.873903 0.747439
0.672510 0.878076 0.751420
0.767175 0.882451 0.755599
0.864004 0.887017 0.759968
0.899232 0.888791 0.761544
0.199397 0.192200 0.777371
0.273580 0.192632 0.777800
0.352582 0.193379 0.778541
0.435274 0.194387 0.779543
0.521008 0.195626 0.780775
0.609363 0.197077 0.782217
0.700044 0.198726 0.783856
0.792780 0.200560 0.785678
0.824754 0.199641 0.784747
0.200240 0.268087 0.779181
0.274933 0.268842 0.779929
0.354480 0.269914 0.780991
0.437753 0.271249 0.782315
0.524107 0.272817 0.783871
0.613121 0.274599 0.785639
0.704500 0.276580 0.787606
0.798028 0.278751 0.789761
0.830439 0.278152 0.789145
0.203259 0.350217 0.782784
0.278510 0.351298 0.783853
0.358653 0.352698 0.785238
0.442563 0.354363 0.786887
0.529594 0.356263 0.788770
0.619325 0.358379 0.790867
0.711463 0.360696 0.793164
0.805793 0.363204 0.795652
0.838726 0.362931 0.795355
0.208262 0.437320 0.787999
0.284119 0.438730 0.789391
0.364913 0.440461 0.791102
0.449515 0.442459 0.793079
0.537280 0.444694 0.795291
0.627789 0.447147 0.797720
0.720750 0.449803 0.800351
0.815013 0.452660 0.803137
0.847064 0.452723 0.803106
0.215133 0.528660 0.794721
0.291649 0.530402 0.796439
0.373147 0.532467 0.798478
0.458482 0.534802 0.800785
0.546011 0.537423 0.803295
0.636077 0.540251 0.806011
0.728376 0.543273 0.808919
0.822685 0.546477 0.812009
0.855307 0.546885 0.812302
0.223589 0.623785 0.802877
0.300111 0.625944 0.804907
0.381434 0.628416 0.807249
0.466413 0.631149 0.809849
0.554391 0.634110 0.812678
0.644938 0.637280 0.815714
0.737755 0.640645 0.818945
0.832619 0.644195 0.822358
0.865891 0.644954 0.822979
0.232168 0.722654 0.812403
0.309100 0.725152 0.814750
0.390862 0.727965 0.817410
0.476312 0.731040 0.820331
0.564794 0.734346 0.823481
0.655883 0.737862 0.826841
0.749278 0.741576 0.830396
0.844759 0.745476 0.834137
0.878727 0.746589 0.835089
0.242512 0.824802 0.823302
0.319903 0.827644 0.825968
0.402156 0.830802 0.828950
0.488133 0.834223 0.832193
0.577179 0.837877 0.835668
0.668869 0.841744 0.839354
0.762905 0.845811 0.843238
0.859068 0.850066 0.847309
0.893730 0.851534 0.848591
0.244797 0.860938 0.825757
0.322695 0.864111 0.828744
0.405493 0.867603 0.832047
0.492052 0.871360 0.835614
0.581719 0.875353 0.839414
0.674071 0.879560 0.843428
0.768810 0.883969 0.847641
0.865717 0.888569 0.852043
0.901003 0.890376 0.853651
0.198733 0.191652 0.809831
0.272965 0.192117 0.810292
0.352019 0.192896 0.811066
0.434767 0.193937 0.812100
0.520562 0.195209 0.813365
0.608981 0.196693 0.814840
0.699729 0.198375 0.816511
0.792543 0.200243 0.818367
0.824579 0.199357 0.817468
0.199722 0.267647 0.811749
0.274469 0.268436 0.812529
0.354073 0.269540 0.813623
0.437409 0.270909 0.814980
0.523828 0.272510 0.816569
0.612912 0.274325 0.818370
0.704364 0.276340 0.820370
0.797970 0.278544 0.822558
0.830430 0.277978 0.821974
0.202886 0.349886 0.815458
0.278196 0.351001 0.816560
0.358402 0.352434 0.817978
0.442379 0.354132 0.819660
0.529481 0.356066 0.821576
0.619288 0.358215 0.823706
0.711507 0.360566 0.826037
0.805921 0.363109 0.828558
0.838912 0.362868 0.828294
0.208032 0.437098 0.820780
0.283954 0.438542 0.822205
0.364816 0.440306 0.823949
0.449491 0.442337 0.825959
0.537334 0.444606 0.828205
0.627925 0.447093 0.830667
0.720972 0.449784 0.833332
0.814842 0.452678 0.836134
0.846947 0.452774 0.836134
0.215047 0.528546 0.827609
0.291632 0.530322 0.829361
0.373204 0.532421 0.831433
0.458311 0.534808 0.833763
0.545883 0.537461 0.836305
0.635994 0.540322 0.839053
0.728342 0.543376 0.841993
0.822705 0.546612 0.845115
0.855389 0.547053 0.845441
0.223457 0.623811 0.835869
0.300019 0.626002 0.837930
0.381383 0.628507 0.840304
0.466407 0.631271 0.842936
0.554433 0.634265 0.845797
0.645032 0.637467 0.848866
0.737904 0.640865 0.852128
0.832827 0.644448 0.855575
0.866167 0.645240 0.856229
0.232185 0.722796 0.845503
0.309160 0.725326 0.847882
0.390969 0.728172 0.850574
0.476469 0.731279 0.853527
0.565006 0.734617 0.856709
0.656152 0.738167 0.860102
0.749609 0.741914 0.863690
0.845155 0.745847 0.867463
0.879194 0.746994 0.868448
0.242676 0.825060 0.856510
0.320115 0.827934 0.859208
0.402421 0.831125 0.862222
0.488454 0.834579 0.865498
0.577560 0.838266 0.869005
0.669314 0.842167 0.872724
0.763418 0.846267 0.876641
0.859653 0.850556 0.880745
0.894382 0.852058 0.882060
0.245107 0.861307 0.859073
0.323059 0.864513 0.862091
0.405915 0.868038 0.865427
0.492535 0.871829 0.869027
0.582269 0.875855 0.872860
0.674691 0.880096 0.876907
0.769504 0.884538 0.881153
0.866491 0.889172 0.885589
0.901832 0.891013 0.887229
