library/cube/Pastel_Promise_003.cube
# CINEGRADE LAB — Premium Cinematic LUT
# Title: Pastel Promise
# Category: Dreamy Wedding
# Description: Soft, romantic, warm highlights with pastel tones for wedding photography
# Mood: Romantic, ethereal, tender
# Variant: 4
# Generated: 2026-05-21T16:12:19.390348
TITLE "Pastel Promise"
LUT_3D_SIZE 5
0.198570 0.190445 0.190445
0.351068 0.191168 0.191166
0.518710 0.192956 0.192946
0.696858 0.195591 0.195568
0.820699 0.196042 0.196001
0.200382 0.346940 0.194359
0.354950 0.348959 0.196357
0.524950 0.352057 0.199428
0.705764 0.356017 0.203356
0.832076 0.357783 0.205085
0.210241 0.523859 0.204797
0.367281 0.527197 0.208092
0.540090 0.531629 0.212476
0.723226 0.536962 0.217701
0.849394 0.540116 0.220631
0.226566 0.716069 0.220999
0.384654 0.720929 0.225561
0.557890 0.726854 0.231182
0.741574 0.733623 0.237642
0.870090 0.738168 0.241874
0.237139 0.852761 0.232844
0.397082 0.858966 0.238681
0.572447 0.866250 0.245591
0.758562 0.874395 0.253354
0.889794 0.880331 0.258902
0.198487 0.190648 0.343197
0.351177 0.191501 0.344046
0.519038 0.193420 0.345956
0.697433 0.196187 0.348709
0.821505 0.196770 0.349272
0.200887 0.347577 0.347539
0.355686 0.349729 0.349668
0.525949 0.352959 0.352870
0.707058 0.357054 0.356931
0.833633 0.358954 0.358792
0.211323 0.524932 0.358406
0.368636 0.528404 0.361833
0.541753 0.532971 0.366350
0.724361 0.538465 0.371679
0.850740 0.541750 0.374738
0.227849 0.717652 0.375031
0.386104 0.722641 0.379720
0.559533 0.728695 0.385469
0.743440 0.735595 0.392059
0.872218 0.740274 0.396422
0.239010 0.854798 0.387307
0.399162 0.861135 0.393273
0.574768 0.868551 0.400313
0.761155 0.876830 0.408209
0.892663 0.882901 0.413889
0.198695 0.191125 0.510051
0.351580 0.192108 0.511028
0.519664 0.194158 0.513067
0.698312 0.197058 0.515951
0.822628 0.197773 0.516645
0.201681 0.348489 0.514821
0.356715 0.350772 0.517080
0.527245 0.354137 0.520414
0.708655 0.358366 0.524608
0.835500 0.360400 0.526601
0.212692 0.526279 0.526116
0.370282 0.529885 0.529675
0.543714 0.534588 0.534326
0.725801 0.540244 0.539759
0.852396 0.543659 0.542947
0.229421 0.719509 0.543164
0.387849 0.724626 0.547980
0.561476 0.730811 0.553857
0.745609 0.737843 0.560577
0.874653 0.742655 0.565072
0.241169 0.857110 0.555871
0.401536 0.863578 0.561967
0.577386 0.871127 0.569137
0.764051 0.879541 0.577165
0.895835 0.885746 0.582977
0.199118 0.191800 0.686382
0.352201 0.192914 0.687488
0.520512 0.195095 0.689657
0.699418 0.198128 0.692672
0.823993 0.198976 0.693497
0.202688 0.349599 0.691581
0.357961 0.352015 0.693970
0.528763 0.355513 0.697436
0.710478 0.359877 0.701763
0.837600 0.362045 0.703888
0.214275 0.527824 0.703303
0.372146 0.531564 0.706995
0.545198 0.536436 0.711756
0.727468 0.542221 0.717316
0.854286 0.545768 0.720634
0.231207 0.721564 0.720774
0.389811 0.726811 0.725718
0.563640 0.733126 0.731724
0.748006 0.740290 0.738574
0.877320 0.745236 0.743200
0.243542 0.859620 0.733913
0.404127 0.866220 0.740138
0.580227 0.873903 0.747439
0.767175 0.882451 0.755599
0.899232 0.888791 0.761544
0.198733 0.191652 0.809831
0.352019 0.192896 0.811066
0.520562 0.195209 0.813365
0.699729 0.198375 0.816511
0.824579 0.199357 0.817468
0.202886 0.349886 0.815458
0.358402 0.352434 0.817978
0.529481 0.356066 0.821576
0.711507 0.360566 0.826037
0.838912 0.362868 0.828294
0.215047 0.528546 0.827609
0.373204 0.532421 0.831433
0.545883 0.537461 0.836305
0.728342 0.543376 0.841993
0.855389 0.547053 0.845441
0.232185 0.722796 0.845503
0.390969 0.728172 0.850574
0.565006 0.734617 0.856709
0.749609 0.741914 0.863690
0.879194 0.746994 0.868448
0.245107 0.861307 0.859073
0.405915 0.868038 0.865427
0.582269 0.875855 0.872860
0.769504 0.884538 0.881153
0.901832 0.891013 0.887229
