library/cube/Pastel_Promise_003.cube
# CINEGRADE LAB — Premium Cinematic LUT
# Title: Pastel Promise
# Category: Dreamy Wedding
# Description: Soft, romantic, warm highlights with pastel tones for wedding photography
# Mood: Romantic, ethereal, tender
# Variant: 4
# Generated: 2026-05-21T16:12:19.390348
TITLE "Pastel Promise"
LUT_3D_SIZE 33
0.198570 0.190445 0.190445
0.216487 0.190462 0.190462
0.234792 0.190503 0.190503
0.253447 0.190566 0.190566
0.272421 0.190650 0.190649
0.291690 0.190753 0.190752
0.311232 0.190874 0.190873
0.331030 0.191013 0.191011
0.351068 0.191168 0.191166
0.371333 0.191340 0.191337
0.391814 0.191527 0.191523
0.412499 0.191730 0.191725
0.433381 0.191947 0.191941
0.454449 0.192179 0.192172
0.475698 0.192424 0.192416
0.497121 0.192683 0.192674
0.518710 0.192956 0.192946
0.540462 0.193242 0.193230
0.562369 0.193540 0.193527
0.584428 0.193852 0.193837
0.606635 0.194175 0.194159
0.628985 0.194511 0.194494
0.651474 0.194859 0.194840
0.674100 0.195219 0.195198
0.696858 0.195591 0.195568
0.719746 0.195974 0.195950
0.742761 0.196369 0.196342
0.765900 0.196775 0.196746
0.789094 0.197190 0.197159
0.812319 0.197611 0.197578
0.822031 0.197406 0.197370
0.821359 0.196721 0.196683
0.820699 0.196042 0.196001
0.198301 0.208533 0.190527
0.216246 0.208571 0.190564
0.234580 0.208632 0.190624
0.253263 0.208715 0.190707
0.272267 0.208819 0.190810
0.291566 0.208942 0.190933
0.311138 0.209083 0.191073
0.330967 0.209242 0.191231
0.351037 0.209418 0.191406
0.371334 0.209610 0.191597
0.391847 0.209817 0.191804
0.412566 0.210040 0.192025
0.433481 0.210278 0.192262
0.454584 0.210530 0.192512
0.475867 0.210795 0.192777
0.497325 0.211075 0.193055
0.518950 0.211368 0.193346
0.540738 0.211674 0.193651
0.562682 0.211993 0.193968
0.584779 0.212325 0.194298
0.607024 0.212669 0.194641
0.629413 0.213026 0.194995
0.651941 0.213394 0.195362
0.674607 0.213775 0.195740
0.697405 0.214167 0.196131
0.720335 0.214571 0.196532
0.743391 0.214987 0.196946
0.766573 0.215414 0.197370
0.789810 0.215849 0.197803
0.813042 0.216289 0.198241
0.822789 0.216105 0.198053
0.822156 0.215440 0.197386
0.821534 0.214782 0.196725
0.198184 0.227111 0.190734
0.216158 0.227168 0.190791
0.234521 0.227250 0.190872
0.253234 0.227353 0.190974
0.272268 0.227477 0.191097
0.291597 0.227620 0.191239
0.311201 0.227781 0.191400
0.331061 0.227960 0.191578
0.351163 0.228156 0.191773
0.371493 0.228369 0.191984
0.392040 0.228596 0.192210
0.412792 0.228840 0.192452
0.433742 0.229097 0.192709
0.454880 0.229370 0.192979
0.476199 0.229656 0.193264
0.497693 0.229956 0.193562
0.519355 0.230269 0.193874
0.541180 0.230596 0.194199
0.563162 0.230936 0.194536
0.585297 0.231288 0.194886
0.607581 0.231653 0.195249
0.630009 0.232030 0.195624
0.652578 0.232419 0.196011
0.675285 0.232820 0.196410
0.698125 0.233233 0.196820
0.721096 0.233658 0.197242
0.744195 0.234094 0.197676
0.767420 0.234542 0.198121
0.790707 0.234998 0.198575
0.813943 0.235457 0.199031
0.823737 0.235294 0.198865
0.823144 0.234650 0.198218
0.822562 0.234012 0.197577
0.198213 0.246135 0.191062
0.216216 0.246212 0.191139
0.234608 0.246314 0.191239
0.253352 0.246437 0.191362
0.272417 0.246581 0.191505
0.291778 0.246744 0.191667
0.311413 0.246926 0.191847
0.331306 0.247125 0.192045
0.351441 0.247342 0.192260
0.371805 0.247574 0.192491
0.392385 0.247822 0.192738
0.413173 0.248086 0.192999
0.434157 0.248364 0.193276
0.455331 0.248657 0.193567
0.476687 0.248963 0.193871
0.498218 0.249284 0.194190
0.519917 0.249618 0.194522
0.541780 0.249965 0.194867
0.563801 0.250325 0.195225
0.585976 0.250698 0.195595
0.608300 0.251083 0.195978
0.630769 0.251481 0.196373
0.653379 0.251891 0.196781
0.676127 0.252313 0.197200
0.699009 0.252747 0.197631
0.722024 0.253192 0.198074
0.745167 0.253649 0.198528
0.768436 0.254118 0.198993
0.791779 0.254595 0.199468
0.815016 0.255073 0.199943
0.824874 0.254931 0.199798
0.824321 0.254308 0.199171
0.823779 0.253691 0.198550
0.198382 0.265571 0.191505
0.216415 0.265669 0.191602
0.234838 0.265790 0.191722
0.253613 0.265934 0.191864
0.272709 0.266098 0.192027
0.292102 0.266281 0.192209
0.311771 0.266483 0.192410
0.331697 0.266703 0.192628
0.351866 0.266940 0.192863
0.372264 0.267192 0.193114
0.392879 0.267461 0.193380
0.413702 0.267745 0.193662
0.434723 0.268044 0.193959
0.455933 0.268357 0.194270
0.477326 0.268684 0.194595
0.498895 0.269025 0.194933
0.520633 0.269379 0.195286
0.542535 0.269747 0.195651
0.564596 0.270128 0.196029
0.586810 0.270521 0.196420
0.609175 0.270927 0.196823
0.631685 0.271346 0.197239
0.654338 0.271776 0.197666
0.677128 0.272219 0.198106
0.700054 0.272674 0.198558
0.723113 0.273140 0.199021
0.746300 0.273618 0.199496
0.769615 0.274107 0.199982
0.793022 0.274606 0.200478
0.816258 0.275103 0.200971
0.826195 0.274984 0.200848
0.825671 0.274380 0.200241
0.825147 0.273783 0.199640
0.198686 0.285391 0.192060
0.216750 0.285509 0.192176
0.235205 0.285651 0.192316
0.254011 0.285815 0.192478
0.273140 0.285999 0.192661
0.292566 0.286203 0.192863
0.312268 0.286425 0.193084
0.332228 0.286665 0.193322
0.352432 0.286922 0.193577
0.372865 0.287195 0.193848
0.393516 0.287484 0.194135
0.414375 0.287789 0.194437
0.435433 0.288108 0.194753
0.456681 0.288442 0.195085
0.478112 0.288789 0.195430
0.499720 0.289151 0.195789
0.521497 0.289526 0.196161
0.543439 0.289914 0.196547
0.565540 0.290316 0.196945
0.587796 0.290730 0.197356
0.610203 0.291156 0.197780
0.632756 0.291596 0.198216
0.655451 0.292047 0.198664
0.678285 0.292510 0.199125
0.701255 0.292986 0.199597
0.724359 0.293473 0.200080
0.747592 0.293972 0.200576
0.770953 0.294482 0.201082
0.794432 0.295003 0.201600
0.817663 0.295519 0.202112
0.827628 0.295419 0.202008
0.827129 0.294836 0.201421
0.826640 0.294259 0.200840
0.199123 0.305572 0.192722
0.217219 0.305710 0.192858
0.235705 0.305872 0.193018
0.254544 0.306057 0.193200
0.273707 0.306261 0.193403
0.293166 0.306485 0.193625
0.312902 0.306728 0.193866
0.332898 0.306989 0.194124
0.353137 0.307266 0.194399
0.373606 0.307560 0.194690
0.394294 0.307869 0.194997
0.415190 0.308194 0.195319
0.436286 0.308533 0.195656
0.457572 0.308888 0.196008
0.479042 0.309256 0.196373
0.500689 0.309638 0.196753
0.522507 0.310034 0.197145
0.544490 0.310443 0.197551
0.566632 0.310865 0.197970
0.588931 0.311300 0.198402
0.611380 0.311747 0.198846
0.633976 0.312207 0.199302
0.656715 0.312679 0.199771
0.679594 0.313164 0.200252
0.702609 0.313660 0.200744
0.725758 0.314168 0.201249
0.749038 0.314688 0.201765
0.772446 0.315219 0.202292
0.795979 0.315762 0.202831
0.819231 0.316297 0.203362
0.829211 0.316217 0.203278
0.828747 0.315654 0.202711
0.828294 0.315097 0.202149
0.199689 0.326094 0.193489
0.217817 0.326253 0.193645
0.236336 0.326435 0.193825
0.255209 0.326639 0.194028
0.274405 0.326864 0.194250
0.293899 0.327109 0.194492
0.313671 0.327372 0.194753
0.333702 0.327653 0.195031
0.353977 0.327951 0.195326
0.374483 0.328265 0.195638
0.395208 0.328595 0.195965
0.416143 0.328940 0.196308
0.437277 0.329300 0.196665
0.458603 0.329675 0.197037
0.480113 0.330064 0.197422
0.501800 0.330467 0.197822
0.523659 0.330883 0.198235
0.545683 0.331313 0.198661
0.567869 0.331756 0.199101
0.590210 0.332211 0.199553
0.612702 0.332680 0.200017
0.635343 0.333160 0.200494
0.658127 0.333653 0.200984
0.681051 0.334159 0.201485
0.704113 0.334676 0.201998
0.727309 0.335205 0.202523
0.750636 0.335746 0.203060
0.774092 0.336298 0.203608
0.797674 0.336862 0.204167
0.820958 0.337417 0.204718
0.830953 0.337356 0.204653
0.830524 0.336814 0.204106
0.830107 0.336278 0.203565
0.200382 0.346940 0.194359
0.218542 0.347118 0.194535
0.237095 0.347321 0.194735
0.256002 0.347546 0.194957
0.275233 0.347791 0.195200
0.294763 0.348056 0.195462
0.314570 0.348340 0.195743
0.334637 0.348641 0.196042
0.354950 0.348959 0.196357
0.375493 0.349294 0.196689
0.396257 0.349645 0.197036
0.417230 0.350010 0.197399
0.438404 0.350391 0.197776
0.459770 0.350787 0.198168
0.481321 0.351196 0.198574
0.503050 0.351620 0.198994
0.524950 0.352057 0.199428
0.547018 0.352507 0.199875
0.569246 0.352971 0.200335
0.591631 0.353447 0.200807
0.614169 0.353937 0.201292
0.636854 0.354438 0.201790
0.659684 0.354952 0.202300
0.682655 0.355478 0.202822
0.705764 0.356017 0.203356
0.729008 0.356567 0.203901
0.752383 0.357128 0.204459
0.775888 0.357702 0.205027
0.799521 0.358287 0.205608
0.822842 0.358862 0.206179
0.832850 0.358821 0.206133
0.832458 0.358299 0.205606
0.832076 0.357783 0.205085
0.201198 0.368094 0.195329
0.219393 0.368293 0.195525
0.237980 0.368516 0.195745
0.256922 0.368761 0.195988
0.276188 0.369027 0.196251
0.295754 0.369312 0.196533
0.315598 0.369616 0.196834
0.335703 0.369938 0.197153
0.356053 0.370277 0.197488
0.376635 0.370632 0.197840
0.397438 0.371003 0.198208
0.418451 0.371390 0.198591
0.439665 0.371791 0.198989
0.461072 0.372207 0.199401
0.482665 0.372638 0.199828
0.504436 0.373082 0.200268
0.526380 0.373540 0.200722
0.548490 0.374011 0.201189
0.570763 0.374496 0.201670
0.593193 0.374993 0.202163
0.615776 0.375503 0.202668
0.638507 0.376026 0.203187
0.661384 0.376560 0.203717
0.684403 0.377108 0.204260
0.707560 0.377667 0.204814
0.730852 0.378238 0.205381
0.754278 0.378821 0.205959
0.777833 0.379415 0.206548
0.801516 0.380021 0.207150
0.824882 0.380618 0.207741
0.834902 0.380596 0.207714
0.834545 0.380095 0.207208
0.834199 0.379599 0.206707
0.202137 0.389543 0.196398
0.220366 0.389762 0.196614
0.238988 0.390006 0.196854
0.257966 0.390271 0.197117
0.277268 0.390558 0.197400
0.296871 0.390864 0.197702
0.316753 0.391188 0.198024
0.336896 0.391530 0.198362
0.357284 0.391890 0.198718
0.377906 0.392266 0.199090
0.398749 0.392658 0.199478
0.419803 0.393065 0.199882
0.441058 0.393487 0.200300
0.462507 0.393924 0.200733
0.484142 0.394375 0.201180
0.505957 0.394840 0.201641
0.527944 0.395319 0.202115
0.550100 0.395811 0.202603
0.572417 0.396316 0.203104
0.594893 0.396834 0.203618
0.617522 0.397365 0.204144
0.640301 0.397909 0.204683
0.663226 0.398465 0.205234
0.686293 0.399033 0.205797
0.709499 0.399613 0.206373
0.732841 0.400206 0.206960
0.756317 0.400810 0.207559
0.779923 0.401425 0.208169
0.803658 0.402053 0.208791
0.827077 0.402671 0.209404
0.837106 0.402668 0.209396
0.836785 0.402187 0.208909
0.836475 0.401712 0.208429
0.203196 0.411276 0.197563
0.221460 0.411516 0.197800
0.240118 0.411779 0.198060
0.259132 0.412065 0.198343
0.278472 0.412372 0.198646
0.298112 0.412699 0.198969
0.318032 0.413044 0.199310
0.338214 0.413407 0.199669
0.358643 0.413787 0.200045
0.379305 0.414183 0.200438
0.400189 0.414596 0.200846
0.421284 0.415024 0.201270
0.442581 0.415467 0.201709
0.464073 0.415924 0.202162
0.485752 0.416396 0.202630
0.507610 0.416882 0.203111
0.529643 0.417382 0.203606
0.551843 0.417895 0.204114
0.574207 0.418421 0.204636
0.596730 0.418960 0.205170
0.619406 0.419512 0.205717
0.642233 0.420077 0.206277
0.665206 0.420654 0.206849
0.688323 0.421243 0.207433
0.711579 0.421845 0.208029
0.734972 0.422458 0.208637
0.758499 0.423083 0.209257
0.782158 0.423720 0.209888
0.805945 0.424369 0.210531
0.829423 0.425008 0.211165
0.839462 0.425025 0.211176
0.839177 0.424565 0.210709
0.838903 0.424110 0.210249
0.204374 0.433282 0.198824
0.222674 0.433542 0.199081
0.241368 0.433826 0.199362
0.260420 0.434133 0.199664
0.279797 0.434460 0.199988
0.299476 0.434807 0.200331
0.319435 0.435173 0.200693
0.339657 0.435557 0.201072
0.360126 0.435957 0.201468
0.380829 0.436375 0.201881
0.401755 0.436808 0.202310
0.422892 0.437256 0.202754
0.444233 0.437720 0.203214
0.465769 0.438199 0.203687
0.487491 0.438691 0.204175
0.509395 0.439198 0.204677
0.531473 0.439719 0.205193
0.553720 0.440253 0.205722
0.576131 0.440800 0.206264
0.598701 0.441360 0.206819
0.621426 0.441933 0.207387
0.644302 0.442519 0.207967
0.667325 0.443117 0.208560
0.690492 0.443728 0.209165
0.713799 0.444350 0.209782
0.737244 0.444985 0.210411
0.760824 0.445631 0.211051
0.784535 0.446290 0.211704
0.808376 0.446959 0.212367
0.831922 0.447621 0.213023
0.841968 0.447657 0.213053
0.841719 0.447217 0.212606
0.841481 0.446783 0.212166
0.205668 0.455551 0.200179
0.224005 0.455832 0.200456
0.242737 0.456137 0.200757
0.261826 0.456464 0.201080
0.281243 0.456812 0.201424
0.300961 0.457179 0.201787
0.320960 0.457566 0.202169
0.341222 0.457970 0.202569
0.361733 0.458392 0.202986
0.382478 0.458830 0.203419
0.403446 0.459284 0.203868
0.424627 0.459753 0.204333
0.446012 0.460238 0.204813
0.467592 0.460737 0.205307
0.489360 0.461251 0.205816
0.511309 0.461779 0.206338
0.533434 0.462320 0.206874
0.555728 0.462875 0.207424
0.578187 0.463443 0.207987
0.600806 0.464025 0.208563
0.623581 0.464619 0.209151
0.646506 0.465226 0.209752
0.669580 0.465845 0.210366
0.692798 0.466477 0.210992
0.716158 0.467121 0.211629
0.739655 0.467777 0.212279
0.763288 0.468444 0.212941
0.787054 0.469124 0.213614
0.810950 0.469815 0.214299
0.834570 0.470499 0.214976
0.844623 0.470554 0.215025
0.844410 0.470134 0.214599
0.844033 0.469722 0.214172
0.207079 0.478075 0.201627
0.225453 0.478377 0.201924
0.244223 0.478702 0.202245
0.263351 0.479050 0.202589
0.282807 0.479419 0.202953
0.302565 0.479807 0.203336
0.322605 0.480214 0.203739
0.342909 0.480639 0.204159
0.363462 0.481081 0.204596
0.384249 0.481540 0.205050
0.405261 0.482015 0.205520
0.426486 0.482505 0.206005
0.447916 0.483011 0.206505
0.469542 0.483531 0.207020
0.491356 0.484066 0.207549
0.513352 0.484615 0.208092
0.535525 0.485177 0.208649
0.557867 0.485753 0.209220
0.580375 0.486343 0.209803
0.603044 0.486945 0.210400
0.625868 0.487561 0.211009
0.648845 0.488189 0.211631
0.671971 0.488829 0.212266
0.695241 0.489482 0.212912
0.718654 0.490147 0.213571
0.742205 0.490824 0.214242
0.765892 0.491514 0.214924
0.789713 0.492215 0.215619
0.813665 0.492927 0.216325
0.837062 0.493638 0.217013
0.846749 0.493716 0.217065
0.846204 0.493321 0.216645
0.845670 0.492933 0.216231
0.208603 0.500847 0.203167
0.227016 0.501169 0.203484
0.245825 0.501515 0.203825
0.264993 0.501884 0.204189
0.284489 0.502273 0.204573
0.304288 0.502682 0.204978
0.324370 0.503110 0.205400
0.344716 0.503556 0.205841
0.365311 0.504019 0.206299
0.386143 0.504499 0.206773
0.407199 0.504994 0.207263
0.428470 0.505506 0.207769
0.449945 0.506032 0.208290
0.471617 0.506573 0.208825
0.493478 0.507129 0.209375
0.515523 0.507699 0.209939
0.537743 0.508282 0.210517
0.560135 0.508880 0.211108
0.582693 0.509490 0.211712
0.605412 0.510114 0.212330
0.628288 0.510750 0.212960
0.651317 0.511400 0.213603
0.674495 0.512062 0.214258
0.697819 0.512736 0.214926
0.721286 0.513422 0.215605
0.744825 0.514122 0.216295
0.768227 0.514840 0.216986
0.791747 0.515568 0.217687
0.815382 0.516308 0.218400
0.838784 0.517042 0.219107
0.848463 0.517140 0.219178
0.847955 0.516767 0.218778
0.847458 0.516400 0.218384
0.210241 0.523859 0.204797
0.228693 0.524202 0.205135
0.247541 0.524569 0.205496
0.266750 0.524958 0.205880
0.286287 0.525368 0.206285
0.306128 0.525798 0.206710
0.326252 0.526246 0.207153
0.346642 0.526713 0.207614
0.367281 0.527197 0.208092
0.388158 0.527697 0.208587
0.409259 0.528214 0.209098
0.430575 0.528746 0.209624
0.452097 0.529294 0.210166
0.473817 0.529856 0.210722
0.495726 0.530433 0.211293
0.517819 0.531024 0.211877
0.540090 0.531629 0.212476
0.562532 0.532247 0.213088
0.585140 0.532879 0.213713
0.607911 0.533524 0.214351
0.630839 0.534182 0.215002
0.653921 0.534852 0.215666
0.676979 0.535541 0.216336
0.700039 0.536246 0.217013
0.723226 0.536962 0.217701
0.746536 0.537689 0.218401
0.769968 0.538428 0.219112
0.793517 0.539178 0.219834
0.817183 0.539939 0.220566
0.840656 0.540696 0.221296
0.850325 0.540813 0.221385
0.849854 0.540462 0.221005
0.849394 0.540116 0.220631
0.211992 0.547105 0.206517
0.230483 0.547468 0.206875
0.249372 0.547856 0.207257
0.268622 0.548266 0.207662
0.288201 0.548697 0.208087
0.308085 0.549147 0.208532
0.328252 0.549617 0.208995
0.348686 0.550104 0.209477
0.369370 0.550609 0.209976
0.390292 0.551131 0.210491
0.411440 0.551668 0.211023
0.432803 0.552222 0.211570
0.454372 0.552790 0.212132
0.476140 0.553374 0.212709
0.498099 0.553971 0.213300
0.520241 0.554583 0.213906
0.542562 0.555209 0.214525
0.565055 0.555849 0.215158
0.587716 0.556502 0.215804
0.610277 0.557179 0.216454
0.632962 0.557870 0.217116
0.655785 0.558572 0.217789
0.678742 0.559287 0.218474
0.701831 0.560013 0.219171
0.725047 0.560750 0.219880
0.748387 0.561499 0.220599
0.771848 0.562259 0.221330
0.795429 0.563030 0.222072
0.819126 0.563812 0.222825
0.842677 0.564593 0.223576
0.852336 0.564730 0.223684
0.851901 0.564400 0.223324
0.851478 0.564077 0.222971
0.213853 0.570579 0.208327
0.232385 0.570963 0.208705
0.251316 0.571371 0.209107
0.270607 0.571801 0.209532
0.290229 0.572253 0.209978
0.310157 0.572725 0.210443
0.330368 0.573215 0.210927
0.350847 0.573724 0.211429
0.371577 0.574249 0.211949
0.392545 0.574792 0.212485
0.413740 0.575351 0.213037
0.435151 0.575925 0.213605
0.456769 0.576515 0.214188
0.478586 0.577119 0.214785
0.500595 0.577738 0.215397
0.522715 0.578376 0.216021
0.544827 0.579037 0.216653
0.567098 0.579712 0.217297
0.589520 0.580399 0.217954
0.612090 0.581098 0.218624
0.634802 0.581810 0.219305
0.657654 0.582534 0.219999
0.680640 0.583269 0.220704
0.703758 0.584017 0.221421
0.727004 0.584775 0.222149
0.750375 0.585546 0.222889
0.773868 0.586327 0.223640
0.797480 0.587120 0.224402
0.821209 0.587923 0.225175
0.844846 0.588728 0.225949
0.854493 0.588884 0.226074
0.854095 0.588576 0.225735
0.853708 0.588274 0.225402
0.215826 0.594274 0.210224
0.234399 0.594679 0.210622
0.253371 0.595108 0.211045
0.272706 0.595560 0.211490
0.292371 0.596032 0.211957
0.312343 0.596525 0.212443
0.332600 0.597036 0.212947
0.353125 0.597565 0.213470
0.373901 0.598112 0.214010
0.394917 0.598676 0.214567
0.416159 0.599256 0.215140
0.437619 0.599851 0.215728
0.459138 0.600473 0.216327
0.480767 0.601115 0.216939
0.502573 0.601771 0.217563
0.524549 0.602441 0.218202
0.546688 0.603123 0.218853
0.568985 0.603819 0.219517
0.591436 0.604527 0.220194
0.614034 0.605248 0.220884
0.636775 0.605981 0.221585
0.659656 0.606726 0.222299
0.682672 0.607483 0.223024
0.705821 0.608252 0.223761
0.729097 0.609032 0.224509
0.752500 0.609824 0.225269
0.776025 0.610627 0.226040
0.799670 0.611441 0.226822
0.823432 0.612266 0.227615
0.847162 0.613095 0.228412
0.856795 0.613271 0.228556
0.856433 0.612984 0.228237
0.856083 0.612704 0.227924
0.217908 0.618187 0.212209
0.236523 0.618613 0.212628
0.255539 0.619063 0.213071
0.274917 0.619535 0.213537
0.294627 0.620029 0.214023
0.314644 0.620542 0.214530
0.334947 0.621074 0.215055
0.355518 0.621625 0.215599
0.376337 0.622193 0.216159
0.397198 0.622797 0.216731
0.418272 0.623417 0.217319
0.439549 0.624051 0.217921
0.461019 0.624700 0.218538
0.482674 0.625364 0.219169
0.504506 0.626041 0.219813
0.526509 0.626732 0.220471
0.548676 0.627436 0.221143
0.571002 0.628152 0.221827
0.593481 0.628882 0.222524
0.616108 0.629624 0.223233
0.638879 0.630378 0.223955
0.661790 0.631145 0.224688
0.684837 0.631923 0.225433
0.708017 0.632713 0.226190
0.731326 0.633515 0.226959
0.754761 0.634328 0.227739
0.778319 0.635153 0.228530
0.801997 0.635988 0.229332
0.825794 0.636835 0.230146
0.849623 0.637689 0.230966
0.859241 0.637884 0.231127
0.858916 0.637619 0.230829
0.858601 0.637360 0.230536
0.220099 0.642313 0.214280
0.238757 0.642759 0.214720
0.257816 0.643230 0.215183
0.277239 0.643723 0.215670
0.296994 0.644237 0.216177
0.316990 0.644780 0.216703
0.337157 0.645355 0.217244
0.357578 0.645948 0.217803
0.378239 0.646557 0.218379
0.399125 0.647182 0.218970
0.420224 0.647822 0.219577
0.441527 0.648478 0.220200
0.463023 0.649149 0.220836
0.484705 0.649833 0.221487
0.506565 0.650532 0.222152
0.528596 0.651244 0.222830
0.550791 0.651969 0.223521
0.573146 0.652707 0.224225
0.595654 0.653458 0.224942
0.618312 0.654221 0.225671
0.641113 0.654997 0.226413
0.664056 0.655785 0.227166
0.687135 0.656585 0.227932
0.710347 0.657397 0.228709
0.733688 0.658220 0.229498
0.757157 0.659055 0.230298
0.780749 0.659901 0.231109
0.804462 0.660758 0.231932
0.828294 0.661627 0.232765
0.852229 0.662505 0.233609
0.861830 0.662719 0.233788
0.861541 0.662476 0.233510
0.861263 0.662239 0.233238
0.222398 0.666646 0.216438
0.241100 0.667113 0.216898
0.260090 0.667623 0.217380
0.279394 0.668161 0.217883
0.299018 0.668719 0.218407
0.318936 0.669297 0.218950
0.339127 0.669893 0.219512
0.359573 0.670506 0.220090
0.380259 0.671137 0.220686
0.401171 0.671783 0.221297
0.422297 0.672445 0.221924
0.443626 0.673122 0.222566
0.465150 0.673813 0.223223
0.486860 0.674519 0.223893
0.508748 0.675239 0.224578
0.530807 0.675972 0.225276
0.553032 0.676719 0.225987
0.575417 0.677479 0.226711
0.597956 0.678251 0.227448
0.620644 0.679036 0.228198
0.643478 0.679833 0.228959
0.666452 0.680643 0.229733
0.689564 0.681464 0.230519
0.712809 0.682297 0.231316
0.736184 0.683142 0.232125
0.759687 0.683999 0.232945
0.783314 0.684866 0.233777
0.807063 0.685745 0.234620
0.830931 0.686636 0.235474
0.854916 0.687537 0.236339
0.864561 0.687773 0.236538
0.864308 0.687552 0.236280
0.864065 0.687336 0.236029
0.224513 0.691238 0.218677
0.243101 0.691751 0.219154
0.262078 0.692288 0.219655
0.281406 0.692847 0.220179
0.301055 0.693427 0.220722
0.320998 0.694025 0.221285
0.341214 0.694643 0.221866
0.361686 0.695277 0.222465
0.382398 0.695929 0.223080
0.403336 0.696596 0.223711
0.424489 0.697279 0.224358
0.445846 0.697978 0.225020
0.467398 0.698691 0.225697
0.489137 0.699418 0.226387
0.511054 0.700159 0.227092
0.533144 0.700914 0.227810
0.555399 0.701682 0.228541
0.577814 0.702463 0.229285
0.600384 0.703257 0.230042
0.623105 0.704063 0.230812
0.645971 0.704882 0.231594
0.668978 0.705713 0.232388
0.692123 0.706556 0.233193
0.715403 0.707411 0.234011
0.738813 0.708278 0.234840
0.762351 0.709156 0.235681
0.786015 0.710045 0.236533
0.809800 0.710946 0.237396
0.833705 0.711858 0.238270
0.857727 0.712781 0.239155
0.867433 0.713040 0.239376
0.867215 0.712841 0.239139
0.867008 0.712647 0.238908
0.226566 0.716069 0.220999
0.245178 0.716603 0.221496
0.264180 0.717161 0.222017
0.283532 0.717742 0.222560
0.303206 0.718342 0.223123
0.323174 0.718962 0.223706
0.343417 0.719601 0.224307
0.363915 0.720257 0.224926
0.384654 0.720929 0.225561
0.405620 0.721618 0.226212
0.426801 0.722323 0.226879
0.448187 0.723042 0.227561
0.469768 0.723777 0.228257
0.491536 0.724525 0.228968
0.513483 0.725288 0.229692
0.535603 0.726064 0.230430
0.557890 0.726854 0.231182
0.580337 0.727656 0.231946
0.602939 0.728472 0.232723
0.625693 0.729300 0.233513
0.648592 0.730140 0.234315
0.671634 0.730993 0.235129
0.694813 0.731858 0.235955
0.718128 0.732735 0.236793
0.741574 0.733623 0.237642
0.765149 0.734523 0.238503
0.788849 0.735434 0.239376
0.812672 0.736357 0.240259
0.836615 0.737291 0.241154
0.860676 0.738236 0.242060
0.870444 0.738518 0.242302
0.870262 0.738340 0.242085
0.870090 0.738168 0.241874
0.228730 0.741104 0.223407
0.247366 0.741660 0.223924
0.266393 0.742239 0.224465
0.285771 0.742841 0.225028
0.305471 0.743463 0.225611
0.325466 0.744104 0.226213
0.345735 0.744764 0.226834
0.366261 0.745441 0.227473
0.387028 0.746135 0.228128
0.408022 0.746845 0.228799
0.429232 0.747571 0.229486
0.450647 0.748312 0.230187
0.472258 0.749068 0.230904
0.494056 0.749838 0.231635
0.516035 0.750622 0.232379
0.538186 0.751420 0.233137
0.560505 0.752231 0.233909
0.582985 0.753055 0.234694
0.605620 0.753893 0.235491
0.628407 0.754742 0.236301
0.651341 0.755604 0.237123
0.674418 0.756479 0.237957
0.697633 0.757365 0.238804
0.720984 0.758264 0.239662
0.744467 0.759174 0.240532
0.768078 0.760096 0.241413
0.791816 0.761029 0.242306
0.815678 0.761974 0.243210
0.839660 0.762929 0.244125
0.863761 0.763896 0.245051
0.873592 0.764201 0.245315
0.873446 0.764046 0.245118
0.873309 0.763896 0.244928
0.231003 0.766341 0.225900
0.249665 0.766918 0.226437
0.268718 0.767519 0.226998
0.288122 0.768141 0.227580
0.307848 0.768784 0.228183
0.327871 0.769447 0.228806
0.348168 0.770128 0.229447
0.368722 0.770827 0.230105
0.389517 0.771542 0.230780
0.410541 0.772274 0.231471
0.431780 0.773021 0.232178
0.453226 0.773784 0.232900
0.474868 0.774561 0.233636
0.496697 0.775353 0.234387
0.518708 0.776159 0.235152
0.540892 0.776978 0.235930
0.563243 0.777811 0.236722
0.585757 0.778657 0.237527
0.608427 0.779515 0.238344
