library/cube/Pop_Star_001.cube
# CINEGRADE LAB — Premium Cinematic LUT
# Title: Pop Star
# Category: Music Video Looks
# Description: Stylized, dramatic, high-impact looks inspired by music video grading
# Mood: Dynamic, stylized, intense
# Variant: 2
# Generated: 2026-05-21T16:12:39.702036
TITLE "Pop Star"
LUT_3D_SIZE 9
0.000000 0.000000 0.000000
0.021873 0.000000 0.000000
0.182528 0.000000 0.000000
0.345476 0.000000 0.000000
0.510648 0.000000 0.000000
0.677975 0.000000 0.000000
0.847387 0.000000 0.000000
1.000000 0.000000 0.000000
1.000000 0.000000 0.000000
0.000000 0.022379 0.000000
0.019928 0.021708 0.000000
0.184362 0.016513 0.000000
0.350935 0.011253 0.000000
0.519577 0.005929 0.000000
0.690220 0.000543 0.000000
0.862797 0.000000 0.000000
1.000000 0.000000 0.000000
1.000000 0.000000 0.000000
0.000000 0.186267 0.000000
0.001676 0.185811 0.000000
0.169610 0.180729 0.000000
0.339528 0.175580 0.000000
0.511365 0.170366 0.000000
0.685053 0.165089 0.000000
0.860524 0.159752 0.000000
1.000000 0.154499 0.000000
1.000000 0.153864 0.000000
0.000000 0.351633 0.000000
0.000000 0.351351 0.000000
0.154566 0.346351 0.000000
0.327581 0.341282 0.000000
0.502365 0.336147 0.000000
0.678850 0.330948 0.000000
0.856971 0.325688 0.000000
1.000000 0.320610 0.000000
1.000000 0.320148 0.000000
0.000000 0.518276 0.000000
0.000000 0.518131 0.000000
0.139257 0.513180 0.000000
0.315122 0.508159 0.000000
0.492607 0.503072 0.000000
0.671645 0.497920 0.000000
0.851960 0.492711 0.000000
1.000000 0.487800 0.000000
1.000000 0.487476 0.000000
0.000000 0.685995 0.000000
0.000000 0.685949 0.000000
0.123710 0.681016 0.000000
0.302179 0.676012 0.000000
0.482119 0.670941 0.000000
0.663464 0.665803 0.000000
0.845135 0.660634 0.000000
1.000000 0.655870 0.000000
1.000000 0.655648 0.000000
0.000000 0.854593 0.000000
0.000000 0.854606 0.000000
0.107948 0.849659 0.000000
0.288774 0.844641 0.000000
0.470922 0.839554 0.000000
0.654326 0.834399 0.000000
0.836830 0.829246 0.000000
1.000000 0.824618 0.000000
1.000000 0.824462 0.000000
0.000000 1.000000 0.000000
0.000000 1.000000 0.000000
0.092238 1.000000 0.000000
0.275197 1.000000 0.000000
0.459328 1.000000 0.000000
0.644566 1.000000 0.000000
0.827465 0.995398 0.000000
0.988689 0.990669 0.000000
1.000000 0.990308 0.000000
0.000000 1.000000 0.000000
0.000000 1.000000 0.000000
0.093096 1.000000 0.000000
0.277938 1.000000 0.000000
0.463801 1.000000 0.000000
0.650616 1.000000 0.000000
0.833542 1.000000 0.000000
0.989975 1.000000 0.000000
1.000000 1.000000 0.000000
0.000000 0.000000 0.026071
0.021657 0.000000 0.025331
0.182706 0.000000 0.020157
0.346033 0.000000 0.014909
0.511568 0.000000 0.009591
0.679242 0.000000 0.004204
0.848986 0.000000 0.000000
1.000000 0.000000 0.000000
1.000000 0.000000 0.000000
0.000000 0.022118 0.023335
0.019724 0.021447 0.022572
0.184527 0.016242 0.017272
0.351452 0.010971 0.011905
0.520431 0.005637 0.006472
0.691396 0.000242 0.000976
0.864278 0.000000 0.000000
1.000000 0.000000 0.000000
1.000000 0.000000 0.000000
0.000000 0.186087 0.004174
0.001478 0.185627 0.003368
0.169754 0.180534 0.000000
0.340000 0.175374 0.000000
0.512148 0.170149 0.000000
0.686132 0.164862 0.000000
0.861884 0.159515 0.000000
1.000000 0.154262 0.000000
1.000000 0.153628 0.000000
0.000000 0.351519 0.000000
0.000000 0.351233 0.000000
0.154691 0.346219 0.000000
0.328009 0.341138 0.000000
0.503079 0.335991 0.000000
0.679836 0.330781 0.000000
0.858212 0.325510 0.000000
1.000000 0.320433 0.000000
1.000000 0.319971 0.000000
0.000000 0.518215 0.000000
0.000000 0.518064 0.000000
0.139367 0.513098 0.000000
0.315508 0.508064 0.000000
0.493254 0.502964 0.000000
0.672539 0.497799 0.000000
0.853017 0.492580 0.000000
1.000000 0.487670 0.000000
1.000000 0.487344 0.000000
0.000000 0.685974 0.000000
0.000000 0.685919 0.000000
0.123804 0.680971 0.000000
0.302524 0.675953 0.000000
0.482701 0.670867 0.000000
0.664267 0.665715 0.000000
0.846047 0.660536 0.000000
1.000000 0.655774 0.000000
1.000000 0.655548 0.000000
0.000000 0.854597 0.000000
0.000000 0.854601 0.000000
0.108029 0.849638 0.000000
0.289081 0.844604 0.000000
0.471440 0.839501 0.000000
0.655041 0.834331 0.000000
0.837603 0.829167 0.000000
1.000000 0.824542 0.000000
1.000000 0.824380 0.000000
0.000000 1.000000 0.000000
0.000000 1.000000 0.000000
0.092315 1.000000 0.000000
0.275474 1.000000 0.000000
0.459792 1.000000 0.000000
0.645200 1.000000 0.000000
0.828116 0.995249 0.000000
0.988893 0.990520 0.000000
1.000000 0.990151 0.000000
0.000000 1.000000 0.000000
0.000000 1.000000 0.000000
0.093170 1.000000 0.000000
0.278187 1.000000 0.000000
0.464210 1.000000 0.000000
0.651170 1.000000 0.000000
0.834082 1.000000 0.000000
0.989985 1.000000 0.000000
1.000000 1.000000 0.000000
0.000000 0.000000 0.215905
0.019709 0.000000 0.214869
0.181153 0.000000 0.209387
0.344858 0.000000 0.203833
0.510756 0.000000 0.198208
0.678777 0.000000 0.192515
0.848852 0.000000 0.186757
1.000000 0.000000 0.180970
1.000000 0.000000 0.179717
0.000000 0.020131 0.212176
0.017798 0.019462 0.211116
0.182969 0.014249 0.205510
0.350246 0.008971 0.199836
0.519562 0.003630 0.194098
0.690848 0.000000 0.188296
0.864037 0.000000 0.182433
1.000000 0.000000 0.176596
1.000000 0.000000 0.175354
0.000000 0.184188 0.192013
0.000000 0.183729 0.190910
0.168184 0.178626 0.185167
0.338757 0.173457 0.179363
0.511217 0.168225 0.173499
0.685497 0.162931 0.167578
0.861531 0.157577 0.161601
1.000000 0.152325 0.155731
1.000000 0.151696 0.154487
0.000000 0.349695 0.171676
0.000000 0.349407 0.170536
0.153113 0.344383 0.164670
0.326731 0.339292 0.158748
0.502088 0.334137 0.152772
0.679116 0.328918 0.146743
0.857750 0.323638 0.140665
1.000000 0.318566 0.134805
1.000000 0.318106 0.133568
0.000000 0.516452 0.151189
0.000000 0.516297 0.150017
0.137780 0.511321 0.144041
0.314198 0.506276 0.138014
0.492206 0.501165 0.131938
0.671737 0.495990 0.125815
0.852376 0.490765 0.119660
1.000000 0.485858 0.113841
1.000000 0.485533 0.112620
0.000000 0.684259 0.130576
0.000000 0.684199 0.129378
0.122212 0.679238 0.123304
0.301184 0.674208 0.117184
0.481597 0.669111 0.111022
0.663384 0.663948 0.104817
0.845271 0.658761 0.098613
1.000000 0.654004 0.092862
1.000000 0.653777 0.091666
0.000000 0.852917 0.109860
0.000000 0.852913 0.108642
0.106432 0.847936 0.102483
0.287711 0.842889 0.096283
0.470282 0.837774 0.090046
0.654078 0.832592 0.083772
0.836697 0.827420 0.077540
1.000000 0.822801 0.071891
1.000000 0.822636 0.070726
0.000000 1.000000 0.089281
0.000000 1.000000 0.088070
0.090724 1.000000 0.081860
0.274084 1.000000 0.075617
0.458588 1.000000 0.069342
0.644167 0.998843 0.063037
0.827098 0.993439 0.056822
0.987423 0.988714 0.051332
1.000000 0.988338 0.050235
0.000000 1.000000 0.085381
0.000000 1.000000 0.084186
0.091586 1.000000 0.077939
0.276778 1.000000 0.071665
0.462961 1.000000 0.065363
0.650064 1.000000 0.059038
0.832964 1.000000 0.052852
0.988331 1.000000 0.047549
1.000000 1.000000 0.046519
0.000000 0.000000 0.405540
0.017765 0.000000 0.404207
0.179600 0.000000 0.398418
0.343681 0.000000 0.392557
0.509939 0.000000 0.386625
0.678305 0.000000 0.380626
0.848709 0.000000 0.374562
1.000000 0.000000 0.368474
1.000000 0.000000 0.366927
0.000000 0.018146 0.400816
0.015875 0.017479 0.399459
0.181411 0.012258 0.393547
0.349038 0.006973 0.387567
0.518689 0.001625 0.381523
0.690294 0.000000 0.375416
0.863787 0.000000 0.369248
1.000000 0.000000 0.363113
1.000000 0.000000 0.361578
0.000000 0.182290 0.379651
0.000000 0.181831 0.378252
0.166616 0.176720 0.372204
0.337512 0.171543 0.366094
0.510281 0.166303 0.359926
0.684856 0.161001 0.353701
0.861168 0.155640 0.347420
1.000000 0.150392 0.341257
1.000000 0.149766 0.339721
0.000000 0.347872 0.358314
0.000000 0.347582 0.356878
0.151535 0.342548 0.350707
0.325453 0.337448 0.344482
0.501093 0.332283 0.338202
0.678391 0.327056 0.331871
0.857278 0.321768 0.325491
1.000000 0.316700 0.319342
1.000000 0.316243 0.317814
0.000000 0.514690 0.336829
0.000000 0.514531 0.335362
0.136195 0.509544 0.329082
0.312887 0.504488 0.322753
0.491154 0.499367 0.316375
0.670929 0.494182 0.309952
0.851724 0.488950 0.303498
1.000000 0.484048 0.297392
1.000000 0.483723 0.295881
0.000000 0.682544 0.315220
0.000000 0.682479 0.313728
0.120622 0.677505 0.307352
0.299842 0.672463 0.300932
0.480489 0.667354 0.294468
0.662495 0.662181 0.287965
0.844483 0.656986 0.281464
1.000000 0.652234 0.275430
1.000000 0.652007 0.273944
0.000000 0.851236 0.293512
0.000000 0.851225 0.292000
0.104837 0.846234 0.285540
0.286340 0.841174 0.279041
0.469119 0.836046 0.272505
0.653108 0.830852 0.265933
0.835779 0.825672 0.259407
0.999850 0.821059 0.253477
1.000000 0.820892 0.252025
0.000000 1.000000 0.271950
0.000000 1.000000 0.270447
0.089134 1.000000 0.263938
0.272693 1.000000 0.257396
0.457380 1.000000 0.250824
0.643126 0.997042 0.244222
0.826070 0.991626 0.237715
0.985933 0.986907 0.231948
1.000000 0.986524 0.230563
0.000000 1.000000 0.267071
0.000000 1.000000 0.265583
0.090002 1.000000 0.259039
0.275367 1.000000 0.252468
0.461707 1.000000 0.245870
0.648952 1.000000 0.239249
0.831836 1.000000 0.232771
0.986660 1.000000 0.227193
1.000000 1.000000 0.225875
0.000000 0.000000 0.594974
0.015823 0.000000 0.593344
0.178048 0.000000 0.587248
0.342502 0.000000 0.581080
0.509118 0.000000 0.574842
0.677825 0.000000 0.568537
0.848557 0.000000 0.562167
1.000000 0.000000 0.555778
1.000000 0.000000 0.553938
0.000000 0.016163 0.589256
0.013956 0.015498 0.587603
0.179854 0.010270 0.581383
0.347829 0.004977 0.575097
0.517811 0.000000 0.568747
0.689733 0.000000 0.562335
0.863527 0.000000 0.555863
1.000000 0.000000 0.549431
1.000000 0.000000 0.547603
0.000000 0.180395 0.567089
0.000000 0.179936 0.565393
0.165048 0.174816 0.559040
0.336266 0.169630 0.552625
0.509342 0.164382 0.546153
0.684207 0.159073 0.539623
0.860796 0.153705 0.533040
1.000000 0.148460 0.526583
1.000000 0.147839 0.524755
0.000000 0.346050 0.544752
0.000000 0.345758 0.543019
0.149958 0.340715 0.536545
0.324172 0.335605 0.530015
0.500094 0.330431 0.523433
0.677658 0.325195 0.516800
0.856796 0.319899 0.510118
1.000000 0.314836 0.503679
1.000000 0.314382 0.501861
0.000000 0.512928 0.522269
0.000000 0.512766 0.520506
0.134611 0.507767 0.513924
0.311575 0.502701 0.507292
0.490098 0.497569 0.500613
0.670114 0.492375 0.493888
0.851058 0.487135 0.487136
1.000000 0.482238 0.480744
1.000000 0.481915 0.478943
0.000000 0.680829 0.499665
0.000000 0.680758 0.497878
0.119032 0.675772 0.491201
0.298499 0.670718 0.484480
0.479376 0.665598 0.477716
0.661599 0.660413 0.470913
0.843683 0.655212 0.464116
1.000000 0.650465 0.457799
1.000000 0.650237 0.456025
0.000000 0.849554 0.476964
0.000000 0.849535 0.475159
0.103244 0.844531 0.468399
0.284967 0.839458 0.461600
0.467952 0.834317 0.454765
0.652132 0.829111 0.447895
0.834851 0.823924 0.441075
0.998537 0.819317 0.434866
1.000000 0.819147 0.433124
0.000000 1.000000 0.454420
0.000000 1.000000 0.452624
0.087545 1.000000 0.445817
0.271300 1.000000 0.438977
0.456168 1.000000 0.432108
0.642079 0.995238 0.425209
0.825032 0.989812 0.418410
0.984426 0.985097 0.412367
1.000000 0.984709 0.410693
0.000000 1.000000 0.448562
0.000000 1.000000 0.446782
0.088420 1.000000 0.439941
0.273955 1.000000 0.433072
0.460449 1.000000 0.426178
0.647833 1.000000 0.419261
0.830701 1.000000 0.412492
0.984972 1.000000 0.406639
1.000000 1.000000 0.405034
0.000000 0.000000 0.784208
0.013886 0.000000 0.782281
0.176496 0.000000 0.775878
0.341321 0.000000 0.769403
0.508292 0.000000 0.762859
0.677339 0.000000 0.756248
0.848394 0.000000 0.749573
1.000000 0.000000 0.742883
1.000000 0.000000 0.740748
0.000000 0.014182 0.777496
0.012039 0.013519 0.775545
0.178298 0.008284 0.769019
0.346617 0.002985 0.762428
0.516928 0.000000 0.755772
0.689164 0.000000 0.749055
0.863257 0.000000 0.742279
1.000000 0.000000 0.735549
1.000000 0.000000 0.733428
0.000000 0.178500 0.754327
0.000000 0.178042 0.752334
0.163481 0.172913 0.745675
0.335018 0.167720 0.738956
0.508398 0.162464 0.732179
0.683552 0.157147 0.725346
0.860415 0.151773 0.718460
1.000000 0.146531 0.711710
1.000000 0.145914 0.709590
0.000000 0.344228 0.730989
0.000000 0.343936 0.728961
0.148382 0.338882 0.722182
0.322890 0.333762 0.715349
0.499091 0.328580 0.708464
0.676919 0.323335 0.701529
0.856306 0.318032 0.694545
1.000000 0.312974 0.687818
1.000000 0.312522 0.685709
0.000000 0.511166 0.707509
0.000000 0.511000 0.705451
0.133028 0.505990 0.698566
0.310260 0.500913 0.691632
0.489037 0.495772 0.684651
0.669292 0.490568 0.677626
0.850381 0.485322 0.670576
1.000000 0.480429 0.663898
1.000000 0.480107 0.661807
0.000000 0.679113 0.683910
0.000000 0.679036 0.681829
0.117443 0.674039 0.674850
0.297154 0.668973 0.667828
0.478260 0.663841 0.660765
0.660696 0.658646 0.653662
0.842871 0.653438 0.646570
1.000000 0.648697 0.639970
1.000000 0.648468 0.637907
0.000000 0.847871 0.660217
0.000000 0.847844 0.658118
0.101651 0.842827 0.651058
0.283593 0.837741 0.643961
0.466782 0.832587 0.636827
0.651150 0.827369 0.629659
0.833912 0.822175 0.622545
0.997204 0.817574 0.616056
1.000000 0.817402 0.614026
0.000000 1.000000 0.636692
0.000000 1.000000 0.634602
0.085958 1.000000 0.627497
0.269906 1.000000 0.620360
0.454952 0.998928 0.613193
0.641026 0.993432 0.605998
0.823984 0.987995 0.598907
0.982900 0.983286 0.592587
1.000000 0.982891 0.590625
0.000000 1.000000 0.629855
0.000000 1.000000 0.627782
0.086839 1.000000 0.620643
0.272542 1.000000 0.613478
0.459188 1.000000 0.606287
0.646707 1.000000 0.599074
0.829556 1.000000 0.592014
0.983268 1.000000 0.585887
1.000000 1.000000 0.583993
0.000000 0.000000 0.973241
0.011951 0.000000 0.971018
0.174945 0.000000 0.964307
0.340138 0.000000 0.957526
0.507461 0.000000 0.950675
0.676845 0.000000 0.943759
0.848222 0.000000 0.936778
1.000000 0.000000 0.929788
1.000000 0.000000 0.927360
0.000000 0.012204 0.965535
0.010127 0.011543 0.963287
0.176743 0.006300 0.956455
0.345404 0.000994 0.949557
0.516042 0.000000 0.942596
0.688589 0.000000 0.935574
0.862978 0.000000 0.928494
1.000000 0.000000 0.921468
1.000000 0.000000 0.919053
0.000000 0.176608 0.941364
0.000000 0.176150 0.939075
0.161915 0.171012 0.932111
0.333769 0.165811 0.925087
0.507450 0.160547 0.918006
0.682891 0.155224 0.910869
0.860025 0.149842 0.903680
1.000000 0.144605 0.896638
1.000000 0.143992 0.894226
0.000000 0.342408 0.917027
0.000000 0.342114 0.914702
0.146807 0.337050 0.907620
0.321607 0.331921 0.900484
0.498084 0.326730 0.893296
0.676173 0.321477 0.886058
0.855807 0.316165 0.878773
1.000000 0.311114 0.871759
1.000000 0.310664 0.869358
0.000000 0.509404 0.892549
0.000000 0.509235 0.890196
0.131446 0.504214 0.883008
0.308945 0.499127 0.875773
0.487973 0.493975 0.868491
0.668464 0.488762 0.861164
0.849691 0.483509 0.853817
1.000000 0.478622 0.846853
1.000000 0.478301 0.844472
0.000000 0.677397 0.867956
0.000000 0.677315 0.865580
0.115856 0.672305 0.858300
0.295808 0.667227 0.850978
0.477140 0.662084 0.843614
0.659787 0.656878 0.836212
0.842047 0.651663 0.828825
1.000000 0.646928 0.821943
1.000000 0.646699 0.819590
0.000000 0.846186 0.843271
0.000000 0.846153 0.840878
0.100060 0.841122 0.833519
0.282218 0.836023 0.826122
0.465607 0.830857 0.818689
0.650161 0.825627 0.811223
0.832961 0.820425 0.803817
0.995852 0.815831 0.797048
1.000000 0.815657 0.794730
0.000000 1.000000 0.818764
0.000000 1.000000 0.816382
0.084372 1.000000 0.808979
0.268511 1.000000 0.801544
0.453732 0.997136 0.794080
0.639966 0.991624 0.786588
0.822926 0.986177 0.779205
0.981356 0.981473 0.772608
1.000000 0.981072 0.770359
0.000000 1.000000 0.810949
0.000000 1.000000 0.808583
0.085260 1.000000 0.801148
0.271127 1.000000 0.793685
0.457922 1.000000 0.786198
0.645575 1.000000 0.778689
0.828403 1.000000 0.771337
0.981547 1.000000 0.764937
1.000000 1.000000 0.762754
0.000000 0.000000 1.000000
0.010020 0.000000 1.000000
0.173395 0.000000 1.000000
0.338953 0.000000 1.000000
0.506626 0.000000 1.000000
0.676344 0.000000 1.000000
0.848040 0.000000 1.000000
1.000000 0.000000 1.000000
1.000000 0.000000 1.000000
0.000000 0.010228 1.000000
0.008217 0.009570 1.000000
0.175188 0.004319 1.000000
0.344189 0.000000 1.000000
0.515151 0.000000 1.000000
0.688007 0.000000 1.000000
0.862689 0.000000 1.000000
1.000000 0.000000 1.000000
1.000000 0.000000 1.000000
0.000000 0.174717 1.000000
0.000000 0.174259 1.000000
0.160350 0.169113 1.000000
0.332518 0.163903 1.000000
0.506498 0.158632 1.000000
0.682222 0.153302 1.000000
0.859625 0.147914 1.000000
1.000000 0.142681 1.000000
1.000000 0.142072 1.000000
0.000000 0.340589 1.000000
0.000000 0.340293 1.000000
0.145233 0.335219 1.000000
0.320322 0.330081 1.000000
0.497073 0.324881 1.000000
0.675421 0.319620 1.000000
0.855265 0.314302 1.000000
1.000000 0.309255 1.000000
1.000000 0.308809 1.000000
0.000000 0.507643 1.000000
0.000000 0.507470 1.000000
0.129865 0.502439 1.000000
0.307628 0.497341 1.000000
0.486905 0.492179 1.000000
0.667630 0.486956 1.000000
0.848990 0.481698 1.000000
1.000000 0.476815 1.000000
1.000000 0.476495 1.000000
0.000000 0.675680 1.000000
0.000000 0.675593 1.000000
0.114270 0.670571 1.000000
0.294460 0.665481 1.000000
0.476016 0.660327 1.000000
0.658872 0.655111 1.000000
0.841212 0.649889 1.000000
1.000000 0.645160 1.000000
1.000000 0.644930 1.000000
0.000000 0.844501 1.000000
0.000000 0.844460 1.000000
0.098469 0.839416 1.000000
0.280841 0.834304 1.000000
0.464428 0.829126 1.000000
0.649165 0.823884 0.992589
0.832000 0.818675 0.984890
0.994480 0.814088 0.977842
1.000000 0.813911 0.975235
0.000000 1.000000 1.000000
0.000000 1.000000 0.997963
0.082787 1.000000 0.990262
0.267115 1.000000 0.982529
0.452509 0.995341 0.974768
0.638900 0.989814 0.966979
0.821859 0.984356 0.959305
0.979794 0.979658 0.952432
1.000000 0.979251 0.949895
0.000000 1.000000 0.991844
0.000000 1.000000 0.989186
0.083682 1.000000 0.981453
0.269711 1.000000 0.973694
0.456653 1.000000 0.965911
0.644436 1.000000 0.958105
0.827243 1.000000 0.950462
0.979810 1.000000 0.943787
1.000000 1.000000 0.941316
0.000000 0.000000 1.000000
0.009821 0.000000 1.000000
0.173571 0.000000 1.000000
0.339490 0.000000 1.000000
0.507506 0.000000 1.000000
0.677554 0.000000 1.000000
0.849563 0.000000 1.000000
1.000000 0.000000 1.000000
1.000000 0.000000 1.000000
0.000000 0.009977 1.000000
0.008031 0.009318 1.000000
0.175351 0.004057 1.000000
0.344685 0.000000 1.000000
0.515966 0.000000 1.000000
0.689126 0.000000 1.000000
0.864097 0.000000 1.000000
1.000000 0.000000 1.000000
1.000000 0.000000 1.000000
0.000000 0.174541 1.000000
0.000000 0.174080 1.000000
0.160493 0.168923 1.000000
0.332970 0.163703 1.000000
0.507243 0.158421 1.000000
0.683246 0.153081 1.000000
0.860912 0.147684 1.000000
1.000000 0.142453 1.000000
1.000000 0.141846 1.000000
0.000000 0.340474 1.000000
0.000000 0.340174 1.000000
0.145359 0.335088 1.000000
0.320731 0.329938 1.000000
0.497751 0.324726 1.000000
0.676352 0.319455 1.000000
0.856377 0.314128 1.000000
1.000000 0.309083 1.000000
1.000000 0.308637 1.000000
0.000000 0.507577 1.000000
0.000000 0.507398 1.000000
0.129975 0.502353 1.000000
0.307996 0.497242 1.000000
0.487516 0.492068 1.000000
0.668470 0.486833 1.000000
0.849954 0.481565 1.000000
1.000000 0.476686 1.000000
1.000000 0.476364 1.000000
0.000000 0.675649 1.000000
0.000000 0.675553 1.000000
0.114365 0.670516 1.000000
0.294789 0.665413 1.000000
0.476563 0.660245 1.000000
0.659622 0.655015 1.000000
0.842035 0.649784 1.000000
1.000000 0.645060 1.000000
1.000000 0.644826 1.000000
0.000000 0.844491 1.000000
0.000000 0.844440 1.000000
0.098552 0.839380 1.000000
0.281131 0.834252 1.000000
0.464912 0.829059 1.000000
0.649826 0.823803 1.000000
0.832689 0.818585 1.000000
0.994746 0.814002 1.000000
1.000000 0.813821 0.999426
0.000000 1.000000 1.000000
0.000000 1.000000 1.000000
0.082866 1.000000 1.000000
0.267377 1.000000 1.000000
0.452938 0.995200 0.998980
0.639481 0.989655 0.991148
0.822434 0.984185 0.983435
0.979863 0.979490 0.976540
1.000000 0.979075 0.973967
0.000000 1.000000 1.000000
0.000000 1.000000 1.000000
0.083758 1.000000 1.000000
0.269944 1.000000 0.997825
0.457027 1.000000 0.989999
0.644935 1.000000 0.982150
0.827716 1.000000 0.974469
0.979697 1.000000 0.967774
1.000000 1.000000 0.965268
