library/cube/Pop_Star_001.cube
# CINEGRADE LAB — Premium Cinematic LUT
# Title: Pop Star
# Category: Music Video Looks
# Description: Stylized, dramatic, high-impact looks inspired by music video grading
# Mood: Dynamic, stylized, intense
# Variant: 2
# Generated: 2026-05-21T16:12:39.702036
TITLE "Pop Star"
LUT_3D_SIZE 33
0.000000 0.000000 0.000000
0.000000 0.000000 0.000000
0.000002 0.000000 0.000000
0.000004 0.000001 0.000000
0.021873 0.000000 0.000000
0.061818 0.000000 0.000000
0.101909 0.000000 0.000000
0.142146 0.000000 0.000000
0.182528 0.000000 0.000000
0.223052 0.000000 0.000000
0.263720 0.000000 0.000000
0.304528 0.000000 0.000000
0.345476 0.000000 0.000000
0.386563 0.000000 0.000000
0.427789 0.000000 0.000000
0.469151 0.000000 0.000000
0.510648 0.000000 0.000000
0.552281 0.000000 0.000000
0.594047 0.000000 0.000000
0.635945 0.000000 0.000000
0.677975 0.000000 0.000000
0.720135 0.000000 0.000000
0.762424 0.000000 0.000000
0.804842 0.000000 0.000000
0.847387 0.000000 0.000000
0.890058 0.000000 0.000000
0.932635 0.000000 0.000000
0.975240 0.000000 0.000000
1.000000 0.000000 0.000000
1.000000 0.000000 0.000000
1.000000 0.000000 0.000000
1.000000 0.000000 0.000000
1.000000 0.000000 0.000000
0.000005 0.000001 0.000000
0.000008 0.000001 0.000000
0.000013 0.000002 0.000000
0.000018 0.000003 0.000000
0.022024 0.000000 0.000000
0.062216 0.000000 0.000000
0.102551 0.000000 0.000000
0.143029 0.000000 0.000000
0.183650 0.000000 0.000000
0.224411 0.000000 0.000000
0.265312 0.000000 0.000000
0.306352 0.000000 0.000000
0.347530 0.000000 0.000000
0.388844 0.000000 0.000000
0.430293 0.000000 0.000000
0.471877 0.000000 0.000000
0.513594 0.000000 0.000000
0.555444 0.000000 0.000000
0.597424 0.000000 0.000000
0.639535 0.000000 0.000000
0.681775 0.000000 0.000000
0.724142 0.000000 0.000000
0.766637 0.000000 0.000000
0.809257 0.000000 0.000000
0.852002 0.000000 0.000000
0.894871 0.000000 0.000000
0.937545 0.000000 0.000000
0.980259 0.000000 0.000000
1.000000 0.000000 0.000000
1.000000 0.000000 0.000000
1.000000 0.000000 0.000000
1.000000 0.000000 0.000000
1.000000 0.000000 0.000000
0.000020 0.000004 0.000000
0.000026 0.000005 0.000000
0.000033 0.000006 0.000000
0.000042 0.000007 0.000000
0.022184 0.000000 0.000000
0.062617 0.000000 0.000000
0.103192 0.000000 0.000000
0.143908 0.000000 0.000000
0.184763 0.000000 0.000000
0.225757 0.000000 0.000000
0.266888 0.000000 0.000000
0.308156 0.000000 0.000000
0.349558 0.000000 0.000000
0.391095 0.000000 0.000000
0.432765 0.000000 0.000000
0.474566 0.000000 0.000000
0.516499 0.000000 0.000000
0.558562 0.000000 0.000000
0.600753 0.000000 0.000000
0.643072 0.000000 0.000000
0.685518 0.000000 0.000000
0.728089 0.000000 0.000000
0.770784 0.000000 0.000000
0.813603 0.000000 0.000000
0.856545 0.000000 0.000000
0.899607 0.000000 0.000000
0.942351 0.000000 0.000000
0.985158 0.000000 0.000000
1.000000 0.000000 0.000000
1.000000 0.000000 0.000000
1.000000 0.000000 0.000000
1.000000 0.000000 0.000000
1.000000 0.000000 0.000000
0.000045 0.000008 0.000000
0.000054 0.000010 0.000000
0.000064 0.000011 0.000000
0.000075 0.000013 0.000000
0.022350 0.000000 0.000000
0.063022 0.000000 0.000000
0.103833 0.000000 0.000000
0.144782 0.000000 0.000000
0.185868 0.000000 0.000000
0.227090 0.000000 0.000000
0.268447 0.000000 0.000000
0.309938 0.000000 0.000000
0.351562 0.000000 0.000000
0.393317 0.000000 0.000000
0.435203 0.000000 0.000000
0.477219 0.000000 0.000000
0.519363 0.000000 0.000000
0.561634 0.000000 0.000000
0.604032 0.000000 0.000000
0.646556 0.000000 0.000000
0.689203 0.000000 0.000000
0.731974 0.000000 0.000000
0.774867 0.000000 0.000000
0.817881 0.000000 0.000000
0.861015 0.000000 0.000000
0.904217 0.000000 0.000000
0.947049 0.000000 0.000000
0.989936 0.000000 0.000000
1.000000 0.000000 0.000000
1.000000 0.000000 0.000000
1.000000 0.000000 0.000000
1.000000 0.000000 0.000000
1.000000 0.000000 0.000000
0.000000 0.022379 0.000000
0.000000 0.022389 0.000000
0.000000 0.022400 0.000000
0.000000 0.022411 0.000000
0.019928 0.021708 0.000000
0.060832 0.020416 0.000000
0.101873 0.019119 0.000000
0.143051 0.017818 0.000000
0.184362 0.016513 0.000000
0.225808 0.015204 0.000000
0.267386 0.013891 0.000000
0.309095 0.012574 0.000000
0.350935 0.011253 0.000000
0.392904 0.009928 0.000000
0.435002 0.008599 0.000000
0.477226 0.007265 0.000000
0.519577 0.005929 0.000000
0.562053 0.004588 0.000000
0.604653 0.003243 0.000000
0.647376 0.001895 0.000000
0.690220 0.000543 0.000000
0.733186 0.000000 0.000000
0.776271 0.000000 0.000000
0.819475 0.000000 0.000000
0.862797 0.000000 0.000000
0.906116 0.000000 0.000000
0.949021 0.000000 0.000000
0.991972 0.000000 0.000000
1.000000 0.000000 0.000000
1.000000 0.000000 0.000000
1.000000 0.000000 0.000000
1.000000 0.000000 0.000000
1.000000 0.000000 0.000000
0.000000 0.063201 0.000000
0.000000 0.063227 0.000000
0.000000 0.063253 0.000000
0.000000 0.063279 0.000000
0.015370 0.062588 0.000000
0.056502 0.061303 0.000000
0.097770 0.060015 0.000000
0.139170 0.058722 0.000000
0.180703 0.057424 0.000000
0.222367 0.056123 0.000000
0.264161 0.054818 0.000000
0.306085 0.053508 0.000000
0.348136 0.052195 0.000000
0.390314 0.050877 0.000000
0.432618 0.049556 0.000000
0.475047 0.048230 0.000000
0.517600 0.046901 0.000000
0.560275 0.045568 0.000000
0.603072 0.044231 0.000000
0.645990 0.042890 0.000000
0.689027 0.041545 0.000000
0.732183 0.040197 0.000000
0.775456 0.038845 0.000000
0.818845 0.037489 0.000000
0.862350 0.036130 0.000000
0.905762 0.034773 0.000000
0.948725 0.033432 0.000000
0.991726 0.032088 0.000000
1.000000 0.030744 0.000000
1.000000 0.029999 0.000000
1.000000 0.029984 0.000000
1.000000 0.029970 0.000000
1.000000 0.029956 0.000000
0.000000 0.104126 0.000000
0.000000 0.104167 0.000000
0.000000 0.104207 0.000000
0.000000 0.104248 0.000000
0.010808 0.103567 0.000000
0.052165 0.102290 0.000000
0.093654 0.101008 0.000000
0.135274 0.099723 0.000000
0.177024 0.098433 0.000000
0.218903 0.097139 0.000000
0.260909 0.095840 0.000000
0.303042 0.094538 0.000000
0.345301 0.093232 0.000000
0.387685 0.091921 0.000000
0.430192 0.090607 0.000000
0.472821 0.089289 0.000000
0.515572 0.087967 0.000000
0.558443 0.086641 0.000000
0.601433 0.085311 0.000000
0.644542 0.083977 0.000000
0.687768 0.082639 0.000000
0.731110 0.081298 0.000000
0.774567 0.079953 0.000000
0.818138 0.078604 0.000000
0.861822 0.077252 0.000000
0.905301 0.075906 0.000000
0.948308 0.074575 0.000000
0.991344 0.073244 0.000000
1.000000 0.071911 0.000000
1.000000 0.071178 0.000000
1.000000 0.071177 0.000000
1.000000 0.071176 0.000000
1.000000 0.071176 0.000000
0.000000 0.145149 0.000000
0.000000 0.145204 0.000000
0.000000 0.145259 0.000000
0.000000 0.145313 0.000000
0.006244 0.144642 0.000000
0.047821 0.143372 0.000000
0.089528 0.142097 0.000000
0.131363 0.140818 0.000000
0.173326 0.139535 0.000000
0.215416 0.138248 0.000000
0.257630 0.136956 0.000000
0.299970 0.135661 0.000000
0.342432 0.134361 0.000000
0.385017 0.133058 0.000000
0.427722 0.131750 0.000000
0.470548 0.130438 0.000000
0.513493 0.129123 0.000000
0.556556 0.127803 0.000000
0.599736 0.126480 0.000000
0.643032 0.125153 0.000000
0.686443 0.123822 0.000000
0.729967 0.122487 0.000000
0.773605 0.121149 0.000000
0.817353 0.119806 0.000000
0.861213 0.118461 0.000000
0.904732 0.117125 0.000000
0.947768 0.115806 0.000000
0.990825 0.114485 0.000000
1.000000 0.113164 0.000000
1.000000 0.112443 0.000000
1.000000 0.112455 0.000000
1.000000 0.112467 0.000000
1.000000 0.112480 0.000000
0.000000 0.186267 0.000000
0.000000 0.186336 0.000000
0.000000 0.186404 0.000000
0.000000 0.186472 0.000000
0.001676 0.185811 0.000000
0.043470 0.184546 0.000000
0.085390 0.183278 0.000000
0.127437 0.182005 0.000000
0.169610 0.180729 0.000000
0.211906 0.179448 0.000000
0.254325 0.178162 0.000000
0.296866 0.176873 0.000000
0.339528 0.175580 0.000000
0.382310 0.174282 0.000000
0.425211 0.172981 0.000000
0.468230 0.171675 0.000000
0.511365 0.170366 0.000000
0.554616 0.169053 0.000000
0.597982 0.167735 0.000000
0.641461 0.166414 0.000000
0.685053 0.165089 0.000000
0.728756 0.163761 0.000000
0.772569 0.162428 0.000000
0.816492 0.161092 0.000000
0.860524 0.159752 0.000000
0.904054 0.158428 0.000000
0.947105 0.157119 0.000000
0.990168 0.155809 0.000000
1.000000 0.154499 0.000000
1.000000 0.153791 0.000000
1.000000 0.153815 0.000000
1.000000 0.153839 0.000000
1.000000 0.153864 0.000000
0.000000 0.227478 0.000000
0.000000 0.227560 0.000000
0.000000 0.227641 0.000000
0.000000 0.227721 0.000000
0.000000 0.227069 0.000000
0.039112 0.225810 0.000000
0.081243 0.224548 0.000000
0.123497 0.223281 0.000000
0.165875 0.222010 0.000000
0.208374 0.220735 0.000000
0.250994 0.219455 0.000000
0.293733 0.218172 0.000000
0.336591 0.216884 0.000000
0.379567 0.215592 0.000000
0.422659 0.214297 0.000000
0.465866 0.212997 0.000000
0.509188 0.211693 0.000000
0.552623 0.210385 0.000000
0.596170 0.209074 0.000000
0.639829 0.207758 0.000000
0.683598 0.206439 0.000000
0.727476 0.205116 0.000000
0.771462 0.203789 0.000000
0.815555 0.202458 0.000000
0.859754 0.201124 0.000000
0.903267 0.199811 0.000000
0.946318 0.198513 0.000000
0.989374 0.197214 0.000000
1.000000 0.195915 0.000000
1.000000 0.195218 0.000000
1.000000 0.195254 0.000000
1.000000 0.195290 0.000000
1.000000 0.195326 0.000000
0.000000 0.268778 0.000000
0.000000 0.268872 0.000000
0.000000 0.268965 0.000000
0.000000 0.269058 0.000000
0.000000 0.268414 0.000000
0.034748 0.267161 0.000000
0.077085 0.265904 0.000000
0.119543 0.264642 0.000000
0.162122 0.263376 0.000000
0.204820 0.262106 0.000000
0.247637 0.260832 0.000000
0.290571 0.259554 0.000000
0.333620 0.258271 0.000000
0.376786 0.256985 0.000000
0.420065 0.255694 0.000000
0.463457 0.254400 0.000000
0.506962 0.253101 0.000000
0.550577 0.251798 0.000000
0.594302 0.250492 0.000000
0.638137 0.249182 0.000000
0.682079 0.247867 0.000000
0.726128 0.246549 0.000000
0.770282 0.245227 0.000000
0.814542 0.243902 0.000000
0.858905 0.242573 0.000000
0.902369 0.241272 0.000000
0.945407 0.239984 0.000000
0.988440 0.238695 0.000000
1.000000 0.237407 0.000000
1.000000 0.236721 0.000000
1.000000 0.236768 0.000000
1.000000 0.236816 0.000000
1.000000 0.236863 0.000000
0.000000 0.310164 0.000000
0.000000 0.310270 0.000000
0.000000 0.310374 0.000000
0.000000 0.310479 0.000000
0.000000 0.309842 0.000000
0.030379 0.308594 0.000000
0.072918 0.307342 0.000000
0.115576 0.306085 0.000000
0.158352 0.304824 0.000000
0.201246 0.303559 0.000000
0.244255 0.302290 0.000000
0.287379 0.301016 0.000000
0.330617 0.299738 0.000000
0.373968 0.298456 0.000000
0.417431 0.297171 0.000000
0.461004 0.295881 0.000000
0.504687 0.294587 0.000000
0.548479 0.293289 0.000000
0.592378 0.291987 0.000000
0.636385 0.290681 0.000000
0.680496 0.289372 0.000000
0.724712 0.288058 0.000000
0.769032 0.286741 0.000000
0.813454 0.285420 0.000000
0.857977 0.284095 0.000000
0.901362 0.282806 0.000000
0.944371 0.281528 0.000000
0.987368 0.280251 0.000000
1.000000 0.278973 0.000000
1.000000 0.278298 0.000000
1.000000 0.278356 0.000000
1.000000 0.278414 0.000000
1.000000 0.278471 0.000000
0.000000 0.351633 0.000000
0.000000 0.351750 0.000000
0.000000 0.351865 0.000000
0.000000 0.351981 0.000000
0.000000 0.351351 0.000000
0.026005 0.350108 0.000000
0.068742 0.348860 0.000000
0.111596 0.347607 0.000000
0.154566 0.346351 0.000000
0.197650 0.345090 0.000000
0.240848 0.343825 0.000000
0.284159 0.342555 0.000000
0.327581 0.341282 0.000000
0.371114 0.340004 0.000000
0.414756 0.338723 0.000000
0.458507 0.337437 0.000000
0.502365 0.336147 0.000000
0.546329 0.334853 0.000000
0.590399 0.333556 0.000000
0.634573 0.332254 0.000000
0.678850 0.330948 0.000000
0.723230 0.329639 0.000000
0.767710 0.328326 0.000000
0.812291 0.327009 0.000000
0.856971 0.325688 0.000000
0.900244 0.324412 0.000000
0.943211 0.323144 0.000000
0.986157 0.321877 0.000000
1.000000 0.320610 0.000000
1.000000 0.319945 0.000000
1.000000 0.320013 0.000000
1.000000 0.320080 0.000000
1.000000 0.320148 0.000000
0.000000 0.393182 0.000000
0.000000 0.393309 0.000000
0.000000 0.393435 0.000000
0.000000 0.393560 0.000000
0.000000 0.392938 0.000000
0.021625 0.391698 0.000000
0.064557 0.390454 0.000000
0.107603 0.389205 0.000000
0.150762 0.387953 0.000000
0.194034 0.386695 0.000000
0.237417 0.385434 0.000000
0.280911 0.384169 0.000000
0.324513 0.382899 0.000000
0.368224 0.381625 0.000000
0.412042 0.380347 0.000000
0.455966 0.379065 0.000000
0.499995 0.377779 0.000000
0.544129 0.376489 0.000000
0.588365 0.375195 0.000000
0.632703 0.373897 0.000000
0.677142 0.372595 0.000000
0.721681 0.371289 0.000000
0.766319 0.369979 0.000000
0.811054 0.368666 0.000000
0.855887 0.367349 0.000000
0.899015 0.366085 0.000000
0.941925 0.364828 0.000000
0.984806 0.363571 0.000000
1.000000 0.362314 0.000000
1.000000 0.361659 0.000000
1.000000 0.361736 0.000000
1.000000 0.361813 0.000000
1.000000 0.361890 0.000000
0.000000 0.434807 0.000000
0.000000 0.434944 0.000000
0.000000 0.435080 0.000000
0.000000 0.435215 0.000000
0.000000 0.434599 0.000000
0.017241 0.433362 0.000000
0.060363 0.432121 0.000000
0.103598 0.430876 0.000000
0.146943 0.429627 0.000000
0.190398 0.428373 0.000000
0.233963 0.427115 0.000000
0.277635 0.425853 0.000000
0.321414 0.424586 0.000000
0.365299 0.423315 0.000000
0.409289 0.422041 0.000000
0.453383 0.420762 0.000000
0.497579 0.419479 0.000000
0.541877 0.418192 0.000000
0.586276 0.416901 0.000000
0.630774 0.415606 0.000000
0.675371 0.414307 0.000000
0.720066 0.413005 0.000000
0.764857 0.411698 0.000000
0.809744 0.410388 0.000000
0.854725 0.409074 0.000000
0.897676 0.407823 0.000000
0.940515 0.406576 0.000000
0.983317 0.405329 0.000000
1.000000 0.404082 0.000000
1.000000 0.403437 0.000000
1.000000 0.403523 0.000000
1.000000 0.403609 0.000000
1.000000 0.403694 0.000000
0.000000 0.476506 0.000000
0.000000 0.476652 0.000000
0.000000 0.476797 0.000000
0.000000 0.476941 0.000000
0.000000 0.476331 0.000000
0.012853 0.475097 0.000000
0.056162 0.473859 0.000000
0.099581 0.472617 0.000000
0.143108 0.471370 0.000000
0.186743 0.470119 0.000000
0.230484 0.468864 0.000000
0.274332 0.467604 0.000000
0.318284 0.466341 0.000000
0.362339 0.465073 0.000000
0.406497 0.463801 0.000000
0.450756 0.462525 0.000000
0.495116 0.461244 0.000000
0.539575 0.459960 0.000000
0.584133 0.458672 0.000000
0.628788 0.457380 0.000000
0.673539 0.456083 0.000000
0.718386 0.454783 0.000000
0.763326 0.453479 0.000000
0.808360 0.452172 0.000000
0.853429 0.450862 0.000000
0.896226 0.449624 0.000000
0.938980 0.448386 0.000000
0.981688 0.447149 0.000000
1.000000 0.445912 0.000000
1.000000 0.445276 0.000000
1.000000 0.445370 0.000000
1.000000 0.445464 0.000000
1.000000 0.445557 0.000000
0.000000 0.518276 0.000000
0.000000 0.518430 0.000000
0.000000 0.518584 0.000000
0.000000 0.518736 0.000000
0.000000 0.518131 0.000000
0.008461 0.516900 0.000000
0.051953 0.515664 0.000000
0.095552 0.514424 0.000000
0.139257 0.513180 0.000000
0.183068 0.511931 0.000000
0.226983 0.510678 0.000000
0.271002 0.509421 0.000000
0.315122 0.508159 0.000000
0.359344 0.506894 0.000000
0.403667 0.505624 0.000000
0.448088 0.504350 0.000000
0.492607 0.503072 0.000000
0.537224 0.501790 0.000000
0.581936 0.500504 0.000000
0.626744 0.499214 0.000000
0.671645 0.497920 0.000000
0.716640 0.496622 0.000000
0.761726 0.495320 0.000000
0.806903 0.494014 0.000000
0.851960 0.492711 0.000000
0.894666 0.491482 0.000000
0.937321 0.490254 0.000000
0.979921 0.489027 0.000000
1.000000 0.487800 0.000000
1.000000 0.487173 0.000000
1.000000 0.487274 0.000000
1.000000 0.487375 0.000000
1.000000 0.487476 0.000000
0.000000 0.560112 0.000000
0.000000 0.560275 0.000000
0.000000 0.560436 0.000000
0.000000 0.560597 0.000000
0.000000 0.559996 0.000000
0.004066 0.558766 0.000000
0.047737 0.557533 0.000000
0.091512 0.556295 0.000000
0.135392 0.555052 0.000000
0.179375 0.553805 0.000000
0.223460 0.552554 0.000000
0.267645 0.551299 0.000000
0.311931 0.550039 0.000000
0.356316 0.548775 0.000000
0.400798 0.547507 0.000000
0.445378 0.546235 0.000000
0.490053 0.544958 0.000000
0.534823 0.543678 0.000000
0.579686 0.542394 0.000000
0.624643 0.541105 0.000000
0.669691 0.539813 0.000000
0.714829 0.538516 0.000000
0.760057 0.537216 0.000000
0.805374 0.535912 0.000000
0.850395 0.534616 0.000000
0.892997 0.533396 0.000000
0.935538 0.532178 0.000000
0.978016 0.530960 0.000000
1.000000 0.529743 0.000000
1.000000 0.529124 0.000000
1.000000 0.529233 0.000000
1.000000 0.529340 0.000000
1.000000 0.529447 0.000000
0.000000 0.602013 0.000000
0.000000 0.602183 0.000000
0.000000 0.602352 0.000000
0.000000 0.602519 0.000000
0.000000 0.601922 0.000000
0.000000 0.600695 0.000000
0.043514 0.599462 0.000000
0.087462 0.598225 0.000000
0.131512 0.596984 0.000000
0.175663 0.595739 0.000000
0.219914 0.594489 0.000000
0.264263 0.593235 0.000000
0.308710 0.591976 0.000000
0.353253 0.590714 0.000000
0.397892 0.589447 0.000000
0.442626 0.588176 0.000000
0.487453 0.586901 0.000000
0.532372 0.585622 0.000000
0.577383 0.584338 0.000000
0.622485 0.583051 0.000000
0.667675 0.581760 0.000000
0.712954 0.580465 0.000000
0.758320 0.579165 0.000000
0.803772 0.577862 0.000000
0.848736 0.576574 0.000000
0.891218 0.575363 0.000000
0.933632 0.574153 0.000000
0.975974 0.572945 0.000000
1.000000 0.571737 0.000000
1.000000 0.571127 0.000000
1.000000 0.571242 0.000000
1.000000 0.571356 0.000000
1.000000 0.571469 0.000000
0.000000 0.643975 0.000000
0.000000 0.644152 0.000000
0.000000 0.644327 0.000000
0.000000 0.644501 0.000000
0.000000 0.643908 0.000000
0.000000 0.642681 0.000000
0.039284 0.641449 0.000000
0.083401 0.640213 0.000000
0.127618 0.638973 0.000000
0.171933 0.637728 0.000000
0.216346 0.636479 0.000000
0.260855 0.635226 0.000000
0.305459 0.633969 0.000000
0.350157 0.632707 0.000000
0.394949 0.631441 0.000000
0.439833 0.630170 0.000000
0.484808 0.628896 0.000000
0.529873 0.627617 0.000000
0.575028 0.626335 0.000000
0.620270 0.625048 0.000000
0.665599 0.623758 0.000000
0.711015 0.622463 0.000000
0.756515 0.621164 0.000000
0.802099 0.619862 0.000000
0.846982 0.618581 0.000000
0.889331 0.617379 0.000000
0.931603 0.616178 0.000000
0.973796 0.614979 0.000000
1.000000 0.613781 0.000000
1.000000 0.613178 0.000000
1.000000 0.613299 0.000000
1.000000 0.613418 0.000000
1.000000 0.613537 0.000000
0.000000 0.685995 0.000000
0.000000 0.686178 0.000000
0.000000 0.686359 0.000000
0.000000 0.686539 0.000000
0.000000 0.685949 0.000000
0.000000 0.684722 0.000000
0.035048 0.683491 0.000000
0.079331 0.682256 0.000000
0.123710 0.681016 0.000000
0.168186 0.679771 0.000000
0.212756 0.678523 0.000000
0.257421 0.677270 0.000000
0.302179 0.676012 0.000000
0.347028 0.674751 0.000000
0.391969 0.673485 0.000000
0.436999 0.672215 0.000000
0.482119 0.670941 0.000000
0.527326 0.669662 0.000000
0.572620 0.668380 0.000000
0.617999 0.667094 0.000000
0.663464 0.665803 0.000000
0.709012 0.664509 0.000000
0.754642 0.663210 0.000000
0.800354 0.661908 0.000000
0.845135 0.660634 0.000000
0.887337 0.659441 0.000000
0.929453 0.658249 0.000000
0.971482 0.657059 0.000000
1.000000 0.655870 0.000000
1.000000 0.655275 0.000000
1.000000 0.655400 0.000000
1.000000 0.655524 0.000000
1.000000 0.655648 0.000000
0.000000 0.728070 0.000000
0.000000 0.728258 0.000000
0.000000 0.728445 0.000000
0.000000 0.728631 0.000000
0.000000 0.728042 0.000000
0.000000 0.726815 0.000000
0.030807 0.725584 0.000000
0.075250 0.724349 0.000000
0.119789 0.723109 0.000000
0.164421 0.721864 0.000000
0.209146 0.720615 0.000000
0.253963 0.719362 0.000000
0.298870 0.718105 0.000000
0.343867 0.716843 0.000000
0.388952 0.715577 0.000000
0.434126 0.714306 0.000000
0.479385 0.713032 0.000000
0.524730 0.711753 0.000000
0.570160 0.710471 0.000000
0.615673 0.709184 0.000000
0.661268 0.707893 0.000000
0.706945 0.706598 0.000000
0.752702 0.705299 0.000000
0.798538 0.703997 0.000000
0.843195 0.702730 0.000000
0.885235 0.701545 0.000000
0.927183 0.700362 0.000000
0.969033 0.699181 0.000000
1.000000 0.698001 0.000000
1.000000 0.697413 0.000000
1.000000 0.697543 0.000000
1.000000 0.697671 0.000000
1.000000 0.697799 0.000000
0.000000 0.770197 0.000000
0.000000 0.770390 0.000000
0.000000 0.770581 0.000000
0.000000 0.770771 0.000000
0.000000 0.770185 0.000000
0.000000 0.768958 0.000000
0.026560 0.767726 0.000000
0.071161 0.766490 0.000000
0.115854 0.765249 0.000000
0.160639 0.764004 0.000000
0.205515 0.762754 0.000000
0.250479 0.761500 0.000000
0.295532 0.760242 0.000000
0.340673 0.758980 0.000000
0.385900 0.757713 0.000000
0.431212 0.756442 0.000000
0.476608 0.755167 0.000000
0.522087 0.753887 0.000000
0.567648 0.752604 0.000000
0.613291 0.751316 0.000000
0.659013 0.750025 0.000000
0.704815 0.748729 0.000000
0.750694 0.747429 0.000000
0.796650 0.746126 0.000000
0.841163 0.744866 0.000000
0.883029 0.743690 0.000000
0.924793 0.742515 0.000000
0.966452 0.741343 0.000000
1.000000 0.740172 0.000000
1.000000 0.739590 0.000000
1.000000 0.739724 0.000000
1.000000 0.739856 0.000000
1.000000 0.739987 0.000000
0.000000 0.812372 0.000000
0.000000 0.812569 0.000000
0.000000 0.812765 0.000000
0.000000 0.812959 0.000000
0.000000 0.812374 0.000000
0.000000 0.811145 0.000000
0.022308 0.809913 0.000000
0.067063 0.808675 0.000000
0.111907 0.807434 0.000000
0.156841 0.806187 0.000000
0.201863 0.804937 0.000000
0.246972 0.803682 0.000000
0.292167 0.802422 0.000000
0.337447 0.801158 0.000000
0.382811 0.799890 0.000000
0.428258 0.798618 0.000000
0.473787 0.797342 0.000000
0.519396 0.796061 0.000000
0.565085 0.794776 0.000000
0.610854 0.793487 0.000000
0.656699 0.792194 0.000000
0.702622 0.790897 0.000000
0.748620 0.789596 0.000000
0.794692 0.788291 0.000000
0.839041 0.787039 0.000000
0.880718 0.785871 0.000000
0.922285 0.784705 0.000000
0.963738 0.783541 0.000000
1.000000 0.782379 0.000000
1.000000 0.781804 0.000000
1.000000 0.781940 0.000000
1.000000 0.782075 0.000000
1.000000 0.782209 0.000000
0.000000 0.854593 0.000000
0.000000 0.854794 0.000000
0.000000 0.854993 0.000000
0.000000 0.855190 0.000000
0.000000 0.854606 0.000000
0.000000 0.853376 0.000000
0.018052 0.852141 0.000000
0.062956 0.850903 0.000000
0.107948 0.849659 0.000000
0.153027 0.848411 0.000000
0.198191 0.847159 0.000000
0.243441 0.845902 0.000000
0.288774 0.844641 0.000000
0.334189 0.843376 0.000000
0.379687 0.842106 0.000000
0.425265 0.840832 0.000000
0.470922 0.839554 0.000000
0.516658 0.838271 0.000000
0.562472 0.836985 0.000000
0.608361 0.835694 0.000000
0.654326 0.834399 0.000000
0.700366 0.833100 0.000000
0.746478 0.831797 0.000000
0.792663 0.830491 0.000000
0.836830 0.829246 0.000000
0.878304 0.828086 0.000000
0.919660 0.826928 0.000000
0.960895 0.825772 0.000000
1.000000 0.824618 0.000000
1.000000 0.824049 0.000000
1.000000 0.824188 0.000000
1.000000 0.824325 0.000000
1.000000 0.824462 0.000000
0.000000 0.896856 0.000000
0.000000 0.897060 0.000000
0.000000 0.897262 0.000000
0.000000 0.897462 0.000000
0.000000 0.896878 0.000000
0.000000 0.895646 0.000000
0.013791 0.894409 0.000000
0.058841 0.893168 0.000000
0.103976 0.891923 0.000000
0.149196 0.890673 0.000000
0.194500 0.889418 0.000000
0.239886 0.888159 0.000000
0.285353 0.886896 0.000000
0.330900 0.885629 0.000000
0.376527 0.884357 0.000000
0.422232 0.883080 0.000000
0.468015 0.881800 0.000000
0.513873 0.880515 0.000000
0.559807 0.879226 0.000000
0.605814 0.877933 0.000000
0.651895 0.876636 0.000000
0.698047 0.875335 0.000000
0.744271 0.874030 0.000000
0.790564 0.872720 0.000000
0.834531 0.871484 0.000000
0.875789 0.870331 0.000000
0.916921 0.869181 0.000000
0.957923 0.868033 0.000000
0.998791 0.866888 0.000000
1.000000 0.866324 0.000000
1.000000 0.866465 0.000000
1.000000 0.866604 0.000000
1.000000 0.866742 0.000000
0.000000 0.939158 0.000000
0.000000 0.939364 0.000000
0.000000 0.939569 0.000000
0.000000 0.939771 0.000000
0.000000 0.939186 0.000000
0.000000 0.937952 0.000000
0.009526 0.936713 0.000000
0.054718 0.935469 0.000000
0.099993 0.934221 0.000000
0.145350 0.932969 0.000000
0.190789 0.931712 0.000000
0.236307 0.930450 0.000000
0.281905 0.929184 0.000000
0.327580 0.927914 0.000000
0.373333 0.926639 0.000000
0.419161 0.925360 0.000000
0.465064 0.924077 0.000000
0.511041 0.922790 0.000000
0.557091 0.921498 0.000000
0.603213 0.920202 0.000000
