library/cube/Pop_Star_001.cube
# CINEGRADE LAB — Premium Cinematic LUT
# Title: Pop Star
# Category: Music Video Looks
# Description: Stylized, dramatic, high-impact looks inspired by music video grading
# Mood: Dynamic, stylized, intense
# Variant: 2
# Generated: 2026-05-21T16:12:39.702036
TITLE "Pop Star"
LUT_3D_SIZE 5
0.000000 0.000000 0.000000
0.182528 0.000000 0.000000
0.510648 0.000000 0.000000
0.847387 0.000000 0.000000
1.000000 0.000000 0.000000
0.000000 0.186267 0.000000
0.169610 0.180729 0.000000
0.511365 0.170366 0.000000
0.860524 0.159752 0.000000
1.000000 0.153864 0.000000
0.000000 0.518276 0.000000
0.139257 0.513180 0.000000
0.492607 0.503072 0.000000
0.851960 0.492711 0.000000
1.000000 0.487476 0.000000
0.000000 0.854593 0.000000
0.107948 0.849659 0.000000
0.470922 0.839554 0.000000
0.836830 0.829246 0.000000
1.000000 0.824462 0.000000
0.000000 1.000000 0.000000
0.093096 1.000000 0.000000
0.463801 1.000000 0.000000
0.833542 1.000000 0.000000
1.000000 1.000000 0.000000
0.000000 0.000000 0.215905
0.181153 0.000000 0.209387
0.510756 0.000000 0.198208
0.848852 0.000000 0.186757
1.000000 0.000000 0.179717
0.000000 0.184188 0.192013
0.168184 0.178626 0.185167
0.511217 0.168225 0.173499
0.861531 0.157577 0.161601
1.000000 0.151696 0.154487
0.000000 0.516452 0.151189
0.137780 0.511321 0.144041
0.492206 0.501165 0.131938
0.852376 0.490765 0.119660
1.000000 0.485533 0.112620
0.000000 0.852917 0.109860
0.106432 0.847936 0.102483
0.470282 0.837774 0.090046
0.836697 0.827420 0.077540
1.000000 0.822636 0.070726
0.000000 1.000000 0.085381
0.091586 1.000000 0.077939
0.462961 1.000000 0.065363
0.832964 1.000000 0.052852
1.000000 1.000000 0.046519
0.000000 0.000000 0.594974
0.178048 0.000000 0.587248
0.509118 0.000000 0.574842
0.848557 0.000000 0.562167
1.000000 0.000000 0.553938
0.000000 0.180395 0.567089
0.165048 0.174816 0.559040
0.509342 0.164382 0.546153
0.860796 0.153705 0.533040
1.000000 0.147839 0.524755
0.000000 0.512928 0.522269
0.134611 0.507767 0.513924
0.490098 0.497569 0.500613
0.851058 0.487135 0.487136
1.000000 0.481915 0.478943
0.000000 0.849554 0.476964
0.103244 0.844531 0.468399
0.467952 0.834317 0.454765
0.834851 0.823924 0.441075
1.000000 0.819147 0.433124
0.000000 1.000000 0.448562
0.088420 1.000000 0.439941
0.460449 1.000000 0.426178
0.830701 1.000000 0.412492
1.000000 1.000000 0.405034
0.000000 0.000000 0.973241
0.174945 0.000000 0.964307
0.507461 0.000000 0.950675
0.848222 0.000000 0.936778
1.000000 0.000000 0.927360
0.000000 0.176608 0.941364
0.161915 0.171012 0.932111
0.507450 0.160547 0.918006
0.860025 0.149842 0.903680
1.000000 0.143992 0.894226
0.000000 0.509404 0.892549
0.131446 0.504214 0.883008
0.487973 0.493975 0.868491
0.849691 0.483509 0.853817
1.000000 0.478301 0.844472
0.000000 0.846186 0.843271
0.100060 0.841122 0.833519
0.465607 0.830857 0.818689
0.832961 0.820425 0.803817
1.000000 0.815657 0.794730
0.000000 1.000000 0.810949
0.085260 1.000000 0.801148
0.457922 1.000000 0.786198
0.828403 1.000000 0.771337
1.000000 1.000000 0.762754
0.000000 0.000000 1.000000
0.173571 0.000000 1.000000
0.507506 0.000000 1.000000
0.849563 0.000000 1.000000
1.000000 0.000000 1.000000
0.000000 0.174541 1.000000
0.160493 0.168923 1.000000
0.507243 0.158421 1.000000
0.860912 0.147684 1.000000
1.000000 0.141846 1.000000
0.000000 0.507577 1.000000
0.129975 0.502353 1.000000
0.487516 0.492068 1.000000
0.849954 0.481565 1.000000
1.000000 0.476364 1.000000
0.000000 0.844491 1.000000
0.098552 0.839380 1.000000
0.464912 0.829059 1.000000
0.832689 0.818585 1.000000
1.000000 0.813821 0.999426
0.000000 1.000000 1.000000
0.083758 1.000000 1.000000
0.457027 1.000000 0.989999
0.827716 1.000000 0.974469
1.000000 1.000000 0.965268
