library/cube/Portra_160_000.cube
# CINEGRADE LAB — Premium Cinematic LUT
# Title: Portra 160
# Category: Kodak Portra Emulation
# Description: Warm skin tones, soft contrast, film grain emulating Kodak Portra stocks
# Mood: Warm, filmic, timeless
# Variant: 1
# Generated: 2026-05-21T16:12:46.839760
TITLE "Portra 160"
LUT_3D_SIZE 33
0.090946 0.082746 0.060174
0.112461 0.083705 0.061133
0.134448 0.084685 0.062113
0.156812 0.085682 0.063111
0.179492 0.086694 0.064122
0.202443 0.087717 0.065145
0.225634 0.088751 0.066179
0.249038 0.089794 0.067223
0.272636 0.090847 0.068275
0.296410 0.091907 0.069335
0.320348 0.092974 0.070402
0.344436 0.094048 0.071476
0.368665 0.095128 0.072557
0.393026 0.096215 0.073643
0.417511 0.097306 0.074735
0.442114 0.098403 0.075832
0.466827 0.099505 0.076933
0.491647 0.100612 0.078040
0.516567 0.101723 0.079151
0.541584 0.102838 0.080267
0.566693 0.103958 0.081386
0.591891 0.105081 0.082510
0.617174 0.106209 0.083637
0.642538 0.107340 0.084768
0.667982 0.108474 0.085902
0.693502 0.109612 0.087040
0.719095 0.110753 0.088181
0.744760 0.111897 0.089326
0.770495 0.113045 0.090473
0.796296 0.114195 0.091624
0.822162 0.115349 0.092777
0.848092 0.116505 0.093933
0.849130 0.116551 0.093979
0.094173 0.106529 0.063401
0.115689 0.107489 0.064360
0.165936 0.120638 0.065341
0.189642 0.121655 0.066338
0.213682 0.122687 0.067349
0.238011 0.123731 0.068372
0.228861 0.112535 0.069406
0.252265 0.113578 0.070450
0.275863 0.114630 0.071502
0.299638 0.115690 0.072562
0.323575 0.116758 0.073630
0.347663 0.117832 0.074704
0.371892 0.118912 0.075784
0.396253 0.119998 0.076870
0.420738 0.121090 0.077962
0.445341 0.122187 0.079059
0.470055 0.123289 0.080161
0.494874 0.124396 0.081267
0.519795 0.125507 0.082378
0.544812 0.126622 0.083494
0.569921 0.127742 0.084613
0.595118 0.128865 0.085737
0.620401 0.129992 0.086864
0.645766 0.131123 0.087995
0.671209 0.132258 0.089130
0.696729 0.133396 0.090268
0.722323 0.134537 0.091409
0.747988 0.135681 0.092553
0.773722 0.136829 0.093700
0.799523 0.137979 0.094851
0.825389 0.139132 0.096004
0.851319 0.140289 0.097160
0.852357 0.140335 0.097207
0.097471 0.130834 0.066699
0.118987 0.131793 0.067658
0.140973 0.132773 0.068639
0.193138 0.146446 0.069636
0.217178 0.147477 0.070647
0.241507 0.148521 0.071670
0.266089 0.149576 0.072704
0.290897 0.150640 0.073748
0.315911 0.151714 0.074800
0.341112 0.152795 0.075860
0.366485 0.153883 0.076927
0.392019 0.154979 0.078001
0.375190 0.143217 0.079082
0.399551 0.144303 0.080168
0.424036 0.145394 0.081260
0.448639 0.146491 0.082357
0.473353 0.147593 0.083459
0.498172 0.148700 0.084565
0.523093 0.149811 0.085676
0.548109 0.150927 0.086792
0.573219 0.152046 0.087911
0.598416 0.153170 0.089035
0.623699 0.154297 0.090162
0.649064 0.155428 0.091293
0.674507 0.156562 0.092428
0.700027 0.157700 0.093565
0.725621 0.158841 0.094707
0.751286 0.159986 0.095851
0.777020 0.161133 0.096998
0.802821 0.162284 0.098149
0.828687 0.163437 0.099302
0.854617 0.164593 0.100458
0.855655 0.164639 0.100505
0.100825 0.155555 0.070053
0.122341 0.156514 0.071013
0.144328 0.157495 0.071993
0.166692 0.158492 0.072990
0.189371 0.159503 0.074002
0.245062 0.173737 0.075025
0.269644 0.174792 0.076059
0.294453 0.175856 0.077102
0.319467 0.176929 0.078155
0.344667 0.178011 0.079215
0.370041 0.179099 0.080282
0.395574 0.180195 0.081356
0.421257 0.181297 0.082436
0.447080 0.182405 0.083522
0.473034 0.183518 0.084614
0.499113 0.184637 0.085711
0.525309 0.185761 0.086813
0.501527 0.173421 0.087920
0.526447 0.174532 0.089031
0.551464 0.175648 0.090146
0.576573 0.176767 0.091266
0.601771 0.177891 0.092389
0.627053 0.179018 0.093517
0.652418 0.180149 0.094648
0.677862 0.181284 0.095782
0.703382 0.182422 0.096920
0.728975 0.183563 0.098061
0.754640 0.184707 0.099205
0.780374 0.185854 0.100353
0.806175 0.187005 0.101503
0.832042 0.188158 0.102657
0.857971 0.189314 0.103813
0.859010 0.189361 0.103859
0.104227 0.180625 0.073455
0.125743 0.181585 0.074415
0.147730 0.182565 0.075395
0.170094 0.183562 0.076392
0.192773 0.184573 0.077403
0.215725 0.185597 0.078427
0.273250 0.200363 0.079461
0.298059 0.201428 0.080504
0.323072 0.202501 0.081556
0.348273 0.203582 0.082616
0.373647 0.204671 0.083684
0.399180 0.205766 0.084758
0.424863 0.206868 0.085838
0.450686 0.207976 0.086924
0.476640 0.209090 0.088016
0.502719 0.210209 0.089113
0.528915 0.211333 0.090215
0.555224 0.212461 0.091322
0.581640 0.213595 0.092433
0.608158 0.214732 0.093548
0.634773 0.215874 0.094668
0.661483 0.217020 0.095791
0.688283 0.218170 0.096919
0.655820 0.205219 0.098049
0.681264 0.206354 0.099184
0.706783 0.207492 0.100322
0.732377 0.208633 0.101463
0.758042 0.209777 0.102607
0.783776 0.210925 0.103755
0.809577 0.212075 0.104905
0.835444 0.213228 0.106058
0.861373 0.214384 0.107215
0.862412 0.214431 0.107261
0.107670 0.205996 0.076898
0.129185 0.206955 0.077857
0.151172 0.207936 0.078838
0.173536 0.208933 0.079835
0.196216 0.209944 0.080846
0.219167 0.210967 0.081869
0.242358 0.212001 0.082903
0.301708 0.227306 0.083947
0.326722 0.228379 0.084999
0.351923 0.229460 0.086059
0.377296 0.230549 0.087126
0.402829 0.231644 0.088200
0.428512 0.232746 0.089281
0.454335 0.233854 0.090367
0.480289 0.234968 0.091459
0.506368 0.236087 0.092556
0.532565 0.237211 0.093658
0.558873 0.238339 0.094764
0.585289 0.239473 0.095875
0.611807 0.240611 0.096991
0.638423 0.241752 0.098110
0.665132 0.242898 0.099234
0.691932 0.244048 0.100361
0.718818 0.245202 0.101492
0.745788 0.246359 0.102627
0.772840 0.247520 0.103764
0.799969 0.248684 0.104906
0.827174 0.249851 0.106050
0.787219 0.236295 0.107197
0.813020 0.237446 0.108348
0.838886 0.238599 0.109501
0.864816 0.239755 0.110657
0.865854 0.239801 0.110703
0.111148 0.231631 0.080376
0.132664 0.232590 0.081336
0.154651 0.233571 0.082316
0.177015 0.234568 0.083313
0.199694 0.235579 0.084324
0.222646 0.236602 0.085348
0.245836 0.237636 0.086382
0.269241 0.238680 0.087425
0.292838 0.239732 0.088478
0.355610 0.255608 0.089538
0.380983 0.256697 0.090605
0.406517 0.257792 0.091679
0.432199 0.258894 0.092759
0.458022 0.260002 0.093845
0.483976 0.261116 0.094937
0.510055 0.262234 0.096034
0.536252 0.263358 0.097136
0.562561 0.264487 0.098243
0.588976 0.265621 0.099354
0.615494 0.266758 0.100469
0.642110 0.267900 0.101589
0.668819 0.269046 0.102712
0.695619 0.270196 0.103840
0.722505 0.271350 0.104971
0.749476 0.272507 0.106105
0.776527 0.273667 0.107243
0.803656 0.274831 0.108384
0.830861 0.275999 0.109528
0.858139 0.277169 0.110676
0.885488 0.278342 0.111826
0.912907 0.279519 0.112979
0.940392 0.280698 0.114136
0.941493 0.280745 0.114182
0.114659 0.257502 0.083887
0.136174 0.258462 0.084846
0.158161 0.259442 0.085827
0.180525 0.260439 0.086824
0.203205 0.261450 0.087835
0.226156 0.262474 0.088858
0.249347 0.263508 0.089892
0.272751 0.264551 0.090936
0.296349 0.265603 0.091988
0.320123 0.266663 0.093048
0.384704 0.283085 0.094115
0.410238 0.284181 0.095189
0.435921 0.285283 0.096270
0.461743 0.286391 0.097356
0.487697 0.287504 0.098448
0.513776 0.288623 0.099545
0.539973 0.289747 0.100647
0.566282 0.290876 0.101753
0.592697 0.292009 0.102864
0.619215 0.293147 0.103980
0.645831 0.294289 0.105099
0.672540 0.295435 0.106223
0.699340 0.296585 0.107350
0.726227 0.297738 0.108481
0.753197 0.298896 0.109616
0.780248 0.300056 0.110753
0.807377 0.301220 0.111895
0.834582 0.302387 0.113039
0.861860 0.303558 0.114186
0.889209 0.304731 0.115337
0.916628 0.305908 0.116490
0.944113 0.307087 0.117646
0.945214 0.307134 0.117692
0.118198 0.283587 0.087426
0.139714 0.284547 0.088386
0.161701 0.285527 0.089366
0.184065 0.286524 0.090363
0.206744 0.287535 0.091375
0.229696 0.288559 0.092398
0.252886 0.289593 0.093432
0.276291 0.290636 0.094475
0.299889 0.291689 0.095528
0.323663 0.292749 0.096588
0.347600 0.293816 0.097655
0.371688 0.294890 0.098729
0.439672 0.311890 0.099809
0.465495 0.312998 0.100895
0.491449 0.314111 0.101987
0.517528 0.315230 0.103084
0.543725 0.316354 0.104186
0.570034 0.317483 0.105293
0.596449 0.318616 0.106404
0.622967 0.319754 0.107519
0.649583 0.320896 0.108639
0.676292 0.322042 0.109762
0.703092 0.323192 0.110890
0.729979 0.324345 0.112021
0.756949 0.325502 0.113155
0.784000 0.326663 0.114293
0.811129 0.327827 0.115434
0.838334 0.328994 0.116578
0.865612 0.330165 0.117726
0.892961 0.331338 0.118876
0.920380 0.332514 0.120030
0.947865 0.333694 0.121186
0.948966 0.333741 0.121232
0.121764 0.309868 0.090993
0.143280 0.310827 0.091952
0.165267 0.311808 0.092932
0.187631 0.312805 0.093929
0.210311 0.313816 0.094941
0.233262 0.314839 0.095964
0.256453 0.315873 0.096998
0.279857 0.316917 0.098041
0.303455 0.317969 0.099094
0.327229 0.319029 0.100154
0.351166 0.320096 0.101221
0.375254 0.321170 0.102295
0.399483 0.322251 0.103375
0.469275 0.339804 0.104462
0.495229 0.340917 0.105553
0.521308 0.342036 0.106650
0.547505 0.343160 0.107752
0.573814 0.344289 0.108859
0.600229 0.345422 0.109970
0.626747 0.346560 0.111085
0.653363 0.347702 0.112205
0.680072 0.348848 0.113328
0.706872 0.349998 0.114456
0.733759 0.351151 0.115587
0.760729 0.352308 0.116721
0.787780 0.353469 0.117859
0.814909 0.354633 0.119000
0.842114 0.355800 0.120144
0.869392 0.356971 0.121292
0.896741 0.358144 0.122442
0.924160 0.359320 0.123596
0.951645 0.360500 0.124752
0.952746 0.360547 0.124798
0.125355 0.336328 0.094583
0.146871 0.337288 0.095542
0.168857 0.338268 0.096523
0.191221 0.339265 0.097520
0.213901 0.340276 0.098531
0.236852 0.341300 0.099554
0.260043 0.342334 0.100588
0.283447 0.343377 0.101632
0.307045 0.344429 0.102684
0.330820 0.345489 0.103744
0.354757 0.346557 0.104811
0.378845 0.347631 0.105885
0.403074 0.348711 0.106966
0.427435 0.349797 0.108052
0.499035 0.367907 0.109144
0.525114 0.369026 0.110241
0.551311 0.370150 0.111343
0.577620 0.371278 0.112449
0.604035 0.372412 0.113560
0.630553 0.373550 0.114676
0.657169 0.374692 0.115795
0.683878 0.375837 0.116919
0.710678 0.376987 0.118046
0.737564 0.378141 0.119177
0.764535 0.379298 0.120312
0.791586 0.380459 0.121449
0.818715 0.381623 0.122591
0.845920 0.382790 0.123735
0.873198 0.383960 0.124882
0.900547 0.385134 0.126033
0.927966 0.386310 0.127186
0.955451 0.387489 0.128342
0.956552 0.387537 0.128389
0.128968 0.362956 0.098196
0.150484 0.363915 0.099155
0.172471 0.364895 0.100136
0.194835 0.365892 0.101133
0.217514 0.366904 0.102144
0.240466 0.367927 0.103168
0.263656 0.368961 0.104202
0.287060 0.370005 0.105245
0.310658 0.371057 0.106297
0.334433 0.372117 0.107357
0.358370 0.373184 0.108425
0.382458 0.374258 0.109499
0.406687 0.375338 0.110579
0.431048 0.376425 0.111665
0.455533 0.377516 0.112757
0.480136 0.378613 0.113854
0.555141 0.397309 0.114956
0.581449 0.398438 0.116062
0.607865 0.399572 0.117174
0.634383 0.400709 0.118289
0.660999 0.401851 0.119409
0.687708 0.402997 0.120532
0.714508 0.404147 0.121659
0.741394 0.405301 0.122790
0.768365 0.406458 0.123925
0.795416 0.407618 0.125063
0.822545 0.408782 0.126204
0.849750 0.409950 0.127348
0.877028 0.411120 0.128495
0.904377 0.412293 0.129646
0.931795 0.413470 0.130799
0.959281 0.414649 0.131955
0.960382 0.414696 0.132002
0.132602 0.389738 0.101830
0.154118 0.390698 0.102790
0.176105 0.391678 0.103770
0.198469 0.392675 0.104767
0.221148 0.393687 0.105778
0.244100 0.394710 0.106802
0.267290 0.395744 0.107836
0.290695 0.396787 0.108879
0.314292 0.397840 0.109931
0.338067 0.398900 0.110991
0.362004 0.399967 0.112059
0.386092 0.401041 0.113133
0.410321 0.402121 0.114213
0.434682 0.403207 0.115299
0.459167 0.404299 0.116391
0.483770 0.405396 0.117488
0.508484 0.406498 0.118590
0.585302 0.425757 0.119697
0.611717 0.426890 0.120808
0.638235 0.428028 0.121923
0.664851 0.429170 0.123043
0.691560 0.430316 0.124166
0.718360 0.431466 0.125294
0.745247 0.432619 0.126424
0.772217 0.433776 0.127559
0.799268 0.434937 0.128697
0.826397 0.436101 0.129838
0.853602 0.437268 0.130982
0.880880 0.438439 0.132130
0.908229 0.439612 0.133280
0.935648 0.440788 0.134433
0.963133 0.441968 0.135590
0.964234 0.442015 0.135636
0.136256 0.416667 0.105484
0.157772 0.417627 0.106444
0.179759 0.418607 0.107424
0.202123 0.419604 0.108421
0.224802 0.420615 0.109432
0.247754 0.421639 0.110456
0.270944 0.422673 0.111490
0.294349 0.423716 0.112533
0.317946 0.424768 0.113585
0.341721 0.425828 0.114646
0.365658 0.426896 0.115713
0.389746 0.427970 0.116787
0.413975 0.429050 0.117867
0.438336 0.430136 0.118953
0.462821 0.431228 0.120045
0.487424 0.432325 0.121142
0.512138 0.433427 0.122244
0.536958 0.434534 0.123351
0.561878 0.435645 0.124462
0.642109 0.455495 0.125577
0.668724 0.456637 0.126697
0.695434 0.457783 0.127820
0.722233 0.458933 0.128948
0.749120 0.460087 0.130078
0.776090 0.461244 0.131213
0.803141 0.462404 0.132351
0.830270 0.463568 0.133492
0.857475 0.464736 0.134636
0.884753 0.465906 0.135784
0.912103 0.467079 0.136934
0.939521 0.468256 0.138087
0.967006 0.469435 0.139244
0.968107 0.469482 0.139290
0.139929 0.443733 0.109157
0.161445 0.444693 0.110116
0.183431 0.445673 0.111097
0.205795 0.446670 0.112094
0.228475 0.447681 0.113105
0.251426 0.448705 0.114128
0.274617 0.449739 0.115162
0.298021 0.450782 0.116206
0.321619 0.451835 0.117258
0.345394 0.452895 0.118318
0.369331 0.453962 0.119385
0.393419 0.455036 0.120460
0.417648 0.456116 0.121540
0.442009 0.457202 0.122626
0.466494 0.458294 0.123718
0.491097 0.459391 0.124815
0.515811 0.460493 0.125917
0.540630 0.461600 0.127023
0.565551 0.462711 0.128134
0.590568 0.463826 0.129250
0.672617 0.484245 0.130369
0.699327 0.485391 0.131493
0.726126 0.486541 0.132620
0.753013 0.487694 0.133751
0.779983 0.488851 0.134886
0.807034 0.490012 0.136023
0.834163 0.491176 0.137165
0.861368 0.492343 0.138309
0.888646 0.493513 0.139456
0.915996 0.494687 0.140607
0.943414 0.495863 0.141760
0.970899 0.497042 0.142916
0.972000 0.497090 0.142963
0.143619 0.470929 0.112847
0.165135 0.471889 0.113807
0.187122 0.472869 0.114787
0.209486 0.473866 0.115784
0.232165 0.474877 0.116795
0.255117 0.475901 0.117819
0.278307 0.476935 0.118853
0.301712 0.477978 0.119896
0.325309 0.479030 0.120948
0.349084 0.480090 0.122008
0.373021 0.481158 0.123076
0.397109 0.482232 0.124150
0.421338 0.483312 0.125230
0.445699 0.484398 0.126316
0.470184 0.485490 0.127408
0.494787 0.486587 0.128505
0.519501 0.487689 0.129607
0.544320 0.488796 0.130714
0.569241 0.489907 0.131825
0.594258 0.491022 0.132940
0.619367 0.492142 0.134060
0.703238 0.513130 0.135183
0.730038 0.514280 0.136310
0.756925 0.515434 0.137441
0.783895 0.516591 0.138576
0.810946 0.517752 0.139714
0.838075 0.518916 0.140855
0.865280 0.520083 0.141999
0.892558 0.521253 0.143147
0.919907 0.522427 0.144297
0.947326 0.523603 0.145450
0.974811 0.524782 0.146607
0.975912 0.524830 0.146653
0.147326 0.498248 0.116554
0.168842 0.499208 0.117514
0.190829 0.500188 0.118494
0.213193 0.501185 0.119491
0.235872 0.502196 0.120502
0.258824 0.503220 0.121526
0.282014 0.504254 0.122560
0.305419 0.505297 0.123603
0.329016 0.506349 0.124655
0.352791 0.507409 0.125715
0.376728 0.508477 0.126783
0.400816 0.509551 0.127857
0.425045 0.510631 0.128937
0.449406 0.511717 0.130023
0.473891 0.512809 0.131115
0.498494 0.513906 0.132212
0.523208 0.515008 0.133314
0.548027 0.516114 0.134421
0.572948 0.517226 0.135532
0.597965 0.518341 0.136647
0.623074 0.519461 0.137767
0.648271 0.520584 0.138890
0.673554 0.521711 0.140017
0.760854 0.543299 0.141148
0.787824 0.544456 0.142283
0.814875 0.545617 0.143421
0.842004 0.546781 0.144562
0.869209 0.547948 0.145706
0.896487 0.549118 0.146854
0.923837 0.550292 0.148004
0.951255 0.551468 0.149157
0.978740 0.552648 0.150313
0.979841 0.552695 0.150360
0.151049 0.525684 0.120277
0.172565 0.526643 0.121236
0.194551 0.527624 0.122217
0.216915 0.528621 0.123214
0.239595 0.529632 0.124225
0.262546 0.530655 0.125248
0.285737 0.531689 0.126282
0.309141 0.532733 0.127326
0.332739 0.533785 0.128378
0.356514 0.534845 0.129438
0.380451 0.535912 0.130506
0.404539 0.536986 0.131580
0.428768 0.538067 0.132660
0.453129 0.539153 0.133746
0.477614 0.540245 0.134838
0.502217 0.541342 0.135935
0.526931 0.542444 0.137037
0.551750 0.543550 0.138143
0.576671 0.544661 0.139254
0.601688 0.545777 0.140370
0.626797 0.546896 0.141489
0.651994 0.548020 0.142613
0.677277 0.549147 0.143740
0.702642 0.550278 0.144871
0.791770 0.572441 0.146006
0.818821 0.573601 0.147144
0.845951 0.574765 0.148285
0.873156 0.575933 0.149429
0.900434 0.577103 0.150576
0.927783 0.578276 0.151727
0.955201 0.579453 0.152880
0.982687 0.580632 0.154036
0.983787 0.580679 0.154083
0.154787 0.553231 0.124015
0.176303 0.554191 0.124974
0.198289 0.555171 0.125955
0.220653 0.556168 0.126952
0.243333 0.557179 0.127963
0.266284 0.558203 0.128986
0.289475 0.559237 0.130020
0.312879 0.560280 0.131064
0.336477 0.561332 0.132116
0.360252 0.562392 0.133176
0.384189 0.563460 0.134243
0.408277 0.564534 0.135318
0.432506 0.565614 0.136398
0.456867 0.566700 0.137484
0.481352 0.567792 0.138576
0.505955 0.568889 0.139673
0.530669 0.569991 0.140775
0.555488 0.571098 0.141881
0.580409 0.572209 0.142992
0.605426 0.573324 0.144108
0.630535 0.574444 0.145227
0.655732 0.575567 0.146351
0.681015 0.576694 0.147478
0.706380 0.577825 0.148609
0.731823 0.578960 0.149744
0.822784 0.601700 0.150881
0.849913 0.602864 0.152023
0.877118 0.604031 0.153167
0.904396 0.605201 0.154314
0.931745 0.606375 0.155465
0.959163 0.607551 0.156618
0.986649 0.608730 0.157774
0.987750 0.608778 0.157821
0.158539 0.580885 0.127767
0.180055 0.581844 0.128727
0.202042 0.582825 0.129707
0.224406 0.583822 0.130704
0.247085 0.584833 0.131715
0.270037 0.585856 0.132739
0.293227 0.586890 0.133773
0.316632 0.587934 0.134816
0.340229 0.588986 0.135869
0.364004 0.590046 0.136929
0.387941 0.591114 0.137996
0.412029 0.592188 0.139070
0.436258 0.593268 0.140150
0.460619 0.594354 0.141236
0.485105 0.595446 0.142328
0.509707 0.596543 0.143425
0.534421 0.597645 0.144527
0.559241 0.598751 0.145634
0.584161 0.599862 0.146745
0.609178 0.600978 0.147860
0.634287 0.602097 0.148980
0.659485 0.603221 0.150103
0.684767 0.604348 0.151231
0.710132 0.605479 0.152362
0.735576 0.606614 0.153496
0.761095 0.607752 0.154634
0.786689 0.608893 0.155775
0.881095 0.632238 0.156919
0.908373 0.633408 0.158067
0.935723 0.634582 0.159217
0.963141 0.635758 0.160371
0.990626 0.636937 0.161527
0.991727 0.636984 0.161573
0.162305 0.608641 0.131534
0.183821 0.609600 0.132493
0.205808 0.610581 0.133473
0.228172 0.611578 0.134470
0.250852 0.612589 0.135482
0.273803 0.613612 0.136505
0.296994 0.614646 0.137539
0.320398 0.615690 0.138583
0.343996 0.616742 0.139635
0.367770 0.617802 0.140695
0.391707 0.618869 0.141762
0.415796 0.619943 0.142836
0.440025 0.621024 0.143916
0.464386 0.622110 0.145003
0.488871 0.623202 0.146094
0.513473 0.624299 0.147191
0.538187 0.625400 0.148293
0.563007 0.626507 0.149400
0.587927 0.627618 0.150511
0.612944 0.628734 0.151627
0.638053 0.629853 0.152746
0.663251 0.630977 0.153870
0.688534 0.632104 0.154997
0.713898 0.633235 0.156128
0.739342 0.634369 0.157262
0.764862 0.635507 0.158400
0.790455 0.636648 0.159541
0.816120 0.637793 0.160686
0.912366 0.661719 0.161833
0.939715 0.662892 0.162983
0.967133 0.664069 0.164137
0.994619 0.665248 0.165293
0.995719 0.665295 0.165339
0.166085 0.636495 0.135313
0.187601 0.637454 0.136273
0.209588 0.638434 0.137253
0.231952 0.639431 0.138250
0.254631 0.640443 0.139261
0.277583 0.641466 0.140285
0.300773 0.642500 0.141319
0.324178 0.643543 0.142362
0.347775 0.644596 0.143414
0.371550 0.645656 0.144474
0.395487 0.646723 0.145542
0.419575 0.647797 0.146616
0.443804 0.648877 0.147696
0.468165 0.649964 0.148782
0.492650 0.651055 0.149874
0.517253 0.652152 0.150971
0.541967 0.653254 0.152073
0.566786 0.654361 0.153179
0.591707 0.655472 0.154291
0.616724 0.656587 0.155406
0.641833 0.657707 0.156526
0.667030 0.658830 0.157649
0.692313 0.659958 0.158776
0.717678 0.661089 0.159907
0.743121 0.662223 0.161042
0.768641 0.663361 0.162180
0.794235 0.664502 0.163321
0.819900 0.665646 0.164465
0.845634 0.666794 0.165613
0.871435 0.667944 0.166763
0.971140 0.692480 0.167916
0.998625 0.693659 0.169072
0.999726 0.693706 0.169119
0.169877 0.664442 0.139105
0.191393 0.665402 0.140065
0.213380 0.666382 0.141045
0.235744 0.667379 0.142042
0.258423 0.668390 0.143054
0.281375 0.669414 0.144077
0.304565 0.670448 0.145111
0.327970 0.671491 0.146154
0.351568 0.672543 0.147207
0.375342 0.673603 0.148267
0.399279 0.674671 0.149334
0.423367 0.675745 0.150408
0.447596 0.676825 0.151488
0.471957 0.677911 0.152574
0.496443 0.679003 0.153666
0.521045 0.680100 0.154763
0.545759 0.681202 0.155865
0.570579 0.682308 0.156972
0.595499 0.683420 0.158083
0.620516 0.684535 0.159198
0.645625 0.685655 0.160318
0.670823 0.686778 0.161441
0.696105 0.687905 0.162569
0.721470 0.689036 0.163700
0.746914 0.690171 0.164834
0.772434 0.691309 0.165972
0.798027 0.692450 0.167113
0.823692 0.693594 0.168257
0.849426 0.694742 0.169405
0.875227 0.695892 0.170555
0.901094 0.697045 0.171709
1.000000 0.722165 0.172865
1.000000 0.722213 0.172911
0.173682 0.692480 0.142910
0.195198 0.693440 0.143869
0.217184 0.694420 0.144850
0.239548 0.695417 0.145847
0.262228 0.696429 0.146858
0.285179 0.697452 0.147881
0.308370 0.698486 0.148915
0.331774 0.699529 0.149959
0.355372 0.700582 0.151011
0.379147 0.701642 0.152071
0.403084 0.702709 0.153138
0.427172 0.703783 0.154213
0.451401 0.704863 0.155293
0.475762 0.705949 0.156379
0.500247 0.707041 0.157471
0.524850 0.708138 0.158568
0.549564 0.709240 0.159670
0.574383 0.710347 0.160776
0.599304 0.711458 0.161887
0.624321 0.712573 0.163003
0.649430 0.713693 0.164122
0.674627 0.714816 0.165246
0.699910 0.715944 0.166373
0.725275 0.717075 0.167504
0.750718 0.718209 0.168639
0.776238 0.719347 0.169777
0.801832 0.720488 0.170918
0.827497 0.721632 0.172062
0.853231 0.722780 0.173209
0.879032 0.723930 0.174360
0.904898 0.725084 0.175513
0.930828 0.726240 0.176669
1.000000 0.750812 0.176716
0.177498 0.720606 0.146726
0.199014 0.721565 0.147686
0.221001 0.722546 0.148666
0.243365 0.723543 0.149663
0.266044 0.724554 0.150675
0.288996 0.725577 0.151698
0.312186 0.726611 0.152732
0.335591 0.727655 0.153775
0.359189 0.728707 0.154828
0.382963 0.729767 0.155888
0.406900 0.730835 0.156955
0.430988 0.731909 0.158029
0.455217 0.732989 0.159109
0.479578 0.734075 0.160195
0.504064 0.735167 0.161287
0.528666 0.736264 0.162384
0.553380 0.737366 0.163486
0.578200 0.738472 0.164593
0.603120 0.739583 0.165704
0.628137 0.740699 0.166819
0.653246 0.741818 0.167939
0.678444 0.742942 0.169062
0.703726 0.744069 0.170190
0.729091 0.745200 0.171321
0.754535 0.746335 0.172455
0.780055 0.747473 0.173593
0.805648 0.748614 0.174734
0.831313 0.749758 0.175878
0.857047 0.750905 0.177026
0.882848 0.752056 0.178176
0.908715 0.753209 0.179330
0.934644 0.754365 0.180486
0.935683 0.754412 0.180532
0.181326 0.748816 0.150554
0.202842 0.749775 0.151514
0.224829 0.750756 0.152494
0.247193 0.751753 0.153491
0.269872 0.752764 0.154502
0.292824 0.753787 0.155526
0.316014 0.754821 0.156560
0.339419 0.755865 0.157603
0.363016 0.756917 0.158655
0.386791 0.757977 0.159715
0.410728 0.759044 0.160783
0.434816 0.760118 0.161857
0.459045 0.761199 0.162937
0.483406 0.762285 0.164023
0.507891 0.763377 0.165115
0.532494 0.764474 0.166212
0.557208 0.765576 0.167314
0.582027 0.766682 0.168421
0.606948 0.767793 0.169532
0.631965 0.768909 0.170647
0.657074 0.770028 0.171767
0.682272 0.771152 0.172890
0.707554 0.772279 0.174018
0.732919 0.773410 0.175148
0.758363 0.774545 0.176283
0.783882 0.775682 0.177421
0.809476 0.776824 0.178562
0.835141 0.777968 0.179706
0.860875 0.779115 0.180854
0.886676 0.780266 0.182004
0.912543 0.781419 0.183157
0.938472 0.782575 0.184314
0.939511 0.782621 0.184360
0.185165 0.777107 0.154393
0.206681 0.778067 0.155353
0.228668 0.779047 0.156333
0.251032 0.780044 0.157330
0.273711 0.781055 0.158341
0.296663 0.782079 0.159365
0.319853 0.783113 0.160399
0.343258 0.784156 0.161442
0.366855 0.785208 0.162494
0.390630 0.786268 0.163554
0.414567 0.787336 0.164622
0.438655 0.788410 0.165696
0.462884 0.789490 0.166776
0.487245 0.790576 0.167862
0.511730 0.791668 0.168954
0.536333 0.792765 0.170051
0.561047 0.793867 0.171153
0.585866 0.794974 0.172259
0.610787 0.796085 0.173371
