library/cube/Portra_800_002.cube
# CINEGRADE LAB — Premium Cinematic LUT
# Title: Portra 800
# Category: Kodak Portra Emulation
# Description: Warm skin tones, soft contrast, film grain emulating Kodak Portra stocks
# Mood: Warm, filmic, timeless
# Variant: 3
# Generated: 2026-05-21T16:12:47.710800
TITLE "Portra 800"
LUT_3D_SIZE 33
0.095574 0.087674 0.061978
0.116498 0.088793 0.063097
0.137879 0.089937 0.064241
0.159628 0.091100 0.065404
0.181683 0.092280 0.066584
0.204003 0.093474 0.067778
0.226555 0.094680 0.068984
0.249315 0.095898 0.070202
0.272264 0.097125 0.071429
0.295384 0.098362 0.072666
0.318662 0.099607 0.073911
0.342087 0.100860 0.075164
0.365649 0.102120 0.076425
0.389340 0.103388 0.077692
0.413151 0.104661 0.078965
0.437077 0.105941 0.080245
0.461110 0.107227 0.081531
0.485247 0.108518 0.082822
0.509481 0.109814 0.084118
0.533810 0.111116 0.085420
0.558228 0.112422 0.086726
0.582732 0.113732 0.088036
0.607319 0.115048 0.089352
0.631985 0.116367 0.090671
0.656729 0.117691 0.091995
0.681546 0.119018 0.093322
0.706435 0.120349 0.094654
0.731394 0.121684 0.095989
0.756420 0.123023 0.097327
0.781511 0.124365 0.098669
0.806665 0.125711 0.100015
0.831881 0.127060 0.101364
0.832891 0.127114 0.101418
0.099339 0.111243 0.065743
0.120263 0.112363 0.066862
0.172976 0.125777 0.068006
0.196464 0.126963 0.069169
0.220284 0.128167 0.070349
0.244389 0.129384 0.071543
0.230320 0.118250 0.072749
0.253080 0.119467 0.073967
0.276029 0.120695 0.075194
0.299149 0.121931 0.076431
0.322427 0.123177 0.077676
0.345852 0.124430 0.078929
0.369415 0.125690 0.080190
0.393105 0.126957 0.081457
0.416916 0.128231 0.082731
0.440842 0.129511 0.084010
0.464876 0.130796 0.085296
0.489012 0.132087 0.086587
0.513247 0.133384 0.087883
0.537575 0.134685 0.089185
0.561993 0.135991 0.090491
0.586497 0.137302 0.091802
0.611084 0.138617 0.093117
0.635750 0.139937 0.094436
0.660494 0.141260 0.095760
0.685311 0.142588 0.097087
0.710200 0.143919 0.098419
0.735159 0.145254 0.099754
0.760185 0.146593 0.101092
0.785276 0.147935 0.102435
0.810430 0.149280 0.103780
0.835646 0.150629 0.105129
0.836656 0.150683 0.105183
0.103187 0.135329 0.069591
0.124110 0.136448 0.070710
0.145492 0.137592 0.071854
0.200620 0.151530 0.073017
0.224439 0.152734 0.074197
0.248545 0.153952 0.075391
0.272901 0.155182 0.076597
0.297482 0.156424 0.077814
0.322266 0.157676 0.079042
0.347236 0.158937 0.080279
0.372377 0.160207 0.081524
0.397676 0.161486 0.082777
0.373262 0.149776 0.084037
0.396953 0.151043 0.085305
0.420764 0.152317 0.086578
0.444689 0.153596 0.087858
0.468723 0.154882 0.089144
0.492860 0.156173 0.090435
0.517094 0.157469 0.091731
0.541423 0.158771 0.093032
0.565841 0.160077 0.094338
0.590345 0.161388 0.095649
0.614932 0.162703 0.096964
0.639598 0.164022 0.098284
0.664341 0.165346 0.099607
0.689159 0.166673 0.100935
0.714048 0.168005 0.102266
0.739007 0.169340 0.103601
0.764032 0.170678 0.104940
0.789124 0.172020 0.106282
0.814278 0.173366 0.107628
0.839494 0.174715 0.108976
0.840504 0.174769 0.109030
0.107100 0.159828 0.073504
0.128024 0.160947 0.074623
0.149406 0.162091 0.075767
0.171154 0.163254 0.076931
0.193209 0.164434 0.078110
0.252771 0.178940 0.079304
0.277128 0.180171 0.080511
0.301709 0.181413 0.081728
0.326493 0.182665 0.082956
0.351463 0.183926 0.084192
0.376603 0.185196 0.085437
0.401903 0.186474 0.086690
0.427350 0.187760 0.087951
0.452936 0.189052 0.089218
0.478652 0.190352 0.090492
0.504491 0.191657 0.091772
0.530448 0.192968 0.093057
0.496773 0.180672 0.094348
0.521008 0.181968 0.095645
0.545336 0.183269 0.096946
0.569754 0.184576 0.098252
0.594258 0.185886 0.099563
0.618845 0.187201 0.100878
0.643512 0.188521 0.102197
0.668255 0.189844 0.103521
0.693072 0.191172 0.104848
0.717962 0.192503 0.106180
0.742920 0.193838 0.107515
0.767946 0.195177 0.108854
0.793037 0.196519 0.110196
0.818192 0.197865 0.111541
0.843407 0.199214 0.112890
0.844417 0.199268 0.112944
0.111069 0.184672 0.077473
0.131993 0.185791 0.078592
0.153374 0.186935 0.079736
0.175123 0.188098 0.080899
0.197178 0.189278 0.082079
0.219498 0.190472 0.083273
0.281414 0.205512 0.084479
0.305995 0.206754 0.085697
0.330779 0.208006 0.086924
0.355749 0.209267 0.088161
0.380890 0.210537 0.089406
0.406189 0.211816 0.090659
0.431636 0.213101 0.091920
0.457222 0.214394 0.093187
0.482938 0.215693 0.094461
0.508778 0.216998 0.095740
0.534734 0.218310 0.097026
0.560801 0.219626 0.098317
0.586975 0.220949 0.099613
0.613249 0.222276 0.100915
0.639621 0.223608 0.102221
0.666085 0.224945 0.103532
0.692639 0.226287 0.104847
0.647480 0.213365 0.106166
0.672224 0.214689 0.107490
0.697041 0.216016 0.108817
0.721930 0.217348 0.110149
0.746889 0.218683 0.111484
0.771915 0.220021 0.112822
0.797006 0.221364 0.114164
0.822160 0.222709 0.115510
0.847376 0.224058 0.116859
0.848386 0.224112 0.116913
0.115085 0.209814 0.081489
0.136009 0.210934 0.082609
0.157391 0.212077 0.083752
0.179139 0.213241 0.084916
0.201195 0.214420 0.086095
0.223514 0.215614 0.087289
0.246067 0.216821 0.088496
0.310333 0.232399 0.089713
0.335117 0.233651 0.090941
0.360087 0.234912 0.092177
0.385227 0.236182 0.093423
0.410527 0.237461 0.094676
0.435974 0.238746 0.095936
0.461560 0.240039 0.097203
0.487276 0.241338 0.098477
0.513115 0.242643 0.099757
0.539072 0.243955 0.101042
0.565139 0.245271 0.102333
0.591312 0.246594 0.103630
0.617587 0.247921 0.104931
0.643958 0.249253 0.106237
0.670423 0.250590 0.107548
0.696977 0.251932 0.108863
0.723617 0.253278 0.110183
0.750339 0.254628 0.111506
0.777142 0.255982 0.112834
0.804023 0.257340 0.114165
0.830978 0.258701 0.115500
0.775931 0.245164 0.116839
0.801022 0.246506 0.118181
0.826177 0.247851 0.119526
0.851393 0.249200 0.120875
0.852403 0.249254 0.120929
0.119144 0.235219 0.085548
0.140067 0.236338 0.086667
0.161449 0.237481 0.087811
0.183197 0.238645 0.088974
0.205253 0.239825 0.090154
0.227573 0.241018 0.091348
0.250125 0.242225 0.092554
0.272885 0.243442 0.093771
0.295833 0.244670 0.094999
0.364470 0.260825 0.096236
0.389610 0.262095 0.097481
0.414910 0.263373 0.098734
0.440357 0.264658 0.099994
0.465942 0.265951 0.101261
0.491659 0.267250 0.102535
0.517498 0.268556 0.103815
0.543454 0.269867 0.105101
0.569522 0.271184 0.106392
0.595695 0.272506 0.107688
0.621970 0.273833 0.108989
0.648341 0.275166 0.110295
0.674806 0.276503 0.111606
0.701360 0.277844 0.112921
0.727999 0.279190 0.114241
0.754722 0.280540 0.115564
0.781525 0.281894 0.116892
0.808405 0.283252 0.118223
0.835361 0.284614 0.119558
0.862389 0.285979 0.120897
0.889487 0.287348 0.122239
0.916654 0.288721 0.123585
0.943887 0.290096 0.124933
0.944978 0.290151 0.124987
0.123239 0.260857 0.089643
0.144163 0.261976 0.090762
0.165545 0.263120 0.091906
0.187293 0.264283 0.093070
0.209348 0.265463 0.094249
0.231668 0.266657 0.095443
0.254220 0.267863 0.096650
0.276981 0.269081 0.097867
0.299929 0.270308 0.099095
0.323049 0.271545 0.100331
0.394034 0.288246 0.101576
0.419333 0.289524 0.102829
0.444780 0.290810 0.104090
0.470366 0.292102 0.105357
0.496082 0.293401 0.106631
0.521921 0.294707 0.107911
0.547878 0.296018 0.109196
0.573945 0.297335 0.110487
0.600119 0.298657 0.111784
0.626393 0.299984 0.113085
0.652765 0.301317 0.114391
0.679229 0.302654 0.115702
0.705783 0.303995 0.117017
0.732423 0.305341 0.118336
0.759145 0.306691 0.119660
0.785948 0.308045 0.120987
0.812829 0.309403 0.122319
0.839784 0.310765 0.123654
0.866812 0.312130 0.124993
0.893910 0.313499 0.126335
0.921077 0.314872 0.127680
0.948310 0.316247 0.129029
0.949401 0.316303 0.129083
0.127369 0.286707 0.093773
0.148292 0.287826 0.094892
0.169674 0.288970 0.096036
0.191423 0.290133 0.097199
0.213478 0.291313 0.098379
0.235798 0.292507 0.099573
0.258350 0.293713 0.100779
0.281110 0.294931 0.101997
0.304058 0.296158 0.103224
0.327178 0.297395 0.104461
0.350457 0.298640 0.105706
0.373882 0.299893 0.106959
0.449240 0.317177 0.108219
0.474826 0.318469 0.109487
0.500542 0.319768 0.110760
0.526381 0.321074 0.112040
0.552338 0.322385 0.113326
0.578405 0.323702 0.114617
0.604578 0.325024 0.115913
0.630853 0.326352 0.117214
0.657224 0.327684 0.118521
0.683689 0.329021 0.119831
0.710243 0.330362 0.121146
0.736883 0.331708 0.122466
0.763605 0.333058 0.123789
0.790408 0.334412 0.125117
0.817289 0.335770 0.126448
0.844244 0.337132 0.127783
0.871272 0.338497 0.129122
0.898370 0.339866 0.130464
0.925537 0.341239 0.131810
0.952770 0.342615 0.133158
0.953861 0.342670 0.133213
0.131529 0.312751 0.097933
0.152453 0.313870 0.099052
0.173834 0.315014 0.100196
0.195583 0.316177 0.101359
0.217638 0.317357 0.102539
0.239958 0.318551 0.103733
0.262510 0.319757 0.104939
0.285270 0.320975 0.106157
0.308219 0.322202 0.107384
0.331339 0.323439 0.108621
0.354617 0.324684 0.109866
0.378042 0.325937 0.111119
0.401605 0.327197 0.112380
0.479319 0.345034 0.113647
0.505035 0.346333 0.114921
0.530874 0.347639 0.116200
0.556831 0.348950 0.117486
0.582898 0.350267 0.118777
0.609072 0.351589 0.120073
0.635346 0.352916 0.121375
0.661718 0.354249 0.122681
0.688182 0.355586 0.123992
0.714736 0.356927 0.125307
0.741376 0.358273 0.126626
0.768099 0.359623 0.127950
0.794901 0.360977 0.129277
0.821782 0.362335 0.130609
0.848737 0.363697 0.131944
0.875765 0.365062 0.133282
0.902863 0.366431 0.134625
0.930030 0.367804 0.135970
0.957263 0.369179 0.137319
0.958354 0.369234 0.137373
0.135718 0.338973 0.102122
0.156642 0.340092 0.103241
0.178023 0.341236 0.104385
0.199772 0.342399 0.105548
0.221827 0.343579 0.106728
0.244147 0.344773 0.107922
0.266699 0.345979 0.109128
0.289459 0.347197 0.110346
0.312408 0.348424 0.111573
0.335528 0.349661 0.112810
0.358806 0.350906 0.114055
0.382231 0.352159 0.115308
0.405794 0.353420 0.116569
0.429484 0.354687 0.117836
0.509559 0.373080 0.119110
0.535398 0.374385 0.120389
0.561355 0.375696 0.121675
0.587422 0.377013 0.122966
0.613596 0.378336 0.124262
0.639870 0.379663 0.125564
0.666242 0.380995 0.126870
0.692706 0.382332 0.128181
0.719260 0.383674 0.129496
0.745900 0.385019 0.130815
0.772623 0.386369 0.132139
0.799425 0.387724 0.133466
0.826306 0.389081 0.134798
0.853261 0.390443 0.136133
0.880289 0.391809 0.137471
0.907387 0.393178 0.138813
0.934554 0.394550 0.140159
0.961787 0.395926 0.141508
0.962878 0.395981 0.141562
0.139933 0.365360 0.106337
0.160857 0.366480 0.107457
0.182239 0.367623 0.108600
0.203987 0.368787 0.109764
0.226042 0.369966 0.110943
0.248362 0.371160 0.112137
0.270914 0.372367 0.113344
0.293675 0.373584 0.114561
0.316623 0.374812 0.115789
0.339743 0.376048 0.117025
0.363021 0.377294 0.118270
0.386447 0.378547 0.119524
0.410009 0.379807 0.120784
0.433699 0.381074 0.122051
0.457511 0.382348 0.123325
0.481436 0.383628 0.124605
0.565907 0.402612 0.125890
0.591975 0.403928 0.127181
0.618148 0.405251 0.128478
0.644423 0.406578 0.129779
0.670794 0.407910 0.131085
0.697259 0.409247 0.132396
0.723812 0.410589 0.133711
0.750452 0.411935 0.135030
0.777175 0.413285 0.136354
0.803978 0.414639 0.137682
0.830858 0.415997 0.139013
0.857814 0.417358 0.140348
0.884841 0.418724 0.141687
0.911940 0.420093 0.143029
0.939107 0.421465 0.144374
0.966340 0.422841 0.145723
0.967430 0.422896 0.145777
0.144173 0.391902 0.110577
0.165097 0.393021 0.111696
0.186479 0.394165 0.112840
0.208227 0.395328 0.114004
0.230282 0.396508 0.115183
0.252602 0.397702 0.116377
0.275154 0.398908 0.117584
0.297915 0.400126 0.118801
0.320863 0.401353 0.120029
0.343983 0.402590 0.121265
0.367261 0.403835 0.122510
0.390687 0.405088 0.123763
0.414249 0.406349 0.125024
0.437939 0.407616 0.126291
0.461751 0.408890 0.127565
0.485676 0.410169 0.128845
0.509710 0.411455 0.130130
0.596554 0.431001 0.131421
0.622727 0.432323 0.132718
0.649002 0.433651 0.134019
0.675373 0.434983 0.135325
0.701838 0.436320 0.136636
0.728392 0.437661 0.137951
0.755031 0.439007 0.139270
0.781754 0.440357 0.140594
0.808557 0.441711 0.141921
0.835437 0.443069 0.143253
0.862393 0.444431 0.144588
0.889421 0.445796 0.145927
0.916519 0.447165 0.147269
0.943686 0.448538 0.148614
0.970919 0.449914 0.149963
0.972010 0.449969 0.150017
0.148436 0.418588 0.114840
0.169360 0.419708 0.115959
0.190742 0.420851 0.117103
0.212490 0.422015 0.118267
0.234545 0.423195 0.119446
0.256865 0.424388 0.120640
0.279417 0.425595 0.121847
0.302178 0.426812 0.123064
0.325126 0.428040 0.124292
0.348246 0.429276 0.125528
0.371524 0.430522 0.126773
0.394950 0.431775 0.128027
0.418512 0.433035 0.129287
0.442202 0.434302 0.130554
0.466014 0.435576 0.131828
0.489939 0.436856 0.133108
0.513973 0.438141 0.134393
0.538109 0.439432 0.135684
0.562344 0.440729 0.136981
0.653606 0.460871 0.138282
0.679977 0.462203 0.139588
0.706442 0.463540 0.140899
0.732996 0.464881 0.142214
0.759635 0.466227 0.143533
0.786358 0.467577 0.144857
0.813161 0.468931 0.146184
0.840041 0.470289 0.147516
0.866997 0.471651 0.148851
0.894025 0.473016 0.150190
0.921123 0.474385 0.151532
0.948290 0.475758 0.152877
0.975523 0.477134 0.154226
0.976614 0.477189 0.154280
0.152721 0.445411 0.119125
0.173645 0.446530 0.120244
0.195026 0.447674 0.121388
0.216775 0.448837 0.122551
0.238830 0.450017 0.123731
0.261150 0.451211 0.124925
0.283702 0.452417 0.126131
0.306462 0.453635 0.127349
0.329411 0.454862 0.128576
0.352531 0.456099 0.129813
0.375809 0.457344 0.131058
0.399234 0.458597 0.132311
0.422797 0.459857 0.133572
0.446487 0.461125 0.134839
0.470298 0.462398 0.136113
0.494224 0.463678 0.137392
0.518257 0.464964 0.138678
0.542394 0.466255 0.139969
0.566629 0.467551 0.141265
0.590957 0.468852 0.142567
0.684605 0.489562 0.143873
0.711069 0.490899 0.145184
0.737623 0.492240 0.146499
0.764263 0.493586 0.147818
0.790986 0.494936 0.149142
0.817789 0.496290 0.150469
0.844669 0.497648 0.151801
0.871624 0.499010 0.153136
0.898652 0.500375 0.154474
0.925751 0.501744 0.155816
0.952917 0.503117 0.157162
0.980151 0.504493 0.158511
0.981241 0.504548 0.158565
0.157026 0.472362 0.123430
0.177950 0.473481 0.124550
0.199332 0.474625 0.125693
0.221080 0.475788 0.126857
0.243135 0.476968 0.128036
0.265455 0.478162 0.129230
0.288008 0.479368 0.130437
0.310768 0.480586 0.131654
0.333716 0.481813 0.132882
0.356836 0.483050 0.134118
0.380115 0.484295 0.135364
0.403540 0.485548 0.136617
0.427102 0.486808 0.137877
0.450792 0.488076 0.139144
0.474604 0.489349 0.140418
0.498529 0.490629 0.141698
0.522563 0.491915 0.142983
0.546699 0.493206 0.144274
0.570934 0.494502 0.145571
0.595262 0.495803 0.146872
0.619680 0.497110 0.148178
0.715719 0.518389 0.149489
0.742273 0.519730 0.150804
0.768913 0.521076 0.152123
0.795636 0.522426 0.153447
0.822438 0.523780 0.154775
0.849319 0.525138 0.156106
0.876274 0.526500 0.157441
0.903302 0.527865 0.158780
0.930400 0.529234 0.160122
0.957567 0.530607 0.161467
0.984800 0.531983 0.162816
0.985891 0.532038 0.162870
0.161351 0.499435 0.127755
0.182275 0.500554 0.128874
0.203656 0.501698 0.130018
0.225405 0.502861 0.131181
0.247460 0.504041 0.132361
0.269780 0.505235 0.133555
0.292332 0.506441 0.134761
0.315093 0.507658 0.135979
0.338041 0.508886 0.137206
0.361161 0.510123 0.138443
0.384439 0.511368 0.139688
0.407865 0.512621 0.140941
0.431427 0.513881 0.142202
0.455117 0.515148 0.143469
0.478928 0.516422 0.144743
0.502854 0.517702 0.146022
0.526888 0.518988 0.147308
0.551024 0.520279 0.148599
0.575259 0.521575 0.149895
0.599587 0.522876 0.151197
0.624005 0.524182 0.152503
0.648509 0.525493 0.153814
0.673096 0.526808 0.155129
0.773583 0.548690 0.156448
0.800306 0.550040 0.157772
0.827109 0.551394 0.159099
0.853990 0.552752 0.160431
0.880945 0.554114 0.161766
0.907973 0.555480 0.163104
0.935071 0.556849 0.164447
0.962238 0.558221 0.165792
0.989471 0.559597 0.167141
0.990562 0.559652 0.167195
0.165694 0.526623 0.132098
0.186618 0.527743 0.133218
0.208000 0.528886 0.134361
0.229748 0.530050 0.135525
0.251804 0.531229 0.136704
0.274123 0.532423 0.137898
0.296676 0.533630 0.139105
0.319436 0.534847 0.140322
0.342384 0.536075 0.141550
0.365504 0.537311 0.142786
0.388783 0.538557 0.144032
0.412208 0.539810 0.145285
0.435770 0.541070 0.146545
0.459460 0.542337 0.147812
0.483272 0.543611 0.149086
0.507197 0.544891 0.150366
0.531231 0.546176 0.151651
0.555367 0.547467 0.152942
0.579602 0.548764 0.154239
0.603930 0.550065 0.155540
0.628348 0.551371 0.156846
0.652852 0.552682 0.158157
0.677439 0.553997 0.159472
0.702106 0.555317 0.160792
0.804997 0.577773 0.162115
0.831800 0.579127 0.163443
0.858680 0.580485 0.164774
0.885636 0.581847 0.166109
0.912663 0.583212 0.167448
0.939762 0.584581 0.168790
0.966929 0.585954 0.170135
0.994162 0.587329 0.171484
0.995252 0.587384 0.171538
0.170055 0.553923 0.136459
0.190979 0.555042 0.137579
0.212361 0.556186 0.138722
0.234109 0.557349 0.139886
0.256165 0.558529 0.141065
0.278484 0.559723 0.142259
0.301037 0.560929 0.143466
0.323797 0.562146 0.144683
0.346745 0.563374 0.145911
0.369865 0.564611 0.147147
0.393144 0.565856 0.148393
0.416569 0.567109 0.149646
0.440131 0.568369 0.150906
0.463821 0.569636 0.152173
0.487633 0.570910 0.153447
0.511558 0.572190 0.154727
0.535592 0.573475 0.156012
0.559728 0.574767 0.157303
0.583963 0.576063 0.158600
0.608291 0.577364 0.159901
0.632709 0.578670 0.161207
0.657213 0.579981 0.162518
0.681800 0.581296 0.163833
0.706467 0.582616 0.165153
0.731210 0.583939 0.166476
0.836510 0.606972 0.167804
0.863390 0.608330 0.169135
0.890345 0.609692 0.170470
0.917373 0.611057 0.171809
0.944472 0.612426 0.173151
0.971638 0.613799 0.174496
0.998872 0.615175 0.175845
0.999962 0.615230 0.175899
0.174433 0.581327 0.140837
0.195357 0.582447 0.141956
0.216738 0.583590 0.143100
0.238487 0.584754 0.144263
0.260542 0.585933 0.145443
0.282862 0.587127 0.146637
0.305414 0.588334 0.147843
0.328175 0.589551 0.149061
0.351123 0.590779 0.150288
0.374243 0.592015 0.151525
0.397521 0.593261 0.152770
0.420947 0.594514 0.154023
0.444509 0.595774 0.155284
0.468199 0.597041 0.156551
0.492010 0.598315 0.157825
0.515936 0.599595 0.159104
0.539970 0.600880 0.160390
0.564106 0.602171 0.161681
0.588341 0.603468 0.162977
0.612669 0.604769 0.164279
0.637087 0.606075 0.165585
0.661591 0.607386 0.166896
0.686178 0.608701 0.168211
0.710845 0.610020 0.169530
0.735588 0.611344 0.170854
0.760405 0.612672 0.172181
0.785295 0.614003 0.173513
0.895073 0.637645 0.174848
0.922101 0.639010 0.176186
0.949200 0.640379 0.177529
0.976366 0.641752 0.178874
1.000000 0.643127 0.180223
1.000000 0.643182 0.180277
0.178827 0.608833 0.145231
0.199751 0.609952 0.146350
0.221132 0.611096 0.147494
0.242881 0.612259 0.148657
0.264936 0.613439 0.149837
0.287256 0.614633 0.151031
0.309808 0.615839 0.152237
0.332568 0.617057 0.153455
0.355517 0.618284 0.154682
0.378637 0.619521 0.155919
0.401915 0.620766 0.157164
0.425340 0.622019 0.158417
0.448903 0.623280 0.159678
0.472593 0.624547 0.160945
0.496404 0.625821 0.162219
0.520330 0.627100 0.163498
0.544364 0.628386 0.164784
0.568500 0.629677 0.166075
0.592735 0.630973 0.167371
0.617063 0.632275 0.168673
0.641481 0.633581 0.169979
0.665985 0.634892 0.171290
0.690572 0.636207 0.172605
0.715238 0.637526 0.173924
0.739982 0.638850 0.175248
0.764799 0.640177 0.176575
0.789689 0.641509 0.177907
0.814647 0.642844 0.179242
0.926847 0.667066 0.180580
0.953945 0.668435 0.181923
0.981112 0.669808 0.183268
1.000000 0.671183 0.184617
1.000000 0.671238 0.184671
0.183236 0.636436 0.149641
0.204160 0.637555 0.150760
0.225542 0.638699 0.151904
0.247290 0.639862 0.153067
0.269346 0.641042 0.154247
0.291665 0.642236 0.155441
0.314218 0.643442 0.156647
0.336978 0.644660 0.157864
0.359926 0.645887 0.159092
0.383046 0.647124 0.160329
0.406325 0.648369 0.161574
0.429750 0.649622 0.162827
0.453312 0.650883 0.164087
0.477003 0.652150 0.165354
0.500814 0.653424 0.166628
0.524739 0.654703 0.167908
0.548773 0.655989 0.169193
0.572909 0.657280 0.170485
0.597144 0.658576 0.171781
0.621472 0.659878 0.173082
0.645890 0.661184 0.174388
0.670395 0.662495 0.175699
0.694981 0.663810 0.177014
0.719648 0.665129 0.178334
0.744391 0.666453 0.179657
0.769209 0.667780 0.180985
0.794098 0.669112 0.182316
0.819057 0.670447 0.183651
0.844082 0.671785 0.184990
0.869173 0.673127 0.186332
0.985874 0.697962 0.187678
1.000000 0.699338 0.189026
1.000000 0.699393 0.189080
0.187661 0.664132 0.154065
0.208584 0.665251 0.155184
0.229966 0.666395 0.156328
0.251715 0.667558 0.157491
0.273770 0.668738 0.158671
0.296090 0.669932 0.159865
0.318642 0.671138 0.161071
0.341402 0.672356 0.162289
0.364351 0.673583 0.163516
0.387471 0.674820 0.164753
0.410749 0.676065 0.165998
0.434174 0.677318 0.167251
0.457736 0.678579 0.168511
0.481427 0.679846 0.169779
0.505238 0.681120 0.171052
0.529164 0.682399 0.172332
0.553197 0.683685 0.173618
0.577334 0.684976 0.174909
0.601568 0.686272 0.176205
0.625897 0.687574 0.177507
0.650315 0.688880 0.178813
0.674819 0.690191 0.180123
0.699406 0.691506 0.181439
0.724072 0.692825 0.182758
0.748816 0.694149 0.184082
0.773633 0.695476 0.185409
0.798522 0.696808 0.186740
0.823481 0.698143 0.188076
0.848507 0.699481 0.189414
0.873598 0.700823 0.190756
0.898752 0.702169 0.192102
1.000000 0.727588 0.193451
1.000000 0.727643 0.193505
0.192099 0.691918 0.158504
0.213023 0.693037 0.159623
0.234405 0.694181 0.160767
0.256153 0.695344 0.161930
0.278209 0.696524 0.163110
0.300528 0.697718 0.164304
0.323081 0.698924 0.165510
0.345841 0.700142 0.166727
0.368789 0.701369 0.167955
0.391909 0.702606 0.169192
0.415188 0.703851 0.170437
0.438613 0.705104 0.171690
0.462175 0.706364 0.172950
0.485866 0.707632 0.174217
0.509677 0.708905 0.175491
0.533602 0.710185 0.176771
0.557636 0.711471 0.178056
0.581772 0.712762 0.179348
0.606007 0.714058 0.180644
0.630335 0.715359 0.181945
0.654753 0.716666 0.183251
0.679258 0.717976 0.184562
0.703844 0.719291 0.185877
0.728511 0.720611 0.187197
0.753254 0.721934 0.188520
0.778072 0.723262 0.189848
0.802961 0.724593 0.191179
0.827920 0.725928 0.192514
0.852945 0.727267 0.193853
0.878036 0.728609 0.195195
0.903191 0.729955 0.196541
0.928407 0.731304 0.197889
1.000000 0.755985 0.197943
0.196552 0.719790 0.162956
0.217476 0.720909 0.164075
0.238857 0.722053 0.165219
0.260606 0.723216 0.166382
0.282661 0.724396 0.167562
0.304981 0.725590 0.168756
0.327533 0.726796 0.169962
0.350293 0.728014 0.171180
0.373242 0.729241 0.172407
0.396362 0.730478 0.173644
0.419640 0.731723 0.174889
0.443065 0.732976 0.176142
0.466628 0.734237 0.177403
0.490318 0.735504 0.178670
0.514129 0.736778 0.179944
0.538055 0.738057 0.181223
0.562088 0.739343 0.182509
0.586225 0.740634 0.183800
0.610460 0.741930 0.185096
0.634788 0.743232 0.186398
0.659206 0.744538 0.187704
0.683710 0.745849 0.189015
0.708297 0.747164 0.190330
0.732963 0.748483 0.191649
0.757707 0.749807 0.192973
0.782524 0.751134 0.194300
0.807413 0.752466 0.195632
0.832372 0.753801 0.196967
0.857398 0.755139 0.198305
0.882489 0.756481 0.199647
0.907643 0.757827 0.200993
0.932859 0.759176 0.202342
0.933869 0.759230 0.202396
0.201018 0.747746 0.167422
0.221941 0.748865 0.168541
0.243323 0.750009 0.169685
0.265072 0.751172 0.170848
0.287127 0.752352 0.172028
0.309447 0.753546 0.173222
0.331999 0.754752 0.174428
0.354759 0.755970 0.175646
0.377708 0.757197 0.176873
0.400828 0.758434 0.178110
0.424106 0.759679 0.179355
0.447531 0.760932 0.180608
0.471093 0.762192 0.181868
0.494784 0.763460 0.183136
0.518595 0.764733 0.184409
0.542521 0.766013 0.185689
0.566554 0.767299 0.186975
0.590691 0.768590 0.188266
0.614925 0.769886 0.189562
0.639254 0.771188 0.190864
0.663672 0.772494 0.192170
0.688176 0.773804 0.193480
0.712763 0.775120 0.194796
0.737429 0.776439 0.196115
0.762173 0.777763 0.197439
0.786990 0.779090 0.198766
0.811879 0.780421 0.200097
0.836838 0.781756 0.201432
0.861864 0.783095 0.202771
0.886955 0.784437 0.204113
0.912109 0.785783 0.205459
0.937325 0.787132 0.206808
0.938335 0.787186 0.206862
0.205497 0.775782 0.171901
0.226420 0.776902 0.173020
0.247802 0.778045 0.174164
0.269550 0.779209 0.175327
0.291606 0.780389 0.176507
0.313925 0.781582 0.177701
0.336478 0.782789 0.178907
0.359238 0.784006 0.180124
0.382186 0.785234 0.181352
0.405306 0.786470 0.182589
0.428585 0.787716 0.183834
0.452010 0.788969 0.185087
0.475572 0.790229 0.186347
0.499263 0.791496 0.187614
0.523074 0.792770 0.188888
0.546999 0.794050 0.190168
0.571033 0.795335 0.191454
0.595170 0.796626 0.192745
0.619404 0.797923 0.194041
