library/cube/Portra_160_000.cube
# CINEGRADE LAB — Premium Cinematic LUT
# Title: Portra 160
# Category: Kodak Portra Emulation
# Description: Warm skin tones, soft contrast, film grain emulating Kodak Portra stocks
# Mood: Warm, filmic, timeless
# Variant: 1
# Generated: 2026-05-21T16:12:46.839760
TITLE "Portra 160"
LUT_3D_SIZE 9
0.090946 0.082746 0.060174
0.179492 0.086694 0.064122
0.272636 0.090847 0.068275
0.368665 0.095128 0.072557
0.466827 0.099505 0.076933
0.566693 0.103958 0.081386
0.667982 0.108474 0.085902
0.770495 0.113045 0.090473
0.849130 0.116551 0.093979
0.104227 0.180625 0.073455
0.192773 0.184573 0.077403
0.323072 0.202501 0.081556
0.424863 0.206868 0.085838
0.528915 0.211333 0.090215
0.634773 0.215874 0.094668
0.681264 0.206354 0.099184
0.783776 0.210925 0.103755
0.862412 0.214431 0.107261
0.118198 0.283587 0.087426
0.206744 0.287535 0.091375
0.299889 0.291689 0.095528
0.439672 0.311890 0.099809
0.543725 0.316354 0.104186
0.649583 0.320896 0.108639
0.756949 0.325502 0.113155
0.865612 0.330165 0.117726
0.948966 0.333741 0.121232
0.132602 0.389738 0.101830
0.221148 0.393687 0.105778
0.314292 0.397840 0.109931
0.410321 0.402121 0.114213
0.508484 0.406498 0.118590
0.664851 0.429170 0.123043
0.772217 0.433776 0.127559
0.880880 0.438439 0.132130
0.964234 0.442015 0.135636
0.147326 0.498248 0.116554
0.235872 0.502196 0.120502
0.329016 0.506349 0.124655
0.425045 0.510631 0.128937
0.523208 0.515008 0.133314
0.623074 0.519461 0.137767
0.787824 0.544456 0.142283
0.896487 0.549118 0.146854
0.979841 0.552695 0.150360
0.162305 0.608641 0.131534
0.250852 0.612589 0.135482
0.343996 0.616742 0.139635
0.440025 0.621024 0.143916
0.538187 0.625400 0.148293
0.638053 0.629853 0.152746
0.739342 0.634369 0.157262
0.912366 0.661719 0.161833
0.995719 0.665295 0.165339
0.177498 0.720606 0.146726
0.266044 0.724554 0.150675
0.359189 0.728707 0.154828
0.455217 0.732989 0.159109
0.553380 0.737366 0.163486
0.653246 0.741818 0.167939
0.754535 0.746335 0.172455
0.857047 0.750905 0.177026
0.935683 0.754412 0.180532
0.192875 0.833924 0.162103
0.281421 0.837872 0.166051
0.374565 0.842025 0.170204
0.470594 0.846307 0.174486
0.568756 0.850684 0.178862
0.668622 0.855137 0.183315
0.769911 0.859653 0.187831
0.872424 0.864224 0.192402
0.951059 0.867730 0.195908
0.204669 0.920849 0.173898
0.293216 0.924797 0.177846
0.386360 0.928950 0.181999
0.482389 0.933231 0.186281
0.580551 0.937608 0.190657
0.680417 0.942061 0.195110
0.781706 0.946577 0.199626
0.884219 0.951148 0.204197
0.962854 0.954654 0.207703
0.092125 0.083925 0.135800
0.180672 0.087873 0.139748
0.273816 0.092027 0.143901
0.369845 0.096308 0.148183
0.468007 0.100685 0.152560
0.567873 0.105138 0.157013
0.669162 0.109654 0.161529
0.771674 0.114225 0.166100
0.850310 0.117731 0.169606
0.105407 0.181805 0.149082
0.193953 0.185753 0.153030
0.287097 0.189906 0.157183
0.383126 0.194188 0.161464
0.481289 0.198565 0.165841
0.581155 0.203018 0.170294
0.682443 0.207534 0.174810
0.784956 0.212105 0.179381
0.863592 0.215611 0.182887
0.119378 0.284767 0.163053
0.207924 0.288715 0.167001
0.301068 0.292868 0.171154
0.440923 0.313093 0.175436
0.544975 0.317557 0.179812
0.650834 0.322099 0.184265
0.758199 0.326706 0.188781
0.798927 0.315067 0.193352
0.877563 0.318573 0.196858
0.133782 0.390918 0.177457
0.222328 0.394866 0.181405
0.315472 0.399019 0.185558
0.411501 0.403301 0.189839
0.560244 0.425832 0.194216
0.666102 0.430373 0.198669
0.773468 0.434980 0.203185
0.882131 0.439642 0.207756
0.965485 0.443218 0.211262
0.148506 0.499428 0.192181
0.237052 0.503376 0.196129
0.330196 0.507529 0.200282
0.426225 0.511811 0.204563
0.524388 0.516188 0.208940
0.624254 0.520640 0.213393
0.789075 0.545660 0.217909
0.897738 0.550322 0.222480
0.981092 0.553898 0.225986
0.163485 0.609821 0.207160
0.252032 0.613769 0.211108
0.345176 0.617922 0.215261
0.441204 0.622204 0.219543
0.539367 0.626580 0.223920
0.639233 0.631033 0.228372
0.740522 0.635549 0.232889
0.913616 0.662923 0.237459
0.996970 0.666499 0.240966
0.178678 0.721786 0.222353
0.267224 0.725734 0.226301
0.360368 0.729887 0.230454
0.456397 0.734169 0.234736
0.554560 0.738546 0.239112
0.654426 0.742998 0.243565
0.755715 0.747515 0.248081
0.858227 0.752085 0.252652
1.000000 0.780703 0.256158
0.194054 0.835104 0.237729
0.282601 0.839052 0.241677
0.375745 0.843205 0.245830
0.471774 0.847487 0.250112
0.569936 0.851864 0.254489
0.669802 0.856316 0.258942
0.771091 0.860833 0.263458
0.873603 0.865403 0.268029
0.952239 0.868910 0.271535
0.205849 0.922028 0.249524
0.294396 0.925977 0.253472
0.387540 0.930130 0.257625
0.483569 0.934411 0.261907
0.581731 0.938788 0.266284
0.681597 0.943241 0.270737
0.782886 0.947757 0.275253
0.885398 0.952328 0.279823
0.964034 0.955834 0.283330
0.093367 0.085167 0.215353
0.181913 0.089115 0.219301
0.275057 0.093268 0.223455
0.371086 0.097549 0.227736
0.469248 0.101926 0.232113
0.569114 0.106379 0.236566
0.670403 0.110895 0.241082
0.772916 0.115466 0.245653
0.851551 0.118972 0.249159
0.106648 0.183046 0.228635
0.195194 0.186994 0.232583
0.288338 0.191147 0.236736
0.384367 0.195429 0.241018
0.482530 0.199806 0.245395
0.582396 0.204259 0.249847
0.683685 0.208775 0.254363
0.786197 0.213346 0.258934
0.864833 0.216852 0.262440
0.120619 0.286008 0.242606
0.209165 0.289957 0.246554
0.302310 0.294110 0.250707
0.398338 0.298391 0.254989
0.496501 0.302768 0.259366
0.596367 0.307221 0.263818
0.697656 0.311737 0.268335
0.800168 0.316308 0.272905
0.878804 0.319814 0.276412
0.135023 0.392160 0.257010
0.223569 0.396108 0.260958
0.316713 0.400261 0.265111
0.412742 0.404542 0.269393
0.561559 0.427098 0.273770
0.667417 0.431639 0.278222
0.774783 0.436246 0.282739
0.883446 0.440908 0.287309
0.893208 0.425965 0.290815
0.149747 0.500669 0.271734
0.238293 0.504617 0.275682
0.331437 0.508770 0.279835
0.427466 0.513052 0.284117
0.525629 0.517429 0.288493
0.683025 0.542319 0.292946
0.790390 0.546926 0.297462
0.899054 0.551588 0.302033
0.982408 0.555164 0.305539
0.164726 0.611062 0.286713
0.253273 0.615010 0.290661
0.346417 0.619163 0.294814
0.442446 0.623445 0.299096
0.540608 0.627822 0.303473
0.640474 0.632274 0.307926
0.741763 0.636791 0.312442
0.914932 0.664189 0.317013
0.998286 0.667765 0.320519
0.179919 0.723027 0.301906
0.268465 0.726975 0.305854
0.361610 0.731128 0.310007
0.457638 0.735410 0.314289
0.555801 0.739787 0.318666
0.655667 0.744239 0.323118
0.756956 0.748756 0.327635
0.859468 0.753326 0.332205
1.000000 0.781969 0.335712
0.195296 0.836345 0.317282
0.283842 0.840293 0.321230
0.376986 0.844446 0.325384
0.473015 0.848728 0.329665
0.571177 0.853105 0.334042
0.671043 0.857558 0.338495
0.772332 0.862074 0.343011
0.874845 0.866645 0.347582
0.953480 0.870151 0.351088
0.207091 0.923270 0.329077
0.295637 0.927218 0.333025
0.388781 0.931371 0.337178
0.484810 0.935652 0.341460
0.582972 0.940029 0.345837
0.682838 0.944482 0.350290
0.784127 0.948998 0.354806
0.886640 0.953569 0.359377
0.965275 0.957075 0.362883
0.094646 0.086446 0.297371
0.183192 0.090394 0.301319
0.276337 0.094547 0.305472
0.372365 0.098829 0.309753
0.470528 0.103206 0.314130
0.570394 0.107659 0.318583
0.671683 0.112175 0.323099
0.774195 0.116746 0.327670
0.852831 0.120252 0.331176
0.107928 0.184326 0.310652
0.196474 0.188274 0.314600
0.289618 0.192427 0.318753
0.385647 0.196709 0.323035
0.483809 0.201085 0.327412
0.583676 0.205538 0.331864
0.684964 0.210054 0.336381
0.787477 0.214625 0.340951
0.866112 0.218131 0.344458
0.121899 0.287288 0.324623
0.210445 0.291236 0.328571
0.303589 0.295389 0.332724
0.399618 0.299671 0.337006
0.497781 0.304048 0.341383
0.597647 0.308500 0.345836
0.698935 0.313017 0.350352
0.801448 0.317587 0.354923
0.880083 0.321094 0.358429
0.136303 0.393439 0.339027
0.224849 0.397387 0.342975
0.317993 0.401540 0.347128
0.414022 0.405822 0.351410
0.512185 0.410199 0.355787
0.612051 0.414652 0.360239
0.713339 0.419168 0.364756
0.815852 0.423738 0.369326
0.894487 0.427245 0.372833
0.151027 0.501949 0.353751
0.239573 0.505897 0.357699
0.332717 0.510050 0.361852
0.428746 0.514332 0.366134
0.526908 0.518708 0.370511
0.684381 0.543624 0.374963
0.791747 0.548231 0.379480
0.900410 0.552893 0.384050
0.983764 0.556469 0.387556
0.166006 0.612341 0.368730
0.254552 0.616290 0.372678
0.347696 0.620443 0.376831
0.443725 0.624724 0.381113
0.541888 0.629101 0.385490
0.641754 0.633554 0.389943
0.807625 0.660831 0.394459
0.916288 0.665494 0.399030
0.999642 0.669070 0.402536
0.181199 0.724307 0.383923
0.269745 0.728255 0.387871
0.362889 0.732408 0.392024
0.458918 0.736689 0.396306
0.557081 0.741066 0.400683
0.656947 0.745519 0.405136
0.758235 0.750035 0.409652
0.860748 0.754606 0.414223
1.000000 0.783274 0.417729
0.196575 0.837625 0.399300
0.285121 0.841573 0.403248
0.378266 0.845726 0.407401
0.474294 0.850008 0.411682
0.572457 0.854384 0.416059
0.672323 0.858837 0.420512
0.773612 0.863353 0.425028
0.876124 0.867924 0.429599
0.954760 0.871430 0.433105
0.208370 0.924549 0.411094
0.296916 0.928497 0.415043
0.390060 0.932650 0.419196
0.486089 0.936932 0.423477
0.584252 0.941309 0.427854
0.684118 0.945762 0.432307
0.785407 0.950278 0.436823
0.887919 0.954849 0.441394
0.966555 0.958355 0.444900
0.095954 0.087754 0.381210
0.184500 0.091702 0.385158
0.277645 0.095855 0.389311
0.373673 0.100137 0.393593
0.471836 0.104514 0.397970
0.571702 0.108967 0.402422
0.672991 0.113483 0.406939
0.775503 0.118054 0.411509
0.854139 0.121560 0.415016
0.109236 0.185634 0.394492
0.197782 0.189582 0.398440
0.290926 0.193735 0.402593
0.386955 0.198017 0.406874
0.485118 0.202394 0.411251
0.584984 0.206846 0.415704
0.686272 0.211363 0.420220
0.788785 0.215933 0.424791
0.867420 0.219439 0.428297
0.123207 0.288596 0.408463
0.211753 0.292544 0.412411
0.304897 0.296697 0.416564
0.400926 0.300979 0.420845
0.499089 0.305356 0.425222
0.598955 0.309808 0.429675
0.700243 0.314325 0.434191
0.802756 0.318895 0.438762
0.881391 0.322402 0.442268
0.137611 0.394747 0.422867
0.226157 0.398695 0.426815
0.319301 0.402848 0.430968
0.415330 0.407130 0.435249
0.513493 0.411507 0.439626
0.613359 0.415960 0.444079
0.714647 0.420476 0.448595
0.817160 0.425047 0.453166
0.895795 0.428553 0.456672
0.152335 0.503257 0.437590
0.240881 0.507205 0.441539
0.334025 0.511358 0.445692
0.430054 0.515640 0.449973
0.528216 0.520016 0.454350
0.628082 0.524469 0.458803
0.729371 0.528985 0.463319
0.831884 0.533556 0.467890
0.910519 0.537062 0.471396
0.167314 0.613650 0.452570
0.255860 0.617598 0.456518
0.349004 0.621751 0.460671
0.445033 0.626032 0.464953
0.543196 0.630409 0.469329
0.643062 0.634862 0.473782
0.809012 0.662166 0.478298
0.917675 0.666828 0.482869
1.000000 0.670404 0.486375
0.182507 0.725615 0.467763
0.271053 0.729563 0.471711
0.364197 0.733716 0.475864
0.460226 0.737998 0.480145
0.558389 0.742374 0.484522
0.658255 0.746827 0.488975
0.759543 0.751343 0.493491
0.933779 0.781032 0.498062
1.000000 0.784609 0.501568
0.197883 0.838933 0.483139
0.286429 0.842881 0.487087
0.379574 0.847034 0.491240
0.475602 0.851316 0.495522
0.573765 0.855692 0.499899
0.673631 0.860145 0.504351
0.774920 0.864661 0.508868
0.877432 0.869232 0.513438
0.956068 0.872738 0.516945
0.209678 0.925857 0.494934
0.298224 0.929805 0.498882
0.391369 0.933958 0.503035
0.487397 0.938240 0.507317
0.585560 0.942617 0.511694
0.685426 0.947070 0.516146
0.786715 0.951586 0.520663
0.889227 0.956157 0.525233
0.967863 0.959663 0.528740
0.097285 0.089085 0.466504
0.185831 0.093033 0.470452
0.278975 0.097186 0.474606
0.375004 0.101468 0.478887
0.473167 0.105845 0.483264
0.573033 0.110297 0.487717
0.674321 0.114813 0.492233
0.776834 0.119384 0.496804
0.855470 0.122890 0.500310
0.110566 0.186965 0.479786
0.199113 0.190913 0.483734
0.292257 0.195066 0.487887
0.388286 0.199347 0.492169
0.486448 0.203724 0.496546
0.586314 0.208177 0.500998
0.687603 0.212693 0.505515
0.790115 0.217264 0.510085
0.868751 0.220770 0.513591
0.124538 0.289927 0.493757
0.213084 0.293875 0.497705
0.306228 0.298028 0.501858
0.402257 0.302310 0.506140
0.500419 0.306686 0.510517
0.600285 0.311139 0.514969
0.701574 0.315655 0.519486
0.804087 0.320226 0.524056
0.882722 0.323732 0.527563
0.138941 0.396078 0.508161
0.227488 0.400026 0.512109
0.320632 0.404179 0.516262
0.416661 0.408461 0.520544
0.514823 0.412837 0.524921
0.614689 0.417290 0.529373
0.715978 0.421806 0.533890
0.818490 0.426377 0.538460
0.897126 0.429883 0.541966
0.153665 0.504588 0.522885
0.242212 0.508536 0.526833
0.335356 0.512689 0.530986
0.431385 0.516970 0.535268
0.529547 0.521347 0.539644
0.629413 0.525800 0.544097
0.730702 0.530316 0.548613
0.833214 0.534887 0.553184
0.911850 0.538393 0.556690
0.168645 0.614980 0.537864
0.257191 0.618928 0.541812
0.350335 0.623081 0.545965
0.446364 0.627363 0.550247
0.544527 0.631740 0.554624
0.644393 0.636193 0.559077
0.745681 0.640709 0.563593
0.848194 0.645280 0.568164
0.926829 0.648786 0.571670
0.183838 0.726945 0.553057
0.272384 0.730893 0.557005
0.365528 0.735047 0.561158
0.461557 0.739328 0.565440
0.559719 0.743705 0.569817
0.659585 0.748158 0.574269
0.760874 0.752674 0.578786
0.935190 0.782390 0.583356
1.000000 0.785966 0.586863
0.199214 0.840264 0.568433
0.287760 0.844212 0.572382
0.380904 0.848365 0.576535
0.476933 0.852646 0.580816
0.575096 0.857023 0.585193
0.674962 0.861476 0.589646
0.776250 0.865992 0.594162
0.878763 0.870563 0.598733
1.000000 0.901550 0.602239
0.211009 0.927188 0.580228
0.299555 0.931136 0.584176
0.392699 0.935289 0.588330
0.488728 0.939571 0.592611
0.586891 0.943948 0.596988
0.686757 0.948400 0.601441
0.788045 0.952917 0.605957
0.890558 0.957487 0.610528
0.969193 0.960993 0.614034
0.098635 0.090435 0.553014
0.187181 0.094383 0.556962
0.280325 0.098536 0.561115
0.376354 0.102817 0.565397
0.474516 0.107194 0.569773
0.574382 0.111647 0.574226
0.675671 0.116163 0.578742
0.778184 0.120734 0.583313
0.856819 0.124240 0.586819
0.111916 0.188314 0.566295
0.200462 0.192262 0.570243
0.293606 0.196415 0.574396
0.389635 0.200697 0.578678
0.487798 0.205074 0.583055
0.587664 0.209527 0.587508
0.688953 0.214043 0.592024
0.791465 0.218614 0.596595
0.870101 0.222120 0.600101
0.125887 0.291276 0.580266
0.214434 0.295225 0.584215
0.307578 0.299378 0.588368
0.403606 0.303659 0.592649
0.501769 0.308036 0.597026
0.601635 0.312489 0.601479
0.702924 0.317005 0.605995
0.805436 0.321576 0.610566
0.884072 0.325082 0.614072
0.140291 0.397428 0.594670
0.228837 0.401376 0.598618
0.321981 0.405529 0.602771
0.418010 0.409810 0.607053
0.516173 0.414187 0.611430
0.616039 0.418640 0.615883
0.717328 0.423156 0.620399
0.819840 0.427727 0.624970
0.898476 0.431233 0.628476
0.155015 0.505937 0.609394
0.243561 0.509885 0.613342
0.336705 0.514038 0.617495
0.432734 0.518320 0.621777
0.530897 0.522697 0.626154
0.630763 0.527150 0.630607
0.732051 0.531666 0.635123
0.834564 0.536237 0.639694
0.913200 0.539743 0.643200
0.169994 0.616330 0.624374
0.258541 0.620278 0.628322
0.351685 0.624431 0.632475
0.447714 0.628713 0.636756
0.545876 0.633090 0.641133
0.645742 0.637542 0.645586
0.747031 0.642059 0.650102
0.849543 0.646629 0.654673
0.928179 0.650135 0.658179
0.185187 0.728295 0.639566
0.273733 0.732243 0.643515
0.366878 0.736396 0.647668
0.462906 0.740678 0.651949
0.561069 0.745055 0.656326
0.660935 0.749508 0.660779
0.762224 0.754024 0.665295
0.864736 0.758594 0.669866
0.943372 0.762101 0.673372
0.200564 0.841613 0.654943
0.289110 0.845561 0.658891
0.382254 0.849714 0.663044
0.478283 0.853996 0.667326
0.576445 0.858373 0.671702
0.676311 0.862826 0.676155
0.777600 0.867342 0.680671
0.880113 0.871913 0.685242
1.000000 0.902927 0.688748
0.212359 0.928538 0.666738
0.300905 0.932486 0.670686
0.394049 0.936639 0.674839
0.490078 0.940920 0.679121
0.588240 0.945297 0.683497
0.688106 0.949750 0.687950
0.789395 0.954266 0.692466
0.891908 0.958837 0.697037
0.970543 0.962343 0.700543
0.100001 0.091801 0.640569
0.188547 0.095749 0.644517
0.281691 0.099902 0.648670
0.377720 0.104183 0.652951
0.475882 0.108560 0.657328
0.575748 0.113013 0.661781
0.677037 0.117529 0.666297
0.779550 0.122100 0.670868
0.858185 0.125606 0.674374
0.113282 0.189680 0.653850
0.201828 0.193628 0.657798
0.294972 0.197781 0.661951
0.391001 0.202063 0.666233
0.489164 0.206440 0.670610
0.589030 0.210893 0.675062
0.690319 0.215409 0.679579
0.792831 0.219980 0.684149
0.871467 0.223486 0.687656
0.127253 0.292642 0.667821
0.215800 0.296591 0.671769
0.308944 0.300744 0.675922
0.404972 0.305025 0.680204
0.503135 0.309402 0.684581
0.603001 0.313855 0.689034
0.704290 0.318371 0.693550
0.806802 0.322942 0.698121
0.885438 0.326448 0.701627
0.141657 0.398794 0.682225
0.230203 0.402742 0.686173
0.323347 0.406895 0.690326
0.419376 0.411176 0.694608
0.517539 0.415553 0.698985
0.617405 0.420006 0.703437
0.718694 0.424522 0.707954
0.821206 0.429093 0.712524
0.899842 0.432599 0.716031
0.156381 0.507303 0.696949
0.244927 0.511251 0.700897
0.338071 0.515404 0.705050
0.434100 0.519686 0.709332
0.532263 0.524063 0.713709
0.632129 0.528516 0.718161
0.733417 0.533032 0.722678
0.835930 0.537603 0.727248
0.914566 0.541109 0.730755
0.171360 0.617696 0.711928
0.259907 0.621644 0.715876
0.353051 0.625797 0.720030
0.449080 0.630079 0.724311
0.547242 0.634456 0.728688
0.647108 0.638908 0.733141
0.748397 0.643425 0.737657
0.850909 0.647995 0.742228
0.929545 0.651501 0.745734
0.186553 0.729661 0.727121
0.275099 0.733609 0.731069
0.368244 0.737762 0.735222
0.464272 0.742044 0.739504
0.562435 0.746421 0.743881
0.662301 0.750873 0.748334
0.763590 0.755390 0.752850
0.866102 0.759960 0.757421
0.944738 0.763467 0.760927
0.201930 0.842979 0.742498
0.290476 0.846927 0.746446
0.383620 0.851080 0.750599
0.479649 0.855362 0.754880
0.577811 0.859739 0.759257
0.677677 0.864192 0.763710
0.778966 0.868708 0.768226
0.881479 0.873279 0.772797
0.960114 0.876785 0.776303
0.213725 0.929904 0.754293
0.302271 0.933852 0.758241
0.395415 0.938005 0.762394
0.491444 0.942286 0.766675
0.589606 0.946663 0.771052
0.689472 0.951116 0.775505
0.790761 0.955632 0.780021
0.893274 0.960203 0.784592
0.971909 0.963709 0.788098
0.101048 0.092848 0.707730
0.189595 0.096796 0.711678
0.282739 0.100949 0.715831
0.378768 0.105231 0.720113
0.476930 0.109608 0.724490
0.576796 0.114061 0.728943
0.678085 0.118577 0.733459
0.780597 0.123148 0.738030
0.859233 0.126654 0.741536
0.114330 0.190728 0.721012
0.202876 0.194676 0.724960
0.296020 0.198829 0.729113
0.392049 0.203111 0.733395
0.490212 0.207488 0.737771
0.590078 0.211941 0.742224
0.691366 0.216457 0.746740
0.793879 0.221027 0.751311
0.872515 0.224534 0.754817
0.128301 0.293690 0.734983
0.216847 0.297638 0.738931
0.309991 0.301791 0.743084
0.406020 0.306073 0.747366
0.504183 0.310450 0.751743
0.604049 0.314903 0.756195
0.705338 0.319419 0.760712
0.807850 0.323990 0.765282
0.886486 0.327496 0.768788
0.142705 0.399841 0.749387
0.231251 0.403789 0.753335
0.324395 0.407942 0.757488
0.420424 0.412224 0.761770
0.518587 0.416601 0.766146
0.618453 0.421054 0.770599
0.719741 0.425570 0.775115
0.822254 0.430141 0.779686
0.900890 0.433647 0.783192
0.157429 0.508351 0.764111
0.245975 0.512299 0.768059
0.339119 0.516452 0.772212
0.435148 0.520734 0.776494
0.533311 0.525111 0.780870
0.633177 0.529563 0.785323
0.734465 0.534080 0.789839
0.836978 0.538650 0.794410
0.915613 0.542157 0.797916
0.172408 0.618744 0.779090
0.260955 0.622692 0.783038
0.354099 0.626845 0.787191
0.450127 0.631127 0.791473
0.548290 0.635503 0.795850
0.648156 0.639956 0.800303
0.749445 0.644472 0.804819
0.851957 0.649043 0.809389
0.930593 0.652549 0.812896
0.187601 0.730709 0.794283
0.276147 0.734657 0.798231
0.369291 0.738810 0.802384
0.465320 0.743092 0.806666
0.563483 0.747469 0.811043
0.663349 0.751921 0.815495
0.764638 0.756438 0.820012
0.867150 0.761008 0.824582
0.945786 0.764514 0.828088
0.202977 0.844027 0.809659
0.291524 0.847975 0.813607
0.384668 0.852128 0.817760
0.480697 0.856410 0.822042
0.578859 0.860787 0.826419
0.678725 0.865239 0.830872
0.780014 0.869756 0.835388
0.882526 0.874326 0.839959
0.961162 0.877833 0.843465
0.214772 0.930951 0.821454
0.303319 0.934899 0.825402
0.396463 0.939053 0.829555
0.492492 0.943334 0.833837
0.590654 0.947711 0.838214
0.690520 0.952164 0.842667
0.791809 0.956680 0.847183
0.894321 0.961251 0.851754
0.972957 0.964757 0.855260
