library/cube/Portra_800_002.cube
# CINEGRADE LAB — Premium Cinematic LUT
# Title: Portra 800
# Category: Kodak Portra Emulation
# Description: Warm skin tones, soft contrast, film grain emulating Kodak Portra stocks
# Mood: Warm, filmic, timeless
# Variant: 3
# Generated: 2026-05-21T16:12:47.710800
TITLE "Portra 800"
LUT_3D_SIZE 9
0.095574 0.087674 0.061978
0.181683 0.092280 0.066584
0.272264 0.097125 0.071429
0.365649 0.102120 0.076425
0.461110 0.107227 0.081531
0.558228 0.112422 0.086726
0.656729 0.117691 0.091995
0.756420 0.123023 0.097327
0.832891 0.127114 0.101418
0.111069 0.184672 0.077473
0.197178 0.189278 0.082079
0.330779 0.208006 0.086924
0.431636 0.213101 0.091920
0.534734 0.218310 0.097026
0.639621 0.223608 0.102221
0.672224 0.214689 0.107490
0.771915 0.220021 0.112822
0.848386 0.224112 0.116913
0.127369 0.286707 0.093773
0.213478 0.291313 0.098379
0.304058 0.296158 0.103224
0.449240 0.317177 0.108219
0.552338 0.322385 0.113326
0.657224 0.327684 0.118521
0.763605 0.333058 0.123789
0.871272 0.338497 0.129122
0.953861 0.342670 0.133213
0.144173 0.391902 0.110577
0.230282 0.396508 0.115183
0.320863 0.401353 0.120029
0.414249 0.406349 0.125024
0.509710 0.411455 0.130130
0.675373 0.434983 0.135325
0.781754 0.440357 0.140594
0.889421 0.445796 0.145927
0.972010 0.449969 0.150017
0.161351 0.499435 0.127755
0.247460 0.504041 0.132361
0.338041 0.508886 0.137206
0.431427 0.513881 0.142202
0.526888 0.518988 0.147308
0.624005 0.524182 0.152503
0.800306 0.550040 0.157772
0.907973 0.555480 0.163104
0.990562 0.559652 0.167195
0.178827 0.608833 0.145231
0.264936 0.613439 0.149837
0.355517 0.618284 0.154682
0.448903 0.623280 0.159678
0.544364 0.628386 0.164784
0.641481 0.633581 0.169979
0.739982 0.638850 0.175248
0.926847 0.667066 0.180580
1.000000 0.671238 0.184671
0.196552 0.719790 0.162956
0.282661 0.724396 0.167562
0.373242 0.729241 0.172407
0.466628 0.734237 0.177403
0.562088 0.739343 0.182509
0.659206 0.744538 0.187704
0.757707 0.749807 0.192973
0.857398 0.755139 0.198305
0.933869 0.759230 0.202396
0.214491 0.832088 0.180895
0.300600 0.836694 0.185501
0.391181 0.841539 0.190346
0.484567 0.846534 0.195342
0.580028 0.851641 0.200448
0.677145 0.856835 0.205643
0.775646 0.862104 0.210912
0.875337 0.867437 0.216244
0.951808 0.871527 0.220335
0.228252 0.918229 0.194656
0.314361 0.922835 0.199262
0.404942 0.927681 0.204107
0.498327 0.932676 0.209103
0.593788 0.937782 0.214209
0.690906 0.942977 0.219404
0.789407 0.948246 0.224673
0.889098 0.953579 0.230005
0.965569 0.957669 0.234096
0.096950 0.089050 0.135077
0.183060 0.093656 0.139683
0.273640 0.098502 0.144529
0.367026 0.103497 0.149524
0.462487 0.108603 0.154630
0.559604 0.113798 0.159825
0.658105 0.119067 0.165094
0.757796 0.124400 0.170427
0.834268 0.128490 0.174517
0.112445 0.186049 0.150572
0.198555 0.190655 0.155178
0.289135 0.195500 0.160024
0.382521 0.200495 0.165019
0.477982 0.205602 0.170125
0.575099 0.210796 0.175320
0.673600 0.216065 0.180589
0.773291 0.221398 0.185922
0.849763 0.225488 0.190012
0.128745 0.288084 0.166872
0.214854 0.292690 0.171478
0.305435 0.297535 0.176323
0.450726 0.318581 0.181319
0.553824 0.323789 0.186425
0.658711 0.329088 0.191620
0.765092 0.334462 0.196889
0.789591 0.323433 0.202221
0.866062 0.327523 0.206312
0.145550 0.393279 0.183677
0.231659 0.397885 0.188283
0.322239 0.402730 0.193128
0.415625 0.407725 0.198123
0.571973 0.431088 0.203229
0.676860 0.436387 0.208424
0.783241 0.441761 0.213693
0.890907 0.447201 0.219026
0.973496 0.451373 0.223116
0.162728 0.500811 0.200854
0.248837 0.505417 0.205461
0.339417 0.510262 0.210306
0.432803 0.515258 0.215301
0.528264 0.520364 0.220407
0.625382 0.525559 0.225602
0.801793 0.551444 0.230871
0.909459 0.556884 0.236204
0.992048 0.561056 0.240294
0.180204 0.610210 0.218330
0.266313 0.614816 0.222937
0.356893 0.619661 0.227782
0.450279 0.624656 0.232777
0.545740 0.629763 0.237883
0.642858 0.634958 0.243078
0.741358 0.640226 0.248347
0.928333 0.668470 0.253680
1.000000 0.672642 0.257770
0.197928 0.721167 0.236055
0.284038 0.725773 0.240661
0.374618 0.730618 0.245507
0.468004 0.735613 0.250502
0.563465 0.740719 0.255608
0.660582 0.745914 0.260803
0.759083 0.751183 0.266072
0.858774 0.756516 0.271405
1.000000 0.785818 0.275495
0.215868 0.833464 0.253994
0.301977 0.838070 0.258601
0.392557 0.842916 0.263446
0.485943 0.847911 0.268441
0.581404 0.853017 0.273547
0.678522 0.858212 0.278742
0.777022 0.863481 0.284011
0.876713 0.868813 0.289344
0.953185 0.872904 0.293434
0.229628 0.919606 0.267755
0.315738 0.924212 0.272361
0.406318 0.929057 0.277207
0.499704 0.934052 0.282202
0.595165 0.939159 0.287308
0.692282 0.944354 0.292503
0.790783 0.949622 0.297772
0.890474 0.954955 0.303105
0.966946 0.959046 0.307195
0.098398 0.090498 0.211972
0.184508 0.095104 0.216578
0.275088 0.099950 0.221424
0.368474 0.104945 0.226419
0.463935 0.110051 0.231525
0.561052 0.115246 0.236720
0.659553 0.120515 0.241989
0.759244 0.125848 0.247322
0.835716 0.129938 0.251412
0.113893 0.187497 0.227467
0.200003 0.192103 0.232073
0.290583 0.196948 0.236919
0.383969 0.201943 0.241914
0.479430 0.207050 0.247020
0.576547 0.212244 0.252215
0.675048 0.217513 0.257484
0.774739 0.222846 0.262817
0.851211 0.226936 0.266907
0.130193 0.289532 0.243767
0.216302 0.294138 0.248373
0.306883 0.298983 0.253218
0.400269 0.303978 0.258214
0.495730 0.309084 0.263320
0.592847 0.314279 0.268515
0.691348 0.319548 0.273784
0.791039 0.324881 0.279116
0.867510 0.328971 0.283207
0.146998 0.394727 0.260572
0.233107 0.399333 0.265178
0.323687 0.404178 0.270023
0.417073 0.409173 0.275018
0.573537 0.432565 0.280124
0.678424 0.437864 0.285319
0.784805 0.443238 0.290588
0.892471 0.448677 0.295921
0.884315 0.434166 0.300011
0.164176 0.502259 0.277749
0.250285 0.506865 0.282356
0.340865 0.511710 0.287201
0.434251 0.516706 0.292196
0.529712 0.521812 0.297302
0.696976 0.547547 0.302497
0.803357 0.552921 0.307766
0.911023 0.558361 0.313099
0.993612 0.562533 0.317189
0.181652 0.611658 0.295225
0.267761 0.616264 0.299832
0.358341 0.621109 0.304677
0.451727 0.626104 0.309672
0.547188 0.631211 0.314778
0.644306 0.636406 0.319973
0.742806 0.641674 0.325242
0.929897 0.669947 0.330575
1.000000 0.674119 0.334665
0.199376 0.722615 0.312950
0.285486 0.727221 0.317556
0.376066 0.732066 0.322402
0.469452 0.737061 0.327397
0.564913 0.742167 0.332503
0.662030 0.747362 0.337698
0.760531 0.752631 0.342967
0.860222 0.757964 0.348300
1.000000 0.787295 0.352390
0.217316 0.834912 0.330890
0.303425 0.839518 0.335496
0.394005 0.844364 0.340341
0.487391 0.849359 0.345336
0.582852 0.854465 0.350442
0.679970 0.859660 0.355637
0.778470 0.864929 0.360906
0.878162 0.870262 0.366239
0.954633 0.874352 0.370329
0.231076 0.921054 0.344650
0.317186 0.925660 0.349256
0.407766 0.930505 0.354102
0.501152 0.935500 0.359097
0.596613 0.940607 0.364203
0.693730 0.945802 0.369398
0.792231 0.951070 0.374667
0.891922 0.956403 0.380000
0.968394 0.960494 0.384090
0.099891 0.091991 0.291249
0.186000 0.096597 0.295855
0.276581 0.101443 0.300700
0.369967 0.106438 0.305695
0.465428 0.111544 0.310802
0.562545 0.116739 0.315997
0.661046 0.122008 0.321266
0.760737 0.127341 0.326598
0.837208 0.131431 0.330689
0.115386 0.188990 0.306744
0.201496 0.193596 0.311350
0.292076 0.198441 0.316195
0.385462 0.203436 0.321191
0.480923 0.208542 0.326297
0.578040 0.213737 0.331492
0.676541 0.219006 0.336761
0.776232 0.224339 0.342093
0.852704 0.228429 0.346184
0.131686 0.291024 0.323044
0.217795 0.295631 0.327650
0.308376 0.300476 0.332495
0.401762 0.305471 0.337490
0.497223 0.310577 0.342597
0.594340 0.315772 0.347791
0.692841 0.321041 0.353060
0.792532 0.326374 0.358393
0.869003 0.330464 0.362483
0.148491 0.396220 0.339848
0.234600 0.400826 0.344454
0.325180 0.405671 0.349299
0.418566 0.410666 0.354295
0.514027 0.415772 0.359401
0.611144 0.420967 0.364596
0.709645 0.426236 0.369865
0.809336 0.431569 0.375197
0.885808 0.435659 0.379288
0.165668 0.503752 0.357026
0.251778 0.508358 0.361632
0.342358 0.513203 0.366477
0.435744 0.518199 0.371473
0.531205 0.523305 0.376579
0.698588 0.549070 0.381774
0.804969 0.554444 0.387043
0.912635 0.559883 0.392375
0.995224 0.564056 0.396466
0.183144 0.613151 0.374502
0.269254 0.617757 0.379108
0.359834 0.622602 0.383953
0.453220 0.627597 0.388949
0.548681 0.632703 0.394055
0.645798 0.637898 0.399250
0.823843 0.666031 0.404519
0.931510 0.671470 0.409851
1.000000 0.675642 0.413942
0.200869 0.724107 0.392227
0.286979 0.728714 0.396833
0.377559 0.733559 0.401678
0.470945 0.738554 0.406674
0.566406 0.743660 0.411780
0.663523 0.748855 0.416975
0.762024 0.754124 0.422244
0.861715 0.759457 0.427576
1.000000 0.788818 0.431667
0.218808 0.836405 0.410166
0.304918 0.841011 0.414772
0.395498 0.845856 0.419617
0.488884 0.850852 0.424613
0.584345 0.855958 0.429719
0.681462 0.861153 0.434914
0.779963 0.866422 0.440183
0.879654 0.871754 0.445515
0.956126 0.875845 0.449606
0.232569 0.922547 0.423927
0.318678 0.927153 0.428533
0.409259 0.931998 0.433378
0.502645 0.936993 0.438373
0.598106 0.942100 0.443480
0.695223 0.947294 0.448675
0.793724 0.952563 0.453944
0.893415 0.957896 0.459276
0.969886 0.961986 0.463367
0.101417 0.093517 0.372287
0.187527 0.098123 0.376893
0.278107 0.102969 0.381738
0.371493 0.107964 0.386734
0.466954 0.113070 0.391840
0.564071 0.118265 0.397035
0.662572 0.123534 0.402304
0.762263 0.128867 0.407636
0.838734 0.132957 0.411727
0.116912 0.190516 0.387782
0.203022 0.195122 0.392388
0.293602 0.199967 0.397233
0.386988 0.204962 0.402229
0.482449 0.210068 0.407335
0.579566 0.215263 0.412530
0.678067 0.220532 0.417799
0.777758 0.225865 0.423131
0.854230 0.229955 0.427222
0.133212 0.292550 0.404082
0.219321 0.297157 0.408688
0.309902 0.302002 0.413533
0.403288 0.306997 0.418528
0.498749 0.312103 0.423635
0.595866 0.317298 0.428830
0.694367 0.322567 0.434098
0.794058 0.327900 0.439431
0.870529 0.331990 0.443522
0.150017 0.397746 0.420886
0.236126 0.402352 0.425492
0.326706 0.407197 0.430338
0.420092 0.412192 0.435333
0.515553 0.417298 0.440439
0.612671 0.422493 0.445634
0.711171 0.427762 0.450903
0.810862 0.433095 0.456235
0.887334 0.437185 0.460326
0.167194 0.505278 0.438064
0.253304 0.509884 0.442670
0.343884 0.514729 0.447515
0.437270 0.519725 0.452511
0.532731 0.524831 0.457617
0.629848 0.530026 0.462812
0.728349 0.535295 0.468081
0.828040 0.540627 0.473413
0.904512 0.544718 0.477504
0.184670 0.614677 0.455540
0.270780 0.619283 0.460146
0.361360 0.624128 0.464991
0.454746 0.629123 0.469987
0.550207 0.634229 0.475093
0.647324 0.639424 0.480288
0.825491 0.667587 0.485557
0.933158 0.673026 0.490889
1.000000 0.677199 0.494980
0.202395 0.725633 0.473265
0.288505 0.730240 0.477871
0.379085 0.735085 0.482716
0.472471 0.740080 0.487712
0.567932 0.745186 0.492818
0.665049 0.750381 0.498013
0.763550 0.755650 0.503282
0.952301 0.786202 0.508614
1.000000 0.790375 0.512705
0.220334 0.837931 0.491204
0.306444 0.842537 0.495810
0.397024 0.847382 0.500655
0.490410 0.852378 0.505651
0.585871 0.857484 0.510757
0.682988 0.862679 0.515952
0.781489 0.867948 0.521221
0.881180 0.873280 0.526553
0.957652 0.877371 0.530644
0.234095 0.924073 0.504965
0.320205 0.928679 0.509571
0.410785 0.933524 0.514416
0.504171 0.938519 0.519412
0.599632 0.943626 0.524518
0.696749 0.948820 0.529713
0.795250 0.954089 0.534982
0.894941 0.959422 0.540314
0.971412 0.963512 0.544405
0.102970 0.095070 0.454731
0.189079 0.099676 0.459337
0.279660 0.104521 0.464183
0.373045 0.109516 0.469178
0.468506 0.114623 0.474284
0.565624 0.119818 0.479479
0.664125 0.125086 0.484748
0.763816 0.130419 0.490081
0.840287 0.134510 0.494171
0.118465 0.192068 0.470226
0.204574 0.196674 0.474832
0.295155 0.201519 0.479678
0.388540 0.206515 0.484673
0.484001 0.211621 0.489779
0.581119 0.216816 0.494974
0.679620 0.222085 0.500243
0.779311 0.227417 0.505576
0.855782 0.231508 0.509666
0.134765 0.294103 0.486526
0.220874 0.298709 0.491132
0.311454 0.303554 0.495977
0.404840 0.308550 0.500973
0.500301 0.313656 0.506079
0.597419 0.318851 0.511274
0.695919 0.324120 0.516543
0.795610 0.329452 0.521875
0.872082 0.333543 0.525966
0.151569 0.399298 0.503331
0.237678 0.403904 0.507937
0.328259 0.408749 0.512782
0.421645 0.413745 0.517777
0.517106 0.418851 0.522883
0.614223 0.424046 0.528078
0.712724 0.429315 0.533347
0.812415 0.434647 0.538680
0.888886 0.438738 0.542770
0.168747 0.506831 0.520508
0.254856 0.511437 0.525115
0.345437 0.516282 0.529960
0.438823 0.521277 0.534955
0.534283 0.526383 0.540061
0.631401 0.531578 0.545256
0.729902 0.536847 0.550525
0.829593 0.542180 0.555858
0.906064 0.546270 0.559948
0.186223 0.616229 0.537984
0.272332 0.620835 0.542591
0.362913 0.625680 0.547436
0.456299 0.630676 0.552431
0.551759 0.635782 0.557537
0.648877 0.640977 0.562732
0.747378 0.646246 0.568001
0.847069 0.651578 0.573334
0.923540 0.655669 0.577424
0.203948 0.727186 0.555709
0.290057 0.731792 0.560315
0.380638 0.736637 0.565161
0.474023 0.741633 0.570156
0.569484 0.746739 0.575262
0.666602 0.751934 0.580457
0.765103 0.757203 0.585726
0.953977 0.787786 0.591059
1.000000 0.791958 0.595149
0.221887 0.839484 0.573649
0.307996 0.844090 0.578255
0.398577 0.848935 0.583100
0.491963 0.853930 0.588095
0.587423 0.859037 0.593201
0.684541 0.864231 0.598396
0.783042 0.869500 0.603665
0.882733 0.874833 0.608998
1.000000 0.906502 0.613088
0.235648 0.925625 0.587409
0.321757 0.930231 0.592015
0.412338 0.935076 0.596861
0.505723 0.940072 0.601856
0.601184 0.945178 0.606962
0.698302 0.950373 0.612157
0.796803 0.955642 0.617426
0.896494 0.960974 0.622759
0.972965 0.965065 0.626849
0.104544 0.096644 0.538350
0.190654 0.101250 0.542956
0.281234 0.106096 0.547801
0.374620 0.111091 0.552797
0.470081 0.116197 0.557903
0.567198 0.121392 0.563098
0.665699 0.126661 0.568367
0.765390 0.131994 0.573699
0.841862 0.136084 0.577790
0.120040 0.193643 0.553845
0.206149 0.198249 0.558451
0.296729 0.203094 0.563296
0.390115 0.208089 0.568292
0.485576 0.213196 0.573398
0.582693 0.218390 0.578593
0.681194 0.223659 0.583862
0.780885 0.228992 0.589194
0.857357 0.233082 0.593285
0.136339 0.295678 0.570145
0.222448 0.300284 0.574751
0.313029 0.305129 0.579596
0.406415 0.310124 0.584591
0.501876 0.315231 0.589698
0.598993 0.320425 0.594893
0.697494 0.325694 0.600162
0.797185 0.331027 0.605494
0.873656 0.335117 0.609585
0.153144 0.400873 0.586949
0.239253 0.405479 0.591555
0.329833 0.410324 0.596401
0.423219 0.415319 0.601396
0.518680 0.420426 0.606502
0.615798 0.425621 0.611697
0.714298 0.430889 0.616966
0.813990 0.436222 0.622299
0.890461 0.440313 0.626389
0.170322 0.508405 0.604127
0.256431 0.513011 0.608733
0.347011 0.517856 0.613579
0.440397 0.522852 0.618574
0.535858 0.527958 0.623680
0.632976 0.533153 0.628875
0.731476 0.538422 0.634144
0.831167 0.543754 0.639476
0.907639 0.547845 0.643567
0.187798 0.617804 0.621603
0.273907 0.622410 0.626209
0.364487 0.627255 0.631054
0.457873 0.632250 0.636050
0.553334 0.637357 0.641156
0.650452 0.642552 0.646351
0.748952 0.647820 0.651620
0.848643 0.653153 0.656952
0.925115 0.657244 0.661043
0.205523 0.728761 0.639328
0.291632 0.733367 0.643934
0.382212 0.738212 0.648779
0.475598 0.743207 0.653775
0.571059 0.748313 0.658881
0.668176 0.753508 0.664076
0.766677 0.758777 0.669345
0.866368 0.764110 0.674677
0.942840 0.768200 0.678768
0.223462 0.841058 0.657267
0.309571 0.845664 0.661873
0.400151 0.850510 0.666719
0.493537 0.855505 0.671714
0.588998 0.860611 0.676820
0.686116 0.865806 0.682015
0.784616 0.871075 0.687284
0.884308 0.876408 0.692617
1.000000 0.908108 0.696707
0.237222 0.927200 0.671028
0.323332 0.931806 0.675634
0.413912 0.936651 0.680479
0.507298 0.941646 0.685475
0.602759 0.946753 0.690581
0.699876 0.951948 0.695776
0.798377 0.957217 0.701045
0.898068 0.962549 0.706377
0.974540 0.966640 0.710468
0.106138 0.098238 0.622979
0.192247 0.102844 0.627585
0.282828 0.107689 0.632430
0.376214 0.112685 0.637426
0.471675 0.117791 0.642532
0.568792 0.122986 0.647727
0.667293 0.128255 0.652996
0.766984 0.133587 0.658328
0.843455 0.137678 0.662419
0.121633 0.195236 0.638474
0.207742 0.199842 0.643080
0.298323 0.204688 0.647926
0.391709 0.209683 0.652921
0.487170 0.214789 0.658027
0.584287 0.219984 0.663222
0.682788 0.225253 0.668491
0.782479 0.230586 0.673824
0.858950 0.234676 0.677914
0.137933 0.297271 0.654774
0.224042 0.301877 0.659380
0.314623 0.306723 0.664225
0.408008 0.311718 0.669221
0.503469 0.316824 0.674327
0.600587 0.322019 0.679522
0.699088 0.327288 0.684791
0.798779 0.332621 0.690123
0.875250 0.336711 0.694214
0.154737 0.402466 0.671578
0.240847 0.407072 0.676185
0.331427 0.411918 0.681030
0.424813 0.416913 0.686025
0.520274 0.422019 0.691131
0.617391 0.427214 0.696326
0.715892 0.432483 0.701595
0.815583 0.437816 0.706928
0.892055 0.441906 0.711018
0.171915 0.509999 0.688756
0.258024 0.514605 0.693362
0.348605 0.519450 0.698208
0.441991 0.524445 0.703203
0.537452 0.529552 0.708309
0.634569 0.534747 0.713504
0.733070 0.540016 0.718773
0.832761 0.545348 0.724106
0.909232 0.549439 0.728196
0.189391 0.619397 0.706232
0.275500 0.624003 0.710838
0.366081 0.628849 0.715684
0.459467 0.633844 0.720679
0.554928 0.638950 0.725785
0.652045 0.644145 0.730980
0.750546 0.649414 0.736249
0.850237 0.654747 0.741582
0.926708 0.658837 0.745672
0.207116 0.730354 0.723957
0.293225 0.734960 0.728563
0.383806 0.739806 0.733409
0.477192 0.744801 0.738404
0.572653 0.749907 0.743510
0.669770 0.755102 0.748705
0.768271 0.760371 0.753974
0.867962 0.765704 0.759307
0.944433 0.769794 0.763397
0.225055 0.842652 0.741896
0.311165 0.847258 0.746502
0.401745 0.852103 0.751348
0.495131 0.857099 0.756343
0.590592 0.862205 0.761449
0.687709 0.867400 0.766644
0.786210 0.872669 0.771913
0.885901 0.878001 0.777246
0.962372 0.882092 0.781336
0.238816 0.928793 0.755657
0.324925 0.933400 0.760263
0.415506 0.938245 0.765108
0.508892 0.943240 0.770104
0.604353 0.948346 0.775210
0.701470 0.953541 0.780405
0.799971 0.958810 0.785674
0.899662 0.964143 0.791006
0.976133 0.968233 0.795097
0.107361 0.099461 0.687897
0.193470 0.104067 0.692503
0.284050 0.108912 0.697348
0.377436 0.113907 0.702343
0.472897 0.119013 0.707450
0.570014 0.124208 0.712645
0.668515 0.129477 0.717913
0.768206 0.134810 0.723246
0.844678 0.138900 0.727337
0.122856 0.196459 0.703392
0.208965 0.201065 0.707998
0.299545 0.205910 0.712843
0.392931 0.210905 0.717838
0.488392 0.216012 0.722945
0.585510 0.221207 0.728140
0.684010 0.226475 0.733409
0.783702 0.231808 0.738741
0.860173 0.235899 0.742832
0.139155 0.298494 0.719692
0.225265 0.303100 0.724298
0.315845 0.307945 0.729143
0.409231 0.312940 0.734138
0.504692 0.318047 0.739244
0.601809 0.323242 0.744439
0.700310 0.328510 0.749708
0.800001 0.333843 0.755041
0.876473 0.337934 0.759131
0.155960 0.403689 0.736496
0.242069 0.408295 0.741102
0.332650 0.413140 0.745947
0.426035 0.418135 0.750943
0.521496 0.423242 0.756049
0.618614 0.428437 0.761244
0.717115 0.433706 0.766513
0.816806 0.439038 0.771845
0.893277 0.443129 0.775936
0.173138 0.511221 0.753674
0.259247 0.515827 0.758280
0.349827 0.520673 0.763125
0.443213 0.525668 0.768121
0.538674 0.530774 0.773227
0.635792 0.535969 0.778422
0.734293 0.541238 0.783691
0.833984 0.546571 0.789023
0.910455 0.550661 0.793114
0.190614 0.620620 0.771150
0.276723 0.625226 0.775756
0.367303 0.630071 0.780601
0.460689 0.635066 0.785597
0.556150 0.640173 0.790703
0.653268 0.645368 0.795898
0.751768 0.650637 0.801167
0.851460 0.655969 0.806499
0.927931 0.660060 0.810590
0.208339 0.731577 0.788875
0.294448 0.736183 0.793481
0.385028 0.741028 0.798326
0.478414 0.746023 0.803321
0.573875 0.751130 0.808428
0.670993 0.756325 0.813623
0.769493 0.761593 0.818892
0.869185 0.766926 0.824224
0.945656 0.771017 0.828315
0.226278 0.843874 0.806814
0.312387 0.848480 0.811420
0.402967 0.853326 0.816265
0.496353 0.858321 0.821261
0.591814 0.863427 0.826367
0.688932 0.868622 0.831562
0.787433 0.873891 0.836831
0.887124 0.879224 0.842163
0.963595 0.883314 0.846254
0.240039 0.930016 0.820575
0.326148 0.934622 0.825181
0.416728 0.939467 0.830026
0.510114 0.944463 0.835021
0.605575 0.949569 0.840128
0.702692 0.954764 0.845323
0.801193 0.960033 0.850591
0.900884 0.965365 0.855924
0.977356 0.969456 0.860015
