library/cube/Portra_Skin_004.cube
# CINEGRADE LAB — Premium Cinematic LUT
# Title: Portra Skin
# Category: Kodak Portra Emulation
# Description: Warm skin tones, soft contrast, film grain emulating Kodak Portra stocks
# Mood: Warm, filmic, timeless
# Variant: 5
# Generated: 2026-05-21T16:12:48.577373
TITLE "Portra Skin"
LUT_3D_SIZE 5
0.100181 0.092581 0.064060
0.271870 0.103382 0.074862
0.455372 0.114927 0.086407
0.645454 0.126885 0.098365
0.816630 0.137655 0.109134
0.136517 0.289805 0.100397
0.308207 0.300607 0.111199
0.560879 0.328394 0.122743
0.769970 0.340592 0.134702
0.958264 0.351577 0.145471
0.175354 0.500599 0.139234
0.347044 0.511401 0.150036
0.530546 0.522946 0.161581
0.812690 0.555602 0.173539
1.000000 0.566587 0.184308
0.215584 0.718952 0.179464
0.387273 0.729754 0.190265
0.570775 0.741299 0.201810
0.760857 0.753257 0.213769
0.932034 0.764026 0.224538
0.251813 0.915588 0.215692
0.423502 0.926390 0.226494
0.607004 0.937934 0.238039
0.797086 0.949893 0.249997
0.968262 0.960662 0.260766
0.103409 0.095809 0.208870
0.275098 0.106610 0.219671
0.458600 0.118155 0.231216
0.648682 0.130113 0.243174
0.819858 0.140883 0.253944
0.139745 0.293033 0.245206
0.311435 0.303835 0.256008
0.494937 0.315379 0.267553
0.685019 0.327338 0.279511
0.856195 0.338107 0.290281
0.178583 0.503827 0.284043
0.350272 0.514629 0.294845
0.533774 0.526174 0.306390
0.816241 0.558895 0.318348
1.000000 0.569880 0.329118
0.218812 0.722180 0.324273
0.390501 0.732982 0.335075
0.574003 0.744527 0.346619
0.764085 0.756485 0.358578
1.000000 0.792600 0.369347
0.255041 0.918816 0.360502
0.426730 0.929618 0.371303
0.610232 0.941162 0.382848
0.800314 0.953121 0.394806
0.971490 0.963890 0.405576
0.106859 0.099259 0.363642
0.278548 0.110060 0.374444
0.462050 0.121605 0.385988
0.652132 0.133564 0.397947
0.823309 0.144333 0.408716
0.143196 0.296483 0.399979
0.314885 0.307285 0.410781
0.498387 0.318829 0.422325
0.688469 0.330788 0.434284
0.859645 0.341557 0.445053
0.182033 0.507278 0.438816
0.353722 0.518079 0.449618
0.537224 0.529624 0.461162
0.727306 0.541582 0.473121
0.898482 0.552352 0.483890
0.222262 0.725631 0.479046
0.393951 0.736432 0.489847
0.577453 0.747977 0.501392
0.767535 0.759935 0.513351
1.000000 0.796119 0.524120
0.258491 0.922266 0.515274
0.430180 0.933068 0.526076
0.613682 0.944613 0.537620
0.803764 0.956571 0.549579
0.974941 0.967341 0.560348
0.110433 0.102833 0.523965
0.282122 0.113634 0.534766
0.465624 0.125179 0.546311
0.655706 0.137137 0.558269
0.826882 0.147907 0.569039
0.146770 0.300057 0.560301
0.318459 0.310859 0.571103
0.501961 0.322403 0.582648
0.692043 0.334362 0.594606
0.863219 0.345131 0.605376
0.185607 0.510852 0.599139
0.357296 0.521653 0.609940
0.540798 0.533198 0.621485
0.730880 0.545156 0.633443
0.902056 0.555926 0.644213
0.225836 0.729204 0.639368
0.397525 0.740006 0.650170
0.581027 0.751551 0.661714
0.771109 0.763509 0.673673
0.942286 0.774278 0.684442
0.262065 0.925840 0.675597
0.433754 0.936642 0.686398
0.617256 0.948186 0.697943
0.807338 0.960145 0.709901
0.978514 0.970914 0.720671
0.113651 0.106051 0.668342
0.285340 0.116853 0.679143
0.468842 0.128397 0.690688
0.658924 0.140356 0.702646
0.830101 0.151125 0.713416
0.149988 0.303276 0.704678
0.321677 0.314077 0.715480
0.505179 0.325622 0.727025
0.695261 0.337580 0.738983
0.866438 0.348350 0.749753
0.188825 0.514070 0.743515
0.360514 0.524871 0.754317
0.544016 0.536416 0.765862
0.734098 0.548375 0.777820
0.905275 0.559144 0.788590
0.229055 0.732423 0.783745
0.400744 0.743224 0.794547
0.584246 0.754769 0.806091
0.774328 0.766728 0.818050
0.945504 0.777497 0.828819
0.265283 0.929059 0.819974
0.436972 0.939860 0.830775
0.620474 0.951405 0.842320
0.810556 0.963364 0.854278
0.981733 0.974133 0.865048
