library/cube/Portra_400_001.cube
# CINEGRADE LAB — Premium Cinematic LUT
# Title: Portra 400
# Category: Kodak Portra Emulation
# Description: Warm skin tones, soft contrast, film grain emulating Kodak Portra stocks
# Mood: Warm, filmic, timeless
# Variant: 2
# Generated: 2026-05-21T16:12:47.278690
TITLE "Portra 400"
LUT_3D_SIZE 5
0.093262 0.085212 0.061041
0.272452 0.093989 0.069817
0.463972 0.103369 0.079197
0.662358 0.113085 0.088914
0.841013 0.121835 0.097664
0.122786 0.285150 0.090565
0.301976 0.293926 0.099341
0.548040 0.319372 0.108721
0.760313 0.329283 0.118437
0.951475 0.338208 0.127187
0.154341 0.498844 0.122120
0.333531 0.507620 0.130896
0.525050 0.517000 0.140276
0.794077 0.547251 0.149993
0.985239 0.556176 0.158743
0.187028 0.720201 0.154806
0.366218 0.728977 0.163583
0.557737 0.738357 0.172963
0.756123 0.748073 0.182679
0.934779 0.756823 0.191429
0.216463 0.919542 0.184242
0.395653 0.928318 0.193018
0.587173 0.937698 0.202398
0.785559 0.947414 0.212115
0.964214 0.956164 0.220865
0.095885 0.087835 0.213628
0.275075 0.096611 0.222404
0.466594 0.105991 0.231784
0.664981 0.115708 0.241501
0.843636 0.124458 0.250251
0.125409 0.287773 0.243152
0.304599 0.296549 0.251928
0.496118 0.305929 0.261308
0.694505 0.315645 0.271024
0.873160 0.324395 0.279774
0.156964 0.501467 0.274707
0.336154 0.510243 0.283483
0.527673 0.519623 0.292863
0.796884 0.549926 0.302580
0.988045 0.558851 0.311330
0.189651 0.722824 0.307393
0.368841 0.731600 0.316170
0.560360 0.740980 0.325550
0.758746 0.750696 0.335266
1.000000 0.784635 0.344016
0.219086 0.922164 0.336829
0.398276 0.930941 0.345605
0.589795 0.940321 0.354985
0.788182 0.950037 0.364702
0.966837 0.958787 0.373452
0.098688 0.090638 0.376714
0.277878 0.099415 0.385490
0.469398 0.108795 0.394870
0.667784 0.118511 0.404586
0.846439 0.127261 0.413336
0.128212 0.290576 0.406237
0.307402 0.299352 0.415014
0.498921 0.308732 0.424394
0.697308 0.318449 0.434110
0.875963 0.327199 0.442860
0.159767 0.504270 0.437792
0.338957 0.513046 0.446569
0.530476 0.522426 0.455949
0.728863 0.532143 0.465665
0.907518 0.540893 0.474415
0.192454 0.725627 0.470479
0.371644 0.734403 0.479255
0.563163 0.743783 0.488635
0.761549 0.753499 0.498352
1.000000 0.787494 0.507102
0.221889 0.924968 0.499915
0.401079 0.933744 0.508691
0.592599 0.943124 0.518071
0.790985 0.952840 0.527787
0.969640 0.961590 0.536537
0.101592 0.093542 0.545647
0.280782 0.102318 0.554423
0.472301 0.111698 0.563803
0.670688 0.121415 0.573520
0.849343 0.130165 0.582270
0.131116 0.293480 0.575171
0.310306 0.302256 0.583947
0.501825 0.311636 0.593327
0.700212 0.321352 0.603043
0.878867 0.330102 0.611794
0.162671 0.507174 0.606726
0.341861 0.515950 0.615502
0.533380 0.525330 0.624882
0.731767 0.535047 0.634599
0.910422 0.543797 0.643349
0.195358 0.728531 0.639412
0.374548 0.737307 0.648189
0.566067 0.746687 0.657569
0.764453 0.756403 0.667285
0.943108 0.765153 0.676035
0.224793 0.927871 0.668848
0.403983 0.936648 0.677624
0.595502 0.946028 0.687004
0.793889 0.955744 0.696721
0.972544 0.964494 0.705471
0.104207 0.096157 0.697779
0.283397 0.104933 0.706555
0.474916 0.114313 0.715935
0.673303 0.124030 0.725651
0.851958 0.132780 0.734401
0.133731 0.296095 0.727302
0.312921 0.304871 0.736079
0.504440 0.314251 0.745459
0.702827 0.323967 0.755175
0.881482 0.332717 0.763925
0.165286 0.509789 0.758858
0.344476 0.518565 0.767634
0.535995 0.527945 0.777014
0.734382 0.537662 0.786730
0.913037 0.546412 0.795480
0.197973 0.731146 0.791544
0.377163 0.739922 0.800320
0.568682 0.749302 0.809700
0.767068 0.759018 0.819417
0.945723 0.767768 0.828167
0.227408 0.930486 0.820980
0.406598 0.939263 0.829756
0.598117 0.948643 0.839136
0.796504 0.958359 0.848852
0.975159 0.967109 0.857602
