library/cube/Portra_Warm_003.cube
# CINEGRADE LAB — Premium Cinematic LUT
# Title: Portra Warm
# Category: Kodak Portra Emulation
# Description: Warm skin tones, soft contrast, film grain emulating Kodak Portra stocks
# Mood: Warm, filmic, timeless
# Variant: 4
# Generated: 2026-05-21T16:12:48.144662
TITLE "Portra Warm"
LUT_3D_SIZE 5
0.097880 0.090130 0.062984
0.272069 0.100256 0.073111
0.458244 0.111079 0.083934
0.651094 0.122291 0.095145
0.824763 0.132387 0.105241
0.131946 0.288259 0.097050
0.306135 0.298385 0.107177
0.556617 0.325392 0.118000
0.766824 0.336828 0.129211
0.956124 0.347126 0.139307
0.168355 0.500020 0.133460
0.342545 0.510146 0.143586
0.528719 0.520969 0.154409
0.806511 0.552824 0.165621
0.995810 0.563122 0.175717
0.206071 0.719374 0.171175
0.380260 0.729500 0.181302
0.566435 0.740323 0.192125
0.759285 0.751535 0.203336
0.932954 0.761631 0.213432
0.240035 0.916911 0.205139
0.414224 0.927038 0.215266
0.600399 0.937861 0.226089
0.793249 0.949072 0.237300
0.966918 0.959168 0.247396
0.100906 0.093156 0.210386
0.275096 0.103283 0.220513
0.461270 0.114106 0.231336
0.654120 0.125317 0.242547
0.827790 0.135413 0.252643
0.134972 0.291285 0.244452
0.309161 0.301411 0.254578
0.495336 0.312235 0.265402
0.688186 0.323446 0.276613
0.861856 0.333542 0.286709
0.171382 0.503046 0.280862
0.345571 0.513172 0.290988
0.531746 0.523996 0.301811
0.809809 0.555911 0.313022
0.999109 0.566209 0.323119
0.209097 0.722400 0.318577
0.383286 0.732527 0.328703
0.569461 0.743350 0.339526
0.762311 0.754561 0.350738
1.000000 0.789950 0.360834
0.243061 0.919938 0.352541
0.417251 0.930064 0.362668
0.603425 0.940887 0.373491
0.796275 0.952099 0.384702
0.969945 0.962195 0.394798
0.104141 0.096391 0.367930
0.278330 0.106517 0.378056
0.464505 0.117340 0.388879
0.657355 0.128551 0.400091
0.831024 0.138648 0.410187
0.138207 0.294520 0.401996
0.312396 0.304646 0.412122
0.498570 0.315469 0.422945
0.691420 0.326680 0.434156
0.865090 0.336776 0.444253
0.174616 0.506281 0.438405
0.348806 0.516407 0.448532
0.534980 0.527230 0.459355
0.727830 0.538441 0.470566
0.901500 0.548537 0.480662
0.212332 0.725635 0.476121
0.386521 0.735761 0.486247
0.572695 0.746584 0.497070
0.765545 0.757795 0.508281
1.000000 0.793249 0.518378
0.246296 0.923172 0.510085
0.420485 0.933299 0.520211
0.606660 0.944122 0.531034
0.799510 0.955333 0.542246
0.973179 0.965429 0.552342
0.107491 0.099741 0.531123
0.281681 0.109868 0.541249
0.467855 0.120691 0.552072
0.660705 0.131902 0.563283
0.834375 0.141998 0.573379
0.141557 0.297870 0.565188
0.315746 0.307996 0.575315
0.501921 0.318820 0.586138
0.694771 0.330031 0.597349
0.868441 0.340127 0.607445
0.177967 0.509631 0.601598
0.352156 0.519757 0.611724
0.538331 0.530581 0.622548
0.731181 0.541792 0.633759
0.904850 0.551888 0.643855
0.215682 0.728985 0.639313
0.389871 0.739112 0.649440
0.576046 0.749935 0.660263
0.768896 0.761146 0.671474
0.942566 0.771242 0.681570
0.249646 0.926523 0.673278
0.423836 0.936649 0.683404
0.610010 0.947472 0.694227
0.802860 0.958684 0.705438
0.976530 0.968780 0.715534
0.110508 0.102758 0.678084
0.284698 0.112885 0.688211
0.470872 0.123708 0.699034
0.663722 0.134919 0.710245
0.837392 0.145015 0.720341
0.144574 0.300887 0.712150
0.318764 0.311014 0.722277
0.504938 0.321837 0.733100
0.697788 0.333048 0.744311
0.871458 0.343144 0.754407
0.180984 0.512648 0.748560
0.355173 0.522775 0.758686
0.541348 0.533598 0.769509
0.734198 0.544809 0.780721
0.907868 0.554905 0.790817
0.218699 0.732002 0.786275
0.392889 0.742129 0.796402
0.579063 0.752952 0.807225
0.771913 0.764163 0.818436
0.945583 0.774259 0.828532
0.252663 0.929540 0.820239
0.426853 0.939666 0.830366
0.613027 0.950490 0.841189
0.805877 0.961701 0.852400
0.979547 0.971797 0.862496
