library/cube/Portra_Skin_004.cube
# CINEGRADE LAB — Premium Cinematic LUT
# Title: Portra Skin
# Category: Kodak Portra Emulation
# Description: Warm skin tones, soft contrast, film grain emulating Kodak Portra stocks
# Mood: Warm, filmic, timeless
# Variant: 5
# Generated: 2026-05-21T16:12:48.577373
TITLE "Portra Skin"
LUT_3D_SIZE 9
0.100181 0.092581 0.064060
0.183853 0.097845 0.069325
0.271870 0.103382 0.074862
0.362613 0.109091 0.080571
0.455372 0.114927 0.086407
0.549741 0.120864 0.092344
0.645454 0.126885 0.098365
0.742323 0.132980 0.104460
0.816630 0.137655 0.109134
0.117889 0.188697 0.081769
0.201561 0.193961 0.087033
0.338536 0.213489 0.092571
0.438353 0.219312 0.098280
0.540388 0.225264 0.104115
0.644194 0.231320 0.110052
0.663162 0.223002 0.116074
0.760032 0.229097 0.122168
0.834339 0.233771 0.126843
0.136517 0.289805 0.100397
0.220190 0.295069 0.105661
0.308207 0.300607 0.111199
0.458844 0.322442 0.116908
0.560879 0.328394 0.122743
0.664685 0.334450 0.128681
0.769970 0.340592 0.134702
0.876526 0.346808 0.140796
0.958264 0.351577 0.145471
0.155723 0.394044 0.119602
0.239395 0.399308 0.124867
0.327412 0.404846 0.130404
0.418155 0.410555 0.136113
0.510914 0.416390 0.141949
0.685811 0.440774 0.147886
0.791095 0.446916 0.153907
0.897652 0.453132 0.160002
0.979390 0.457901 0.164677
0.175354 0.500599 0.139234
0.259027 0.505864 0.144498
0.347044 0.511401 0.150036
0.437786 0.517110 0.155745
0.530546 0.522946 0.161581
0.624914 0.528883 0.167518
0.812690 0.555602 0.173539
0.919247 0.561819 0.179634
1.000000 0.566587 0.184308
0.195327 0.609004 0.159207
0.278999 0.614268 0.164471
0.367016 0.619805 0.170008
0.457759 0.625514 0.175717
0.550518 0.631350 0.181553
0.644887 0.637287 0.187490
0.740600 0.643309 0.193512
0.941217 0.672391 0.199606
1.000000 0.677159 0.204281
0.215584 0.718952 0.179464
0.299256 0.724216 0.184728
0.387273 0.729754 0.190265
0.478016 0.735463 0.195974
0.570775 0.741299 0.201810
0.665144 0.747236 0.207747
0.760857 0.753257 0.213769
0.857727 0.759352 0.219863
0.932034 0.764026 0.224538
0.236086 0.830230 0.199966
0.319758 0.835494 0.205230
0.407775 0.841031 0.210767
0.498518 0.846740 0.216476
0.591277 0.852576 0.222312
0.685646 0.858513 0.228249
0.781359 0.864534 0.234271
0.878229 0.870629 0.240365
0.952536 0.875304 0.245040
0.251813 0.915588 0.215692
0.335485 0.920852 0.220956
0.423502 0.926390 0.226494
0.514245 0.932099 0.232203
0.607004 0.937934 0.238039
0.701373 0.943871 0.243976
0.797086 0.949893 0.249997
0.893955 0.955987 0.256092
0.968262 0.960662 0.260766
0.101754 0.094154 0.134633
0.185426 0.099418 0.139897
0.273443 0.104955 0.145434
0.364186 0.110664 0.151143
0.456945 0.116500 0.156979
0.551314 0.122437 0.162916
0.647027 0.128459 0.168938
0.743896 0.134553 0.175032
0.818204 0.139228 0.179707
0.119462 0.190271 0.152341
0.203135 0.195535 0.157606
0.291151 0.201072 0.163143
0.381894 0.206781 0.168852
0.474654 0.212617 0.174688
0.569022 0.218554 0.180625
0.664735 0.224575 0.186646
0.761605 0.230670 0.192741
0.835912 0.235345 0.197415
0.138091 0.291378 0.170970
0.221763 0.296642 0.176234
0.309780 0.302180 0.181771
0.460575 0.324046 0.187480
0.562610 0.329999 0.193316
0.666416 0.336055 0.199253
0.771700 0.342197 0.205274
0.780233 0.331777 0.211369
0.854540 0.336452 0.216044
0.157296 0.395617 0.190175
0.240968 0.400881 0.195439
0.328985 0.406419 0.200976
0.419728 0.412128 0.206685
0.583736 0.436323 0.212521
0.687541 0.442379 0.218458
0.792826 0.448521 0.224480
0.899382 0.454737 0.230574
0.981120 0.459505 0.235249
0.176928 0.502173 0.209807
0.260600 0.507437 0.215071
0.348617 0.512974 0.220608
0.439360 0.518683 0.226317
0.532119 0.524519 0.232153
0.626488 0.530456 0.238090
0.814421 0.557207 0.244111
0.920977 0.563423 0.250206
1.000000 0.568192 0.254881
0.196900 0.610577 0.229779
0.280572 0.615841 0.235043
0.368589 0.621378 0.240581
0.459332 0.627087 0.246290
0.552091 0.632923 0.252125
0.646460 0.638860 0.258062
0.742173 0.644882 0.264084
0.942947 0.673996 0.270178
1.000000 0.678764 0.274853
0.217157 0.720526 0.250036
0.300829 0.725790 0.255300
0.388846 0.731327 0.260838
0.479589 0.737036 0.266547
0.572348 0.742872 0.272382
0.666717 0.748809 0.278319
0.762430 0.754830 0.284341
0.859300 0.760925 0.290435
1.000000 0.790912 0.295110
0.237659 0.831803 0.270538
0.321331 0.837067 0.275802
0.409348 0.842604 0.281340
0.500091 0.848313 0.287049
0.592850 0.854149 0.292884
0.687219 0.860086 0.298821
0.782932 0.866107 0.304843
0.879802 0.872202 0.310937
0.954109 0.876877 0.315612
0.253386 0.917161 0.286265
0.337058 0.922426 0.291529
0.425075 0.927963 0.297066
0.515818 0.933672 0.302775
0.608577 0.939508 0.308611
0.702946 0.945445 0.314548
0.798659 0.951466 0.320570
0.895528 0.957561 0.326664
0.969835 0.962235 0.331339
0.103409 0.095809 0.208870
0.187081 0.101073 0.214134
0.275098 0.106610 0.219671
0.365841 0.112319 0.225380
0.458600 0.118155 0.231216
0.552969 0.124092 0.237153
0.648682 0.130113 0.243174
0.745551 0.136208 0.249269
0.819858 0.140883 0.253944
0.121117 0.191925 0.226578
0.204789 0.197189 0.231842
0.292806 0.202727 0.237380
0.383549 0.208436 0.243089
0.476308 0.214272 0.248924
0.570677 0.220209 0.254861
0.666390 0.226230 0.260883
0.763260 0.232325 0.266977
0.837567 0.236999 0.271652
0.139745 0.293033 0.245206
0.223418 0.298297 0.250471
0.311435 0.303835 0.256008
0.402177 0.309543 0.261717
0.494937 0.315379 0.267553
0.589305 0.321316 0.273490
0.685019 0.327338 0.279511
0.781888 0.333432 0.285606
0.856195 0.338107 0.290281
0.158951 0.397272 0.264412
0.242623 0.402536 0.269676
0.330640 0.408074 0.275213
0.421383 0.413783 0.280922
0.585556 0.438011 0.286758
0.689362 0.444067 0.292695
0.794646 0.450209 0.298716
0.901203 0.456425 0.304811
0.875400 0.442346 0.309486
0.178583 0.503827 0.284043
0.262255 0.509092 0.289308
0.350272 0.514629 0.294845
0.441014 0.520338 0.300554
0.533774 0.526174 0.306390
0.710957 0.552753 0.312327
0.816241 0.558895 0.318348
0.922798 0.565111 0.324443
1.000000 0.569880 0.329118
0.198555 0.612232 0.304016
0.282227 0.617496 0.309280
0.370244 0.623033 0.314818
0.460987 0.628742 0.320526
0.553746 0.634578 0.326362
0.648115 0.640515 0.332299
0.743828 0.646537 0.338321
0.944768 0.675684 0.344415
1.000000 0.680452 0.349090
0.218812 0.722180 0.324273
0.302484 0.727444 0.329537
0.390501 0.732982 0.335075
0.481244 0.738691 0.340784
0.574003 0.744527 0.346619
0.668372 0.750464 0.352556
0.764085 0.756485 0.358578
0.860955 0.762580 0.364672
1.000000 0.792600 0.369347
0.239314 0.833458 0.344775
0.322986 0.838722 0.350039
0.411003 0.844259 0.355576
0.501746 0.849968 0.361285
0.594505 0.855804 0.367121
0.688874 0.861741 0.373058
0.784587 0.867762 0.379080
0.881457 0.873857 0.385174
0.955764 0.878532 0.389849
0.255041 0.918816 0.360502
0.338713 0.924080 0.365766
0.426730 0.929618 0.371303
0.517473 0.935327 0.377012
0.610232 0.941162 0.382848
0.704601 0.947100 0.388785
0.800314 0.953121 0.394806
0.897183 0.959215 0.400901
0.971490 0.963890 0.405576
0.105115 0.097515 0.285406
0.188787 0.102779 0.290670
0.276804 0.108316 0.296207
0.367547 0.114025 0.301916
0.460306 0.119861 0.307752
0.554675 0.125798 0.313689
0.650388 0.131820 0.319710
0.747257 0.137914 0.325805
0.821565 0.142589 0.330480
0.122823 0.193632 0.303114
0.206496 0.198896 0.308378
0.294512 0.204433 0.313916
0.385255 0.210142 0.319625
0.478015 0.215978 0.325460
0.572383 0.221915 0.331397
0.668096 0.227936 0.337419
0.764966 0.234031 0.343513
0.839273 0.238706 0.348188
0.141452 0.294739 0.321742
0.225124 0.300003 0.327007
0.313141 0.305541 0.332544
0.403884 0.311250 0.338253
0.496643 0.317085 0.344089
0.591012 0.323022 0.350026
0.686725 0.329044 0.356047
0.783594 0.335138 0.362142
0.857901 0.339813 0.366817
0.160657 0.398978 0.340948
0.244329 0.404242 0.346212
0.332346 0.409780 0.351749
0.423089 0.415489 0.357458
0.515848 0.421324 0.363294
0.610217 0.427262 0.369231
0.705930 0.433283 0.375252
0.802800 0.439377 0.381347
0.877107 0.444052 0.386022
0.180289 0.505534 0.360580
0.263961 0.510798 0.365844
0.351978 0.516335 0.371381
0.442721 0.522044 0.377090
0.535480 0.527880 0.382926
0.712833 0.554493 0.388863
0.818118 0.560635 0.394884
0.924675 0.566851 0.400979
1.000000 0.571620 0.405654
0.200261 0.613938 0.380552
0.283933 0.619202 0.385816
0.371950 0.624739 0.391354
0.462693 0.630448 0.397062
0.555452 0.636284 0.402898
0.649821 0.642221 0.408835
0.840088 0.671208 0.414857
0.946644 0.677424 0.420951
1.000000 0.682192 0.425626
0.220518 0.723887 0.400809
0.304190 0.729151 0.406073
0.392207 0.734688 0.411611
0.482950 0.740397 0.417320
0.575709 0.746233 0.423155
0.670078 0.752170 0.429092
0.765791 0.758191 0.435114
0.862661 0.764286 0.441208
1.000000 0.794340 0.445883
0.241020 0.835164 0.421311
0.324692 0.840428 0.426575
0.412709 0.845965 0.432112
0.503452 0.851674 0.437821
0.596211 0.857510 0.443657
0.690580 0.863447 0.449594
0.786293 0.869468 0.455616
0.883163 0.875563 0.461710
0.957470 0.880238 0.466385
0.256747 0.920522 0.437038
0.340419 0.925787 0.442302
0.428436 0.931324 0.447839
0.519179 0.937033 0.453548
0.611938 0.942869 0.459384
0.706307 0.948806 0.465321
0.802020 0.954827 0.471342
0.898889 0.960922 0.477437
0.973196 0.965596 0.482112
0.106859 0.099259 0.363642
0.190531 0.104523 0.368906
0.278548 0.110060 0.374444
0.369291 0.115769 0.380153
0.462050 0.121605 0.385988
0.556419 0.127542 0.391925
0.652132 0.133564 0.397947
0.749002 0.139658 0.404041
0.823309 0.144333 0.408716
0.124567 0.195376 0.381351
0.208240 0.200640 0.386615
0.296257 0.206177 0.392152
0.386999 0.211886 0.397861
0.479759 0.217722 0.403697
0.574127 0.223659 0.409634
0.669841 0.229680 0.415656
0.766710 0.235775 0.421750
0.841017 0.240450 0.426425
0.143196 0.296483 0.399979
0.226868 0.301747 0.405243
0.314885 0.307285 0.410781
0.405628 0.312994 0.416490
0.498387 0.318829 0.422325
0.592756 0.324766 0.428262
0.688469 0.330788 0.434284
0.785338 0.336882 0.440378
0.859645 0.341557 0.445053
0.162401 0.400722 0.419184
0.246073 0.405986 0.424448
0.334090 0.411524 0.429986
0.424833 0.417233 0.435695
0.517592 0.423069 0.441530
0.611961 0.429006 0.447467
0.707674 0.435027 0.453489
0.804544 0.441122 0.459583
0.878851 0.445796 0.464258
0.182033 0.507278 0.438816
0.265705 0.512542 0.444080
0.353722 0.518079 0.449618
0.444465 0.523788 0.455327
0.537224 0.529624 0.461162
0.631593 0.535561 0.467099
0.727306 0.541582 0.473121
0.824175 0.547677 0.479215
0.898482 0.552352 0.483890
0.202005 0.615682 0.458789
0.285677 0.620946 0.464053
0.373694 0.626484 0.469590
0.464437 0.632192 0.475299
0.557196 0.638028 0.481135
0.651565 0.643965 0.487072
0.842006 0.672987 0.493093
0.948563 0.679203 0.499188
1.000000 0.683971 0.503863
0.222262 0.725631 0.479046
0.305934 0.730895 0.484310
0.393951 0.736432 0.489847
0.484694 0.742141 0.495556
0.577453 0.747977 0.501392
0.671822 0.753914 0.507329
0.767535 0.759935 0.513351
0.970846 0.791350 0.519445
1.000000 0.796119 0.524120
0.242764 0.836908 0.499548
0.326436 0.842172 0.504812
0.414453 0.847709 0.510349
0.505196 0.853418 0.516058
0.597955 0.859254 0.521894
0.692324 0.865191 0.527831
0.788037 0.871213 0.533852
0.884907 0.877307 0.539947
0.959214 0.881982 0.544622
0.258491 0.922266 0.515274
0.342163 0.927531 0.520538
0.430180 0.933068 0.526076
0.520923 0.938777 0.531785
0.613682 0.944613 0.537620
0.708051 0.950550 0.543557
0.803764 0.956571 0.549579
0.900633 0.962666 0.555673
0.974941 0.967341 0.560348
0.108633 0.101033 0.443237
0.192305 0.106297 0.448501
0.280322 0.111835 0.454038
0.371065 0.117543 0.459747
0.463824 0.123379 0.465583
0.558193 0.129316 0.471520
0.653906 0.135338 0.477541
0.750776 0.141432 0.483636
0.825083 0.146107 0.488311
0.126342 0.197150 0.460945
0.210014 0.202414 0.466209
0.298031 0.207951 0.471747
0.388774 0.213660 0.477456
0.481533 0.219496 0.483291
0.575902 0.225433 0.489228
0.671615 0.231455 0.495250
0.768484 0.237549 0.501344
0.842792 0.242224 0.506019
0.144970 0.298258 0.479573
0.228642 0.303522 0.484837
0.316659 0.309059 0.490375
0.407402 0.314768 0.496084
0.500161 0.320604 0.501920
0.594530 0.326541 0.507857
0.690243 0.332562 0.513878
0.787113 0.338657 0.519973
0.861420 0.343332 0.524647
0.164175 0.402497 0.498779
0.247847 0.407761 0.504043
0.335864 0.413298 0.509580
0.426607 0.419007 0.515289
0.519366 0.424843 0.521125
0.613735 0.430780 0.527062
0.709448 0.436801 0.533083
0.806318 0.442896 0.539178
0.880625 0.447571 0.543853
0.183807 0.509052 0.518410
0.267479 0.514316 0.523675
0.355496 0.519853 0.529212
0.446239 0.525562 0.534921
0.538998 0.531398 0.540757
0.633367 0.537335 0.546694
0.729080 0.543357 0.552715
0.825950 0.549451 0.558810
0.900257 0.554126 0.563484
0.203780 0.617456 0.538383
0.287452 0.622720 0.543647
0.375469 0.628258 0.549184
0.466211 0.633967 0.554893
0.558971 0.639802 0.560729
0.653340 0.645740 0.566666
0.749053 0.651761 0.572688
0.845922 0.657855 0.578782
0.920229 0.662530 0.583457
0.224037 0.727405 0.558640
0.307709 0.732669 0.563904
0.395726 0.738206 0.569442
0.486469 0.743915 0.575150
0.579228 0.749751 0.580986
0.673597 0.755688 0.586923
0.769310 0.761710 0.592945
0.972797 0.793160 0.599039
1.000000 0.797928 0.603714
0.244538 0.838682 0.579142
0.328211 0.843946 0.584406
0.416228 0.849483 0.589943
0.506970 0.855192 0.595652
0.599730 0.861028 0.601488
0.694098 0.866965 0.607425
0.789812 0.872987 0.613447
0.886681 0.879081 0.619541
1.000000 0.911431 0.624216
0.260265 0.924041 0.594868
0.343937 0.929305 0.600133
0.431954 0.934842 0.605670
0.522697 0.940551 0.611379
0.615456 0.946387 0.617215
0.709825 0.952324 0.623152
0.805538 0.958346 0.629173
0.902408 0.964440 0.635268
0.976715 0.969115 0.639943
0.110433 0.102833 0.523965
0.194105 0.108097 0.529229
0.282122 0.113634 0.534766
0.372865 0.119343 0.540475
0.465624 0.125179 0.546311
0.559993 0.131116 0.552248
0.655706 0.137137 0.558269
0.752575 0.143232 0.564364
0.826882 0.147907 0.569039
0.128141 0.198949 0.541673
0.211813 0.204213 0.546937
0.299830 0.209751 0.552475
0.390573 0.215460 0.558184
0.483332 0.221296 0.564019
0.577701 0.227233 0.569956
0.673414 0.233254 0.575978
0.770284 0.239349 0.582072
0.844591 0.244023 0.586747
0.146770 0.300057 0.560301
0.230442 0.305321 0.565566
0.318459 0.310859 0.571103
0.409201 0.316568 0.576812
0.501961 0.322403 0.582648
0.596330 0.328340 0.588585
0.692043 0.334362 0.594606
0.788912 0.340456 0.600701
0.863219 0.345131 0.605376
0.165975 0.404296 0.579507
0.249647 0.409560 0.584771
0.337664 0.415098 0.590308
0.428407 0.420807 0.596017
0.521166 0.426642 0.601853
0.615535 0.432579 0.607790
0.711248 0.438601 0.613811
0.808117 0.444695 0.619906
0.882424 0.449370 0.624581
0.185607 0.510852 0.599139
0.269279 0.516116 0.604403
0.357296 0.521653 0.609940
0.448039 0.527362 0.615649
0.540798 0.533198 0.621485
0.635167 0.539135 0.627422
0.730880 0.545156 0.633443
0.827749 0.551251 0.639538
0.902056 0.555926 0.644213
0.205579 0.619256 0.619111
0.289251 0.624520 0.624375
0.377268 0.630057 0.629913
0.468011 0.635766 0.635621
0.560770 0.641602 0.641457
0.655139 0.647539 0.647394
0.750852 0.653561 0.653416
0.847722 0.659655 0.659510
0.922029 0.664330 0.664185
0.225836 0.729204 0.639368
0.309508 0.734469 0.644632
0.397525 0.740006 0.650170
0.488268 0.745715 0.655879
0.581027 0.751551 0.661714
0.675396 0.757488 0.667651
0.771109 0.763509 0.673673
0.867979 0.769604 0.679767
0.942286 0.774278 0.684442
0.246338 0.840482 0.659870
0.330010 0.845746 0.665134
0.418027 0.851283 0.670671
0.508770 0.856992 0.676380
0.601529 0.862828 0.682216
0.695898 0.868765 0.688153
0.791611 0.874786 0.694175
0.888481 0.880881 0.700269
1.000000 0.913267 0.704944
0.262065 0.925840 0.675597
0.345737 0.931104 0.680861
0.433754 0.936642 0.686398
0.524497 0.942351 0.692107
0.617256 0.948186 0.697943
0.711625 0.954124 0.703880
0.807338 0.960145 0.709901
0.904207 0.966239 0.715996
0.978514 0.970914 0.720671
0.112254 0.104654 0.605668
0.195926 0.109918 0.610932
0.283943 0.115455 0.616470
0.374686 0.121164 0.622179
0.467445 0.127000 0.628014
0.561814 0.132937 0.633951
0.657527 0.138959 0.639973
0.754397 0.145053 0.646067
0.828704 0.149728 0.650742
0.129963 0.200771 0.623377
0.213635 0.206035 0.628641
0.301652 0.211572 0.634178
0.392395 0.217281 0.639887
0.485154 0.223117 0.645723
0.579523 0.229054 0.651660
0.675236 0.235076 0.657682
0.772105 0.241170 0.663776
0.846412 0.245845 0.668451
0.148591 0.301878 0.642005
0.232263 0.307142 0.647269
0.320280 0.312680 0.652807
0.411023 0.318389 0.658515
0.503782 0.324225 0.664351
0.598151 0.330162 0.670288
0.693864 0.336183 0.676310
0.790734 0.342278 0.682404
0.865041 0.346952 0.687079
0.167796 0.406118 0.661210
0.251468 0.411382 0.666474
0.339485 0.416919 0.672012
0.430228 0.422628 0.677721
0.522987 0.428464 0.683556
0.617356 0.434401 0.689493
0.713069 0.440422 0.695515
0.809939 0.446517 0.701609
0.884246 0.451192 0.706284
0.187428 0.512673 0.680842
0.271100 0.517937 0.686106
0.359117 0.523474 0.691644
0.449860 0.529183 0.697352
0.542619 0.535019 0.703188
0.636988 0.540956 0.709125
0.732701 0.546978 0.715147
0.829571 0.553072 0.721241
0.903878 0.557747 0.725916
0.207400 0.621077 0.700815
0.291073 0.626341 0.706079
0.379089 0.631879 0.711616
0.469832 0.637588 0.717325
0.562592 0.643423 0.723161
0.656960 0.649360 0.729098
0.752673 0.655382 0.735119
0.849543 0.661476 0.741214
0.923850 0.666151 0.745889
0.227657 0.731026 0.721072
0.311330 0.736290 0.726336
0.399347 0.741827 0.731873
0.490089 0.747536 0.737582
0.582849 0.753372 0.743418
0.677217 0.759309 0.749355
0.772931 0.765331 0.755377
0.869800 0.771425 0.761471
0.944107 0.776100 0.766146
0.248159 0.842303 0.741574
0.331831 0.847567 0.746838
0.419848 0.853104 0.752375
0.510591 0.858813 0.758084
0.603350 0.864649 0.763920
0.697719 0.870586 0.769857
0.793432 0.876608 0.775878
0.890302 0.882702 0.781973
0.964609 0.887377 0.786648
0.263886 0.927662 0.757300
0.347558 0.932926 0.762564
0.435575 0.938463 0.768102
0.526318 0.944172 0.773811
0.619077 0.950008 0.779646
0.713446 0.955945 0.785583
0.809159 0.961966 0.791605
0.906029 0.968061 0.797699
0.980336 0.972736 0.802374
0.113651 0.106051 0.668342
0.197323 0.111315 0.673606
0.285340 0.116853 0.679143
0.376083 0.122561 0.684852
0.468842 0.128397 0.690688
0.563211 0.134334 0.696625
0.658924 0.140356 0.702646
0.755794 0.146450 0.708741
0.830101 0.151125 0.713416
0.131360 0.202168 0.686050
0.215032 0.207432 0.691314
0.303049 0.212969 0.696852
0.393792 0.218678 0.702561
0.486551 0.224514 0.708396
0.580920 0.230451 0.714333
0.676633 0.236473 0.720355
0.773502 0.242567 0.726449
0.847809 0.247242 0.731124
0.149988 0.303276 0.704678
0.233660 0.308540 0.709943
0.321677 0.314077 0.715480
0.412420 0.319786 0.721189
0.505179 0.325622 0.727025
0.599548 0.331559 0.732962
0.695261 0.337580 0.738983
0.792131 0.343675 0.745078
0.866438 0.348350 0.749753
0.169193 0.407515 0.723884
0.252865 0.412779 0.729148
0.340882 0.418316 0.734685
0.431625 0.424025 0.740394
0.524384 0.429861 0.746230
0.618753 0.435798 0.752167
0.714466 0.441819 0.758188
0.811336 0.447914 0.764283
0.885643 0.452589 0.768958
0.188825 0.514070 0.743515
0.272497 0.519334 0.748780
0.360514 0.524871 0.754317
0.451257 0.530580 0.760026
0.544016 0.536416 0.765862
0.638385 0.542353 0.771799
0.734098 0.548375 0.777820
0.830968 0.554469 0.783915
0.905275 0.559144 0.788590
0.208798 0.622474 0.763488
0.292470 0.627738 0.768752
0.380487 0.633276 0.774290
0.471229 0.638985 0.779998
0.563989 0.644820 0.785834
0.658358 0.650758 0.791771
0.754071 0.656779 0.797793
0.850940 0.662873 0.803887
0.925247 0.667548 0.808562
0.229055 0.732423 0.783745
0.312727 0.737687 0.789009
0.400744 0.743224 0.794547
0.491487 0.748933 0.800255
0.584246 0.754769 0.806091
0.678615 0.760706 0.812028
0.774328 0.766728 0.818050
0.871197 0.772822 0.824144
0.945504 0.777497 0.828819
0.249556 0.843700 0.804247
0.333229 0.848964 0.809511
0.421245 0.854501 0.815048
0.511988 0.860210 0.820757
0.604748 0.866046 0.826593
0.699116 0.871983 0.832530
0.794829 0.878005 0.838552
0.891699 0.884099 0.844646
0.966006 0.888774 0.849321
0.265283 0.929059 0.819974
0.348955 0.934323 0.825238
0.436972 0.939860 0.830775
0.527715 0.945569 0.836484
0.620474 0.951405 0.842320
0.714843 0.957342 0.848257
0.810556 0.963364 0.854278
0.907426 0.969458 0.860373
0.981733 0.974133 0.865048
