library/cube/Portra_Warm_003.cube
# CINEGRADE LAB — Premium Cinematic LUT
# Title: Portra Warm
# Category: Kodak Portra Emulation
# Description: Warm skin tones, soft contrast, film grain emulating Kodak Portra stocks
# Mood: Warm, filmic, timeless
# Variant: 4
# Generated: 2026-05-21T16:12:48.144662
TITLE "Portra Warm"
LUT_3D_SIZE 33
0.097880 0.090130 0.062984
0.118507 0.091329 0.064184
0.139587 0.092555 0.065409
0.161027 0.093801 0.066655
0.182771 0.095065 0.067919
0.204775 0.096344 0.069199
0.227008 0.097637 0.070491
0.249446 0.098941 0.071796
0.272069 0.100256 0.073111
0.294862 0.101581 0.074436
0.317811 0.102915 0.075770
0.340905 0.104258 0.077113
0.364134 0.105608 0.078463
0.387489 0.106966 0.079821
0.410963 0.108331 0.081185
0.434550 0.109702 0.082557
0.458244 0.111079 0.083934
0.482039 0.112463 0.085317
0.505930 0.113852 0.086706
0.529914 0.115246 0.088100
0.553987 0.116645 0.089500
0.578144 0.118050 0.090904
0.602383 0.119459 0.092313
0.626701 0.120873 0.093727
0.651094 0.122291 0.095145
0.675560 0.123713 0.096567
0.700097 0.125139 0.097994
0.724703 0.126570 0.099424
0.749374 0.128004 0.100859
0.774110 0.129442 0.102297
0.798909 0.130884 0.103738
0.823768 0.132329 0.105183
0.824763 0.132387 0.105241
0.101914 0.113592 0.067018
0.122542 0.114792 0.068218
0.176547 0.128337 0.069443
0.199917 0.129609 0.070690
0.223617 0.130898 0.071954
0.247601 0.132203 0.073233
0.231042 0.121099 0.074525
0.253480 0.122404 0.075830
0.276103 0.123719 0.077145
0.298896 0.125044 0.078470
0.321845 0.126378 0.079804
0.344939 0.127721 0.081147
0.368168 0.129071 0.082497
0.391523 0.130429 0.083855
0.414997 0.131793 0.085219
0.438584 0.133165 0.086591
0.462278 0.134542 0.087968
0.486073 0.135925 0.089351
0.509964 0.137314 0.090740
0.533948 0.138708 0.092135
0.558021 0.140108 0.093534
0.582178 0.141512 0.094938
0.606417 0.142921 0.096347
0.630735 0.144335 0.097761
0.655128 0.145753 0.099179
0.679594 0.147175 0.100602
0.704131 0.148602 0.102028
0.728737 0.150032 0.103458
0.753408 0.151467 0.104893
0.778144 0.152905 0.106331
0.802943 0.154346 0.107772
0.827802 0.155791 0.109218
0.828797 0.155849 0.109275
0.106036 0.137569 0.071141
0.126664 0.138768 0.072340
0.147743 0.139993 0.073565
0.204410 0.154064 0.074812
0.228111 0.155354 0.076076
0.252095 0.156658 0.077355
0.276329 0.157977 0.078648
0.300786 0.159307 0.079952
0.325446 0.160649 0.081267
0.350290 0.162000 0.082592
0.375305 0.163361 0.083926
0.400477 0.164731 0.085269
0.372290 0.153047 0.086619
0.395645 0.154405 0.087977
0.419120 0.155769 0.089342
0.442707 0.157141 0.090713
0.466400 0.158518 0.092090
0.490195 0.159901 0.093474
0.514087 0.161290 0.094863
0.538071 0.162685 0.096257
0.562143 0.164084 0.097656
0.586301 0.165488 0.099061
0.610540 0.166898 0.100470
0.634857 0.168311 0.101884
0.659250 0.169729 0.103302
0.683717 0.171152 0.104724
0.708254 0.172578 0.106150
0.732859 0.174008 0.107581
0.757531 0.175443 0.109015
0.782267 0.176881 0.110453
0.807065 0.178322 0.111895
0.831924 0.179768 0.113340
0.832920 0.179825 0.113398
0.110230 0.161956 0.075334
0.130857 0.163155 0.076533
0.151936 0.164381 0.077759
0.173377 0.165627 0.079005
0.195120 0.166891 0.080269
0.256665 0.181534 0.081548
0.280899 0.182852 0.082841
0.305357 0.184182 0.084145
0.330017 0.185524 0.085460
0.354861 0.186876 0.086785
0.379875 0.188236 0.088120
0.405048 0.189606 0.089462
0.430367 0.190983 0.090813
0.455824 0.192368 0.092170
0.481411 0.193760 0.093535
0.507121 0.195159 0.094906
0.532947 0.196564 0.096284
0.494388 0.184289 0.097667
0.518280 0.185678 0.099056
0.542264 0.187072 0.100450
0.566336 0.188471 0.101850
0.590494 0.189876 0.103254
0.614733 0.191285 0.104663
0.639050 0.192699 0.106077
0.663443 0.194117 0.107495
0.687910 0.195539 0.108917
0.712447 0.196965 0.110344
0.737052 0.198396 0.111774
0.761724 0.199830 0.113208
0.786460 0.201268 0.114646
0.811258 0.202710 0.116088
0.836117 0.204155 0.117533
0.837113 0.204213 0.117591
0.114482 0.186687 0.079586
0.135109 0.187887 0.080785
0.156189 0.189112 0.082011
0.177629 0.190358 0.083257
0.199373 0.191623 0.084521
0.221376 0.192902 0.085801
0.285534 0.208078 0.087093
0.309992 0.209409 0.088397
0.334652 0.210750 0.089713
0.359496 0.212102 0.091038
0.384510 0.213462 0.092372
0.409682 0.214832 0.093714
0.435002 0.216209 0.095065
0.460459 0.217594 0.096423
0.486046 0.218986 0.097787
0.511756 0.220385 0.099158
0.537582 0.221790 0.100536
0.563518 0.223201 0.101919
0.589560 0.224617 0.103308
0.615703 0.226040 0.104702
0.641942 0.227467 0.106102
0.668273 0.228899 0.107506
0.694694 0.230337 0.108915
0.643303 0.217430 0.110329
0.667696 0.218848 0.111747
0.692162 0.220271 0.113169
0.716699 0.221697 0.114596
0.741304 0.223127 0.116026
0.765976 0.224562 0.117461
0.790712 0.226000 0.118899
0.815511 0.227441 0.120340
0.840370 0.228886 0.121785
0.841365 0.228944 0.121843
0.118785 0.211715 0.083890
0.139413 0.212915 0.085089
0.160492 0.214140 0.086314
0.181933 0.215386 0.087561
0.203676 0.216650 0.088825
0.225680 0.217930 0.090104
0.247913 0.219222 0.091396
0.314683 0.234937 0.092701
0.339342 0.236279 0.094016
0.364186 0.237630 0.095341
0.389201 0.238991 0.096675
0.414373 0.240360 0.098018
0.439692 0.241738 0.099368
0.465150 0.243123 0.100726
0.490737 0.244515 0.102090
0.516446 0.245913 0.103462
0.542272 0.247318 0.104839
0.568209 0.248729 0.106222
0.594251 0.250146 0.107611
0.620393 0.251568 0.109006
0.646632 0.252996 0.110405
0.672964 0.254428 0.111809
0.699384 0.255865 0.113219
0.725890 0.257307 0.114632
0.752479 0.258754 0.116050
0.779147 0.260204 0.117473
0.805892 0.261659 0.118899
0.832712 0.263118 0.120329
0.770279 0.249590 0.121764
0.795015 0.251028 0.123202
0.819814 0.252469 0.124643
0.844673 0.253914 0.126089
0.845669 0.253972 0.126146
0.123133 0.237004 0.088238
0.143761 0.238203 0.089437
0.164840 0.239429 0.090662
0.186281 0.240675 0.091909
0.208024 0.241939 0.093173
0.230028 0.243218 0.094452
0.252261 0.244511 0.095744
0.274699 0.245815 0.097049
0.297323 0.247131 0.098364
0.368926 0.263425 0.099689
0.393940 0.264786 0.101023
0.419112 0.266155 0.102366
0.444432 0.267532 0.103716
0.469889 0.268917 0.105074
0.495476 0.270309 0.106439
0.521186 0.271708 0.107810
0.547012 0.273113 0.109187
0.572948 0.274524 0.110570
0.598990 0.275940 0.111959
0.625133 0.277363 0.113354
0.651372 0.278790 0.114753
0.677703 0.280223 0.116157
0.704124 0.281660 0.117567
0.730630 0.283102 0.118980
0.757218 0.284548 0.120398
0.783887 0.285999 0.121821
0.810632 0.287454 0.123247
0.837452 0.288913 0.124678
0.864344 0.290376 0.126112
0.891306 0.291843 0.127550
0.918336 0.293313 0.128992
0.945433 0.294787 0.130437
0.946518 0.294846 0.130495
0.127521 0.262526 0.092626
0.148149 0.263725 0.093825
0.169228 0.264951 0.095050
0.190669 0.266197 0.096297
0.212412 0.267461 0.097561
0.234416 0.268740 0.098840
0.256649 0.270033 0.100133
0.279087 0.271337 0.101437
0.301711 0.272652 0.102752
0.324504 0.273977 0.104077
0.398723 0.290818 0.105411
0.423896 0.292187 0.106754
0.449215 0.293565 0.108104
0.474672 0.294949 0.109462
0.500259 0.296341 0.110827
0.525969 0.297740 0.112198
0.551795 0.299145 0.113575
0.577731 0.300556 0.114959
0.603773 0.301973 0.116348
0.629916 0.303395 0.117742
0.656155 0.304822 0.119141
0.682486 0.306255 0.120546
0.708907 0.307692 0.121955
0.735413 0.309134 0.123368
0.762001 0.310580 0.124787
0.788670 0.312031 0.126209
0.815415 0.313486 0.127635
0.842235 0.314945 0.129066
0.869127 0.316408 0.130500
0.896089 0.317875 0.131938
0.923120 0.319345 0.133380
0.950216 0.320820 0.134825
0.951301 0.320879 0.134883
0.131946 0.288259 0.097050
0.152573 0.289458 0.098249
0.173652 0.290683 0.099475
0.195093 0.291930 0.100721
0.216836 0.293194 0.101985
0.238840 0.294473 0.103264
0.261074 0.295766 0.104557
0.283512 0.297070 0.105861
0.306135 0.298385 0.107177
0.328928 0.299710 0.108502
0.351877 0.301044 0.109836
0.374971 0.302387 0.111178
0.454037 0.319812 0.112529
0.479495 0.321197 0.113886
0.505082 0.322589 0.115251
0.530791 0.323987 0.116622
0.556617 0.325392 0.118000
0.582554 0.326803 0.119383
0.608596 0.328220 0.120772
0.634738 0.329642 0.122166
0.660977 0.331070 0.123566
0.687309 0.332502 0.124970
0.713729 0.333939 0.126379
0.740235 0.335381 0.127793
0.766824 0.336828 0.129211
0.793492 0.338279 0.130633
0.820238 0.339734 0.132060
0.847058 0.341193 0.133490
0.873950 0.342656 0.134924
0.900912 0.344122 0.136362
0.927942 0.345593 0.137804
0.955039 0.347067 0.139249
0.956124 0.347126 0.139307
0.136403 0.314184 0.101508
0.157031 0.315383 0.102707
0.178110 0.316609 0.103932
0.199551 0.317855 0.105179
0.221294 0.319119 0.106443
0.243298 0.320398 0.107722
0.265531 0.321691 0.109015
0.287969 0.322995 0.110319
0.310593 0.324311 0.111634
0.333386 0.325636 0.112959
0.356335 0.326970 0.114293
0.379428 0.328312 0.115636
0.402657 0.329663 0.116986
0.484353 0.347641 0.118344
0.509940 0.349033 0.119709
0.535650 0.350431 0.121080
0.561476 0.351836 0.122457
0.587413 0.353247 0.123841
0.613455 0.354664 0.125230
0.639597 0.356086 0.126624
0.665836 0.357514 0.128023
0.692168 0.358946 0.129428
0.718588 0.360383 0.130837
0.745094 0.361825 0.132250
0.771683 0.363272 0.133669
0.798351 0.364723 0.135091
0.825096 0.366178 0.136517
0.851916 0.367637 0.137948
0.878808 0.369100 0.139382
0.905771 0.370566 0.140820
0.932801 0.372037 0.142262
0.959897 0.373511 0.143707
0.960983 0.373570 0.143765
0.140891 0.340287 0.105996
0.161519 0.341486 0.107195
0.182598 0.342712 0.108420
0.204039 0.343958 0.109667
0.225782 0.345222 0.110931
0.247786 0.346501 0.112210
0.270019 0.347794 0.113503
0.292457 0.349098 0.114807
0.315081 0.350414 0.116122
0.337874 0.351739 0.117447
0.360823 0.353073 0.118781
0.383916 0.354415 0.120124
0.407145 0.355766 0.121474
0.430500 0.357123 0.122832
0.514833 0.375658 0.124197
0.540542 0.377056 0.125568
0.566368 0.378461 0.126945
0.592305 0.379872 0.128329
0.618347 0.381289 0.129718
0.644489 0.382711 0.131112
0.670728 0.384139 0.132511
0.697060 0.385571 0.133916
0.723480 0.387008 0.135325
0.749986 0.388450 0.136739
0.776575 0.389897 0.138157
0.803243 0.391348 0.139579
0.829988 0.392803 0.141005
0.856808 0.394262 0.142436
0.883700 0.395725 0.143870
0.910663 0.397191 0.145308
0.937693 0.398662 0.146750
0.964789 0.400136 0.148195
0.965875 0.400195 0.148253
0.145408 0.366555 0.110512
0.166035 0.367754 0.111711
0.187115 0.368979 0.112937
0.208555 0.370226 0.114183
0.230298 0.371490 0.115447
0.252302 0.372769 0.116727
0.274536 0.374062 0.118019
0.296974 0.375366 0.119323
0.319597 0.376681 0.120639
0.342390 0.378006 0.121964
0.365339 0.379340 0.123298
0.388433 0.380683 0.124640
0.411662 0.382033 0.125991
0.435017 0.383391 0.127349
0.458491 0.384756 0.128713
0.482078 0.386127 0.130084
0.571291 0.405254 0.131462
0.597228 0.406665 0.132845
0.623269 0.408082 0.134234
0.649412 0.409504 0.135628
0.675651 0.410932 0.137028
0.701983 0.412364 0.138432
0.728403 0.413801 0.139841
0.754909 0.415243 0.141255
0.781498 0.416690 0.142673
0.808166 0.418141 0.144095
0.834911 0.419596 0.145522
0.861731 0.421055 0.146952
0.888623 0.422518 0.148386
0.915586 0.423984 0.149824
0.942616 0.425455 0.151266
0.969712 0.426929 0.152711
0.970797 0.426988 0.152769
0.149951 0.392976 0.115055
0.170578 0.394175 0.116254
0.191657 0.395400 0.117480
0.213098 0.396647 0.118726
0.234841 0.397911 0.119990
0.256845 0.399190 0.121269
0.279078 0.400483 0.122562
0.301516 0.401787 0.123866
0.324140 0.403102 0.125181
0.346933 0.404427 0.126507
0.369882 0.405761 0.127841
0.392976 0.407104 0.129183
0.416204 0.408454 0.130534
0.439560 0.409812 0.131891
0.463034 0.411177 0.133256
0.486621 0.412548 0.134627
0.510314 0.413925 0.136005
0.602179 0.433615 0.137388
0.628221 0.435032 0.138777
0.654364 0.436454 0.140171
0.680603 0.437881 0.141571
0.706934 0.439314 0.142975
0.733355 0.440751 0.144384
0.759861 0.442193 0.145798
0.786449 0.443639 0.147216
0.813118 0.445090 0.148638
0.839863 0.446545 0.150065
0.866683 0.448004 0.151495
0.893575 0.449467 0.152929
0.920537 0.450934 0.154367
0.947567 0.452404 0.155809
0.974664 0.453878 0.157254
0.975749 0.453937 0.157312
0.154518 0.419541 0.119623
0.175146 0.420740 0.120822
0.196225 0.421965 0.122047
0.217666 0.423212 0.123294
0.239409 0.424476 0.124558
0.261413 0.425755 0.125837
0.283646 0.427048 0.127129
0.306084 0.428352 0.128434
0.328708 0.429667 0.129749
0.351500 0.430992 0.131074
0.374449 0.432326 0.132408
0.397543 0.433669 0.133751
0.420772 0.435019 0.135101
0.444127 0.436377 0.136459
0.467601 0.437742 0.137823
0.491188 0.439113 0.139195
0.514882 0.440490 0.140572
0.538677 0.441874 0.141955
0.562569 0.443263 0.143344
0.659342 0.463550 0.144739
0.685581 0.464978 0.146138
0.711913 0.466410 0.147542
0.738333 0.467847 0.148952
0.764839 0.469289 0.150365
0.791428 0.470736 0.151783
0.818096 0.472186 0.153206
0.844842 0.473641 0.154632
0.871661 0.475100 0.156063
0.898554 0.476563 0.157497
0.925516 0.478030 0.158935
0.952546 0.479501 0.160376
0.979643 0.480975 0.161822
0.980728 0.481034 0.161880
0.159109 0.446241 0.124213
0.179737 0.447441 0.125413
0.200816 0.448666 0.126638
0.222256 0.449912 0.127884
0.244000 0.451176 0.129148
0.266004 0.452456 0.130428
0.288237 0.453748 0.131720
0.310675 0.455053 0.133025
0.333298 0.456368 0.134340
0.356091 0.457693 0.135665
0.379040 0.459027 0.136999
0.402134 0.460370 0.138342
0.425363 0.461720 0.139692
0.448718 0.463078 0.141050
0.472192 0.464442 0.142414
0.495779 0.465814 0.143786
0.519473 0.467191 0.145163
0.543268 0.468574 0.146546
0.567159 0.469963 0.147935
0.591143 0.471357 0.149329
0.690585 0.492212 0.150729
0.716917 0.493645 0.152133
0.743337 0.495082 0.153542
0.769843 0.496524 0.154956
0.796432 0.497970 0.156374
0.823100 0.499421 0.157796
0.849846 0.500876 0.159223
0.876665 0.502335 0.160653
0.903558 0.503798 0.162088
0.930520 0.505265 0.163526
0.957550 0.506735 0.164967
0.984647 0.508209 0.166412
0.985732 0.508268 0.166470
0.163722 0.473070 0.128826
0.184349 0.474269 0.130025
0.205428 0.475495 0.131251
0.226869 0.476741 0.132497
0.248612 0.478005 0.133761
0.270616 0.479284 0.135041
0.292850 0.480577 0.136333
0.315288 0.481881 0.137637
0.337911 0.483196 0.138953
0.360704 0.484521 0.140278
0.383653 0.485855 0.141612
0.406747 0.487198 0.142954
0.429976 0.488548 0.144305
0.453331 0.489906 0.145662
0.476805 0.491271 0.147027
0.500392 0.492642 0.148398
0.524086 0.494019 0.149776
0.547881 0.495403 0.151159
0.571772 0.496792 0.152548
0.595756 0.498186 0.153942
0.619829 0.499585 0.155342
0.721945 0.521010 0.156746
0.748365 0.522447 0.158155
0.774871 0.523889 0.159569
0.801460 0.525335 0.160987
0.828128 0.526786 0.162409
0.854874 0.528241 0.163836
0.881693 0.529700 0.165266
0.908586 0.531163 0.166700
0.935548 0.532630 0.168138
0.962578 0.534100 0.169580
0.989675 0.535574 0.171025
0.990760 0.535633 0.171083
0.168355 0.500020 0.133460
0.188983 0.501219 0.134659
0.210062 0.502444 0.135885
0.231503 0.503691 0.137131
0.253246 0.504955 0.138395
0.275250 0.506234 0.139674
0.297483 0.507527 0.140967
0.319921 0.508831 0.142271
0.342545 0.510146 0.143586
0.365338 0.511471 0.144911
0.388287 0.512805 0.146246
0.411381 0.514148 0.147588
0.434609 0.515498 0.148938
0.457964 0.516856 0.150296
0.481439 0.518221 0.151661
0.505026 0.519592 0.153032
0.528719 0.520969 0.154409
0.552514 0.522353 0.155793
0.576406 0.523742 0.157182
0.600390 0.525136 0.158576
0.624462 0.526535 0.159975
0.648620 0.527940 0.161380
0.672859 0.529349 0.162789
0.779922 0.551378 0.164203
0.806511 0.552824 0.165621
0.833179 0.554275 0.167043
0.859924 0.555730 0.168469
0.886744 0.557189 0.169900
0.913636 0.558652 0.171334
0.940599 0.560119 0.172772
0.967629 0.561589 0.174214
0.994725 0.563063 0.175659
0.995810 0.563122 0.175717
0.173009 0.527085 0.138113
0.193637 0.528284 0.139313
0.214716 0.529510 0.140538
0.236156 0.530756 0.141785
0.257900 0.532020 0.143049
0.279904 0.533299 0.144328
0.302137 0.534592 0.145620
0.324575 0.535896 0.146925
0.347198 0.537211 0.148240
0.369991 0.538536 0.149565
0.392940 0.539871 0.150899
0.416034 0.541213 0.152242
0.439263 0.542563 0.153592
0.462618 0.543921 0.154950
0.486092 0.545286 0.156314
0.509679 0.546657 0.157686
0.533373 0.548034 0.159063
0.557168 0.549418 0.160446
0.581059 0.550807 0.161835
0.605043 0.552201 0.163230
0.629116 0.553600 0.164629
0.653273 0.555005 0.166033
0.677512 0.556414 0.167442
0.701830 0.557828 0.168856
0.811583 0.580431 0.170274
0.838251 0.581881 0.171697
0.864997 0.583336 0.173123
0.891816 0.584795 0.174553
0.918709 0.586258 0.175988
0.945671 0.587725 0.177426
0.972701 0.589196 0.178867
0.999798 0.590670 0.180313
1.000000 0.590729 0.180370
0.177681 0.554260 0.142786
0.198309 0.555459 0.143985
0.219388 0.556685 0.145211
0.240829 0.557931 0.146457
0.262572 0.559195 0.147721
0.284576 0.560474 0.149000
0.306809 0.561767 0.150293
0.329247 0.563071 0.151597
0.351871 0.564387 0.152912
0.374664 0.565712 0.154237
0.397613 0.567046 0.155571
0.420706 0.568388 0.156914
0.443935 0.569739 0.158264
0.467290 0.571096 0.159622
0.490765 0.572461 0.160987
0.514352 0.573832 0.162358
0.538045 0.575210 0.163735
0.561840 0.576593 0.165119
0.585732 0.577982 0.166508
0.609716 0.579376 0.167902
0.633788 0.580776 0.169301
0.657946 0.582180 0.170706
0.682185 0.583589 0.172115
0.706502 0.585003 0.173529
0.730895 0.586421 0.174947
0.843344 0.609600 0.176369
0.870090 0.611055 0.177795
0.896909 0.612514 0.179226
0.923802 0.613977 0.180660
0.950764 0.615444 0.182098
0.977794 0.616914 0.183540
1.000000 0.618388 0.184985
1.000000 0.618447 0.185043
0.182372 0.581540 0.147476
0.203000 0.582740 0.148676
0.224079 0.583965 0.149901
0.245519 0.585211 0.151147
0.267263 0.586475 0.152411
0.289267 0.587755 0.153691
0.311500 0.589047 0.154983
0.333938 0.590352 0.156288
0.356561 0.591667 0.157603
0.379354 0.592992 0.158928
0.402303 0.594326 0.160262
0.425397 0.595668 0.161605
0.448626 0.597019 0.162955
0.471981 0.598377 0.164313
0.495455 0.599741 0.165677
0.519042 0.601112 0.167049
0.542736 0.602490 0.168426
0.566531 0.603873 0.169809
0.590422 0.605262 0.171198
0.614406 0.606656 0.172592
0.638479 0.608056 0.173992
0.662636 0.609460 0.175396
0.686875 0.610869 0.176805
0.711193 0.612283 0.178219
0.735586 0.613701 0.179637
0.760052 0.615123 0.181059
0.784589 0.616550 0.182486
0.902022 0.640340 0.183916
0.928914 0.641803 0.185351
0.955876 0.643270 0.186789
0.982907 0.644740 0.188230
1.000000 0.646214 0.189675
1.000000 0.646273 0.189733
0.187080 0.608921 0.152184
0.207707 0.610120 0.153383
0.228786 0.611346 0.154609
0.250227 0.612592 0.155855
0.271970 0.613856 0.157119
0.293974 0.615135 0.158398
0.316208 0.616428 0.159691
0.338646 0.617732 0.160995
0.361269 0.619048 0.162311
0.384062 0.620373 0.163636
0.407011 0.621707 0.164970
0.430105 0.623049 0.166312
0.453334 0.624400 0.167663
0.476689 0.625757 0.169020
0.500163 0.627122 0.170385
0.523750 0.628493 0.171756
0.547444 0.629871 0.173134
0.571239 0.631254 0.174517
0.595130 0.632643 0.175906
0.619114 0.634037 0.177300
0.643187 0.635437 0.178700
0.667344 0.636841 0.180104
0.691583 0.638250 0.181513
0.715900 0.639664 0.182927
0.740294 0.641082 0.184345
0.764760 0.642504 0.185767
0.789297 0.643931 0.187194
0.813902 0.645361 0.188624
0.934046 0.669731 0.190058
0.961008 0.671198 0.191496
0.988038 0.672669 0.192938
1.000000 0.674143 0.194383
1.000000 0.674202 0.194441
0.191804 0.636399 0.156909
0.212432 0.637598 0.158108
0.233511 0.638823 0.159333
0.254952 0.640070 0.160580
0.276695 0.641334 0.161844
0.298699 0.642613 0.163123
0.320932 0.643905 0.164415
0.343370 0.645210 0.165720
0.365994 0.646525 0.167035
0.388786 0.647850 0.168360
0.411735 0.649184 0.169694
0.434829 0.650527 0.171037
0.458058 0.651877 0.172387
0.481413 0.653235 0.173745
0.504888 0.654600 0.175110
0.528474 0.655971 0.176481
0.552168 0.657348 0.177858
0.575963 0.658731 0.179241
0.599855 0.660120 0.180630
0.623839 0.661515 0.182025
0.647911 0.662914 0.183424
0.672068 0.664318 0.184828
0.696307 0.665728 0.186238
0.720625 0.667141 0.187651
0.745018 0.668559 0.189069
0.769484 0.669982 0.190492
0.794021 0.671408 0.191918
0.818627 0.672839 0.193349
0.843298 0.674273 0.194783
0.868034 0.675711 0.196221
0.993188 0.700696 0.197662
1.000000 0.702170 0.199108
1.000000 0.702229 0.199166
0.196544 0.663969 0.161649
0.217172 0.665168 0.162848
0.238251 0.666393 0.164074
0.259692 0.667640 0.165320
0.281435 0.668904 0.166584
0.303439 0.670183 0.167863
0.325672 0.671476 0.169156
0.348110 0.672780 0.170460
0.370734 0.674095 0.171775
0.393527 0.675420 0.173100
0.416476 0.676754 0.174435
0.439570 0.678097 0.175777
0.462798 0.679447 0.177127
0.486154 0.680805 0.178485
0.509628 0.682170 0.179850
0.533215 0.683541 0.181221
0.556908 0.684918 0.182599
0.580703 0.686302 0.183982
0.604595 0.687691 0.185371
0.628579 0.689085 0.186765
0.652651 0.690484 0.188164
0.676809 0.691889 0.189569
0.701048 0.693298 0.190978
0.725365 0.694711 0.192392
0.749758 0.696130 0.193810
0.774225 0.697552 0.195232
0.798762 0.698978 0.196659
0.823367 0.700409 0.198089
0.848039 0.701843 0.199523
0.872775 0.703281 0.200961
0.897573 0.704723 0.202403
1.000000 0.730291 0.203848
1.000000 0.730350 0.203906
0.201300 0.691628 0.166405
0.221928 0.692827 0.167604
0.243007 0.694053 0.168829
0.264448 0.695299 0.170076
0.286191 0.696563 0.171340
0.308195 0.697843 0.172619
0.330428 0.699135 0.173911
0.352866 0.700439 0.175216
0.375490 0.701755 0.176531
0.398283 0.703080 0.177856
0.421232 0.704414 0.179190
0.444325 0.705756 0.180533
0.467554 0.707107 0.181883
0.490909 0.708465 0.183241
0.514384 0.709829 0.184606
0.537970 0.711200 0.185977
0.561664 0.712578 0.187354
0.585459 0.713961 0.188738
0.609351 0.715350 0.190126
0.633335 0.716744 0.191521
0.657407 0.718144 0.192920
0.681565 0.719548 0.194325
0.705803 0.720957 0.195734
0.730121 0.722371 0.197147
0.754514 0.723789 0.198565
0.778980 0.725211 0.199988
0.803517 0.726638 0.201414
0.828123 0.728068 0.202845
0.852795 0.729503 0.204279
0.877531 0.730941 0.205717
0.902329 0.732382 0.207159
0.927188 0.733827 0.208604
1.000000 0.758563 0.208662
0.206071 0.719374 0.171175
0.226698 0.720573 0.172374
0.247777 0.721799 0.173600
0.269218 0.723045 0.174846
0.290961 0.724309 0.176110
0.312965 0.725588 0.177389
0.335199 0.726881 0.178682
0.357637 0.728185 0.179986
0.380260 0.729500 0.181302
0.403053 0.730825 0.182627
0.426002 0.732159 0.183961
0.449096 0.733502 0.185303
0.472325 0.734852 0.186654
0.495680 0.736210 0.188011
0.519154 0.737575 0.189376
0.542741 0.738946 0.190747
0.566435 0.740323 0.192125
0.590230 0.741707 0.193508
0.614121 0.743096 0.194897
0.638105 0.744490 0.196291
0.662178 0.745889 0.197691
0.686335 0.747294 0.199095
0.710574 0.748703 0.200504
0.734891 0.750117 0.201918
0.759285 0.751535 0.203336
0.783751 0.752957 0.204758
0.808288 0.754383 0.206185
0.832893 0.755814 0.207615
0.857565 0.757248 0.209049
0.882301 0.758686 0.210487
0.907099 0.760128 0.211929
0.931959 0.761573 0.213374
0.932954 0.761631 0.213432
0.210856 0.747203 0.175960
0.231483 0.748402 0.177159
0.252562 0.749627 0.178385
0.274003 0.750874 0.179631
0.295746 0.752138 0.180895
0.317750 0.753417 0.182174
0.339983 0.754709 0.183467
0.362421 0.756014 0.184771
0.385045 0.757329 0.186086
0.407838 0.758654 0.187411
0.430787 0.759988 0.188746
0.453881 0.761331 0.190088
0.477109 0.762681 0.191439
0.500465 0.764039 0.192796
0.523939 0.765404 0.194161
0.547526 0.766775 0.195532
0.571219 0.768152 0.196910
0.595014 0.769536 0.198293
0.618906 0.770924 0.199682
0.642890 0.772319 0.201076
0.666963 0.773718 0.202476
0.691120 0.775123 0.203880
0.715359 0.776532 0.205289
0.739676 0.777945 0.206703
0.764069 0.779363 0.208121
0.788536 0.780786 0.209543
0.813073 0.782212 0.210970
0.837678 0.783643 0.212400
0.862350 0.785077 0.213834
0.887086 0.786515 0.215272
0.911884 0.787957 0.216714
0.936743 0.789402 0.218159
0.937739 0.789460 0.218217
0.215654 0.775112 0.180759
0.236282 0.776311 0.181958
0.257361 0.777536 0.183183
0.278802 0.778783 0.184430
0.300545 0.780047 0.185694
0.322549 0.781326 0.186973
0.344782 0.782619 0.188265
0.367220 0.783923 0.189570
0.389844 0.785238 0.190885
0.412637 0.786563 0.192210
0.435586 0.787897 0.193544
0.458679 0.789240 0.194887
0.481908 0.790590 0.196237
0.505263 0.791948 0.197595
0.528738 0.793313 0.198960
0.552324 0.794684 0.200331
0.576018 0.796061 0.201708
0.599813 0.797445 0.203092
0.623705 0.798834 0.204480
