library/cube/Portra_400_001.cube
# CINEGRADE LAB — Premium Cinematic LUT
# Title: Portra 400
# Category: Kodak Portra Emulation
# Description: Warm skin tones, soft contrast, film grain emulating Kodak Portra stocks
# Mood: Warm, filmic, timeless
# Variant: 2
# Generated: 2026-05-21T16:12:47.278690
TITLE "Portra 400"
LUT_3D_SIZE 9
0.093262 0.085212 0.061041
0.180590 0.089489 0.065318
0.272452 0.093989 0.069817
0.367160 0.098627 0.074456
0.463972 0.103369 0.079197
0.562463 0.108192 0.084021
0.662358 0.113085 0.088914
0.763460 0.118037 0.093865
0.841013 0.121835 0.097664
0.107651 0.182651 0.075429
0.194978 0.186928 0.079706
0.326920 0.205256 0.084206
0.428256 0.209987 0.088844
0.531845 0.214824 0.093586
0.637231 0.219744 0.098409
0.676746 0.210524 0.103302
0.777848 0.215476 0.108254
0.855402 0.219274 0.112052
0.122786 0.285150 0.090565
0.210114 0.289427 0.094842
0.301976 0.293926 0.099341
0.444451 0.314536 0.103980
0.548040 0.319372 0.108721
0.653426 0.324293 0.113545
0.760313 0.329283 0.118437
0.868492 0.334334 0.123389
0.951475 0.338208 0.127187
0.138390 0.390823 0.106169
0.225718 0.395100 0.110446
0.317580 0.399599 0.114945
0.412288 0.404238 0.119584
0.509099 0.408979 0.124325
0.670123 0.432079 0.129149
0.777010 0.437070 0.134042
0.885189 0.442120 0.138993
0.968171 0.445995 0.142792
0.154341 0.498844 0.122120
0.241669 0.503121 0.126397
0.333531 0.507620 0.130896
0.428239 0.512259 0.135535
0.525050 0.517000 0.140276
0.623542 0.521824 0.145100
0.794077 0.547251 0.149993
0.902256 0.552302 0.154944
0.985239 0.556176 0.158743
0.170569 0.608740 0.138348
0.257897 0.613017 0.142625
0.349759 0.617516 0.147124
0.444466 0.622154 0.151762
0.541278 0.626896 0.156504
0.639770 0.631720 0.161328
0.739665 0.636612 0.166220
0.919620 0.664395 0.171172
1.000000 0.668270 0.174970
0.187028 0.720201 0.154806
0.274356 0.724478 0.159084
0.366218 0.728977 0.163583
0.460925 0.733615 0.168221
0.557737 0.738357 0.172963
0.656229 0.743181 0.177787
0.756123 0.748073 0.182679
0.857225 0.753025 0.187631
0.934779 0.756823 0.191429
0.203686 0.833009 0.171464
0.291013 0.837286 0.175741
0.382876 0.841785 0.180240
0.477583 0.846423 0.184879
0.574395 0.851165 0.189620
0.672886 0.855989 0.194444
0.772781 0.860881 0.199337
0.873883 0.865833 0.204289
0.951436 0.869631 0.208087
0.216463 0.919542 0.184242
0.303791 0.923819 0.188519
0.395653 0.928318 0.193018
0.490361 0.932956 0.197657
0.587173 0.937698 0.202398
0.685664 0.942522 0.207222
0.785559 0.947414 0.212115
0.886661 0.952366 0.217066
0.964214 0.956164 0.220865
0.094541 0.086491 0.135404
0.181868 0.090768 0.139681
0.273731 0.095267 0.144180
0.368438 0.099905 0.148819
0.465250 0.104647 0.153560
0.563742 0.109471 0.158384
0.663636 0.114363 0.163277
0.764738 0.119315 0.168228
0.842292 0.123113 0.172027
0.108929 0.183930 0.149792
0.196257 0.188207 0.154069
0.288119 0.192706 0.158568
0.382826 0.197344 0.163207
0.479638 0.202086 0.167948
0.578130 0.206910 0.172772
0.678025 0.211802 0.177665
0.779126 0.216754 0.182617
0.856680 0.220552 0.186415
0.124064 0.286428 0.164928
0.211392 0.290705 0.169205
0.303254 0.295204 0.173704
0.445819 0.315840 0.178342
0.549408 0.320676 0.183084
0.654794 0.325596 0.187908
0.761681 0.330587 0.192800
0.794262 0.319252 0.197752
0.871815 0.323051 0.201550
0.139669 0.392101 0.180532
0.226996 0.396378 0.184809
0.318859 0.400877 0.189308
0.413566 0.405516 0.193947
0.566104 0.428463 0.198688
0.671490 0.433383 0.203512
0.778378 0.438373 0.208404
0.886557 0.443424 0.213356
0.969539 0.447298 0.217154
0.155619 0.500122 0.196483
0.242947 0.504399 0.200760
0.334809 0.508899 0.205259
0.429517 0.513537 0.209897
0.526329 0.518279 0.214639
0.624820 0.523102 0.219463
0.795445 0.548555 0.224355
0.903624 0.553606 0.229307
0.986606 0.557480 0.233105
0.171847 0.610018 0.212710
0.259175 0.614295 0.216987
0.351037 0.618794 0.221487
0.445745 0.623433 0.226125
0.542556 0.628174 0.230867
0.641048 0.632998 0.235691
0.740943 0.637891 0.240583
0.920988 0.665699 0.245535
1.000000 0.669573 0.249333
0.188306 0.721479 0.229169
0.275634 0.725756 0.233446
0.367496 0.730255 0.237945
0.462203 0.734894 0.242584
0.559015 0.739635 0.247326
0.657507 0.744459 0.252149
0.757402 0.749352 0.257042
0.858503 0.754303 0.261994
1.000000 0.783264 0.265792
0.204964 0.834287 0.245827
0.292291 0.838564 0.250104
0.384154 0.843063 0.254603
0.478861 0.847702 0.259242
0.575673 0.852443 0.263983
0.674165 0.857267 0.268807
0.774059 0.862160 0.273700
0.875161 0.867111 0.278651
0.952715 0.870910 0.282450
0.217742 0.920820 0.258605
0.305069 0.925097 0.262882
0.396932 0.929596 0.267381
0.491639 0.934235 0.272020
0.588451 0.938976 0.276761
0.686943 0.943800 0.281585
0.786837 0.948692 0.286478
0.887939 0.953644 0.291429
0.965492 0.957442 0.295228
0.095885 0.087835 0.213628
0.183213 0.092112 0.217905
0.275075 0.096611 0.222404
0.369783 0.101250 0.227043
0.466594 0.105991 0.231784
0.565086 0.110815 0.236608
0.664981 0.115708 0.241501
0.766083 0.120660 0.246452
0.843636 0.124458 0.250251
0.110273 0.185274 0.228016
0.197601 0.189551 0.232293
0.289464 0.194050 0.236793
0.384171 0.198689 0.241431
0.480983 0.203430 0.246173
0.579474 0.208254 0.250996
0.679369 0.213147 0.255889
0.780471 0.218099 0.260841
0.858024 0.221897 0.264639
0.125409 0.287773 0.243152
0.212737 0.292050 0.247429
0.304599 0.296549 0.251928
0.399306 0.301187 0.256566
0.496118 0.305929 0.261308
0.594610 0.310753 0.266132
0.694505 0.315645 0.271024
0.795606 0.320597 0.275976
0.873160 0.324395 0.279774
0.141013 0.393446 0.258756
0.228341 0.397723 0.263033
0.320203 0.402222 0.267532
0.414911 0.406861 0.272171
0.567543 0.429834 0.276912
0.672929 0.434754 0.281736
0.779816 0.439745 0.286629
0.887995 0.444796 0.291580
0.888764 0.430068 0.295379
0.156964 0.501467 0.274707
0.244292 0.505744 0.278984
0.336154 0.510243 0.283483
0.430861 0.514882 0.288122
0.527673 0.519623 0.292863
0.689996 0.544936 0.297687
0.796884 0.549926 0.302580
0.905063 0.554977 0.307531
0.988045 0.558851 0.311330
0.173192 0.611363 0.290935
0.260519 0.615640 0.295212
0.352382 0.620139 0.299711
0.447089 0.624777 0.304349
0.543901 0.629519 0.309091
0.642393 0.634343 0.313915
0.742287 0.639235 0.318807
0.922426 0.667071 0.323759
1.000000 0.670945 0.327557
0.189651 0.722824 0.307393
0.276978 0.727101 0.311670
0.368841 0.731600 0.316170
0.463548 0.736238 0.320808
0.560360 0.740980 0.325550
0.658851 0.745804 0.330374
0.758746 0.750696 0.335266
0.859848 0.755648 0.340218
1.000000 0.784635 0.344016
0.206308 0.835631 0.324051
0.293636 0.839909 0.328328
0.385498 0.844408 0.332827
0.480206 0.849046 0.337466
0.577017 0.853788 0.342207
0.675509 0.858612 0.347031
0.775404 0.863504 0.351924
0.876506 0.868456 0.356875
0.954059 0.872254 0.360674
0.219086 0.922164 0.336829
0.306414 0.926441 0.341106
0.398276 0.930941 0.345605
0.492984 0.935579 0.350244
0.589795 0.940321 0.354985
0.688287 0.945145 0.359809
0.788182 0.950037 0.364702
0.889284 0.954989 0.369653
0.966837 0.958787 0.373452
0.097271 0.089221 0.294275
0.184599 0.093498 0.298552
0.276461 0.097998 0.303051
0.371169 0.102636 0.307690
0.467981 0.107378 0.312431
0.566472 0.112202 0.317255
0.666367 0.117094 0.322148
0.767469 0.122046 0.327099
0.845022 0.125844 0.330898
0.111660 0.186660 0.308663
0.198987 0.190937 0.312940
0.290850 0.195437 0.317439
0.385557 0.200075 0.322078
0.482369 0.204817 0.326819
0.580861 0.209641 0.331643
0.680755 0.214533 0.336536
0.781857 0.219485 0.341488
0.859411 0.223283 0.345286
0.126795 0.289159 0.323799
0.214123 0.293436 0.328076
0.305985 0.297935 0.332575
0.400693 0.302574 0.337213
0.497504 0.307315 0.341955
0.595996 0.312139 0.346779
0.695891 0.317032 0.351671
0.796993 0.321983 0.356623
0.874546 0.325782 0.360421
0.142399 0.394832 0.339403
0.229727 0.399109 0.343680
0.321589 0.403608 0.348179
0.416297 0.408247 0.352818
0.513108 0.412988 0.357559
0.611600 0.417812 0.362383
0.711495 0.422705 0.367275
0.812597 0.427656 0.372227
0.890150 0.431455 0.376025
0.158350 0.502853 0.355354
0.245678 0.507130 0.359631
0.337540 0.511629 0.364130
0.432248 0.516268 0.368768
0.529059 0.521009 0.373510
0.691480 0.546350 0.378334
0.798367 0.551340 0.383226
0.906546 0.556391 0.388178
0.989528 0.560265 0.391976
0.174578 0.612749 0.371581
0.261906 0.617026 0.375858
0.353768 0.621525 0.380358
0.448475 0.626163 0.384996
0.545287 0.630905 0.389738
0.643779 0.635729 0.394562
0.815731 0.663434 0.399454
0.923910 0.668485 0.404406
1.000000 0.672359 0.408204
0.191037 0.724210 0.388040
0.278365 0.728487 0.392317
0.370227 0.732986 0.396816
0.464934 0.737624 0.401455
0.561746 0.742366 0.406197
0.660238 0.747190 0.411020
0.760132 0.752082 0.415913
0.861234 0.757034 0.420865
1.000000 0.786049 0.424663
0.207695 0.837018 0.404698
0.295022 0.841295 0.408975
0.386885 0.845794 0.413474
0.481592 0.850432 0.418113
0.578404 0.855174 0.422854
0.676895 0.859998 0.427678
0.776790 0.864890 0.432571
0.877892 0.869842 0.437522
0.955445 0.873640 0.441321
0.220472 0.923551 0.417476
0.307800 0.927828 0.421753
0.399662 0.932327 0.426252
0.494370 0.936965 0.430891
0.591182 0.941707 0.435632
0.689673 0.946531 0.440456
0.789568 0.951423 0.445349
0.890670 0.956375 0.450300
0.968223 0.960173 0.454099
0.098688 0.090638 0.376714
0.186016 0.094915 0.380991
0.277878 0.099415 0.385490
0.372586 0.104053 0.390128
0.469398 0.108795 0.394870
0.567889 0.113619 0.399694
0.667784 0.118511 0.404586
0.768886 0.123463 0.409538
0.846439 0.127261 0.413336
0.113077 0.188077 0.391102
0.200404 0.192354 0.395379
0.292267 0.196854 0.399878
0.386974 0.201492 0.404517
0.483786 0.206234 0.409258
0.582278 0.211058 0.414082
0.682172 0.215950 0.418975
0.783274 0.220902 0.423926
0.860828 0.224700 0.427725
0.128212 0.290576 0.406237
0.215540 0.294853 0.410514
0.307402 0.299352 0.415014
0.402110 0.303991 0.419652
0.498921 0.308732 0.424394
0.597413 0.313556 0.429218
0.697308 0.318449 0.434110
0.798410 0.323400 0.439062
0.875963 0.327199 0.442860
0.143816 0.396249 0.421842
0.231144 0.400526 0.426119
0.323006 0.405025 0.430618
0.417714 0.409664 0.435256
0.514526 0.414405 0.439998
0.613017 0.419229 0.444822
0.712912 0.424122 0.449714
0.814014 0.429073 0.454666
0.891567 0.432872 0.458464
0.159767 0.504270 0.437792
0.247095 0.508547 0.442070
0.338957 0.513046 0.446569
0.433665 0.517685 0.451207
0.530476 0.522426 0.455949
0.628968 0.527250 0.460773
0.728863 0.532143 0.465665
0.829965 0.537094 0.470617
0.907518 0.540893 0.474415
0.175995 0.614166 0.454020
0.263323 0.618443 0.458297
0.355185 0.622942 0.462796
0.449892 0.627580 0.467435
0.546704 0.632322 0.472176
0.645196 0.637146 0.477000
0.817247 0.664879 0.481893
0.925426 0.669930 0.486845
1.000000 0.673804 0.490643
0.192454 0.725627 0.470479
0.279782 0.729904 0.474756
0.371644 0.734403 0.479255
0.466351 0.739041 0.483894
0.563163 0.743783 0.488635
0.661655 0.748607 0.493459
0.761549 0.753499 0.498352
0.943037 0.783620 0.503303
1.000000 0.787494 0.507102
0.209112 0.838435 0.487137
0.296439 0.842712 0.491414
0.388302 0.847211 0.495913
0.483009 0.851849 0.500552
0.579821 0.856591 0.505293
0.678312 0.861415 0.510117
0.778207 0.866307 0.515009
0.879309 0.871259 0.519961
0.956862 0.875057 0.523759
0.221889 0.924968 0.499915
0.309217 0.929245 0.504192
0.401079 0.933744 0.508691
0.495787 0.938382 0.513329
0.592599 0.943124 0.518071
0.691090 0.947948 0.522895
0.790985 0.952840 0.527787
0.892087 0.957792 0.532739
0.969640 0.961590 0.536537
0.100130 0.092080 0.460583
0.187458 0.096357 0.464860
0.279320 0.100856 0.469359
0.374027 0.105495 0.473998
0.470839 0.110236 0.478739
0.569331 0.115060 0.483563
0.669226 0.119953 0.488456
0.770328 0.124904 0.493407
0.847881 0.128703 0.497206
0.114518 0.189519 0.474971
0.201846 0.193796 0.479248
0.293708 0.198295 0.483748
0.388416 0.202934 0.488386
0.485228 0.207675 0.493128
0.583719 0.212499 0.497951
0.683614 0.217392 0.502844
0.784716 0.222343 0.507796
0.862269 0.226142 0.511594
0.129654 0.292018 0.490107
0.216982 0.296295 0.494384
0.308844 0.300794 0.498883
0.403551 0.305432 0.503521
0.500363 0.310174 0.508263
0.598855 0.314998 0.513087
0.698749 0.319890 0.517979
0.799851 0.324842 0.522931
0.877405 0.328640 0.526729
0.145258 0.397691 0.505711
0.232586 0.401968 0.509988
0.324448 0.406467 0.514487
0.419155 0.411105 0.519126
0.515967 0.415847 0.523867
0.614459 0.420671 0.528691
0.714354 0.425563 0.533584
0.815455 0.430515 0.538535
0.893009 0.434313 0.542334
0.161209 0.505712 0.521662
0.248537 0.509989 0.525939
0.340399 0.514488 0.530438
0.435106 0.519126 0.535077
0.531918 0.523868 0.539818
0.630410 0.528692 0.544642
0.730304 0.533584 0.549535
0.831406 0.538536 0.554486
0.908960 0.542334 0.558285
0.177437 0.615607 0.537890
0.264764 0.619884 0.542167
0.356627 0.624384 0.546666
0.451334 0.629022 0.551304
0.548146 0.633764 0.556046
0.646637 0.638587 0.560870
0.746532 0.643480 0.565762
0.847634 0.648432 0.570714
0.925187 0.652230 0.574512
0.193895 0.727068 0.554348
0.281223 0.731345 0.558625
0.373085 0.735845 0.563125
0.467793 0.740483 0.567763
0.564605 0.745225 0.572505
0.663096 0.750049 0.577329
0.762991 0.754941 0.582221
0.944579 0.785091 0.587173
1.000000 0.788965 0.590971
0.210553 0.839876 0.571006
0.297881 0.844153 0.575283
0.389743 0.848653 0.579782
0.484451 0.853291 0.584421
0.581262 0.858033 0.589162
0.679754 0.862856 0.593986
0.779649 0.867749 0.598879
0.880751 0.872701 0.603831
1.000000 0.904029 0.607629
0.223331 0.926409 0.583784
0.310659 0.930686 0.588061
0.402521 0.935185 0.592560
0.497228 0.939824 0.597199
0.594040 0.944566 0.601940
0.692532 0.949389 0.606764
0.792427 0.954282 0.611657
0.893528 0.959234 0.616608
0.971082 0.963032 0.620407
0.101592 0.093542 0.545647
0.188920 0.097819 0.549924
0.280782 0.102318 0.554423
0.375490 0.106957 0.559062
0.472301 0.111698 0.563803
0.570793 0.116522 0.568627
0.670688 0.121415 0.573520
0.771790 0.126367 0.578471
0.849343 0.130165 0.582270
0.115981 0.190981 0.560035
0.203308 0.195258 0.564312
0.295171 0.199757 0.568812
0.389878 0.204396 0.573450
0.486690 0.209137 0.578192
0.585181 0.213961 0.583016
0.685076 0.218854 0.587908
0.786178 0.223806 0.592860
0.863731 0.227604 0.596658
0.131116 0.293480 0.575171
0.218444 0.297757 0.579448
0.310306 0.302256 0.583947
0.405013 0.306894 0.588586
0.501825 0.311636 0.593327
0.600317 0.316460 0.598151
0.700212 0.321352 0.603043
0.801313 0.326304 0.607995
0.878867 0.330102 0.611794
0.146720 0.399153 0.590775
0.234048 0.403430 0.595052
0.325910 0.407929 0.599551
0.420618 0.412568 0.604190
0.517429 0.417309 0.608931
0.615921 0.422133 0.613755
0.715816 0.427025 0.618648
0.816918 0.431977 0.623599
0.894471 0.435775 0.627398
0.162671 0.507174 0.606726
0.249999 0.511451 0.611003
0.341861 0.515950 0.615502
0.436568 0.520589 0.620141
0.533380 0.525330 0.624882
0.631872 0.530154 0.629706
0.731767 0.535047 0.634599
0.832868 0.539998 0.639550
0.910422 0.543797 0.643349
0.178899 0.617070 0.622954
0.266226 0.621347 0.627231
0.358089 0.625846 0.631730
0.452796 0.630484 0.636368
0.549608 0.635226 0.641110
0.648100 0.640050 0.645934
0.747994 0.644942 0.650826
0.849096 0.649894 0.655778
0.926650 0.653692 0.659576
0.195358 0.728531 0.639412
0.282685 0.732808 0.643690
0.374548 0.737307 0.648189
0.469255 0.741945 0.652827
0.566067 0.746687 0.657569
0.664558 0.751511 0.662393
0.764453 0.756403 0.667285
0.865555 0.761355 0.672237
0.943108 0.765153 0.676035
0.212015 0.841338 0.656070
0.299343 0.845616 0.660347
0.391205 0.850115 0.664846
0.485913 0.854753 0.669485
0.582724 0.859495 0.674226
0.681216 0.864319 0.679050
0.781111 0.869211 0.683943
0.882213 0.874163 0.688895
1.000000 0.905520 0.692693
0.224793 0.927871 0.668848
0.312121 0.932148 0.673125
0.403983 0.936648 0.677624
0.498691 0.941286 0.682263
0.595502 0.946028 0.687004
0.693994 0.950852 0.691828
0.793889 0.955744 0.696721
0.894991 0.960696 0.701672
0.972544 0.964494 0.705471
0.103072 0.095022 0.631739
0.190400 0.099299 0.636016
0.282262 0.103798 0.640515
0.376969 0.108437 0.645154
0.473781 0.113178 0.649895
0.572273 0.118002 0.654719
0.672168 0.122895 0.659612
0.773269 0.127846 0.664563
0.850823 0.131645 0.668362
0.117460 0.192461 0.646127
0.204788 0.196738 0.650404
0.296650 0.201237 0.654904
0.391358 0.205876 0.659542
0.488169 0.210617 0.664284
0.586661 0.215441 0.669107
0.686556 0.220334 0.674000
0.787658 0.225285 0.678952
0.865211 0.229084 0.682750
0.132596 0.294960 0.661263
0.219923 0.299237 0.665540
0.311786 0.303736 0.670039
0.406493 0.308374 0.674678
0.503305 0.313116 0.679419
0.601797 0.317940 0.684243
0.701691 0.322832 0.689135
0.802793 0.327784 0.694087
0.880347 0.331582 0.697885
0.148200 0.400633 0.676867
0.235528 0.404910 0.681144
0.327390 0.409409 0.685643
0.422097 0.414047 0.690282
0.518909 0.418789 0.695023
0.617401 0.423613 0.699847
0.717296 0.428505 0.704740
0.818397 0.433457 0.709691
0.895951 0.437255 0.713490
0.164151 0.508654 0.692818
0.251479 0.512931 0.697095
0.343341 0.517430 0.701594
0.438048 0.522068 0.706233
0.534860 0.526810 0.710974
0.633352 0.531634 0.715798
0.733246 0.536526 0.720691
0.834348 0.541478 0.725642
0.911902 0.545276 0.729441
0.180379 0.618549 0.709046
0.267706 0.622826 0.713323
0.359569 0.627326 0.717822
0.454276 0.631964 0.722460
0.551088 0.636706 0.727202
0.649579 0.641529 0.732026
0.749474 0.646422 0.736918
0.850576 0.651374 0.741870
0.928129 0.655172 0.745668
0.196837 0.730010 0.725504
0.284165 0.734287 0.729782
0.376027 0.738787 0.734281
0.470735 0.743425 0.738919
0.567547 0.748167 0.743661
0.666038 0.752990 0.748485
0.765933 0.757883 0.753377
0.867035 0.762835 0.758329
0.944588 0.766633 0.762127
0.213495 0.842818 0.742162
0.300823 0.847095 0.746439
0.392685 0.851594 0.750938
0.487393 0.856233 0.755577
0.584204 0.860975 0.760318
0.682696 0.865798 0.765142
0.782591 0.870691 0.770035
0.883693 0.875643 0.774987
0.961246 0.879441 0.778785
0.226273 0.929351 0.754940
0.313601 0.933628 0.759217
0.405463 0.938127 0.763716
0.500170 0.942766 0.768355
0.596982 0.947508 0.773096
0.695474 0.952331 0.777920
0.795369 0.957224 0.782813
0.896470 0.962176 0.787764
0.974024 0.965974 0.791563
0.104207 0.096157 0.697779
0.191535 0.100434 0.702056
0.283397 0.104933 0.706555
0.378105 0.109572 0.711193
0.474916 0.114313 0.715935
0.573408 0.119137 0.720759
0.673303 0.124030 0.725651
0.774405 0.128981 0.730603
0.851958 0.132780 0.734401
0.118595 0.193596 0.712167
0.205923 0.197873 0.716444
0.297786 0.202372 0.720943
0.392493 0.207011 0.725582
0.489305 0.211752 0.730323
0.587796 0.216576 0.735147
0.687691 0.221469 0.740040
0.788793 0.226420 0.744991
0.866346 0.230219 0.748790
0.133731 0.296095 0.727302
0.221059 0.300372 0.731579
0.312921 0.304871 0.736079
0.407628 0.309509 0.740717
0.504440 0.314251 0.745459
0.602932 0.319075 0.750283
0.702827 0.323967 0.755175
0.803928 0.328919 0.760127
0.881482 0.332717 0.763925
0.149335 0.401768 0.742907
0.236663 0.406045 0.747184
0.328525 0.410544 0.751683
0.423232 0.415182 0.756321
0.520044 0.419924 0.761063
0.618536 0.424748 0.765887
0.718431 0.429640 0.770779
0.819533 0.434592 0.775731
0.897086 0.438390 0.779529
0.165286 0.509789 0.758858
0.252614 0.514066 0.763135
0.344476 0.518565 0.767634
0.439183 0.523204 0.772272
0.535995 0.527945 0.777014
0.634487 0.532769 0.781838
0.734382 0.537662 0.786730
0.835483 0.542613 0.791682
0.913037 0.546412 0.795480
0.181514 0.619684 0.775085
0.268841 0.623962 0.779362
0.360704 0.628461 0.783861
0.455411 0.633099 0.788500
0.552223 0.637841 0.793241
0.650715 0.642665 0.798065
0.750609 0.647557 0.802958
0.851711 0.652509 0.807910
0.929265 0.656307 0.811708
0.197973 0.731146 0.791544
0.285300 0.735423 0.795821
0.377163 0.739922 0.800320
0.471870 0.744560 0.804959
0.568682 0.749302 0.809700
0.667173 0.754126 0.814524
0.767068 0.759018 0.819417
0.868170 0.763970 0.824368
0.945723 0.767768 0.828167
0.214630 0.843953 0.808202
0.301958 0.848230 0.812479
0.393820 0.852730 0.816978
0.488528 0.857368 0.821617
0.585339 0.862110 0.826358
0.683831 0.866934 0.831182
0.783726 0.871826 0.836074
0.884828 0.876778 0.841026
0.962381 0.880576 0.844824
0.227408 0.930486 0.820980
0.314736 0.934763 0.825257
0.406598 0.939263 0.829756
0.501306 0.943901 0.834394
0.598117 0.948643 0.839136
0.696609 0.953466 0.843960
0.796504 0.958359 0.848852
0.897606 0.963311 0.853804
0.975159 0.967109 0.857602
