library/cube/Portra_Warm_003.cube
# CINEGRADE LAB — Premium Cinematic LUT
# Title: Portra Warm
# Category: Kodak Portra Emulation
# Description: Warm skin tones, soft contrast, film grain emulating Kodak Portra stocks
# Mood: Warm, filmic, timeless
# Variant: 4
# Generated: 2026-05-21T16:12:48.144662
TITLE "Portra Warm"
LUT_3D_SIZE 9
0.097880 0.090130 0.062984
0.182771 0.095065 0.067919
0.272069 0.100256 0.073111
0.364134 0.105608 0.078463
0.458244 0.111079 0.083934
0.553987 0.116645 0.089500
0.651094 0.122291 0.095145
0.749374 0.128004 0.100859
0.824763 0.132387 0.105241
0.114482 0.186687 0.079586
0.199373 0.191623 0.084521
0.334652 0.210750 0.089713
0.435002 0.216209 0.095065
0.537582 0.221790 0.100536
0.641942 0.227467 0.106102
0.667696 0.218848 0.111747
0.765976 0.224562 0.117461
0.841365 0.228944 0.121843
0.131946 0.288259 0.097050
0.216836 0.293194 0.101985
0.306135 0.298385 0.107177
0.454037 0.319812 0.112529
0.556617 0.325392 0.118000
0.660977 0.331070 0.123566
0.766824 0.336828 0.129211
0.873950 0.342656 0.134924
0.956124 0.347126 0.139307
0.149951 0.392976 0.115055
0.234841 0.397911 0.119990
0.324140 0.403102 0.125181
0.416204 0.408454 0.130534
0.510314 0.413925 0.136005
0.680603 0.437881 0.141571
0.786449 0.443639 0.147216
0.893575 0.449467 0.152929
0.975749 0.453937 0.157312
0.168355 0.500020 0.133460
0.253246 0.504955 0.138395
0.342545 0.510146 0.143586
0.434609 0.515498 0.148938
0.528719 0.520969 0.154409
0.624462 0.526535 0.159975
0.806511 0.552824 0.165621
0.913636 0.558652 0.171334
0.995810 0.563122 0.175717
0.187080 0.608921 0.152184
0.271970 0.613856 0.157119
0.361269 0.619048 0.162311
0.453334 0.624400 0.167663
0.547444 0.629871 0.173134
0.643187 0.635437 0.178700
0.740294 0.641082 0.184345
0.934046 0.669731 0.190058
1.000000 0.674202 0.194441
0.206071 0.719374 0.171175
0.290961 0.724309 0.176110
0.380260 0.729500 0.181302
0.472325 0.734852 0.186654
0.566435 0.740323 0.192125
0.662178 0.745889 0.197691
0.759285 0.751535 0.203336
0.857565 0.757248 0.209049
0.932954 0.761631 0.213432
0.225291 0.831161 0.190396
0.310182 0.836096 0.195331
0.399481 0.841288 0.200522
0.491545 0.846640 0.205874
0.585655 0.852111 0.211345
0.681398 0.857677 0.216911
0.778505 0.863322 0.222556
0.876786 0.869036 0.228270
0.952175 0.873418 0.232653
0.240035 0.916911 0.205139
0.324926 0.921847 0.210074
0.414224 0.927038 0.215266
0.506289 0.932390 0.220618
0.600399 0.937861 0.226089
0.696142 0.943427 0.231655
0.793249 0.949072 0.237300
0.891529 0.954786 0.243014
0.966918 0.959168 0.247396
0.099355 0.091605 0.134820
0.184245 0.096540 0.139755
0.273544 0.101731 0.144947
0.365609 0.107083 0.150299
0.459719 0.112554 0.155770
0.555462 0.118120 0.161336
0.652569 0.123766 0.166981
0.750849 0.129479 0.172694
0.826238 0.133862 0.177077
0.115957 0.188162 0.151422
0.200847 0.193097 0.156357
0.290146 0.198289 0.161549
0.382210 0.203641 0.166901
0.476320 0.209112 0.172372
0.572064 0.214678 0.177938
0.669171 0.220323 0.183583
0.767451 0.226037 0.189296
0.842840 0.230419 0.193679
0.133421 0.289734 0.168886
0.218311 0.294669 0.173821
0.307610 0.299860 0.179012
0.455645 0.321316 0.184365
0.558225 0.326897 0.189836
0.662585 0.332574 0.195402
0.768432 0.338332 0.201047
0.784915 0.327608 0.206760
0.860304 0.331991 0.211143
0.151425 0.394451 0.186891
0.236316 0.399386 0.191826
0.325615 0.404577 0.197017
0.417679 0.409929 0.202369
0.577850 0.433708 0.207840
0.682210 0.439386 0.213406
0.788057 0.445144 0.219052
0.895183 0.450971 0.224765
0.977357 0.455442 0.229148
0.169830 0.501495 0.205296
0.254721 0.506430 0.210231
0.344020 0.511621 0.215422
0.436084 0.516973 0.220774
0.530194 0.522444 0.226245
0.625937 0.528010 0.231811
0.808118 0.554328 0.237457
0.915244 0.560156 0.243170
0.997418 0.564627 0.247553
0.188555 0.610396 0.224020
0.273445 0.615331 0.228955
0.362744 0.620522 0.234146
0.454808 0.625875 0.239499
0.548918 0.631346 0.244970
0.644662 0.636912 0.250536
0.741769 0.642557 0.256181
0.935653 0.671236 0.261894
1.000000 0.675706 0.266277
0.207546 0.720849 0.243011
0.292436 0.725784 0.247946
0.381735 0.730975 0.253137
0.473799 0.736327 0.258490
0.567909 0.741798 0.263961
0.663653 0.747364 0.269527
0.760760 0.753010 0.275172
0.859040 0.758723 0.280885
1.000000 0.788368 0.285268
0.226766 0.832636 0.262232
0.311657 0.837571 0.267167
0.400955 0.842763 0.272358
0.493020 0.848115 0.277710
0.587130 0.853586 0.283181
0.682873 0.859152 0.288747
0.779980 0.864797 0.294392
0.878260 0.870510 0.300106
0.953650 0.874893 0.304488
0.241510 0.918386 0.276975
0.326400 0.923321 0.281910
0.415699 0.928513 0.287102
0.507764 0.933865 0.292454
0.601874 0.939336 0.297925
0.697617 0.944902 0.303491
0.794724 0.950547 0.309136
0.893004 0.956261 0.314849
0.968393 0.960643 0.319232
0.100906 0.093156 0.210386
0.185797 0.098091 0.215321
0.275096 0.103283 0.220513
0.367160 0.108635 0.225865
0.461270 0.114106 0.231336
0.557013 0.119672 0.236902
0.654120 0.125317 0.242547
0.752401 0.131030 0.248260
0.827790 0.135413 0.252643
0.117508 0.189714 0.226988
0.202399 0.194649 0.231923
0.291698 0.199840 0.237114
0.383762 0.205192 0.242467
0.477872 0.210663 0.247938
0.573615 0.216229 0.253504
0.670722 0.221874 0.259149
0.769002 0.227588 0.264862
0.844392 0.231971 0.269245
0.134972 0.291285 0.244452
0.219863 0.296220 0.249387
0.309161 0.301411 0.254578
0.401226 0.306764 0.259930
0.495336 0.312235 0.265402
0.591079 0.317801 0.270967
0.688186 0.323446 0.276613
0.786466 0.329159 0.282326
0.861856 0.333542 0.286709
0.152977 0.396002 0.262457
0.237868 0.400937 0.267392
0.327166 0.406129 0.272583
0.419231 0.411481 0.277935
0.579541 0.435291 0.283406
0.683901 0.440968 0.288972
0.789748 0.446726 0.294618
0.896874 0.452554 0.300331
0.879860 0.438259 0.304714
0.171382 0.503046 0.280862
0.256272 0.507981 0.285797
0.345571 0.513172 0.290988
0.437636 0.518525 0.296340
0.531746 0.523996 0.301811
0.703963 0.550153 0.307377
0.809809 0.555911 0.313022
0.916935 0.561739 0.318736
0.999109 0.566209 0.323119
0.190106 0.611948 0.299586
0.274997 0.616883 0.304521
0.364295 0.622074 0.309712
0.456360 0.627426 0.315064
0.550470 0.632897 0.320535
0.646213 0.638463 0.326101
0.743320 0.644108 0.331747
0.937344 0.672818 0.337460
1.000000 0.677289 0.341843
0.209097 0.722400 0.318577
0.293988 0.727335 0.323512
0.383286 0.732527 0.328703
0.475351 0.737879 0.334055
0.569461 0.743350 0.339526
0.665204 0.748916 0.345092
0.762311 0.754561 0.350738
0.860591 0.760274 0.356451
1.000000 0.789950 0.360834
0.228317 0.834188 0.337797
0.313208 0.839123 0.342733
0.402507 0.844314 0.347924
0.494571 0.849666 0.353276
0.588681 0.855137 0.358747
0.684424 0.860703 0.364313
0.781531 0.866348 0.369958
0.879812 0.872062 0.375672
0.955201 0.876445 0.380054
0.243061 0.919938 0.352541
0.327952 0.924873 0.357476
0.417251 0.930064 0.362668
0.509315 0.935416 0.368020
0.603425 0.940887 0.373491
0.699168 0.946453 0.379057
0.796275 0.952099 0.384702
0.894556 0.957812 0.390415
0.969945 0.962195 0.394798
0.102506 0.094756 0.288292
0.187396 0.099691 0.293228
0.276695 0.104882 0.298419
0.368759 0.110234 0.303771
0.462870 0.115705 0.309242
0.558613 0.121271 0.314808
0.655720 0.126916 0.320453
0.754000 0.132630 0.326167
0.829389 0.137013 0.330549
0.119108 0.191313 0.304894
0.203998 0.196248 0.309829
0.293297 0.201440 0.315021
0.385361 0.206792 0.320373
0.479471 0.212263 0.325844
0.575215 0.217829 0.331410
0.672322 0.223474 0.337055
0.770602 0.229187 0.342769
0.845991 0.233570 0.347151
0.136572 0.292885 0.322358
0.221462 0.297820 0.327293
0.310761 0.303011 0.332485
0.402825 0.308363 0.337837
0.496935 0.313834 0.343308
0.592679 0.319400 0.348874
0.689785 0.325045 0.354519
0.788066 0.330759 0.360232
0.863455 0.335141 0.364615
0.154576 0.397602 0.340363
0.239467 0.402537 0.345298
0.328766 0.407728 0.350489
0.420830 0.413080 0.355842
0.514940 0.418551 0.361313
0.610683 0.424117 0.366879
0.707790 0.429762 0.372524
0.806071 0.435476 0.378237
0.881460 0.439859 0.382620
0.172981 0.504646 0.358768
0.257872 0.509581 0.363703
0.347171 0.514772 0.368894
0.439235 0.520124 0.374246
0.533345 0.525595 0.379718
0.705706 0.551784 0.385283
0.811553 0.557542 0.390929
0.918678 0.563370 0.396642
1.000000 0.567841 0.401025
0.191706 0.613547 0.377492
0.276596 0.618482 0.382427
0.365895 0.623673 0.387619
0.457959 0.629025 0.392971
0.552069 0.634497 0.398442
0.647812 0.640062 0.404008
0.831962 0.668622 0.409653
0.939088 0.674450 0.415366
1.000000 0.678920 0.419749
0.210697 0.724000 0.396483
0.295587 0.728935 0.401418
0.384886 0.734126 0.406610
0.476950 0.739478 0.411962
0.571060 0.744949 0.417433
0.666803 0.750515 0.422999
0.763910 0.756160 0.428644
0.862191 0.761874 0.434357
1.000000 0.791582 0.438740
0.229917 0.835787 0.415704
0.314808 0.840722 0.420639
0.404106 0.845913 0.425830
0.496171 0.851266 0.431182
0.590281 0.856737 0.436653
0.686024 0.862303 0.442219
0.783131 0.867948 0.447864
0.881411 0.873661 0.453578
0.956800 0.878044 0.457961
0.244661 0.921537 0.430447
0.329551 0.926472 0.435382
0.418850 0.931664 0.440574
0.510914 0.937016 0.445926
0.605024 0.942487 0.451397
0.700768 0.948053 0.456963
0.797875 0.953698 0.462608
0.896155 0.959411 0.468322
0.971544 0.963794 0.472704
0.104141 0.096391 0.367930
0.189031 0.101326 0.372865
0.278330 0.106517 0.378056
0.370395 0.111869 0.383408
0.464505 0.117340 0.388879
0.560248 0.122906 0.394445
0.657355 0.128551 0.400091
0.755635 0.134265 0.405804
0.831024 0.138648 0.410187
0.120743 0.192948 0.384532
0.205633 0.197883 0.389467
0.294932 0.203075 0.394658
0.386996 0.208427 0.400010
0.481106 0.213898 0.405481
0.576850 0.219464 0.411047
0.673957 0.225109 0.416692
0.772237 0.230822 0.422406
0.847626 0.235205 0.426789
0.138207 0.294520 0.401996
0.223097 0.299455 0.406931
0.312396 0.304646 0.412122
0.404460 0.309998 0.417474
0.498570 0.315469 0.422945
0.594314 0.321035 0.428511
0.691420 0.326680 0.434156
0.789701 0.332394 0.439870
0.865090 0.336776 0.444253
0.156211 0.399237 0.420000
0.241102 0.404172 0.424936
0.330401 0.409363 0.430127
0.422465 0.414715 0.435479
0.516575 0.420186 0.440950
0.612318 0.425752 0.446516
0.709425 0.431397 0.452161
0.807706 0.437111 0.457875
0.883095 0.441494 0.462257
0.174616 0.506281 0.438405
0.259507 0.511216 0.443340
0.348806 0.516407 0.448532
0.440870 0.521759 0.453884
0.534980 0.527230 0.459355
0.630723 0.532796 0.464921
0.727830 0.538441 0.470566
0.826111 0.544155 0.476280
0.901500 0.548537 0.480662
0.193341 0.615182 0.457130
0.278231 0.620117 0.462065
0.367530 0.625308 0.467256
0.459594 0.630661 0.472608
0.553704 0.636132 0.478079
0.649448 0.641698 0.483645
0.833744 0.670290 0.489290
0.940870 0.676117 0.495004
1.000000 0.680588 0.499387
0.212332 0.725635 0.476121
0.297222 0.730570 0.481056
0.386521 0.735761 0.486247
0.478585 0.741113 0.491599
0.572695 0.746584 0.497070
0.668439 0.752150 0.502636
0.765545 0.757795 0.508281
0.961570 0.788779 0.513995
1.000000 0.793249 0.518378
0.231552 0.837422 0.495341
0.316443 0.842357 0.500276
0.405741 0.847549 0.505467
0.497806 0.852901 0.510820
0.591916 0.858372 0.516291
0.687659 0.863938 0.521857
0.784766 0.869583 0.527502
0.883046 0.875296 0.533215
0.958436 0.879679 0.537598
0.246296 0.923172 0.510085
0.331186 0.928107 0.515020
0.420485 0.933299 0.520211
0.512549 0.938651 0.525563
0.606660 0.944122 0.531034
0.702403 0.949688 0.536600
0.799510 0.955333 0.542246
0.897790 0.961046 0.547959
0.973179 0.965429 0.552342
0.105804 0.098054 0.448949
0.190695 0.102989 0.453884
0.279994 0.108181 0.459076
0.372058 0.113533 0.464428
0.466168 0.119004 0.469899
0.561911 0.124570 0.475465
0.659018 0.130215 0.481110
0.757298 0.135928 0.486823
0.832688 0.140311 0.491206
0.122406 0.194612 0.465551
0.207297 0.199547 0.470486
0.296595 0.204738 0.475677
0.388660 0.210090 0.481029
0.482770 0.215561 0.486501
0.578513 0.221127 0.492066
0.675620 0.226772 0.497712
0.773900 0.232486 0.503425
0.849290 0.236869 0.507808
0.139870 0.296183 0.483015
0.224761 0.301118 0.487950
0.314059 0.306309 0.493141
0.406124 0.311661 0.498493
0.500234 0.317133 0.503964
0.595977 0.322698 0.509530
0.693084 0.328344 0.515176
0.791364 0.334057 0.520889
0.866753 0.338440 0.525272
0.157875 0.400900 0.501020
0.242765 0.405835 0.505955
0.332064 0.411026 0.511146
0.424129 0.416379 0.516498
0.518239 0.421850 0.521969
0.613982 0.427416 0.527535
0.711089 0.433061 0.533181
0.809369 0.438774 0.538894
0.884758 0.443157 0.543277
0.176280 0.507944 0.519425
0.261170 0.512879 0.524360
0.350469 0.518070 0.529551
0.442533 0.523422 0.534903
0.536643 0.528893 0.540374
0.632387 0.534459 0.545940
0.729494 0.540105 0.551585
0.827774 0.545818 0.557299
0.903163 0.550201 0.561682
0.195004 0.616845 0.538149
0.279895 0.621780 0.543084
0.369193 0.626972 0.548275
0.461258 0.632324 0.553627
0.555368 0.637795 0.559098
0.651111 0.643361 0.564664
0.748218 0.649006 0.570310
0.846498 0.654720 0.576023
0.921887 0.659102 0.580406
0.213995 0.727298 0.557140
0.298886 0.732233 0.562075
0.388184 0.737425 0.567266
0.480249 0.742777 0.572618
0.574359 0.748248 0.578089
0.670102 0.753814 0.583655
0.767209 0.759459 0.589301
0.963383 0.790476 0.595014
1.000000 0.794946 0.599397
0.233215 0.839086 0.576360
0.318106 0.844021 0.581295
0.407405 0.849212 0.586487
0.499469 0.854564 0.591839
0.593579 0.860035 0.597310
0.689322 0.865601 0.602876
0.786429 0.871246 0.608521
0.884710 0.876960 0.614235
1.000000 0.908969 0.618617
0.247959 0.924836 0.591104
0.332850 0.929771 0.596039
0.422149 0.934962 0.601230
0.514213 0.940314 0.606583
0.608323 0.945785 0.612054
0.704066 0.951351 0.617620
0.801173 0.956996 0.623265
0.899453 0.962710 0.628978
0.974843 0.967093 0.633361
0.107491 0.099741 0.531123
0.192382 0.104676 0.536058
0.281681 0.109868 0.541249
0.373745 0.115220 0.546601
0.467855 0.120691 0.552072
0.563598 0.126257 0.557638
0.660705 0.131902 0.563283
0.758986 0.137615 0.568997
0.834375 0.141998 0.573379
0.124093 0.196299 0.547724
0.208984 0.201234 0.552659
0.298283 0.206425 0.557851
0.390347 0.211777 0.563203
0.484457 0.217248 0.568674
0.580200 0.222814 0.574240
0.677307 0.228460 0.579885
0.775587 0.234173 0.585599
0.850977 0.238556 0.589981
0.141557 0.297870 0.565188
0.226448 0.302805 0.570123
0.315746 0.307996 0.575315
0.407811 0.313349 0.580667
0.501921 0.318820 0.586138
0.597664 0.324386 0.591704
0.694771 0.330031 0.597349
0.793051 0.335744 0.603063
0.868441 0.340127 0.607445
0.159562 0.402587 0.583193
0.244453 0.407522 0.588128
0.333751 0.412714 0.593320
0.425816 0.418066 0.598672
0.519926 0.423537 0.604143
0.615669 0.429103 0.609709
0.712776 0.434748 0.615354
0.811056 0.440461 0.621067
0.886445 0.444844 0.625450
0.177967 0.509631 0.601598
0.262857 0.514566 0.606533
0.352156 0.519757 0.611724
0.444221 0.525110 0.617077
0.538331 0.530581 0.622548
0.634074 0.536147 0.628114
0.731181 0.541792 0.633759
0.829461 0.547505 0.639472
0.904850 0.551888 0.643855
0.196691 0.618533 0.620322
0.281582 0.623468 0.625257
0.370880 0.628659 0.630449
0.462945 0.634011 0.635801
0.557055 0.639482 0.641272
0.652798 0.645048 0.646838
0.749905 0.650693 0.652483
0.848185 0.656407 0.658197
0.923575 0.660789 0.662579
0.215682 0.728985 0.639313
0.300573 0.733920 0.644248
0.389871 0.739112 0.649440
0.481936 0.744464 0.654792
0.576046 0.749935 0.660263
0.671789 0.755501 0.665829
0.768896 0.761146 0.671474
0.867176 0.766859 0.677188
0.942566 0.771242 0.681570
0.234903 0.840773 0.658534
0.319793 0.845708 0.663469
0.409092 0.850899 0.668660
0.501156 0.856251 0.674012
0.595266 0.861722 0.679483
0.691009 0.867288 0.685049
0.788116 0.872933 0.690695
0.886397 0.878647 0.696408
1.000000 0.910690 0.700791
0.249646 0.926523 0.673278
0.334537 0.931458 0.678213
0.423836 0.936649 0.683404
0.515900 0.942001 0.688756
0.610010 0.947472 0.694227
0.705753 0.953038 0.699793
0.802860 0.958684 0.705438
0.901141 0.964397 0.711152
0.976530 0.968780 0.715534
0.109199 0.101449 0.614289
0.194089 0.106384 0.619224
0.283388 0.111575 0.624415
0.375453 0.116927 0.629767
0.469563 0.122398 0.635238
0.565306 0.127964 0.640804
0.662413 0.133609 0.646450
0.760693 0.139323 0.652163
0.836082 0.143706 0.656546
0.125801 0.198006 0.630891
0.210691 0.202941 0.635826
0.299990 0.208133 0.641017
0.392054 0.213485 0.646369
0.486164 0.218956 0.651840
0.581908 0.224522 0.657406
0.679015 0.230167 0.663052
0.777295 0.235880 0.668765
0.852684 0.240263 0.673148
0.143265 0.299578 0.648355
0.228155 0.304513 0.653290
0.317454 0.309704 0.658481
0.409518 0.315056 0.663833
0.503628 0.320527 0.669304
0.599372 0.326093 0.674870
0.696478 0.331738 0.680515
0.794759 0.337452 0.686229
0.870148 0.341834 0.690612
0.161269 0.404295 0.666360
0.246160 0.409230 0.671295
0.335459 0.414421 0.676486
0.427523 0.419773 0.681838
0.521633 0.425244 0.687309
0.617376 0.430810 0.692875
0.714483 0.436455 0.698520
0.812764 0.442169 0.704234
0.888153 0.446552 0.708616
0.179674 0.511339 0.684764
0.264565 0.516274 0.689700
0.353864 0.521465 0.694891
0.445928 0.526817 0.700243
0.540038 0.532288 0.705714
0.635781 0.537854 0.711280
0.732888 0.543499 0.716925
0.831169 0.549213 0.722639
0.906558 0.553595 0.727021
0.198399 0.620240 0.703489
0.283289 0.625175 0.708424
0.372588 0.630366 0.713615
0.464652 0.635719 0.718967
0.558762 0.641190 0.724438
0.654505 0.646755 0.730004
0.751612 0.652401 0.735649
0.849893 0.658114 0.741363
0.925282 0.662497 0.745746
0.217390 0.730693 0.722480
0.302280 0.735628 0.727415
0.391579 0.740819 0.732606
0.483643 0.746171 0.737958
0.577753 0.751642 0.743429
0.673496 0.757208 0.748995
0.770603 0.762853 0.754640
0.868884 0.768567 0.760354
0.944273 0.772950 0.764737
0.236610 0.842480 0.741700
0.321501 0.847415 0.746635
0.410799 0.852606 0.751827
0.502864 0.857959 0.757179
0.596974 0.863430 0.762650
0.692717 0.868996 0.768216
0.789824 0.874641 0.773861
0.888104 0.880354 0.779574
0.963493 0.884737 0.783957
0.251354 0.928230 0.756444
0.336244 0.933165 0.761379
0.425543 0.938357 0.766570
0.517607 0.943709 0.771922
0.611718 0.949180 0.777393
0.707461 0.954746 0.782959
0.804568 0.960391 0.788605
0.902848 0.966104 0.794318
0.978237 0.970487 0.798701
0.110508 0.102758 0.678084
0.195399 0.107694 0.683019
0.284698 0.112885 0.688211
0.376762 0.118237 0.693563
0.470872 0.123708 0.699034
0.566615 0.129274 0.704600
0.663722 0.134919 0.710245
0.762003 0.140633 0.715959
0.837392 0.145015 0.720341
0.127110 0.199316 0.694686
0.212001 0.204251 0.699621
0.301300 0.209442 0.704813
0.393364 0.214795 0.710165
0.487474 0.220266 0.715636
0.583217 0.225832 0.721202
0.680324 0.231477 0.726847
0.778605 0.237190 0.732560
0.853994 0.241573 0.736943
0.144574 0.300887 0.712150
0.229465 0.305822 0.717085
0.318764 0.311014 0.722277
0.410828 0.316366 0.727629
0.504938 0.321837 0.733100
0.600681 0.327403 0.738666
0.697788 0.333048 0.744311
0.796069 0.338762 0.750024
0.871458 0.343144 0.754407
0.162579 0.405604 0.730155
0.247470 0.410540 0.735090
0.336769 0.415731 0.740281
0.428833 0.421083 0.745634
0.522943 0.426554 0.751105
0.618686 0.432120 0.756671
0.715793 0.437765 0.762316
0.814073 0.443479 0.768029
0.889463 0.447861 0.772412
0.180984 0.512648 0.748560
0.265875 0.517583 0.753495
0.355173 0.522775 0.758686
0.447238 0.528127 0.764038
0.541348 0.533598 0.769509
0.637091 0.539164 0.775075
0.734198 0.544809 0.780721
0.832478 0.550523 0.786434
0.907868 0.554905 0.790817
0.199708 0.621550 0.767284
0.284599 0.626485 0.772219
0.373898 0.631676 0.777411
0.465962 0.637028 0.782763
0.560072 0.642499 0.788234
0.655815 0.648065 0.793800
0.752922 0.653711 0.799445
0.851203 0.659424 0.805158
0.926592 0.663807 0.809541
0.218699 0.732002 0.786275
0.303590 0.736938 0.791210
0.392889 0.742129 0.796402
0.484953 0.747481 0.801754
0.579063 0.752952 0.807225
0.674806 0.758518 0.812791
0.771913 0.764163 0.818436
0.870194 0.769877 0.824149
0.945583 0.774259 0.828532
0.237920 0.843790 0.805496
0.322810 0.848725 0.810431
0.412109 0.853916 0.815622
0.504174 0.859268 0.820974
0.598284 0.864739 0.826445
0.694027 0.870305 0.832011
0.791134 0.875951 0.837656
0.889414 0.881664 0.843370
0.964803 0.886047 0.847753
0.252663 0.929540 0.820239
0.337554 0.934475 0.825174
0.426853 0.939666 0.830366
0.518917 0.945019 0.835718
0.613027 0.950490 0.841189
0.708770 0.956056 0.846755
0.805877 0.961701 0.852400
0.904158 0.967414 0.858114
0.979547 0.971797 0.862496
