library/cube/Portra_400_001.cube
# CINEGRADE LAB — Premium Cinematic LUT
# Title: Portra 400
# Category: Kodak Portra Emulation
# Description: Warm skin tones, soft contrast, film grain emulating Kodak Portra stocks
# Mood: Warm, filmic, timeless
# Variant: 2
# Generated: 2026-05-21T16:12:47.278690
TITLE "Portra 400"
LUT_3D_SIZE 33
0.093262 0.085212 0.061041
0.114482 0.086252 0.062080
0.136166 0.087314 0.063142
0.158223 0.088394 0.064223
0.180590 0.089489 0.065318
0.203226 0.090598 0.066427
0.226097 0.091718 0.067547
0.249179 0.092849 0.068677
0.272452 0.093989 0.069817
0.295900 0.095137 0.070966
0.319508 0.096293 0.072122
0.343264 0.097457 0.073285
0.367160 0.098627 0.074456
0.391186 0.099804 0.075632
0.415334 0.100987 0.076815
0.439598 0.102175 0.078004
0.463972 0.103369 0.079197
0.488450 0.104568 0.080396
0.513027 0.105771 0.081600
0.537700 0.106980 0.082808
0.562463 0.108192 0.084021
0.587314 0.109410 0.085238
0.612249 0.110631 0.086460
0.637265 0.111856 0.087685
0.662358 0.113085 0.088914
0.687527 0.114318 0.090146
0.712768 0.115554 0.091383
0.738080 0.116794 0.092622
0.763460 0.118037 0.093865
0.788906 0.119283 0.095112
0.814416 0.120532 0.096361
0.839989 0.121785 0.097614
0.841013 0.121835 0.097664
0.096759 0.108889 0.064537
0.117978 0.109928 0.065577
0.169439 0.123210 0.066639
0.193039 0.124312 0.067719
0.216972 0.125429 0.068814
0.241192 0.126560 0.069923
0.229593 0.115395 0.071043
0.252676 0.116525 0.072174
0.275949 0.117665 0.073314
0.299396 0.118814 0.074462
0.323004 0.119970 0.075618
0.346760 0.121133 0.076782
0.370656 0.122304 0.077952
0.394682 0.123480 0.079129
0.418830 0.124663 0.080311
0.443094 0.125852 0.081500
0.467468 0.127045 0.082694
0.491946 0.128244 0.083892
0.516523 0.129448 0.085096
0.541196 0.130656 0.086305
0.565960 0.131869 0.087517
0.590810 0.133086 0.088735
0.615745 0.134308 0.089956
0.640761 0.135533 0.091181
0.665854 0.136762 0.092410
0.691023 0.137994 0.093643
0.716264 0.139231 0.094879
0.741576 0.140470 0.096119
0.766956 0.141713 0.097362
0.792402 0.142960 0.098608
0.817913 0.144209 0.099857
0.843485 0.145462 0.101110
0.844510 0.145512 0.101160
0.100331 0.133084 0.068110
0.121551 0.134123 0.069149
0.143235 0.135185 0.070211
0.196862 0.148991 0.071292
0.220795 0.150108 0.072387
0.245015 0.151239 0.073496
0.269488 0.152382 0.074616
0.294186 0.153535 0.075746
0.319088 0.154697 0.076886
0.344176 0.155869 0.078035
0.369437 0.157048 0.079191
0.394857 0.158235 0.080354
0.374229 0.146499 0.081525
0.398255 0.147675 0.082701
0.422403 0.148858 0.083884
0.446667 0.150047 0.085073
0.471041 0.151240 0.086266
0.495519 0.152439 0.087465
0.520096 0.153643 0.088669
0.544769 0.154851 0.089877
0.569532 0.156064 0.091090
0.594383 0.157281 0.092307
0.619318 0.158503 0.093529
0.644334 0.159728 0.094754
0.669427 0.160957 0.095983
0.694596 0.162189 0.097215
0.719837 0.163426 0.098452
0.745149 0.164665 0.099691
0.770529 0.165908 0.100934
0.795975 0.167155 0.102181
0.821485 0.168404 0.103430
0.847058 0.169657 0.104683
0.848082 0.169707 0.104733
0.103965 0.157694 0.071744
0.125185 0.158733 0.072783
0.146869 0.159795 0.073845
0.168926 0.160876 0.074926
0.191293 0.161971 0.076021
0.248904 0.176341 0.077130
0.273376 0.177484 0.078250
0.298074 0.178637 0.079380
0.322976 0.179800 0.080520
0.348065 0.180971 0.081669
0.373325 0.182150 0.082825
0.398745 0.183337 0.083988
0.424313 0.184531 0.085159
0.450021 0.185731 0.086335
0.475859 0.186938 0.087518
0.501822 0.188150 0.088707
0.527902 0.189367 0.089900
0.499153 0.177049 0.091099
0.523730 0.178253 0.092303
0.548403 0.179461 0.093511
0.573166 0.180674 0.094724
0.598017 0.181891 0.095941
0.622952 0.183113 0.097163
0.647968 0.184338 0.098388
0.673061 0.185567 0.099617
0.698230 0.186799 0.100849
0.723471 0.188036 0.102086
0.748783 0.189275 0.103325
0.774163 0.190518 0.104568
0.799609 0.191765 0.105815
0.825119 0.193014 0.107064
0.850692 0.194267 0.108317
0.851716 0.194317 0.108367
0.107651 0.182651 0.075429
0.128870 0.183691 0.076469
0.150555 0.184753 0.077531
0.172611 0.185833 0.078611
0.194978 0.186928 0.079706
0.217614 0.188037 0.080815
0.277319 0.202940 0.081935
0.302017 0.204094 0.083066
0.326920 0.205256 0.084206
0.352008 0.206428 0.085354
0.377269 0.207607 0.086510
0.402688 0.208794 0.087674
0.428256 0.209987 0.088844
0.453964 0.211188 0.090021
0.479803 0.212394 0.091204
0.505765 0.213606 0.092392
0.531845 0.214824 0.093586
0.558037 0.216047 0.094785
0.584335 0.217274 0.095988
0.610734 0.218507 0.097197
0.637231 0.219744 0.098409
0.663822 0.220986 0.099627
0.690502 0.222231 0.100848
0.651653 0.209295 0.102073
0.676746 0.210524 0.103302
0.701915 0.211757 0.104535
0.727156 0.212993 0.105771
0.752468 0.214233 0.107011
0.777848 0.215476 0.108254
0.803294 0.216722 0.109500
0.828805 0.217971 0.110749
0.854377 0.219224 0.112002
0.855402 0.219274 0.112052
0.111380 0.207908 0.079159
0.132600 0.208947 0.080198
0.154284 0.210009 0.081260
0.176340 0.211089 0.082340
0.198708 0.212185 0.083436
0.221344 0.213294 0.084545
0.244215 0.214414 0.085665
0.306008 0.229855 0.086795
0.330910 0.231018 0.087935
0.355999 0.232189 0.089083
0.381259 0.233368 0.090240
0.406679 0.234555 0.091403
0.432247 0.235749 0.092574
0.457955 0.236949 0.093750
0.483793 0.238156 0.094933
0.509756 0.239368 0.096121
0.535836 0.240585 0.097315
0.562027 0.241808 0.098514
0.588325 0.243036 0.099718
0.614725 0.244269 0.100926
0.641222 0.245506 0.102139
0.667812 0.246747 0.103356
0.694492 0.247993 0.104577
0.721259 0.249243 0.105803
0.748109 0.250496 0.107032
0.775040 0.251753 0.108264
0.802048 0.253014 0.109500
0.829132 0.254279 0.110740
0.781578 0.240732 0.111983
0.807024 0.241978 0.113229
0.832534 0.243228 0.114479
0.858107 0.244480 0.115731
0.859131 0.244530 0.115782
0.115149 0.233427 0.082927
0.136368 0.234467 0.083967
0.158053 0.235529 0.085029
0.180109 0.236609 0.086109
0.202476 0.237705 0.087204
0.225112 0.238813 0.088313
0.247983 0.239933 0.089433
0.271066 0.241064 0.090564
0.294339 0.242204 0.091703
0.360031 0.258219 0.092852
0.385291 0.259398 0.094008
0.410711 0.260585 0.095172
0.436279 0.261779 0.096342
0.461987 0.262979 0.097519
0.487825 0.264186 0.098701
0.513788 0.265398 0.099890
0.539868 0.266615 0.101083
0.566059 0.267838 0.102282
0.592357 0.269066 0.103486
0.618757 0.270299 0.104694
0.645254 0.271536 0.105907
0.671844 0.272777 0.107124
0.698525 0.274023 0.108346
0.725291 0.275273 0.109571
0.752141 0.276526 0.110800
0.779072 0.277783 0.112033
0.806080 0.279044 0.113269
0.833164 0.280309 0.114509
0.860320 0.281577 0.115752
0.887548 0.282848 0.116998
0.914844 0.284122 0.118247
0.942207 0.285400 0.119500
0.943302 0.285451 0.119550
0.118952 0.259182 0.086730
0.140171 0.260222 0.087770
0.161856 0.261284 0.088832
0.183912 0.262364 0.089912
0.206279 0.263459 0.091007
0.228915 0.264568 0.092116
0.251786 0.265688 0.093236
0.274869 0.266819 0.094367
0.298142 0.267959 0.095507
0.321589 0.269107 0.096655
0.389361 0.285668 0.097811
0.414780 0.286855 0.098975
0.440348 0.288049 0.100145
0.466056 0.289249 0.101322
0.491895 0.290456 0.102504
0.517857 0.291668 0.103693
0.543937 0.292885 0.104887
0.570129 0.294108 0.106085
0.596427 0.295336 0.107289
0.622826 0.296569 0.108498
0.649323 0.297806 0.109710
0.675914 0.299047 0.110928
0.702594 0.300293 0.112149
0.729361 0.301542 0.113374
0.756211 0.302796 0.114603
0.783141 0.304053 0.115836
0.810149 0.305314 0.117072
0.837233 0.306579 0.118312
0.864390 0.307847 0.119555
0.891617 0.309118 0.120801
0.918913 0.310392 0.122050
0.946276 0.311670 0.123303
0.947372 0.311721 0.123353
0.122786 0.285150 0.090565
0.144006 0.286189 0.091604
0.165690 0.287251 0.092666
0.187746 0.288332 0.093746
0.210114 0.289427 0.094842
0.232749 0.290536 0.095950
0.255621 0.291656 0.097071
0.278703 0.292786 0.098201
0.301976 0.293926 0.099341
0.325423 0.295075 0.100489
0.349031 0.296231 0.101646
0.372788 0.297394 0.102809
0.444451 0.314536 0.103980
0.470159 0.315736 0.105156
0.495998 0.316943 0.106339
0.521960 0.318155 0.107527
0.548040 0.319372 0.108721
0.574231 0.320595 0.109920
0.600529 0.321823 0.111124
0.626929 0.323056 0.112332
0.653426 0.324293 0.113545
0.680017 0.325534 0.114762
0.706697 0.326780 0.115983
0.733463 0.328029 0.117208
0.760313 0.329283 0.118437
0.787244 0.330540 0.119670
0.814252 0.331801 0.120906
0.841336 0.333066 0.122146
0.868492 0.334334 0.123389
0.895720 0.335605 0.124635
0.923016 0.336879 0.125885
0.950379 0.338157 0.127137
0.951475 0.338208 0.127187
0.126649 0.311312 0.094428
0.147869 0.312351 0.095467
0.169553 0.313413 0.096529
0.191610 0.314494 0.097610
0.213977 0.315589 0.098705
0.236613 0.316698 0.099814
0.259484 0.317818 0.100934
0.282566 0.318948 0.102064
0.305839 0.320088 0.103204
0.329287 0.321237 0.104353
0.352894 0.322393 0.105509
0.376651 0.323556 0.106672
0.400547 0.324727 0.107843
0.474293 0.342422 0.109019
0.500131 0.343628 0.110202
0.526094 0.344840 0.111391
0.552174 0.346058 0.112584
0.578365 0.347281 0.113783
0.604663 0.348508 0.114987
0.631063 0.349741 0.116195
0.657560 0.350978 0.117408
0.684150 0.352219 0.118625
0.710830 0.353465 0.119846
0.737597 0.354715 0.121072
0.764447 0.355968 0.122301
0.791378 0.357226 0.123533
0.818386 0.358487 0.124770
0.845470 0.359751 0.126009
0.872626 0.361019 0.127252
0.899853 0.362290 0.128499
0.927150 0.363565 0.129748
0.954512 0.364842 0.131001
0.955608 0.364893 0.131051
0.130539 0.337653 0.098318
0.151759 0.338693 0.099357
0.173443 0.339755 0.100419
0.195499 0.340835 0.101499
0.217867 0.341930 0.102595
0.240502 0.343039 0.103703
0.263374 0.344159 0.104824
0.286456 0.345290 0.105954
0.309729 0.346430 0.107094
0.333176 0.347578 0.108242
0.356784 0.348734 0.109399
0.380541 0.349898 0.110562
0.404436 0.351068 0.111732
0.428462 0.352245 0.112909
0.504293 0.370496 0.114092
0.530256 0.371708 0.115280
0.556336 0.372926 0.116474
0.582527 0.374149 0.117673
0.608825 0.375376 0.118877
0.635225 0.376609 0.120085
0.661722 0.377846 0.121298
0.688312 0.379088 0.122515
0.714992 0.380333 0.123736
0.741759 0.381583 0.124961
0.768609 0.382836 0.126190
0.795540 0.384094 0.127423
0.822548 0.385355 0.128659
0.849631 0.386619 0.129899
0.876788 0.387887 0.131142
0.904015 0.389158 0.132388
0.931311 0.390433 0.133638
0.958674 0.391710 0.134890
0.959770 0.391762 0.134940
0.134453 0.364161 0.102232
0.155673 0.365200 0.103271
0.177357 0.366262 0.104333
0.199414 0.367342 0.105413
0.221781 0.368438 0.106509
0.244417 0.369546 0.107618
0.267288 0.370667 0.108738
0.290370 0.371797 0.109868
0.313643 0.372937 0.111008
0.337091 0.374085 0.112156
0.360698 0.375242 0.113313
0.384455 0.376405 0.114476
0.408351 0.377575 0.115647
0.432376 0.378752 0.116823
0.456525 0.379935 0.118006
0.480789 0.381123 0.119194
0.560524 0.399963 0.120388
0.586715 0.401186 0.121587
0.613013 0.402414 0.122791
0.639413 0.403647 0.123999
0.665910 0.404884 0.125212
0.692500 0.406125 0.126429
0.719181 0.407371 0.127650
0.745947 0.408620 0.128876
0.772797 0.409874 0.130105
0.799728 0.411131 0.131337
0.826736 0.412392 0.132573
0.853820 0.413657 0.133813
0.880976 0.414925 0.135056
0.908204 0.416196 0.136303
0.935500 0.417470 0.137552
0.962863 0.418748 0.138804
0.963958 0.418799 0.138855
0.138390 0.390823 0.106169
0.159610 0.391862 0.107208
0.181294 0.392924 0.108270
0.203351 0.394005 0.109351
0.225718 0.395100 0.110446
0.248354 0.396209 0.111555
0.271225 0.397329 0.112675
0.294307 0.398459 0.113805
0.317580 0.399599 0.114945
0.341028 0.400748 0.116094
0.364635 0.401904 0.117250
0.388392 0.403067 0.118413
0.412288 0.404238 0.119584
0.436313 0.405414 0.120760
0.460462 0.406597 0.121943
0.484726 0.407786 0.123131
0.509099 0.408979 0.124325
0.590928 0.428382 0.125524
0.617226 0.429610 0.126728
0.643626 0.430842 0.127936
0.670123 0.432079 0.129149
0.696713 0.433321 0.130366
0.723393 0.434566 0.131587
0.750160 0.435816 0.132813
0.777010 0.437070 0.134042
0.803940 0.438327 0.135274
0.830949 0.439588 0.136511
0.858032 0.440852 0.137750
0.885189 0.442120 0.138993
0.912416 0.443391 0.140240
0.939712 0.444666 0.141489
0.967075 0.445943 0.142741
0.968171 0.445995 0.142792
0.142349 0.417631 0.110128
0.163569 0.418670 0.111167
0.185253 0.419732 0.112229
0.207309 0.420812 0.113309
0.229677 0.421908 0.114405
0.252312 0.423016 0.115513
0.275184 0.424136 0.116633
0.298266 0.425267 0.117764
0.321539 0.426407 0.118904
0.344986 0.427555 0.120052
0.368594 0.428711 0.121208
0.392351 0.429875 0.122372
0.416246 0.431045 0.123542
0.440272 0.432222 0.124719
0.464420 0.433405 0.125902
0.488684 0.434593 0.127090
0.513058 0.435787 0.128284
0.537536 0.436986 0.129483
0.562114 0.438189 0.130686
0.647861 0.458186 0.131895
0.674358 0.459423 0.133108
0.700949 0.460664 0.134325
0.727629 0.461910 0.135546
0.754396 0.463160 0.136771
0.781246 0.464413 0.138000
0.808176 0.465671 0.139233
0.835184 0.466932 0.140469
0.862268 0.468196 0.141709
0.889425 0.469464 0.142952
0.916652 0.470735 0.144198
0.943948 0.472010 0.145448
0.971311 0.473287 0.146700
0.972407 0.473338 0.146750
0.146328 0.444575 0.114106
0.167547 0.445614 0.115146
0.189232 0.446676 0.116208
0.211288 0.447756 0.117288
0.233655 0.448852 0.118383
0.256291 0.449961 0.119492
0.279162 0.451081 0.120612
0.302245 0.452211 0.121743
0.325518 0.453351 0.122882
0.348965 0.454499 0.124031
0.372573 0.455656 0.125187
0.396329 0.456819 0.126351
0.420225 0.457990 0.127521
0.444251 0.459166 0.128698
0.468399 0.460349 0.129880
0.492663 0.461537 0.131069
0.517037 0.462731 0.132262
0.541515 0.463930 0.133461
0.566092 0.465134 0.134665
0.590765 0.466342 0.135873
0.678615 0.486906 0.137086
0.705206 0.488147 0.138303
0.731886 0.489393 0.139525
0.758653 0.490643 0.140750
0.785503 0.491896 0.141979
0.812433 0.493154 0.143212
0.839442 0.494415 0.144448
0.866525 0.495679 0.145688
0.893682 0.496947 0.146931
0.920909 0.498218 0.148177
0.948205 0.499493 0.149426
0.975568 0.500770 0.150679
0.976664 0.500821 0.150729
0.150325 0.471648 0.118104
0.171545 0.472688 0.119143
0.193229 0.473750 0.120205
0.215286 0.474830 0.121286
0.237653 0.475925 0.122381
0.260289 0.477034 0.123490
0.283160 0.478154 0.124610
0.306242 0.479285 0.125740
0.329515 0.480424 0.126880
0.352963 0.481573 0.128029
0.376570 0.482729 0.129185
0.400327 0.483893 0.130348
0.424223 0.485063 0.131519
0.448248 0.486240 0.132695
0.472397 0.487422 0.133878
0.496661 0.488611 0.135067
0.521034 0.489805 0.136260
0.545513 0.491003 0.137459
0.570090 0.492207 0.138663
0.594763 0.493415 0.139871
0.619526 0.494628 0.141084
0.709484 0.515762 0.142301
0.736164 0.517008 0.143522
0.762930 0.518258 0.144748
0.789780 0.519511 0.145977
0.816711 0.520769 0.147209
0.843719 0.522030 0.148446
0.870803 0.523294 0.149685
0.897959 0.524562 0.150928
0.925187 0.525833 0.152175
0.952483 0.527108 0.153424
0.979846 0.528385 0.154677
0.980942 0.528436 0.154727
0.154341 0.498844 0.122120
0.175561 0.499883 0.123159
0.197245 0.500945 0.124221
0.219301 0.502026 0.125301
0.241669 0.503121 0.126397
0.264305 0.504230 0.127506
0.287176 0.505350 0.128626
0.310258 0.506480 0.129756
0.333531 0.507620 0.130896
0.356979 0.508769 0.132044
0.380586 0.509925 0.133201
0.404343 0.511088 0.134364
0.428239 0.512259 0.135535
0.452264 0.513436 0.136711
0.476413 0.514618 0.137894
0.500677 0.515807 0.139082
0.525050 0.517000 0.140276
0.549528 0.518199 0.141475
0.574106 0.519403 0.142679
0.598779 0.520611 0.143887
0.623542 0.521824 0.145100
0.648393 0.523041 0.146317
0.673328 0.524263 0.147538
0.767227 0.545998 0.148764
0.794077 0.547251 0.149993
0.821008 0.548508 0.151225
0.848016 0.549769 0.152461
0.875100 0.551034 0.153701
0.902256 0.552302 0.154944
0.929484 0.553573 0.156190
0.956780 0.554847 0.157440
0.984143 0.556125 0.158692
0.985239 0.556176 0.158743
0.158374 0.526156 0.126153
0.179594 0.527196 0.127192
0.201278 0.528258 0.128254
0.223335 0.529338 0.129335
0.245702 0.530433 0.130430
0.268338 0.531542 0.131539
0.291209 0.532662 0.132659
0.314291 0.533793 0.133789
0.337564 0.534933 0.134929
0.361012 0.536081 0.136078
0.384619 0.537237 0.137234
0.408376 0.538401 0.138397
0.432272 0.539571 0.139568
0.456297 0.540748 0.140744
0.480446 0.541931 0.141927
0.504710 0.543119 0.143115
0.529083 0.544313 0.144309
0.553562 0.545512 0.145508
0.578139 0.546715 0.146712
0.602812 0.547924 0.147920
0.627575 0.549136 0.149133
0.652426 0.550354 0.150350
0.677361 0.551575 0.151571
0.702376 0.552800 0.152797
0.798393 0.575110 0.154026
0.825323 0.576367 0.155258
0.852332 0.577628 0.156495
0.879415 0.578892 0.157734
0.906572 0.580160 0.158977
0.933799 0.581432 0.160224
0.961095 0.582706 0.161473
0.988458 0.583983 0.162725
0.989554 0.584035 0.162776
0.162424 0.553580 0.130202
0.183643 0.554619 0.131242
0.205328 0.555681 0.132304
0.227384 0.556761 0.133384
0.249751 0.557857 0.134479
0.272387 0.558965 0.135588
0.295258 0.560085 0.136708
0.318341 0.561216 0.137839
0.341614 0.562356 0.138979
0.365061 0.563504 0.140127
0.388669 0.564660 0.141283
0.412426 0.565824 0.142447
0.436321 0.566994 0.143617
0.460347 0.568171 0.144794
0.484495 0.569354 0.145977
0.508759 0.570542 0.147165
0.533133 0.571736 0.148359
0.557611 0.572935 0.149558
0.582188 0.574138 0.150761
0.606861 0.575347 0.151970
0.631625 0.576560 0.153182
0.656475 0.577777 0.154400
0.681410 0.578998 0.155621
0.706426 0.580223 0.156846
0.731519 0.581452 0.158075
0.829656 0.604339 0.159308
0.856664 0.605600 0.160544
0.883748 0.606864 0.161784
0.910905 0.608132 0.163027
0.938132 0.609403 0.164273
0.965428 0.610678 0.165522
0.992791 0.611955 0.166775
0.993887 0.612006 0.166825
0.166489 0.581109 0.134268
0.187709 0.582148 0.135307
0.209393 0.583210 0.136369
0.231449 0.584290 0.137449
0.253817 0.585386 0.138545
0.276452 0.586495 0.139653
0.299324 0.587615 0.140773
0.322406 0.588745 0.141904
0.345679 0.589885 0.143044
0.369126 0.591033 0.144192
0.392734 0.592190 0.145348
0.416491 0.593353 0.146512
0.440386 0.594524 0.147682
0.464412 0.595700 0.148859
0.488560 0.596883 0.150042
0.512824 0.598071 0.151230
0.537198 0.599265 0.152424
0.561676 0.600464 0.153623
0.586254 0.601668 0.154826
0.610926 0.602876 0.156035
0.635690 0.604089 0.157248
0.660541 0.605306 0.158465
0.685475 0.606527 0.159686
0.710491 0.607753 0.160911
0.735584 0.608982 0.162140
0.760753 0.610214 0.163373
0.785995 0.611450 0.164609
0.888098 0.634944 0.165849
0.915254 0.636212 0.167092
0.942482 0.637483 0.168338
0.969778 0.638758 0.169588
0.997141 0.640035 0.170840
0.998237 0.640086 0.170890
0.170569 0.608740 0.138348
0.191789 0.609779 0.139387
0.213473 0.610841 0.140449
0.235529 0.611921 0.141529
0.257897 0.613017 0.142625
0.280532 0.614125 0.143733
0.303404 0.615246 0.144853
0.326486 0.616376 0.145984
0.349759 0.617516 0.147124
0.373206 0.618664 0.148272
0.396814 0.619821 0.149428
0.420571 0.620984 0.150592
0.444466 0.622154 0.151762
0.468492 0.623331 0.152939
0.492640 0.624514 0.154122
0.516904 0.625702 0.155310
0.541278 0.626896 0.156504
0.565756 0.628095 0.157703
0.590334 0.629299 0.158906
0.615006 0.630507 0.160115
0.639770 0.631720 0.161328
0.664621 0.632937 0.162545
0.689555 0.634158 0.163766
0.714571 0.635383 0.164991
0.739665 0.636612 0.166220
0.764833 0.637845 0.167453
0.790075 0.639081 0.168689
0.815386 0.640321 0.169929
0.919620 0.664395 0.171172
0.946847 0.665667 0.172418
0.974143 0.666941 0.173668
1.000000 0.668218 0.174920
1.000000 0.668270 0.174970
0.174663 0.636468 0.142442
0.195883 0.637507 0.143481
0.217567 0.638569 0.144543
0.239624 0.639650 0.145624
0.261991 0.640745 0.146719
0.284627 0.641854 0.147828
0.307498 0.642974 0.148948
0.330580 0.644104 0.150078
0.353853 0.645244 0.151218
0.377301 0.646393 0.152367
0.400909 0.647549 0.153523
0.424665 0.648712 0.154686
0.448561 0.649883 0.155857
0.472587 0.651059 0.157033
0.496735 0.652242 0.158216
0.520999 0.653430 0.159405
0.545373 0.654624 0.160598
0.569851 0.655823 0.161797
0.594428 0.657027 0.163001
0.619101 0.658235 0.164209
0.643864 0.659448 0.165422
0.668715 0.660665 0.166639
0.693650 0.661886 0.167861
0.718666 0.663112 0.169086
0.743759 0.664341 0.170315
0.768928 0.665573 0.171547
0.794169 0.666810 0.172784
0.819481 0.668049 0.174023
0.844861 0.669292 0.175266
0.870307 0.670539 0.176513
0.978525 0.695224 0.177762
1.000000 0.696501 0.179015
1.000000 0.696552 0.179065
0.178772 0.664290 0.146550
0.199991 0.665329 0.147590
0.221676 0.666391 0.148652
0.243732 0.667471 0.149732
0.266099 0.668567 0.150827
0.288735 0.669676 0.151936
0.311606 0.670796 0.153056
0.334689 0.671926 0.154187
0.357962 0.673066 0.155327
0.381409 0.674214 0.156475
0.405017 0.675371 0.157631
0.428774 0.676534 0.158795
0.452669 0.677705 0.159965
0.476695 0.678881 0.161142
0.500843 0.680064 0.162325
0.525107 0.681252 0.163513
0.549481 0.682446 0.164707
0.573959 0.683645 0.165906
0.598536 0.684849 0.167109
0.623209 0.686057 0.168318
0.647973 0.687270 0.169530
0.672823 0.688487 0.170748
0.697758 0.689708 0.171969
0.722774 0.690933 0.173194
0.747867 0.692162 0.174423
0.773036 0.693395 0.175656
0.798277 0.694631 0.176892
0.823589 0.695871 0.178132
0.848969 0.697114 0.179375
0.874415 0.698360 0.180621
0.899926 0.699610 0.181870
1.000000 0.724880 0.183123
1.000000 0.724931 0.183173
0.182893 0.692202 0.150672
0.204113 0.693241 0.151711
0.225797 0.694303 0.152773
0.247854 0.695383 0.153854
0.270221 0.696479 0.154949
0.292857 0.697588 0.156058
0.315728 0.698708 0.157178
0.338810 0.699838 0.158308
0.362083 0.700978 0.159448
0.385531 0.702126 0.160597
0.409138 0.703283 0.161753
0.432895 0.704446 0.162916
0.456791 0.705617 0.164087
0.480816 0.706793 0.165263
0.504965 0.707976 0.166446
0.529229 0.709164 0.167635
0.553602 0.710358 0.168828
0.578081 0.711557 0.170027
0.602658 0.712761 0.171231
0.627331 0.713969 0.172439
0.652094 0.715182 0.173652
0.676945 0.716399 0.174869
0.701880 0.717620 0.176090
0.726895 0.718845 0.177316
0.751989 0.720074 0.178545
0.777158 0.721307 0.179777
0.802399 0.722543 0.181014
0.827711 0.723783 0.182253
0.853091 0.725026 0.183496
0.878537 0.726272 0.184743
0.904047 0.727522 0.185992
0.929620 0.728774 0.187245
1.000000 0.753401 0.187295
0.187028 0.720201 0.154806
0.208248 0.721240 0.155846
0.229932 0.722302 0.156908
0.251988 0.723382 0.157988
0.274356 0.724478 0.159084
0.296991 0.725586 0.160192
0.319863 0.726707 0.161312
0.342945 0.727837 0.162443
0.366218 0.728977 0.163583
0.389665 0.730125 0.164731
0.413273 0.731282 0.165887
0.437030 0.732445 0.167051
0.460925 0.733615 0.168221
0.484951 0.734792 0.169398
0.509099 0.735975 0.170581
0.533363 0.737163 0.171769
0.557737 0.738357 0.172963
0.582215 0.739556 0.174162
0.606793 0.740760 0.175365
0.631465 0.741968 0.176574
0.656229 0.743181 0.177787
0.681080 0.744398 0.179004
0.706014 0.745619 0.180225
0.731030 0.746844 0.181450
0.756123 0.748073 0.182679
0.781292 0.749306 0.183912
0.806533 0.750542 0.185148
0.831845 0.751782 0.186388
0.857225 0.753025 0.187631
0.882671 0.754271 0.188877
0.908182 0.755521 0.190126
0.933754 0.756773 0.191379
0.934779 0.756823 0.191429
0.191175 0.748284 0.158953
0.212394 0.749323 0.159993
0.234079 0.750385 0.161055
0.256135 0.751465 0.162135
0.278502 0.752561 0.163230
0.301138 0.753669 0.164339
0.324009 0.754789 0.165459
0.347092 0.755920 0.166590
0.370365 0.757060 0.167730
0.393812 0.758208 0.168878
0.417420 0.759364 0.170034
0.441176 0.760528 0.171198
0.465072 0.761698 0.172368
0.489098 0.762875 0.173545
0.513246 0.764058 0.174727
0.537510 0.765246 0.175916
0.561884 0.766440 0.177110
0.586362 0.767639 0.178308
0.610939 0.768842 0.179512
0.635612 0.770051 0.180721
0.660376 0.771264 0.181933
0.685226 0.772481 0.183151
0.710161 0.773702 0.184372
0.735177 0.774927 0.185597
0.760270 0.776156 0.186826
0.785439 0.777389 0.188059
0.810680 0.778625 0.189295
0.835992 0.779865 0.190535
0.861372 0.781108 0.191778
0.886818 0.782354 0.193024
0.912329 0.783604 0.194273
0.937901 0.784856 0.195526
0.938926 0.784906 0.195576
0.195333 0.776448 0.163112
0.216553 0.777487 0.164151
0.238237 0.778549 0.165213
0.260294 0.779629 0.166294
0.282661 0.780725 0.167389
0.305297 0.781833 0.168498
0.328168 0.782953 0.169618
0.351250 0.784084 0.170748
0.374523 0.785224 0.171888
0.397971 0.786372 0.173037
0.421579 0.787528 0.174193
0.445335 0.788692 0.175356
0.469231 0.789862 0.176527
0.493257 0.791039 0.177704
0.517405 0.792222 0.178886
0.541669 0.793410 0.180075
0.566043 0.794604 0.181268
0.590521 0.795803 0.182467
0.615098 0.797006 0.183671
