library/cube/Portra_Skin_004.cube
# CINEGRADE LAB — Premium Cinematic LUT
# Title: Portra Skin
# Category: Kodak Portra Emulation
# Description: Warm skin tones, soft contrast, film grain emulating Kodak Portra stocks
# Mood: Warm, filmic, timeless
# Variant: 5
# Generated: 2026-05-21T16:12:48.577373
TITLE "Portra Skin"
LUT_3D_SIZE 33
0.100181 0.092581 0.064060
0.120512 0.093860 0.065340
0.141289 0.095167 0.066647
0.162422 0.096496 0.067976
0.183853 0.097845 0.069325
0.205541 0.099209 0.070689
0.227455 0.100588 0.072068
0.249571 0.101979 0.073459
0.271870 0.103382 0.074862
0.294335 0.104795 0.076275
0.316955 0.106218 0.077698
0.339717 0.107651 0.079130
0.362613 0.109091 0.080571
0.385633 0.110539 0.082019
0.408770 0.111995 0.083475
0.432018 0.113457 0.084937
0.455372 0.114927 0.086407
0.478825 0.116402 0.087882
0.502374 0.117884 0.089364
0.526014 0.119371 0.090851
0.549741 0.120864 0.092344
0.573551 0.122362 0.093842
0.597442 0.123865 0.095345
0.621411 0.125373 0.096853
0.645454 0.126885 0.098365
0.669569 0.128403 0.099882
0.693754 0.129924 0.101404
0.718006 0.131450 0.102930
0.742323 0.132980 0.104460
0.766704 0.134514 0.105993
0.791147 0.136051 0.107531
0.815649 0.137593 0.109073
0.816630 0.137655 0.109134
0.104484 0.115936 0.068363
0.124815 0.117215 0.069643
0.180151 0.130893 0.070950
0.203397 0.132249 0.072279
0.226971 0.133624 0.073628
0.250828 0.135016 0.074992
0.231758 0.123943 0.076371
0.253874 0.125335 0.077762
0.276173 0.126737 0.079165
0.298638 0.128151 0.080578
0.321258 0.129574 0.082001
0.344020 0.131006 0.083433
0.366916 0.132446 0.084874
0.389936 0.133895 0.086322
0.413073 0.135350 0.087778
0.436321 0.136813 0.089240
0.459675 0.138282 0.090710
0.483128 0.139758 0.092185
0.506677 0.141239 0.093667
0.530317 0.142726 0.095154
0.554044 0.144219 0.096647
0.577854 0.145717 0.098145
0.601745 0.147220 0.099648
0.625714 0.148728 0.101156
0.649757 0.150241 0.102668
0.673872 0.151758 0.104185
0.698057 0.153279 0.105707
0.722309 0.154805 0.107233
0.746626 0.156335 0.108763
0.771007 0.157869 0.110297
0.795450 0.159407 0.111834
0.819952 0.160948 0.113376
0.820933 0.161010 0.113438
0.108881 0.139803 0.072761
0.129212 0.141082 0.074040
0.149989 0.142389 0.075347
0.208234 0.156593 0.076676
0.231808 0.157968 0.078025
0.255665 0.159360 0.079389
0.279771 0.160766 0.080768
0.304098 0.162185 0.082159
0.328627 0.163616 0.083562
0.353339 0.165058 0.084976
0.378221 0.166509 0.086399
0.403259 0.167970 0.087831
0.371313 0.156313 0.089271
0.394333 0.157761 0.090719
0.417470 0.159217 0.092175
0.440718 0.160680 0.093638
0.464072 0.162149 0.095107
0.487525 0.163624 0.096582
0.511074 0.165106 0.098064
0.534714 0.166593 0.099551
0.558441 0.168086 0.101044
0.582251 0.169584 0.102542
0.606142 0.171087 0.104045
0.630111 0.172595 0.105553
0.654154 0.174107 0.107065
0.678269 0.175625 0.108583
0.702454 0.177146 0.110104
0.726706 0.178672 0.111630
0.751024 0.180202 0.113160
0.775405 0.181736 0.114694
0.799847 0.183273 0.116231
0.824349 0.184815 0.117773
0.825331 0.184877 0.117835
0.113353 0.164079 0.077233
0.133685 0.165358 0.078512
0.154462 0.166665 0.079820
0.175594 0.167994 0.081149
0.197026 0.169343 0.082497
0.260585 0.184121 0.083862
0.284691 0.185528 0.085241
0.309018 0.186947 0.086632
0.333547 0.188378 0.088035
0.358259 0.189819 0.089448
0.383141 0.191271 0.090871
0.408179 0.192732 0.092303
0.433364 0.194201 0.093744
0.458686 0.195678 0.095192
0.484137 0.197163 0.096648
0.509710 0.198655 0.098110
0.535399 0.200153 0.099580
0.491998 0.187900 0.101055
0.515547 0.189382 0.102537
0.539187 0.190869 0.104024
0.562913 0.192362 0.105517
0.586724 0.193860 0.107015
0.610615 0.195363 0.108518
0.634583 0.196871 0.110026
0.658627 0.198384 0.111538
0.682742 0.199901 0.113055
0.706926 0.201422 0.114577
0.731179 0.202948 0.116103
0.755496 0.204478 0.117633
0.779877 0.206012 0.119166
0.804320 0.207550 0.120704
0.828822 0.209091 0.122246
0.829803 0.209153 0.122307
0.117889 0.188697 0.081769
0.138221 0.189976 0.083048
0.158997 0.191284 0.084355
0.180130 0.192613 0.085685
0.201561 0.193961 0.087033
0.223249 0.195326 0.088398
0.289680 0.210639 0.089776
0.314007 0.212058 0.091168
0.338536 0.213489 0.092571
0.363248 0.214930 0.093984
0.388130 0.216382 0.095407
0.413169 0.217843 0.096839
0.438353 0.219312 0.098280
0.463675 0.220789 0.099728
0.489126 0.222274 0.101183
0.514700 0.223766 0.102646
0.540388 0.225264 0.104115
0.566187 0.226769 0.105591
0.592091 0.228281 0.107072
0.618094 0.229798 0.108560
0.644194 0.231320 0.110052
0.670386 0.232848 0.111550
0.696666 0.234381 0.113053
0.639119 0.221490 0.114561
0.663162 0.223002 0.116074
0.687277 0.224519 0.117591
0.711462 0.226041 0.119113
0.735714 0.227567 0.120638
0.760032 0.229097 0.122168
0.784413 0.230630 0.123702
0.808855 0.232168 0.125240
0.833358 0.233710 0.126781
0.834339 0.233771 0.126843
0.122479 0.213611 0.086359
0.142811 0.214890 0.087638
0.163587 0.216197 0.088945
0.184720 0.217527 0.090275
0.206152 0.218875 0.091623
0.227840 0.220240 0.092988
0.249754 0.221618 0.094366
0.319057 0.237470 0.095758
0.343585 0.238901 0.097161
0.368298 0.240342 0.098574
0.393179 0.241794 0.099997
0.418218 0.243255 0.101429
0.443402 0.244724 0.102870
0.468724 0.246201 0.104318
0.494176 0.247686 0.105774
0.519749 0.249178 0.107236
0.545438 0.250676 0.108705
0.571236 0.252181 0.110181
0.597140 0.253693 0.111662
0.623144 0.255210 0.113150
0.649243 0.256732 0.114642
0.675435 0.258260 0.116140
0.701715 0.259793 0.117643
0.728080 0.261331 0.119151
0.754528 0.262874 0.120664
0.781054 0.264422 0.122181
0.807658 0.265974 0.123703
0.834335 0.267530 0.125229
0.764622 0.254010 0.126758
0.789003 0.255544 0.128292
0.813446 0.257082 0.129830
0.837948 0.258623 0.131372
0.838929 0.258685 0.131433
0.127117 0.238784 0.090997
0.147449 0.240064 0.092276
0.168225 0.241371 0.093583
0.189358 0.242700 0.094913
0.210790 0.244048 0.096261
0.232478 0.245413 0.097626
0.254392 0.246792 0.099004
0.276508 0.248183 0.100396
0.298806 0.249586 0.101799
0.373399 0.266019 0.103212
0.398281 0.267471 0.104635
0.423319 0.268931 0.106067
0.448504 0.270401 0.107508
0.473826 0.271878 0.108956
0.499277 0.273363 0.110412
0.524851 0.274855 0.111874
0.550539 0.276353 0.113343
0.576338 0.277858 0.114819
0.602242 0.279369 0.116300
0.628245 0.280886 0.117788
0.654345 0.282409 0.119280
0.680537 0.283937 0.120778
0.706817 0.285470 0.122281
0.733182 0.287008 0.123789
0.759629 0.288551 0.125302
0.786156 0.290098 0.126819
0.812759 0.291650 0.128341
0.839437 0.293207 0.129866
0.866186 0.294767 0.131396
0.893005 0.296332 0.132930
0.919892 0.297900 0.134468
0.946844 0.299473 0.136010
0.947924 0.299536 0.136071
0.131798 0.264190 0.095678
0.152130 0.265469 0.096957
0.172906 0.266776 0.098264
0.194039 0.268106 0.099594
0.215470 0.269454 0.100942
0.237158 0.270818 0.102306
0.259072 0.272197 0.103685
0.281188 0.273588 0.105077
0.303487 0.274991 0.106479
0.325953 0.276405 0.107893
0.403430 0.293384 0.109316
0.428468 0.294845 0.110748
0.453653 0.296314 0.112188
0.478975 0.297791 0.113637
0.504426 0.299276 0.115092
0.529999 0.300768 0.116555
0.555688 0.302267 0.118024
0.581487 0.303772 0.119500
0.607390 0.305283 0.120981
0.633394 0.306800 0.122468
0.659494 0.308322 0.123961
0.685686 0.309850 0.125459
0.711966 0.311383 0.126962
0.738331 0.312922 0.128470
0.764778 0.314464 0.129983
0.791305 0.316012 0.131500
0.817908 0.317564 0.133021
0.844586 0.319120 0.134547
0.871335 0.320681 0.136077
0.898154 0.322245 0.137611
0.925041 0.323814 0.139149
0.951993 0.325386 0.140690
0.953073 0.325449 0.140752
0.136517 0.289805 0.100397
0.156849 0.291084 0.101676
0.177626 0.292391 0.102984
0.198758 0.293721 0.104313
0.220190 0.295069 0.105661
0.241878 0.296434 0.107026
0.263792 0.297812 0.108405
0.285908 0.299204 0.109796
0.308207 0.300607 0.111199
0.330672 0.302020 0.112612
0.353292 0.303443 0.114035
0.376054 0.304875 0.115467
0.458844 0.322442 0.116908
0.484166 0.323919 0.118356
0.509617 0.325404 0.119812
0.535191 0.326896 0.121274
0.560879 0.328394 0.122743
0.586678 0.329899 0.124219
0.612582 0.331410 0.125701
0.638586 0.332927 0.127188
0.664685 0.334450 0.128681
0.690877 0.335978 0.130179
0.717157 0.337511 0.131682
0.743522 0.339049 0.133189
0.769970 0.340592 0.134702
0.796496 0.342140 0.136219
0.823099 0.343692 0.137741
0.849777 0.345248 0.139267
0.876526 0.346808 0.140796
0.903345 0.348373 0.142330
0.930232 0.349941 0.143868
0.957185 0.351514 0.145410
0.958264 0.351577 0.145471
0.141272 0.315612 0.105152
0.161604 0.316891 0.106431
0.182380 0.318198 0.107738
0.203513 0.319528 0.109068
0.224944 0.320876 0.110416
0.246632 0.322241 0.111781
0.268546 0.323619 0.113159
0.290662 0.325011 0.114551
0.312961 0.326414 0.115954
0.335427 0.327827 0.117367
0.358047 0.329250 0.118790
0.380809 0.330682 0.120222
0.403704 0.332123 0.121662
0.489397 0.350242 0.123111
0.514848 0.351727 0.124566
0.540421 0.353219 0.126029
0.566110 0.354717 0.127498
0.591908 0.356223 0.128974
0.617812 0.357734 0.130455
0.643816 0.359251 0.131943
0.669915 0.360773 0.133435
0.696107 0.362301 0.134933
0.722387 0.363834 0.136436
0.748752 0.365372 0.137944
0.775200 0.366915 0.139457
0.801726 0.368463 0.140974
0.828330 0.370015 0.142496
0.855007 0.371571 0.144021
0.881756 0.373132 0.145551
0.908575 0.374696 0.147085
0.935462 0.376265 0.148623
0.962415 0.377837 0.150164
0.963494 0.377900 0.150226
0.146059 0.341596 0.109939
0.166391 0.342875 0.111218
0.187168 0.344182 0.112526
0.208300 0.345512 0.113855
0.229732 0.346860 0.115203
0.251420 0.348224 0.116568
0.273334 0.349603 0.117947
0.295450 0.350995 0.119338
0.317749 0.352397 0.120741
0.340214 0.353811 0.122154
0.362834 0.355234 0.123577
0.385596 0.356666 0.125009
0.408491 0.358106 0.126450
0.431511 0.359555 0.127898
0.520114 0.378230 0.129354
0.545687 0.379722 0.130816
0.571376 0.381221 0.132286
0.597174 0.382726 0.133761
0.623078 0.384237 0.135243
0.649082 0.385754 0.136730
0.675181 0.387277 0.138223
0.701373 0.388805 0.139721
0.727653 0.390338 0.141224
0.754018 0.391876 0.142732
0.780466 0.393419 0.144244
0.806992 0.394966 0.145761
0.833596 0.396518 0.147283
0.860273 0.398075 0.148809
0.887022 0.399635 0.150339
0.913841 0.401200 0.151872
0.940728 0.402768 0.153410
0.967681 0.404340 0.154952
0.968760 0.404403 0.155013
0.150877 0.367744 0.114757
0.171208 0.369023 0.116036
0.191985 0.370330 0.117343
0.213118 0.371659 0.118673
0.234549 0.373008 0.120021
0.256237 0.374372 0.121385
0.278151 0.375751 0.122764
0.300267 0.377142 0.124155
0.322566 0.378545 0.125558
0.345032 0.379959 0.126972
0.367651 0.381382 0.128395
0.390414 0.382814 0.129827
0.413309 0.384254 0.131267
0.436329 0.385702 0.132715
0.459466 0.387158 0.134171
0.482715 0.388621 0.135634
0.576675 0.407892 0.137103
0.602474 0.409397 0.138579
0.628377 0.410908 0.140060
0.654381 0.412425 0.141547
0.680481 0.413947 0.143040
0.706672 0.415475 0.144538
0.732952 0.417008 0.146041
0.759318 0.418547 0.147549
0.785765 0.420089 0.149062
0.812292 0.421637 0.150579
0.838895 0.423189 0.152100
0.865572 0.424745 0.153626
0.892322 0.426306 0.155156
0.919141 0.427870 0.156690
0.946027 0.429439 0.158228
0.972980 0.431011 0.159769
0.974059 0.431074 0.159831
0.155723 0.394044 0.119602
0.176054 0.395323 0.120882
0.196831 0.396630 0.122189
0.217964 0.397960 0.123518
0.239395 0.399308 0.124867
0.261083 0.400673 0.126231
0.282997 0.402051 0.127610
0.305113 0.403443 0.129001
0.327412 0.404846 0.130404
0.349877 0.406259 0.131817
0.372497 0.407682 0.133240
0.395259 0.409114 0.134672
0.418155 0.410555 0.136113
0.441175 0.412003 0.137561
0.464312 0.413458 0.139017
0.487560 0.414921 0.140479
0.510914 0.416390 0.141949
0.607804 0.436223 0.143424
0.633707 0.437734 0.144906
0.659711 0.439251 0.146393
0.685811 0.440774 0.147886
0.712003 0.442302 0.149384
0.738283 0.443835 0.150887
0.764648 0.445373 0.152395
0.791095 0.446916 0.153907
0.817622 0.448463 0.155424
0.844225 0.450015 0.156946
0.870903 0.451572 0.158472
0.897652 0.453132 0.160002
0.924471 0.454697 0.161536
0.951358 0.456265 0.163073
0.978310 0.457838 0.164615
0.979390 0.457901 0.164677
0.160595 0.420488 0.124475
0.180926 0.421767 0.125754
0.201703 0.423074 0.127061
0.222836 0.424404 0.128390
0.244267 0.425752 0.129739
0.265955 0.427116 0.131103
0.287869 0.428495 0.132482
0.309985 0.429887 0.133873
0.332284 0.431289 0.135276
0.354749 0.432703 0.136689
0.377369 0.434126 0.138112
0.400131 0.435558 0.139544
0.423027 0.436998 0.140985
0.446047 0.438447 0.142433
0.469184 0.439902 0.143889
0.492432 0.441365 0.145351
0.515786 0.442834 0.146821
0.539239 0.444310 0.148296
0.562788 0.445791 0.149778
0.665070 0.466224 0.151265
0.691170 0.467747 0.152758
0.717362 0.469275 0.154256
0.743642 0.470808 0.155759
0.770007 0.472346 0.157267
0.796454 0.473889 0.158779
0.822981 0.475436 0.160296
0.849584 0.476988 0.161818
0.876262 0.478544 0.163344
0.903011 0.480105 0.164874
0.929830 0.481669 0.166408
0.956717 0.483238 0.167945
0.983669 0.484810 0.169487
0.984749 0.484873 0.169549
0.165492 0.447067 0.129371
0.185823 0.448346 0.130651
0.206600 0.449653 0.131958
0.227733 0.450982 0.133287
0.249164 0.452331 0.134635
0.270852 0.453695 0.136000
0.292766 0.455074 0.137379
0.314882 0.456465 0.138770
0.337181 0.457868 0.140173
0.359646 0.459281 0.141586
0.382266 0.460705 0.143009
0.405028 0.462137 0.144441
0.427923 0.463577 0.145882
0.450943 0.465025 0.147330
0.474081 0.466481 0.148786
0.497329 0.467943 0.150248
0.520683 0.469413 0.151718
0.544136 0.470888 0.153193
0.567685 0.472370 0.154675
0.591325 0.473857 0.156162
0.696557 0.494857 0.157655
0.722748 0.496385 0.159153
0.749028 0.497918 0.160656
0.775394 0.499456 0.162164
0.801841 0.500999 0.163676
0.828368 0.502546 0.165193
0.854971 0.504098 0.166715
0.881648 0.505655 0.168241
0.908398 0.507215 0.169771
0.935217 0.508780 0.171304
0.962103 0.510348 0.172842
0.989056 0.511920 0.174384
0.990135 0.511983 0.174445
0.170412 0.473773 0.134292
0.190743 0.475052 0.135571
0.211520 0.476359 0.136878
0.232653 0.477688 0.138208
0.254084 0.479037 0.139556
0.275772 0.480401 0.140920
0.297686 0.481780 0.142299
0.319802 0.483171 0.143690
0.342101 0.484574 0.145093
0.364567 0.485987 0.146507
0.387186 0.487411 0.147930
0.409949 0.488843 0.149362
0.432844 0.490283 0.150802
0.455864 0.491731 0.152250
0.479001 0.493187 0.153706
0.502250 0.494650 0.155169
0.525603 0.496119 0.156638
0.549056 0.497594 0.158113
0.572605 0.499076 0.159595
0.596245 0.500563 0.161082
0.619972 0.502056 0.162575
0.728161 0.523625 0.164073
0.754441 0.525158 0.165576
0.780806 0.526696 0.167084
0.807253 0.528239 0.168597
0.833780 0.529786 0.170114
0.860383 0.531338 0.171635
0.887061 0.532895 0.173161
0.913810 0.534455 0.174691
0.940629 0.536020 0.176225
0.967516 0.537588 0.177763
0.994468 0.539161 0.179304
0.995548 0.539224 0.179366
0.175354 0.500599 0.139234
0.195686 0.501879 0.140513
0.216463 0.503186 0.141821
0.237595 0.504515 0.143150
0.259027 0.505864 0.144498
0.280715 0.507228 0.145863
0.302629 0.508607 0.147242
0.324745 0.509998 0.148633
0.347044 0.511401 0.150036
0.369509 0.512814 0.151449
0.392129 0.514237 0.152872
0.414891 0.515669 0.154304
0.437786 0.517110 0.155745
0.460806 0.518558 0.157193
0.483944 0.520014 0.158649
0.507192 0.521476 0.160111
0.530546 0.522946 0.161581
0.553999 0.524421 0.163056
0.577548 0.525903 0.164538
0.601188 0.527390 0.166025
0.624914 0.528883 0.167518
0.648725 0.530381 0.169016
0.672616 0.531884 0.170519
0.786243 0.554059 0.172027
0.812690 0.555602 0.173539
0.839217 0.557150 0.175056
0.865820 0.558702 0.176578
0.892498 0.560258 0.178104
0.919247 0.561819 0.179634
0.946066 0.563383 0.181167
0.972953 0.564952 0.182705
0.999905 0.566524 0.184247
1.000000 0.566587 0.184308
0.180318 0.527541 0.144198
0.200650 0.528820 0.145477
0.221426 0.530127 0.146784
0.242559 0.531457 0.148114
0.263990 0.532805 0.149462
0.285678 0.534170 0.150827
0.307593 0.535548 0.152205
0.329709 0.536940 0.153597
0.352007 0.538343 0.155000
0.374473 0.539756 0.156413
0.397093 0.541179 0.157836
0.419855 0.542611 0.159268
0.442750 0.544052 0.160709
0.465770 0.545500 0.162157
0.488908 0.546955 0.163612
0.512156 0.548418 0.165075
0.535509 0.549887 0.166544
0.558963 0.551363 0.168020
0.582512 0.552844 0.169501
0.606151 0.554332 0.170989
0.629878 0.555824 0.172481
0.653689 0.557322 0.173979
0.677580 0.558825 0.175482
0.701548 0.560333 0.176990
0.818150 0.583083 0.178503
0.844677 0.584630 0.180020
0.871280 0.586182 0.181542
0.897958 0.587739 0.183067
0.924707 0.589299 0.184597
0.951526 0.590864 0.186131
0.978413 0.592432 0.187669
1.000000 0.594004 0.189210
1.000000 0.594067 0.189272
0.185302 0.554592 0.149182
0.205634 0.555871 0.150461
0.226410 0.557178 0.151768
0.247543 0.558508 0.153098
0.268974 0.559856 0.154446
0.290662 0.561221 0.155811
0.312576 0.562599 0.157189
0.334692 0.563991 0.158581
0.356991 0.565394 0.159984
0.379457 0.566807 0.161397
0.402077 0.568230 0.162820
0.424839 0.569662 0.164252
0.447734 0.571103 0.165692
0.470754 0.572551 0.167141
0.493892 0.574007 0.168596
0.517140 0.575469 0.170059
0.540493 0.576938 0.171528
0.563947 0.578414 0.173004
0.587495 0.579895 0.174485
0.611135 0.581383 0.175973
0.634862 0.582875 0.177465
0.658673 0.584373 0.178963
0.682564 0.585876 0.180466
0.706532 0.587384 0.181974
0.730575 0.588897 0.183487
0.850159 0.612222 0.185004
0.876763 0.613774 0.186526
0.903440 0.615331 0.188051
0.930189 0.616891 0.189581
0.957008 0.618456 0.191115
0.983895 0.620024 0.192653
1.000000 0.621597 0.194194
1.000000 0.621660 0.194256
0.190305 0.581748 0.154185
0.210637 0.583027 0.155464
0.231413 0.584334 0.156771
0.252546 0.585664 0.158101
0.273978 0.587012 0.159449
0.295666 0.588376 0.160814
0.317580 0.589755 0.162192
0.339696 0.591147 0.163584
0.361994 0.592549 0.164987
0.384460 0.593963 0.166400
0.407080 0.595386 0.167823
0.429842 0.596818 0.169255
0.452737 0.598258 0.170696
0.475757 0.599707 0.172144
0.498895 0.601162 0.173600
0.522143 0.602625 0.175062
0.545497 0.604094 0.176531
0.568950 0.605570 0.178007
0.592499 0.607051 0.179488
0.616138 0.608538 0.180976
0.639865 0.610031 0.182468
0.663676 0.611529 0.183966
0.687567 0.613032 0.185469
0.711535 0.614540 0.186977
0.735578 0.616053 0.188490
0.759694 0.617570 0.190007
0.783878 0.619091 0.191529
0.908944 0.643030 0.193055
0.935693 0.644590 0.194584
0.962512 0.646155 0.196118
0.989399 0.647723 0.197656
1.000000 0.649295 0.199198
1.000000 0.649358 0.199259
0.195327 0.609004 0.159207
0.215659 0.610283 0.160486
0.236435 0.611590 0.161793
0.257568 0.612920 0.163123
0.278999 0.614268 0.164471
0.300687 0.615632 0.165835
0.322601 0.617011 0.167214
0.344717 0.618402 0.168606
0.367016 0.619805 0.170008
0.389482 0.621219 0.171422
0.412101 0.622642 0.172845
0.434864 0.624074 0.174277
0.457759 0.625514 0.175717
0.480779 0.626962 0.177166
0.503916 0.628418 0.178621
0.527165 0.629881 0.180084
0.550518 0.631350 0.181553
0.573972 0.632826 0.183029
0.597520 0.634307 0.184510
0.621160 0.635794 0.185997
0.644887 0.637287 0.187490
0.668698 0.638785 0.188988
0.692589 0.640288 0.190491
0.716557 0.641796 0.191999
0.740600 0.643309 0.193512
0.764715 0.644826 0.195029
0.788900 0.646347 0.196550
0.813152 0.647873 0.198076
0.941217 0.672391 0.199606
0.968036 0.673956 0.201140
0.994923 0.675524 0.202678
1.000000 0.677096 0.204219
1.000000 0.677159 0.204281
0.200366 0.636356 0.164246
0.220698 0.637635 0.165525
0.241474 0.638942 0.166833
0.262607 0.640272 0.168162
0.284039 0.641620 0.169510
0.305727 0.642984 0.170875
0.327641 0.644363 0.172253
0.349757 0.645754 0.173645
0.372055 0.647157 0.175048
0.394521 0.648571 0.176461
0.417141 0.649994 0.177884
0.439903 0.651426 0.179316
0.462798 0.652866 0.180757
0.485818 0.654314 0.182205
0.508956 0.655770 0.183661
0.532204 0.657233 0.185123
0.555558 0.658702 0.186592
0.579011 0.660177 0.188068
0.602560 0.661659 0.189549
0.626199 0.663146 0.191037
0.649926 0.664639 0.192529
0.673737 0.666137 0.194027
0.697628 0.667640 0.195531
0.721596 0.669148 0.197038
0.745639 0.670661 0.198551
0.769755 0.672178 0.200068
0.793939 0.673699 0.201590
0.818192 0.675225 0.203116
0.842509 0.676755 0.204645
0.866890 0.678289 0.206179
1.000000 0.703423 0.207717
1.000000 0.704995 0.209259
1.000000 0.705058 0.209320
0.205423 0.663800 0.169303
0.225754 0.665079 0.170582
0.246531 0.666386 0.171889
0.267664 0.667716 0.173218
0.289095 0.669064 0.174567
0.310783 0.670429 0.175931
0.332697 0.671807 0.177310
0.354813 0.673199 0.178701
0.377112 0.674602 0.180104
0.399578 0.676015 0.181518
0.422197 0.677438 0.182941
0.444959 0.678870 0.184373
0.467855 0.680311 0.185813
0.490875 0.681759 0.187261
0.514012 0.683214 0.188717
0.537260 0.684677 0.190180
0.560614 0.686146 0.191649
0.584067 0.687622 0.193124
0.607616 0.689103 0.194606
0.631256 0.690591 0.196093
0.654983 0.692083 0.197586
0.678793 0.693581 0.199084
0.702684 0.695084 0.200587
0.726653 0.696592 0.202095
0.750696 0.698105 0.203607
0.774811 0.699622 0.205125
0.798996 0.701144 0.206646
0.823248 0.702669 0.208172
0.847566 0.704199 0.209702
0.871946 0.705733 0.211236
0.896389 0.707271 0.212773
1.000000 0.732989 0.214315
1.000000 0.733052 0.214377
0.210496 0.691333 0.174375
0.230827 0.692613 0.175655
0.251604 0.693920 0.176962
0.272737 0.695249 0.178291
0.294168 0.696597 0.179639
0.315856 0.697962 0.181004
0.337770 0.699341 0.182383
0.359886 0.700732 0.183774
0.382185 0.702135 0.185177
0.404650 0.703548 0.186590
0.427270 0.704971 0.188013
0.450032 0.706403 0.189445
0.472928 0.707844 0.190886
0.495948 0.709292 0.192334
0.519085 0.710748 0.193790
0.542333 0.712210 0.195252
0.565687 0.713680 0.196722
0.589140 0.715155 0.198197
0.612689 0.716637 0.199679
0.636329 0.718124 0.201166
0.660056 0.719617 0.202659
0.683866 0.721115 0.204157
0.707757 0.722618 0.205660
0.731726 0.724126 0.207168
0.755769 0.725638 0.208680
0.779884 0.727155 0.210197
0.804069 0.728677 0.211719
0.828321 0.730203 0.213245
0.852638 0.731733 0.214775
0.877019 0.733266 0.216308
0.901462 0.734804 0.217846
0.925964 0.736346 0.219388
1.000000 0.761136 0.219449
0.215584 0.718952 0.179464
0.235916 0.720231 0.180743
0.256692 0.721539 0.182050
0.277825 0.722868 0.183380
0.299256 0.724216 0.184728
0.320944 0.725581 0.186093
0.342858 0.726960 0.187471
0.364974 0.728351 0.188863
0.387273 0.729754 0.190265
0.409739 0.731167 0.191679
0.432359 0.732590 0.193102
0.455121 0.734022 0.194534
0.478016 0.735463 0.195974
0.501036 0.736911 0.197423
0.524173 0.738367 0.198878
0.547422 0.739829 0.200341
0.570775 0.741299 0.201810
0.594229 0.742774 0.203286
0.617777 0.744256 0.204767
0.641417 0.745743 0.206254
0.665144 0.747236 0.207747
0.688955 0.748734 0.209245
0.712846 0.750237 0.210748
0.736814 0.751745 0.212256
0.760857 0.753257 0.213769
0.784972 0.754774 0.215286
0.809157 0.756296 0.216807
0.833409 0.757822 0.218333
0.857727 0.759352 0.219863
0.882108 0.760885 0.221397
0.906550 0.762423 0.222935
0.931053 0.763965 0.224476
0.932034 0.764026 0.224538
0.220688 0.746654 0.184568
0.241019 0.747933 0.185847
0.261796 0.749240 0.187154
0.282929 0.750570 0.188484
0.304360 0.751918 0.189832
0.326048 0.753283 0.191196
0.347962 0.754661 0.192575
0.370078 0.756053 0.193966
0.392377 0.757456 0.195369
0.414843 0.758869 0.196783
0.437462 0.760292 0.198206
0.460225 0.761724 0.199638
0.483120 0.763165 0.201078
0.506140 0.764613 0.202526
0.529277 0.766068 0.203982
0.552526 0.767531 0.205445
0.575879 0.769000 0.206914
0.599332 0.770476 0.208389
0.622881 0.771957 0.209871
0.646521 0.773445 0.211358
0.670248 0.774937 0.212851
0.694058 0.776435 0.214349
0.717950 0.777938 0.215852
0.741918 0.779446 0.217360
0.765961 0.780959 0.218873
0.790076 0.782476 0.220390
0.814261 0.783998 0.221911
0.838513 0.785523 0.223437
0.862831 0.787053 0.224967
0.887212 0.788587 0.226501
0.911654 0.790125 0.228039
0.936156 0.791666 0.229580
0.937138 0.791728 0.229642
0.225806 0.774436 0.189686
0.246138 0.775715 0.190965
0.266915 0.777022 0.192273
0.288047 0.778352 0.193602
0.309479 0.779700 0.194950
0.331167 0.781064 0.196315
0.353081 0.782443 0.197694
0.375197 0.783835 0.199085
0.397496 0.785237 0.200488
0.419961 0.786651 0.201901
0.442581 0.788074 0.203324
0.465343 0.789506 0.204756
0.488238 0.790946 0.206197
0.511258 0.792395 0.207645
0.534396 0.793850 0.209101
0.557644 0.795313 0.210563
0.580998 0.796782 0.212032
0.604451 0.798258 0.213508
0.628000 0.799739 0.214990
