library/cube/Portra_160_000.cube
# CINEGRADE LAB — Premium Cinematic LUT
# Title: Portra 160
# Category: Kodak Portra Emulation
# Description: Warm skin tones, soft contrast, film grain emulating Kodak Portra stocks
# Mood: Warm, filmic, timeless
# Variant: 1
# Generated: 2026-05-21T16:12:46.839760
TITLE "Portra 160"
LUT_3D_SIZE 5
0.090946 0.082746 0.060174
0.272636 0.090847 0.068275
0.466827 0.099505 0.076933
0.667982 0.108474 0.085902
0.849130 0.116551 0.093979
0.118198 0.283587 0.087426
0.299889 0.291689 0.095528
0.543725 0.316354 0.104186
0.756949 0.325502 0.113155
0.948966 0.333741 0.121232
0.147326 0.498248 0.116554
0.329016 0.506349 0.124655
0.523208 0.515008 0.133314
0.787824 0.544456 0.142283
0.979841 0.552695 0.150360
0.177498 0.720606 0.146726
0.359189 0.728707 0.154828
0.553380 0.737366 0.163486
0.754535 0.746335 0.172455
0.935683 0.754412 0.180532
0.204669 0.920849 0.173898
0.386360 0.928950 0.181999
0.580551 0.937608 0.190657
0.781706 0.946577 0.199626
0.962854 0.954654 0.207703
0.093367 0.085167 0.215353
0.275057 0.093268 0.223455
0.469248 0.101926 0.232113
0.670403 0.110895 0.241082
0.851551 0.118972 0.249159
0.120619 0.286008 0.242606
0.302310 0.294110 0.250707
0.496501 0.302768 0.259366
0.697656 0.311737 0.268335
0.878804 0.319814 0.276412
0.149747 0.500669 0.271734
0.331437 0.508770 0.279835
0.525629 0.517429 0.288493
0.790390 0.546926 0.297462
0.982408 0.555164 0.305539
0.179919 0.723027 0.301906
0.361610 0.731128 0.310007
0.555801 0.739787 0.318666
0.756956 0.748756 0.327635
1.000000 0.781969 0.335712
0.207091 0.923270 0.329077
0.388781 0.931371 0.337178
0.582972 0.940029 0.345837
0.784127 0.948998 0.354806
0.965275 0.957075 0.362883
0.095954 0.087754 0.381210
0.277645 0.095855 0.389311
0.471836 0.104514 0.397970
0.672991 0.113483 0.406939
0.854139 0.121560 0.415016
0.123207 0.288596 0.408463
0.304897 0.296697 0.416564
0.499089 0.305356 0.425222
0.700243 0.314325 0.434191
0.881391 0.322402 0.442268
0.152335 0.503257 0.437590
0.334025 0.511358 0.445692
0.528216 0.520016 0.454350
0.729371 0.528985 0.463319
0.910519 0.537062 0.471396
0.182507 0.725615 0.467763
0.364197 0.733716 0.475864
0.558389 0.742374 0.484522
0.759543 0.751343 0.493491
1.000000 0.784609 0.501568
0.209678 0.925857 0.494934
0.391369 0.933958 0.503035
0.585560 0.942617 0.511694
0.786715 0.951586 0.520663
0.967863 0.959663 0.528740
0.098635 0.090435 0.553014
0.280325 0.098536 0.561115
0.474516 0.107194 0.569773
0.675671 0.116163 0.578742
0.856819 0.124240 0.586819
0.125887 0.291276 0.580266
0.307578 0.299378 0.588368
0.501769 0.308036 0.597026
0.702924 0.317005 0.605995
0.884072 0.325082 0.614072
0.155015 0.505937 0.609394
0.336705 0.514038 0.617495
0.530897 0.522697 0.626154
0.732051 0.531666 0.635123
0.913200 0.539743 0.643200
0.185187 0.728295 0.639566
0.366878 0.736396 0.647668
0.561069 0.745055 0.656326
0.762224 0.754024 0.665295
0.943372 0.762101 0.673372
0.212359 0.928538 0.666738
0.394049 0.936639 0.674839
0.588240 0.945297 0.683497
0.789395 0.954266 0.692466
0.970543 0.962343 0.700543
0.101048 0.092848 0.707730
0.282739 0.100949 0.715831
0.476930 0.109608 0.724490
0.678085 0.118577 0.733459
0.859233 0.126654 0.741536
0.128301 0.293690 0.734983
0.309991 0.301791 0.743084
0.504183 0.310450 0.751743
0.705338 0.319419 0.760712
0.886486 0.327496 0.768788
0.157429 0.508351 0.764111
0.339119 0.516452 0.772212
0.533311 0.525111 0.780870
0.734465 0.534080 0.789839
0.915613 0.542157 0.797916
0.187601 0.730709 0.794283
0.369291 0.738810 0.802384
0.563483 0.747469 0.811043
0.764638 0.756438 0.820012
0.945786 0.764514 0.828088
0.214772 0.930951 0.821454
0.396463 0.939053 0.829555
0.590654 0.947711 0.838214
0.791809 0.956680 0.847183
0.972957 0.964757 0.855260
