library/cube/Portra_800_002.cube
# CINEGRADE LAB — Premium Cinematic LUT
# Title: Portra 800
# Category: Kodak Portra Emulation
# Description: Warm skin tones, soft contrast, film grain emulating Kodak Portra stocks
# Mood: Warm, filmic, timeless
# Variant: 3
# Generated: 2026-05-21T16:12:47.710800
TITLE "Portra 800"
LUT_3D_SIZE 5
0.095574 0.087674 0.061978
0.272264 0.097125 0.071429
0.461110 0.107227 0.081531
0.656729 0.117691 0.091995
0.832891 0.127114 0.101418
0.127369 0.286707 0.093773
0.304058 0.296158 0.103224
0.552338 0.322385 0.113326
0.763605 0.333058 0.123789
0.953861 0.342670 0.133213
0.161351 0.499435 0.127755
0.338041 0.508886 0.137206
0.526888 0.518988 0.147308
0.800306 0.550040 0.157772
0.990562 0.559652 0.167195
0.196552 0.719790 0.162956
0.373242 0.729241 0.172407
0.562088 0.739343 0.182509
0.757707 0.749807 0.192973
0.933869 0.759230 0.202396
0.228252 0.918229 0.194656
0.404942 0.927681 0.204107
0.593788 0.937782 0.214209
0.789407 0.948246 0.224673
0.965569 0.957669 0.234096
0.098398 0.090498 0.211972
0.275088 0.099950 0.221424
0.463935 0.110051 0.231525
0.659553 0.120515 0.241989
0.835716 0.129938 0.251412
0.130193 0.289532 0.243767
0.306883 0.298983 0.253218
0.495730 0.309084 0.263320
0.691348 0.319548 0.273784
0.867510 0.328971 0.283207
0.164176 0.502259 0.277749
0.340865 0.511710 0.287201
0.529712 0.521812 0.297302
0.803357 0.552921 0.307766
0.993612 0.562533 0.317189
0.199376 0.722615 0.312950
0.376066 0.732066 0.322402
0.564913 0.742167 0.332503
0.760531 0.752631 0.342967
1.000000 0.787295 0.352390
0.231076 0.921054 0.344650
0.407766 0.930505 0.354102
0.596613 0.940607 0.364203
0.792231 0.951070 0.374667
0.968394 0.960494 0.384090
0.101417 0.093517 0.372287
0.278107 0.102969 0.381738
0.466954 0.113070 0.391840
0.662572 0.123534 0.402304
0.838734 0.132957 0.411727
0.133212 0.292550 0.404082
0.309902 0.302002 0.413533
0.498749 0.312103 0.423635
0.694367 0.322567 0.434098
0.870529 0.331990 0.443522
0.167194 0.505278 0.438064
0.343884 0.514729 0.447515
0.532731 0.524831 0.457617
0.728349 0.535295 0.468081
0.904512 0.544718 0.477504
0.202395 0.725633 0.473265
0.379085 0.735085 0.482716
0.567932 0.745186 0.492818
0.763550 0.755650 0.503282
1.000000 0.790375 0.512705
0.234095 0.924073 0.504965
0.410785 0.933524 0.514416
0.599632 0.943626 0.524518
0.795250 0.954089 0.534982
0.971412 0.963512 0.544405
0.104544 0.096644 0.538350
0.281234 0.106096 0.547801
0.470081 0.116197 0.557903
0.665699 0.126661 0.568367
0.841862 0.136084 0.577790
0.136339 0.295678 0.570145
0.313029 0.305129 0.579596
0.501876 0.315231 0.589698
0.697494 0.325694 0.600162
0.873656 0.335117 0.609585
0.170322 0.508405 0.604127
0.347011 0.517856 0.613579
0.535858 0.527958 0.623680
0.731476 0.538422 0.634144
0.907639 0.547845 0.643567
0.205523 0.728761 0.639328
0.382212 0.738212 0.648779
0.571059 0.748313 0.658881
0.766677 0.758777 0.669345
0.942840 0.768200 0.678768
0.237222 0.927200 0.671028
0.413912 0.936651 0.680479
0.602759 0.946753 0.690581
0.798377 0.957217 0.701045
0.974540 0.966640 0.710468
0.107361 0.099461 0.687897
0.284050 0.108912 0.697348
0.472897 0.119013 0.707450
0.668515 0.129477 0.717913
0.844678 0.138900 0.727337
0.139155 0.298494 0.719692
0.315845 0.307945 0.729143
0.504692 0.318047 0.739244
0.700310 0.328510 0.749708
0.876473 0.337934 0.759131
0.173138 0.511221 0.753674
0.349827 0.520673 0.763125
0.538674 0.530774 0.773227
0.734293 0.541238 0.783691
0.910455 0.550661 0.793114
0.208339 0.731577 0.788875
0.385028 0.741028 0.798326
0.573875 0.751130 0.808428
0.769493 0.761593 0.818892
0.945656 0.771017 0.828315
0.240039 0.930016 0.820575
0.416728 0.939467 0.830026
0.605575 0.949569 0.840128
0.801193 0.960033 0.850591
0.977356 0.969456 0.860015
