library/cube/Pro_Green_002.cube
# CINEGRADE LAB — Premium Cinematic LUT
# Title: Pro Green
# Category: Fuji 400H Emulation
# Description: Pastel tones, green shadows, airy feel emulating Fuji Pro 400H
# Mood: Soft, pastel, delicate
# Variant: 3
# Generated: 2026-05-21T16:12:50.071456
TITLE "Pro Green"
LUT_3D_SIZE 9
0.155423 0.153044 0.172810
0.234357 0.158319 0.178323
0.318323 0.163952 0.184189
0.405754 0.169834 0.190299
0.495862 0.175909 0.196600
0.588170 0.182144 0.203058
0.682351 0.188516 0.209651
0.778170 0.195009 0.216363
0.826181 0.198166 0.219770
0.173896 0.244848 0.191377
0.252844 0.250113 0.196908
0.336826 0.255739 0.202792
0.424276 0.261616 0.208921
0.514407 0.267689 0.215240
0.606739 0.273925 0.221717
0.700949 0.280300 0.228329
0.796799 0.286799 0.235060
0.844838 0.289969 0.238482
0.193582 0.342425 0.211175
0.272548 0.347694 0.216724
0.356551 0.353325 0.222626
0.444025 0.359211 0.228773
0.534183 0.365295 0.235112
0.626546 0.371545 0.241608
0.720789 0.377937 0.248239
0.816677 0.384457 0.254989
0.864746 0.387652 0.258427
0.214116 0.443988 0.231841
0.293104 0.449274 0.237408
0.377134 0.454926 0.243329
0.464637 0.460835 0.249496
0.554827 0.466946 0.255853
0.647227 0.473225 0.262368
0.741509 0.479650 0.269019
0.837439 0.486206 0.275788
0.885542 0.489441 0.279242
0.235317 0.548678 0.253194
0.314333 0.553998 0.258780
0.398394 0.559687 0.264720
0.485931 0.565635 0.270905
0.576160 0.571788 0.277282
0.668600 0.578113 0.283816
0.762927 0.584588 0.290486
0.858905 0.591195 0.297275
0.907045 0.594487 0.300744
0.257078 0.656004 0.275124
0.336126 0.661374 0.280728
0.420223 0.667116 0.286687
0.507800 0.673121 0.292892
0.598072 0.679334 0.299288
0.690559 0.685722 0.305842
0.784936 0.692262 0.312531
0.880968 0.698939 0.319340
0.929147 0.702303 0.322824
0.279324 0.765660 0.297556
0.358410 0.771097 0.303179
0.442547 0.776910 0.309156
0.530169 0.782988 0.315380
0.620489 0.789278 0.321795
0.713029 0.795746 0.328368
0.807461 0.802370 0.335077
0.903552 0.809134 0.341905
0.951454 0.812589 0.345406
0.302005 0.877448 0.320435
0.381132 0.882970 0.326076
0.465316 0.888871 0.332072
0.552988 0.895041 0.338315
0.643362 0.901426 0.344749
0.735958 0.907956 0.351342
0.830453 0.914650 0.358071
0.926609 0.921505 0.364918
0.973166 0.925077 0.368435
0.314112 0.935725 0.332740
0.393284 0.941018 0.338396
0.477518 0.946632 0.344408
0.565244 0.952457 0.350666
0.655675 0.958433 0.357116
0.748333 0.964524 0.363725
0.842893 0.970699 0.370469
0.939118 0.976937 0.377333
0.984495 0.980091 0.380862
0.157286 0.154835 0.247666
0.236222 0.160112 0.253206
0.320189 0.165747 0.259099
0.407621 0.171631 0.265236
0.497732 0.177708 0.271563
0.590042 0.183946 0.278048
0.684225 0.190320 0.284668
0.780047 0.196816 0.291406
0.828061 0.199975 0.294839
0.175763 0.246635 0.266323
0.254713 0.251903 0.271881
0.338697 0.257532 0.277791
0.426148 0.263413 0.283946
0.516282 0.269489 0.290292
0.608617 0.275727 0.296796
0.702830 0.282106 0.303434
0.798684 0.288609 0.310192
0.846725 0.291782 0.313640
0.195452 0.344213 0.286210
0.274420 0.349485 0.291786
0.358426 0.355121 0.297714
0.445903 0.361011 0.303888
0.536064 0.367099 0.310253
0.628430 0.373353 0.316776
0.722677 0.379750 0.323433
0.818569 0.386274 0.330209
0.866641 0.389474 0.333673
0.215990 0.445781 0.306965
0.294982 0.451073 0.312559
0.379014 0.456730 0.318506
0.466520 0.462644 0.324699
0.556715 0.468760 0.331083
0.649118 0.475045 0.337624
0.743404 0.481476 0.344301
0.839339 0.488036 0.351097
0.887445 0.491278 0.354576
0.237196 0.550483 0.328407
0.316216 0.555809 0.334019
0.400280 0.561504 0.339985
0.487821 0.567458 0.346197
0.578054 0.573618 0.352600
0.670498 0.579949 0.359160
0.764830 0.586430 0.365856
0.860813 0.593045 0.372671
0.908957 0.596343 0.376166
0.258962 0.657825 0.350426
0.338014 0.663203 0.356056
0.422114 0.668952 0.362040
0.509696 0.674964 0.368271
0.599972 0.681184 0.374693
0.692464 0.687580 0.381273
0.786847 0.694128 0.387988
0.882884 0.700813 0.394823
0.931067 0.704185 0.398333
0.281213 0.767504 0.372945
0.360303 0.772949 0.378594
0.444445 0.778770 0.384597
0.532071 0.784857 0.390846
0.622397 0.791156 0.397287
0.714942 0.797632 0.403887
0.809380 0.804266 0.410621
0.905478 0.811039 0.417475
0.953287 0.814502 0.421001
0.303900 0.879320 0.395911
0.383031 0.884852 0.401578
0.467220 0.890762 0.407600
0.554897 0.896942 0.413868
0.645277 0.903334 0.420329
0.737880 0.909866 0.426947
0.832380 0.916576 0.433701
0.928543 0.923445 0.440574
0.974957 0.927030 0.444116
0.316012 0.937523 0.408302
0.395189 0.942815 0.413983
0.479428 0.948425 0.420021
0.567160 0.954244 0.426304
0.657598 0.960213 0.432780
0.750262 0.966293 0.439414
0.844829 0.972457 0.446184
0.941061 0.978680 0.453073
0.986249 0.981824 0.456627
0.159269 0.156746 0.327308
0.238205 0.162025 0.332876
0.322174 0.167662 0.338796
0.409608 0.173548 0.344962
0.499721 0.179628 0.351318
0.592033 0.185868 0.357831
0.686219 0.192245 0.364479
0.782044 0.198743 0.371245
0.830061 0.201905 0.374706
0.177749 0.248543 0.346060
0.256700 0.253814 0.351645
0.340686 0.259446 0.357584
0.428140 0.265329 0.363767
0.518276 0.271409 0.370142
0.610614 0.277651 0.376673
0.704830 0.284033 0.383340
0.800688 0.290540 0.390125
0.848732 0.293717 0.393601
0.197442 0.346122 0.366041
0.276412 0.351398 0.371645
0.360421 0.357038 0.377602
0.447900 0.362931 0.383804
0.538064 0.369024 0.390196
0.630434 0.375283 0.396747
0.724685 0.381684 0.403432
0.820580 0.388213 0.410236
0.868656 0.391418 0.413727
0.217984 0.447696 0.386891
0.296978 0.452992 0.392512
0.381014 0.458655 0.398487
0.468523 0.464574 0.404708
0.558721 0.470695 0.411120
0.651128 0.476985 0.417689
0.745419 0.483422 0.424393
0.841358 0.489988 0.431217
0.889468 0.493236 0.434723
0.239195 0.552409 0.408427
0.318217 0.557741 0.414066
0.402285 0.563442 0.420060
0.489830 0.569403 0.426299
0.580067 0.575569 0.432730
0.672516 0.581907 0.439318
0.766853 0.588395 0.446042
0.862841 0.595016 0.452884
0.910988 0.598321 0.456406
0.260965 0.659768 0.430538
0.340021 0.665153 0.436196
0.424125 0.670909 0.442208
0.511711 0.676929 0.448466
0.601992 0.683157 0.454916
0.694489 0.689560 0.461523
0.788877 0.696116 0.468266
0.884920 0.702808 0.475128
0.933108 0.706189 0.478665
0.283222 0.769470 0.453151
0.362315 0.774923 0.458827
0.446462 0.780753 0.464857
0.534093 0.786848 0.471134
0.624424 0.793155 0.477603
0.716974 0.799641 0.484229
0.811419 0.806283 0.490991
0.907523 0.813065 0.497872
0.955230 0.816537 0.501425
0.305914 0.881315 0.476209
0.385050 0.886856 0.481903
0.469243 0.892775 0.487953
0.556926 0.898965 0.494248
0.647311 0.905351 0.500736
0.739920 0.911899 0.507381
0.834427 0.918625 0.514162
0.930597 0.925509 0.521063
0.976855 0.929106 0.524631
0.318032 0.939432 0.488691
0.397214 0.944721 0.494399
0.481458 0.950327 0.500464
0.569195 0.956139 0.506775
0.659640 0.962099 0.513277
0.752311 0.968169 0.519938
0.846884 0.974319 0.526735
0.943124 0.980528 0.533651
0.988110 0.983659 0.537232
0.161333 0.158740 0.410248
0.240271 0.164021 0.415845
0.324241 0.169661 0.421795
0.411677 0.175549 0.427990
0.501792 0.181631 0.434375
0.594106 0.187873 0.440918
0.688295 0.194252 0.447595
0.784123 0.200753 0.454391
0.832143 0.203919 0.457881
0.179817 0.250534 0.429099
0.258770 0.255808 0.434713
0.342758 0.261443 0.440681
0.430214 0.267329 0.446894
0.520353 0.273412 0.453297
0.612694 0.279658 0.459858
0.706913 0.286043 0.466554
0.802774 0.292554 0.473368
0.850822 0.295735 0.476873
0.199514 0.348114 0.449179
0.278486 0.353394 0.454811
0.362497 0.359038 0.460797
0.449979 0.364936 0.467028
0.540147 0.371033 0.473450
0.632520 0.377296 0.480029
0.726775 0.383702 0.486744
0.822674 0.390235 0.493577
0.870753 0.393445 0.497096
0.220061 0.449694 0.470126
0.299057 0.454996 0.475776
0.383095 0.460663 0.481781
0.470608 0.466588 0.488030
0.560810 0.472714 0.494470
0.653221 0.479010 0.501069
0.747516 0.485452 0.507802
0.843460 0.492024 0.514654
0.891573 0.495278 0.518189
0.241276 0.554419 0.491759
0.320301 0.559757 0.497428
0.404372 0.565464 0.503450
0.491921 0.571431 0.509718
0.582162 0.577604 0.516177
0.674616 0.583949 0.522794
0.768957 0.590443 0.529547
0.864951 0.597071 0.536418
0.913102 0.600383 0.539968
0.263051 0.661796 0.513968
0.342110 0.667187 0.519654
0.426218 0.672951 0.525695
0.513808 0.678978 0.531982
0.604094 0.685213 0.538460
0.696596 0.691624 0.545096
0.790990 0.698188 0.551867
0.887039 0.704888 0.558757
0.935231 0.708277 0.562323
0.285313 0.771520 0.536677
0.364410 0.776982 0.542381
0.448561 0.782820 0.548440
0.536198 0.788924 0.554746
0.626534 0.795240 0.561242
0.719089 0.801734 0.567897
0.813540 0.808385 0.574688
0.909650 0.815176 0.581597
0.957246 0.818658 0.585178
0.308010 0.883394 0.559831
0.387151 0.888945 0.565554
0.471349 0.894874 0.571631
0.559037 0.901073 0.577955
0.649429 0.907455 0.584471
0.742044 0.914020 0.591145
0.836557 0.920761 0.597954
0.932734 0.927659 0.604882
0.978825 0.931182 0.608479
0.320134 0.941417 0.572407
0.399321 0.946703 0.578144
0.483570 0.952303 0.584236
0.571314 0.958108 0.590575
0.661764 0.964058 0.597106
0.754442 0.970116 0.603795
0.849023 0.976252 0.610620
0.945270 0.982444 0.617564
0.990040 0.985563 0.621172
0.163461 0.160799 0.495741
0.242400 0.166081 0.501369
0.326372 0.171723 0.507350
0.413809 0.177613 0.513575
0.503926 0.183697 0.519990
0.596243 0.189942 0.526563
0.690435 0.196324 0.533270
0.786266 0.202827 0.540096
0.834288 0.205996 0.543615
0.181949 0.252589 0.514694
0.260903 0.257866 0.520339
0.344893 0.263505 0.526337
0.432352 0.269394 0.532579
0.522493 0.275480 0.539013
0.614837 0.281729 0.545604
0.709060 0.288118 0.552329
0.804924 0.294632 0.559173
0.852975 0.297817 0.562707
0.201649 0.350171 0.534875
0.280624 0.355455 0.540537
0.364637 0.361103 0.546553
0.452122 0.367005 0.552814
0.542293 0.373106 0.559266
0.634670 0.379374 0.565875
0.728928 0.385784 0.572619
0.824832 0.392323 0.579482
0.872914 0.395537 0.583031
0.222200 0.451758 0.555923
0.301199 0.457064 0.561603
0.385241 0.462737 0.567637
0.472757 0.468667 0.573916
0.562962 0.474799 0.580386
0.655377 0.481100 0.587014
0.749677 0.487547 0.593777
0.845626 0.494126 0.600659
0.893743 0.497385 0.604223
0.243420 0.556494 0.577657
0.322449 0.561838 0.583354
0.406523 0.567552 0.589407
0.494076 0.573525 0.595704
0.584321 0.579704 0.602193
0.676780 0.586056 0.608839
0.771126 0.592557 0.615621
0.867125 0.599192 0.622522
0.915280 0.602511 0.626101
0.265200 0.663889 0.599965
0.344263 0.669288 0.605681
0.428375 0.675059 0.611751
0.515970 0.681093 0.618067
0.606260 0.687336 0.624574
0.698768 0.693754 0.631239
0.793167 0.700326 0.638040
0.889222 0.707035 0.644960
0.937418 0.710432 0.648554
0.287467 0.773637 0.622773
0.366569 0.779107 0.628506
0.450724 0.784953 0.634595
0.538366 0.791066 0.640930
0.628707 0.797390 0.647455
0.721269 0.803894 0.654139
0.815726 0.810554 0.660959
0.911842 0.817354 0.667897
0.959318 0.820845 0.671507
0.310170 0.885541 0.646026
0.389316 0.891101 0.651778
0.473519 0.897040 0.657884
0.561213 0.903246 0.664237
0.651610 0.909627 0.670782
0.744231 0.916208 0.677485
0.838751 0.922965 0.684323
0.934935 0.929877 0.691280
0.980850 0.933240 0.694905
0.322299 0.943460 0.658699
0.401492 0.948742 0.664464
0.485747 0.954336 0.670586
0.573496 0.960132 0.676954
0.663953 0.966072 0.683513
0.756638 0.972117 0.690231
0.851225 0.978238 0.697085
0.947399 0.984413 0.704058
0.992023 0.987518 0.707694
0.165641 0.162910 0.583333
0.244581 0.168195 0.588992
0.328555 0.173838 0.595003
0.415994 0.179731 0.601259
0.506113 0.185817 0.607705
0.598433 0.192064 0.614309
0.692628 0.198449 0.621047
0.788462 0.204955 0.627904
0.836486 0.208127 0.631453
0.184132 0.254698 0.602389
0.263088 0.259978 0.608065
0.347081 0.265619 0.614094
0.434542 0.271512 0.620367
0.524686 0.277601 0.626831
0.617033 0.283853 0.633453
0.711259 0.290246 0.640209
0.807127 0.296764 0.647084
0.855181 0.299953 0.650648
0.203837 0.352281 0.622674
0.282814 0.357569 0.628367
0.366830 0.363221 0.634413
0.454318 0.369127 0.640705
0.544491 0.375233 0.647187
0.636872 0.381505 0.653827
0.731134 0.387920 0.660601
0.827043 0.394463 0.667495
0.875128 0.397683 0.671074
0.224392 0.453875 0.643825
0.303394 0.459186 0.649536
0.387439 0.464864 0.655600
0.474958 0.470799 0.661909
0.565167 0.476937 0.668410
0.657587 0.483243 0.675068
0.751891 0.489697 0.681861
0.847844 0.496281 0.688773
0.895965 0.499546 0.692367
0.245616 0.558623 0.665661
0.324648 0.563974 0.671389
0.408726 0.569694 0.677471
0.496283 0.575674 0.683799
0.586533 0.581859 0.690318
0.678996 0.588217 0.696995
0.773348 0.594725 0.703807
0.869352 0.601367 0.710737
0.917511 0.604694 0.714346
0.267401 0.666036 0.688071
0.346468 0.671442 0.693817
0.430584 0.677221 0.699917
0.518183 0.683263 0.706263
0.608479 0.689513 0.712801
0.700992 0.695939 0.719496
0.795396 0.702519 0.726327
0.891457 0.709236 0.733276
0.939658 0.712641 0.736900
0.289674 0.775808 0.710981
0.368780 0.781287 0.716744
0.452940 0.787141 0.722863
0.540586 0.793263 0.729227
0.630933 0.799596 0.735783
0.723500 0.806108 0.742497
0.817964 0.812777 0.749346
0.914086 0.819587 0.756314
0.961436 0.823087 0.759953
0.312383 0.887742 0.734335
0.391533 0.893312 0.740116
0.475741 0.899260 0.746252
0.563440 0.905459 0.752635
0.653844 0.911857 0.759209
0.746471 0.918454 0.765942
0.840998 0.925225 0.772810
0.937189 0.931990 0.779797
0.982918 0.935342 0.783451
0.324518 0.945550 0.747106
0.403715 0.950827 0.752902
0.487976 0.956414 0.759053
0.575731 0.962201 0.765450
0.666194 0.968129 0.772039
0.758886 0.974160 0.778787
0.853481 0.980266 0.785670
0.949498 0.986423 0.792672
0.994049 0.989513 0.796337
0.167865 0.165066 0.672714
0.246807 0.170353 0.678404
0.330782 0.175999 0.684447
0.418223 0.181894 0.690735
0.508345 0.187982 0.697212
0.600667 0.194232 0.703847
0.694865 0.200619 0.710617
0.790702 0.207128 0.717505
0.838730 0.210303 0.721085
0.186360 0.256852 0.691876
0.265318 0.262135 0.697583
0.349313 0.267779 0.703643
0.436776 0.273675 0.709948
0.526923 0.279767 0.716443
0.619273 0.286023 0.723096
0.713503 0.292420 0.729883
0.809375 0.298941 0.736789
0.857432 0.302134 0.740384
0.206069 0.354437 0.712266
0.285048 0.359729 0.717990
0.369067 0.365385 0.724068
0.456558 0.371296 0.730390
0.546735 0.377406 0.736904
0.639119 0.383682 0.743574
0.733385 0.390102 0.750380
0.829298 0.396650 0.757304
0.877387 0.399875 0.760914
0.226628 0.456038 0.733522
0.305633 0.461354 0.739263
0.389681 0.467038 0.745359
0.477204 0.472978 0.751699
0.567417 0.479121 0.758231
0.659840 0.485433 0.764920
0.754149 0.491892 0.771744
0.850108 0.498482 0.778686
0.898232 0.501754 0.782310
0.247857 0.560799 0.755462
0.326893 0.566156 0.761221
0.410974 0.571882 0.767334
0.498535 0.577868 0.773693
0.588789 0.584060 0.780242
0.681257 0.590425 0.786950
0.775614 0.596940 0.793792
0.871624 0.603588 0.800754
0.919787 0.606923 0.804392
0.269647 0.668230 0.777976
0.348718 0.673644 0.783753
0.432838 0.679429 0.789883
0.520442 0.685479 0.796260
0.610742 0.691737 0.802828
0.703260 0.698171 0.809554
0.797671 0.704759 0.816415
0.893737 0.711484 0.823395
0.941942 0.714897 0.827049
0.291926 0.778026 0.800989
0.371036 0.783514 0.806783
0.455200 0.789377 0.812932
0.542852 0.795507 0.819326
0.633204 0.801849 0.825913
0.725777 0.808370 0.832657
0.820246 0.815048 0.839536
0.916376 0.821867 0.846535
0.963590 0.825377 0.850204
0.314640 0.889991 0.824445
0.393795 0.895570 0.830257
0.478008 0.901528 0.836424
0.565713 0.907722 0.842837
0.656122 0.914136 0.849441
0.748756 0.920748 0.856204
0.843290 0.927534 0.863102
0.939488 0.934135 0.870119
0.985022 0.937481 0.873803
0.326780 0.947679 0.837318
0.405983 0.952950 0.843144
0.490249 0.958530 0.849325
0.578011 0.964306 0.855752
0.668480 0.970222 0.862371
0.761179 0.976239 0.869149
0.855781 0.982328 0.876062
0.951632 0.988466 0.883094
0.996109 0.991541 0.886789
0.170128 0.167262 0.763660
0.249071 0.172551 0.769382
0.333048 0.178199 0.775457
0.420491 0.184096 0.781776
0.510615 0.190187 0.788286
0.602940 0.196438 0.794952
0.697141 0.202828 0.801754
0.792981 0.209340 0.808674
0.841012 0.212518 0.812285
0.188627 0.259045 0.782929
0.267587 0.264331 0.788668
0.351583 0.269979 0.794760
0.439050 0.275878 0.801096
0.529199 0.281974 0.807623
0.621553 0.288233 0.814308
0.715786 0.294633 0.821127
0.811662 0.301158 0.828064
0.859722 0.304356 0.831690
0.208340 0.356633 0.803426
0.287321 0.361929 0.809182
0.371343 0.367589 0.815291
0.458836 0.373504 0.821645
0.549017 0.379619 0.828190
0.641405 0.385900 0.834892
0.735675 0.392324 0.841729
0.831592 0.398877 0.848685
0.879685 0.402107 0.852325
0.228903 0.458241 0.824788
0.307911 0.463563 0.830561
0.391962 0.469251 0.836688
0.479489 0.475197 0.843060
0.569706 0.481345 0.849623
0.662133 0.487663 0.856343
0.756447 0.494128 0.863198
0.852410 0.500724 0.870172
0.900539 0.504002 0.873827
0.250137 0.563015 0.846834
0.329176 0.568378 0.852625
0.413261 0.574111 0.858769
0.500826 0.580104 0.865159
0.591085 0.586302 0.871740
0.683557 0.592674 0.878478
0.777919 0.599195 0.885352
0.873935 0.605851 0.892344
0.922102 0.609192 0.895948
0.271932 0.670465 0.869454
0.351006 0.675886 0.875261
0.435131 0.681679 0.881423
0.522740 0.687736 0.887831
0.613045 0.694002 0.894404
0.705568 0.700444 0.900981
0.799984 0.707040 0.907659
0.896057 0.713773 0.914420
0.944267 0.717194 0.917934
0.294216 0.780286 0.892571
0.373330 0.785782 0.898269
0.457500 0.791654 0.904271
0.545156 0.797792 0.910483
0.635514 0.804143 0.916850
0.728093 0.810674 0.923336
0.822569 0.817361 0.929916
0.918705 0.824189 0.936573
0.965776 0.827708 0.940003
0.316936 0.892281 0.915441
0.396096 0.897870 0.921041
0.480315 0.903831 0.926953
0.568025 0.910028 0.933068
0.658440 0.916459 0.939330
0.751081 0.923087 0.945704
0.845621 0.929887 0.952165
0.941826 0.936312 0.958696
0.987157 0.939652 0.962024
0.329082 0.949842 0.927744
0.408290 0.955107 0.933268
0.492562 0.960678 0.939097
0.580330 0.966444 0.945122
0.670806 0.972346 0.951288
0.763512 0.978348 0.957560
0.858121 0.984419 0.963913
0.953797 0.990537 0.970329
0.998198 0.993596 0.973571
0.170793 0.167847 0.790393
0.249738 0.173139 0.796125
0.333717 0.178789 0.802210
0.421162 0.184689 0.808540
0.511288 0.190783 0.815059
0.603616 0.197038 0.821736
0.697819 0.203431 0.828548
0.793663 0.209946 0.835478
0.841696 0.213128 0.839099
0.189296 0.259631 0.809696
0.268258 0.264920 0.815445
0.352257 0.270572 0.821547
0.439725 0.276474 0.827894
0.529878 0.282574 0.834431
0.622235 0.288838 0.841125
0.716471 0.295242 0.847955
0.812351 0.301771 0.854902
0.860414 0.304973 0.858538
0.209013 0.357223 0.830227
0.287997 0.362524 0.835993
0.372021 0.368189 0.842112
0.459518 0.374108 0.848476
0.549701 0.380227 0.855031
0.642093 0.386513 0.861743
0.736368 0.392943 0.868591
0.832289 0.399501 0.875556
0.880385 0.402736 0.879206
0.229581 0.458840 0.851623
0.308591 0.464168 0.857406
0.392645 0.469862 0.863543
0.480176 0.475813 0.869925
0.570396 0.481967 0.876497
0.662828 0.488291 0.883228
0.757146 0.494762 0.890093
0.853114 0.501364 0.896998
0.901246 0.504648 0.900584
0.250819 0.563629 0.873703
0.329861 0.568998 0.879503
0.413950 0.574737 0.885657
0.501519 0.580737 0.892057
0.591782 0.586943 0.898537
0.684259 0.593321 0.905137
0.778626 0.599850 0.911843
0.874647 0.606512 0.918636
0.922818 0.609861 0.922164
0.272619 0.671099 0.896290
0.351696 0.676527 0.901990
0.435826 0.682328 0.908015
0.523438 0.688393 0.914255
0.613749 0.694666 0.920653
0.706277 0.701116 0.927174
0.800699 0.707720 0.933794
0.896777 0.714461 0.940493
0.944982 0.717891 0.943946
0.294907 0.780945 0.918868
0.374026 0.786449 0.924497
0.458200 0.792329 0.930443
0.545861 0.798477 0.936596
0.636224 0.804837 0.942901
0.728809 0.811376 0.949322
0.823291 0.818072 0.955834
0.919434 0.824910 0.962419
0.966446 0.828438 0.965778
0.317633 0.892971 0.941530
0.396797 0.898569 0.947067
0.481021 0.904535 0.952913
0.568737 0.910747 0.958959
0.659158 0.917190 0.965149
0.751804 0.923831 0.971448
0.846352 0.930599 0.977832
0.942564 0.937015 0.984281
0.987793 0.940354 0.987529
0.329784 0.950512 0.953616
0.408997 0.955775 0.959068
0.493274 0.961341 0.964821
0.581048 0.967102 0.970769
0.671530 0.972997 0.976853
0.764243 0.978989 0.983041
0.858860 0.985049 0.989307
0.954480 0.991154 0.995632
0.998810 0.994205 0.998785
