library/cube/Pro_Green_002.cube
# CINEGRADE LAB — Premium Cinematic LUT
# Title: Pro Green
# Category: Fuji 400H Emulation
# Description: Pastel tones, green shadows, airy feel emulating Fuji Pro 400H
# Mood: Soft, pastel, delicate
# Variant: 3
# Generated: 2026-05-21T16:12:50.071456
TITLE "Pro Green"
LUT_3D_SIZE 5
0.155423 0.153044 0.172810
0.318323 0.163952 0.184189
0.495862 0.175909 0.196600
0.682351 0.188516 0.209651
0.826181 0.198166 0.219770
0.193582 0.342425 0.211175
0.356551 0.353325 0.222626
0.534183 0.365295 0.235112
0.720789 0.377937 0.248239
0.864746 0.387652 0.258427
0.235317 0.548678 0.253194
0.398394 0.559687 0.264720
0.576160 0.571788 0.277282
0.762927 0.584588 0.290486
0.907045 0.594487 0.300744
0.279324 0.765660 0.297556
0.442547 0.776910 0.309156
0.620489 0.789278 0.321795
0.807461 0.802370 0.335077
0.951454 0.812589 0.345406
0.314112 0.935725 0.332740
0.477518 0.946632 0.344408
0.655675 0.958433 0.357116
0.842893 0.970699 0.370469
0.984495 0.980091 0.380862
0.159269 0.156746 0.327308
0.322174 0.167662 0.338796
0.499721 0.179628 0.351318
0.686219 0.192245 0.364479
0.830061 0.201905 0.374706
0.197442 0.346122 0.366041
0.360421 0.357038 0.377602
0.538064 0.369024 0.390196
0.724685 0.381684 0.403432
0.868656 0.391418 0.413727
0.239195 0.552409 0.408427
0.402285 0.563442 0.420060
0.580067 0.575569 0.432730
0.766853 0.588395 0.446042
0.910988 0.598321 0.456406
0.283222 0.769470 0.453151
0.446462 0.780753 0.464857
0.624424 0.793155 0.477603
0.811419 0.806283 0.490991
0.955230 0.816537 0.501425
0.318032 0.939432 0.488691
0.481458 0.950327 0.500464
0.659640 0.962099 0.513277
0.846884 0.974319 0.526735
0.988110 0.983659 0.537232
0.163461 0.160799 0.495741
0.326372 0.171723 0.507350
0.503926 0.183697 0.519990
0.690435 0.196324 0.533270
0.834288 0.205996 0.543615
0.201649 0.350171 0.534875
0.364637 0.361103 0.546553
0.542293 0.373106 0.559266
0.728928 0.385784 0.572619
0.872914 0.395537 0.583031
0.243420 0.556494 0.577657
0.406523 0.567552 0.589407
0.584321 0.579704 0.602193
0.771126 0.592557 0.615621
0.915280 0.602511 0.626101
0.287467 0.773637 0.622773
0.450724 0.784953 0.634595
0.628707 0.797390 0.647455
0.815726 0.810554 0.660959
0.959318 0.820845 0.671507
0.322299 0.943460 0.658699
0.485747 0.954336 0.670586
0.663953 0.966072 0.683513
0.851225 0.978238 0.697085
0.992023 0.987518 0.707694
0.167865 0.165066 0.672714
0.330782 0.175999 0.684447
0.508345 0.187982 0.697212
0.694865 0.200619 0.710617
0.838730 0.210303 0.721085
0.206069 0.354437 0.712266
0.369067 0.365385 0.724068
0.546735 0.377406 0.736904
0.733385 0.390102 0.750380
0.877387 0.399875 0.760914
0.247857 0.560799 0.755462
0.410974 0.571882 0.767334
0.588789 0.584060 0.780242
0.775614 0.596940 0.793792
0.919787 0.606923 0.804392
0.291926 0.778026 0.800989
0.455200 0.789377 0.812932
0.633204 0.801849 0.825913
0.820246 0.815048 0.839536
0.963590 0.825377 0.850204
0.326780 0.947679 0.837318
0.490249 0.958530 0.849325
0.668480 0.970222 0.862371
0.855781 0.982328 0.876062
0.996109 0.991541 0.886789
0.170793 0.167847 0.790393
0.333717 0.178789 0.802210
0.511288 0.190783 0.815059
0.697819 0.203431 0.828548
0.841696 0.213128 0.839099
0.209013 0.357223 0.830227
0.372021 0.368189 0.842112
0.549701 0.380227 0.855031
0.736368 0.392943 0.868591
0.880385 0.402736 0.879206
0.250819 0.563629 0.873703
0.413950 0.574737 0.885657
0.591782 0.586943 0.898537
0.778626 0.599850 0.911843
0.922818 0.609861 0.922164
0.294907 0.780945 0.918868
0.458200 0.792329 0.930443
0.636224 0.804837 0.942901
0.823291 0.818072 0.955834
0.966446 0.828438 0.965778
0.329784 0.950512 0.953616
0.493274 0.961341 0.964821
0.671530 0.972997 0.976853
0.858860 0.985049 0.989307
0.998810 0.994205 0.998785
