library/cube/Pro_Green_002.cube
# CINEGRADE LAB — Premium Cinematic LUT
# Title: Pro Green
# Category: Fuji 400H Emulation
# Description: Pastel tones, green shadows, airy feel emulating Fuji Pro 400H
# Mood: Soft, pastel, delicate
# Variant: 3
# Generated: 2026-05-21T16:12:50.071456
TITLE "Pro Green"
LUT_3D_SIZE 33
0.155423 0.153044 0.172810
0.174533 0.154319 0.174145
0.194100 0.155625 0.175511
0.214058 0.156960 0.176905
0.234357 0.158319 0.178323
0.254961 0.159700 0.179762
0.275838 0.161100 0.181220
0.296966 0.162518 0.182696
0.318323 0.163952 0.184189
0.339894 0.165402 0.185696
0.361665 0.166866 0.187217
0.383621 0.168344 0.188752
0.405754 0.169834 0.190299
0.428052 0.171336 0.191858
0.450508 0.172850 0.193428
0.473113 0.174374 0.195009
0.495862 0.175909 0.196600
0.518748 0.177454 0.198201
0.541764 0.179008 0.199811
0.564906 0.180572 0.201430
0.588170 0.182144 0.203058
0.611550 0.183725 0.204694
0.635042 0.185314 0.206339
0.658644 0.186911 0.207991
0.682351 0.188516 0.209651
0.706160 0.190129 0.211319
0.730068 0.191748 0.212993
0.754072 0.193375 0.214675
0.778170 0.195009 0.216363
0.802358 0.196650 0.218058
0.826158 0.198264 0.219726
0.826169 0.198214 0.219748
0.826181 0.198166 0.219770
0.159892 0.175277 0.177301
0.179003 0.176551 0.178637
0.198571 0.177857 0.180005
0.218529 0.179191 0.181400
0.238830 0.180549 0.182819
0.259434 0.181929 0.184259
0.280312 0.183328 0.185718
0.301440 0.184745 0.187195
0.322799 0.186179 0.188689
0.344371 0.187628 0.190197
0.366142 0.189092 0.191720
0.388100 0.190569 0.193255
0.410234 0.192059 0.194804
0.432533 0.193560 0.196364
0.454990 0.195074 0.197935
0.477597 0.196598 0.199517
0.500347 0.198132 0.201109
0.523234 0.199676 0.202711
0.546252 0.201231 0.204322
0.569396 0.202794 0.205943
0.592661 0.204366 0.207572
0.616042 0.205947 0.209210
0.639537 0.207536 0.210855
0.663140 0.209133 0.212509
0.686848 0.210738 0.214170
0.710659 0.212350 0.215838
0.734569 0.213970 0.217514
0.758575 0.215597 0.219197
0.782675 0.217231 0.220886
0.806865 0.218872 0.222582
0.830667 0.220486 0.224252
0.830679 0.220437 0.224274
0.830692 0.220390 0.224297
0.164471 0.198038 0.181902
0.183582 0.199311 0.183239
0.203151 0.200616 0.184608
0.223110 0.201949 0.186004
0.243411 0.203307 0.187424
0.264016 0.204686 0.188866
0.284895 0.206085 0.190326
0.306025 0.207501 0.191804
0.327385 0.208935 0.193299
0.348958 0.210383 0.194809
0.370730 0.211847 0.196332
0.392689 0.213323 0.197869
0.414824 0.214813 0.199419
0.437125 0.216314 0.200980
0.459583 0.217827 0.202552
0.482191 0.219351 0.204135
0.504943 0.220885 0.205729
0.527831 0.222429 0.207332
0.550850 0.223983 0.208944
0.573996 0.225546 0.210566
0.597262 0.227119 0.212196
0.620646 0.228699 0.213835
0.644142 0.230289 0.215482
0.667746 0.231886 0.217136
0.691457 0.233491 0.218799
0.715270 0.235104 0.220468
0.739181 0.236724 0.222145
0.763189 0.238351 0.223829
0.787291 0.239985 0.225520
0.811484 0.241627 0.227217
0.835287 0.243241 0.228888
0.835301 0.243193 0.228911
0.835315 0.243147 0.228934
0.169143 0.221247 0.186598
0.188254 0.222519 0.187936
0.207824 0.223824 0.189306
0.227785 0.225157 0.190703
0.248087 0.226514 0.192124
0.268692 0.227893 0.193567
0.289573 0.229291 0.195029
0.310703 0.230707 0.196508
0.332064 0.232140 0.198004
0.353639 0.233589 0.199514
0.375412 0.235052 0.201039
0.397372 0.236528 0.202577
0.419508 0.238017 0.204128
0.441811 0.239519 0.205690
0.464270 0.241032 0.207264
0.486880 0.242555 0.208848
0.509633 0.244090 0.210443
0.532523 0.245634 0.212047
0.555544 0.247188 0.213661
0.578691 0.248752 0.215283
0.601959 0.250324 0.216915
0.625344 0.251905 0.218555
0.648842 0.253494 0.220203
0.672449 0.255092 0.221859
0.696161 0.256697 0.223522
0.719975 0.258310 0.225193
0.743889 0.259931 0.226871
0.767899 0.261559 0.228556
0.792003 0.263194 0.230248
0.816198 0.264836 0.231947
0.840003 0.266451 0.233619
0.840019 0.266404 0.233642
0.840034 0.266359 0.233666
0.173896 0.244848 0.191377
0.193009 0.246120 0.192716
0.212580 0.247424 0.194087
0.232541 0.248757 0.195485
0.252844 0.250113 0.196908
0.273451 0.251492 0.198351
0.294333 0.252890 0.199814
0.315464 0.254306 0.201295
0.336826 0.255739 0.202792
0.358402 0.257188 0.204304
0.380177 0.258651 0.205830
0.402138 0.260127 0.207369
0.424276 0.261616 0.208921
0.446579 0.263118 0.210484
0.469041 0.264631 0.212059
0.491652 0.266155 0.213644
0.514407 0.267689 0.215240
0.537298 0.269234 0.216845
0.560321 0.270788 0.218460
0.583469 0.272352 0.220084
0.606739 0.273925 0.221717
0.630126 0.275506 0.223358
0.653626 0.277096 0.225007
0.677234 0.278694 0.226664
0.700949 0.280300 0.228329
0.724765 0.281914 0.230001
0.748681 0.283535 0.231680
0.772693 0.285164 0.233367
0.796799 0.286799 0.235060
0.820996 0.288442 0.236759
0.844804 0.290058 0.238432
0.844821 0.290013 0.238457
0.844838 0.289969 0.238482
0.178723 0.268797 0.196230
0.197837 0.270069 0.197570
0.217409 0.271373 0.198943
0.237371 0.272705 0.200342
0.257675 0.274062 0.201766
0.278284 0.275441 0.203210
0.299166 0.276839 0.204674
0.320299 0.278255 0.206156
0.341662 0.279688 0.207654
0.363239 0.281137 0.209167
0.385016 0.282600 0.210694
0.406979 0.284076 0.212235
0.429117 0.285566 0.213788
0.451423 0.287068 0.215352
0.473885 0.288581 0.216928
0.496498 0.290105 0.218515
0.519254 0.291640 0.220112
0.542148 0.293185 0.221718
0.565172 0.294740 0.223335
0.588322 0.296305 0.224960
0.611594 0.297878 0.226593
0.634983 0.299460 0.228236
0.658485 0.301051 0.229886
0.682095 0.302650 0.231544
0.705812 0.304256 0.233210
0.729630 0.305871 0.234884
0.753548 0.307493 0.236564
0.777563 0.309123 0.238252
0.801671 0.310759 0.239946
0.825870 0.312403 0.241647
0.849680 0.314020 0.243321
0.849698 0.313976 0.243346
0.849717 0.313934 0.243372
0.183617 0.293061 0.201151
0.202732 0.294332 0.202493
0.222304 0.295637 0.203866
0.242268 0.296969 0.205266
0.262573 0.298326 0.206691
0.283183 0.299704 0.208137
0.304066 0.301103 0.209602
0.325201 0.302520 0.211085
0.346565 0.303953 0.212584
0.368144 0.305402 0.214098
0.389921 0.306865 0.215627
0.411886 0.308342 0.217168
0.434026 0.309832 0.218722
0.456333 0.311334 0.220288
0.478798 0.312848 0.221865
0.501412 0.314373 0.223453
0.524170 0.315909 0.225051
0.547065 0.317455 0.226659
0.570091 0.319010 0.228276
0.593244 0.320576 0.229903
0.616517 0.322150 0.231538
0.639908 0.323733 0.233181
0.663412 0.325324 0.234833
0.687025 0.326924 0.236492
0.710743 0.328532 0.238159
0.734564 0.330148 0.239834
0.758484 0.331771 0.241515
0.782501 0.333402 0.243204
0.806611 0.335040 0.244900
0.830813 0.336684 0.246602
0.854625 0.338303 0.248277
0.854645 0.338261 0.248303
0.854665 0.338220 0.248329
0.188571 0.317611 0.206134
0.207687 0.318883 0.207477
0.227261 0.320187 0.208851
0.247226 0.321520 0.210253
0.267532 0.322877 0.211679
0.288143 0.324256 0.213126
0.309028 0.325655 0.214592
0.330164 0.327072 0.216076
0.351530 0.328506 0.217576
0.373110 0.329956 0.219092
0.394889 0.331420 0.220621
0.416855 0.332897 0.222164
0.438997 0.334388 0.223719
0.461305 0.335891 0.225286
0.483772 0.337406 0.226865
0.506388 0.338931 0.228454
0.529148 0.340468 0.230053
0.552044 0.342015 0.231662
0.575073 0.343571 0.233280
0.598227 0.345138 0.234908
0.621503 0.346713 0.236544
0.644896 0.348297 0.238189
0.668401 0.349890 0.239842
0.692016 0.351491 0.241502
0.715737 0.353100 0.243170
0.739560 0.354717 0.244846
0.763483 0.356341 0.246529
0.787502 0.357973 0.248219
0.811615 0.359613 0.249916
0.835819 0.361259 0.251619
0.859634 0.362879 0.253296
0.859655 0.362839 0.253322
0.859676 0.362800 0.253349
0.193582 0.342425 0.211175
0.212699 0.343698 0.212518
0.232274 0.345003 0.213894
0.252240 0.346336 0.215297
0.272548 0.347694 0.216724
0.293160 0.349073 0.218172
0.314046 0.350473 0.219639
0.335183 0.351891 0.221124
0.356551 0.353325 0.222626
0.378132 0.354775 0.224142
0.399913 0.356240 0.225673
0.421881 0.357719 0.227217
0.444025 0.359211 0.228773
0.466335 0.360715 0.230342
0.488803 0.362230 0.231921
0.511421 0.363757 0.233511
0.534183 0.365295 0.235112
0.557082 0.366843 0.236722
0.580112 0.368401 0.238342
0.603268 0.369968 0.239970
0.626546 0.371545 0.241608
0.649941 0.373130 0.243254
0.673449 0.374724 0.244908
0.697066 0.376327 0.246570
0.720789 0.377937 0.248239
0.744615 0.379556 0.249916
0.768540 0.381182 0.251600
0.792561 0.382816 0.253291
0.816677 0.384457 0.254989
0.840883 0.386105 0.256694
0.864701 0.387727 0.258372
0.864723 0.387689 0.258399
0.864746 0.387652 0.258427
0.198644 0.367485 0.216269
0.217763 0.368758 0.217613
0.237339 0.370064 0.218990
0.257307 0.371398 0.220394
0.277616 0.372756 0.221822
0.298229 0.374137 0.223271
0.319117 0.375537 0.224740
0.340256 0.376956 0.226226
0.361625 0.378392 0.227729
0.383208 0.379843 0.229247
0.404991 0.381309 0.230779
0.426960 0.382789 0.232324
0.449106 0.384281 0.233881
0.471418 0.385787 0.235451
0.493888 0.387304 0.237032
0.516508 0.388832 0.238623
0.539271 0.390371 0.240225
0.562172 0.391920 0.241836
0.585204 0.393479 0.243457
0.608363 0.395048 0.245087
0.631643 0.396626 0.246725
0.655040 0.398214 0.248372
0.678551 0.399809 0.250028
0.702170 0.401413 0.251691
0.725895 0.403026 0.253361
0.749723 0.404646 0.255040
0.773651 0.406274 0.256725
0.797675 0.407910 0.258417
0.821793 0.409553 0.260116
0.846002 0.411203 0.261822
0.869823 0.412827 0.263501
0.869846 0.412791 0.263529
0.869870 0.412756 0.263558
0.203756 0.392774 0.221413
0.222876 0.394048 0.222759
0.242454 0.395355 0.224136
0.262422 0.396690 0.225542
0.282733 0.398049 0.226971
0.303348 0.399431 0.228421
0.324238 0.400833 0.229891
0.345378 0.402253 0.231379
0.366749 0.403689 0.232883
0.388334 0.405142 0.234401
0.410118 0.406609 0.235935
0.432089 0.408090 0.237481
0.454236 0.409585 0.239040
0.476550 0.411091 0.240610
0.499022 0.412610 0.242192
0.521645 0.414139 0.243785
0.544410 0.415680 0.245387
0.567313 0.417231 0.247000
0.590348 0.418792 0.248622
0.613508 0.420363 0.250253
0.636791 0.421943 0.251893
0.660190 0.423531 0.253541
0.683703 0.425129 0.255198
0.707325 0.426735 0.256862
0.731053 0.428350 0.258534
0.754883 0.429972 0.260213
0.778813 0.431602 0.261900
0.802840 0.433240 0.263593
0.826961 0.434885 0.265294
0.851173 0.436537 0.267001
0.874996 0.438163 0.268681
0.875021 0.438130 0.268710
0.875046 0.438098 0.268739
0.208914 0.418279 0.226604
0.228035 0.419554 0.227951
0.247614 0.420862 0.229330
0.267585 0.422198 0.230737
0.287897 0.423559 0.232167
0.308513 0.424942 0.233619
0.329405 0.426345 0.235090
0.350547 0.427767 0.236578
0.371919 0.429205 0.238083
0.393506 0.430659 0.239603
0.415292 0.432128 0.241138
0.437265 0.433611 0.242685
0.459414 0.435106 0.244245
0.481730 0.436615 0.245817
0.504204 0.438135 0.247400
0.526829 0.439667 0.248994
0.549596 0.441209 0.250598
0.572502 0.442762 0.252212
0.595538 0.444325 0.253835
0.618701 0.445897 0.255467
0.641986 0.447479 0.257108
0.665388 0.449070 0.258758
0.688903 0.450670 0.260415
0.712528 0.452278 0.262081
0.736258 0.453895 0.263754
0.760091 0.455520 0.265434
0.784024 0.457152 0.267122
0.808053 0.458792 0.268817
0.832177 0.460440 0.270519
0.856392 0.462095 0.272227
0.880218 0.463723 0.273908
0.880244 0.463693 0.273938
0.880271 0.463664 0.273968
0.214116 0.443988 0.231841
0.233238 0.445264 0.233189
0.252819 0.446574 0.234569
0.272790 0.447912 0.235977
0.293104 0.449274 0.237408
0.313723 0.450659 0.238861
0.334616 0.452063 0.240333
0.355759 0.453486 0.241823
0.377134 0.454926 0.243329
0.398722 0.456382 0.244850
0.420510 0.457853 0.246386
0.442485 0.459337 0.247934
0.464637 0.460835 0.249496
0.486955 0.462346 0.251069
0.509431 0.463868 0.252653
0.532057 0.465401 0.254248
0.554827 0.466946 0.255853
0.577735 0.468501 0.257468
0.600774 0.470066 0.259093
0.623939 0.471641 0.260726
0.647227 0.473225 0.262368
0.670631 0.474818 0.264019
0.694149 0.476421 0.265678
0.717776 0.478031 0.267344
0.741509 0.479650 0.269019
0.765345 0.481278 0.270701
0.789280 0.482913 0.272390
0.813312 0.484555 0.274085
0.837439 0.486206 0.275788
0.861657 0.487863 0.277498
0.885486 0.489495 0.279180
0.885513 0.489467 0.279211
0.885542 0.489441 0.279242
0.219358 0.469891 0.237120
0.238482 0.471169 0.238469
0.258065 0.472480 0.239850
0.278038 0.473820 0.241259
0.298354 0.475184 0.242692
0.318974 0.476570 0.244146
0.339868 0.477977 0.245619
0.361014 0.479402 0.247110
0.382390 0.480844 0.248617
0.403981 0.482302 0.250140
0.425771 0.483774 0.251676
0.447748 0.485261 0.253226
0.469902 0.486761 0.254789
0.492222 0.488273 0.256363
0.514700 0.489798 0.257948
0.537329 0.491334 0.259545
0.560101 0.492881 0.261151
0.583011 0.494438 0.262767
0.606052 0.496006 0.264393
0.629220 0.497583 0.266028
0.652510 0.499170 0.267671
0.675917 0.500766 0.269323
0.699437 0.502371 0.270983
0.723067 0.503984 0.272651
0.746803 0.505606 0.274326
0.770642 0.507236 0.276009
0.794580 0.508874 0.277700
0.818615 0.510519 0.279397
0.842745 0.512173 0.281101
0.866965 0.513833 0.282811
0.890797 0.515468 0.284495
0.890827 0.515443 0.284527
0.890856 0.515421 0.284558
0.224641 0.495978 0.242440
0.243766 0.497259 0.243790
0.263350 0.498572 0.245172
0.283325 0.499913 0.246582
0.303643 0.501279 0.248016
0.324264 0.502668 0.249471
0.345161 0.504077 0.250946
0.366309 0.505504 0.252438
0.387687 0.506948 0.253946
0.409280 0.508408 0.255470
0.431072 0.509883 0.257008
0.453051 0.511372 0.258559
0.475207 0.512875 0.260122
0.497529 0.514390 0.261698
0.520010 0.515917 0.263285
0.542641 0.517455 0.264882
0.565416 0.519004 0.266490
0.588328 0.520565 0.268107
0.611372 0.522135 0.269734
0.634542 0.523715 0.271370
0.657835 0.525305 0.273014
0.681244 0.526903 0.274668
0.704767 0.528511 0.276329
0.728400 0.530127 0.277998
0.752139 0.531752 0.279675
0.775980 0.533385 0.281359
0.799921 0.535026 0.283050
0.823960 0.536675 0.284749
0.848092 0.538331 0.286454
0.872316 0.539995 0.288166
0.896151 0.541633 0.289851
0.896182 0.541612 0.289883
0.896213 0.541593 0.289915
0.229961 0.522243 0.247798
0.249088 0.523526 0.249150
0.268674 0.524841 0.250533
0.288651 0.526185 0.251944
0.308970 0.527553 0.253379
0.329594 0.528944 0.254836
0.350492 0.530355 0.256311
0.371642 0.531785 0.257805
0.393022 0.533231 0.259314
0.414617 0.534694 0.260839
0.436411 0.536172 0.262378
0.458393 0.537663 0.263930
0.480551 0.539168 0.265495
0.502875 0.540686 0.267072
0.525358 0.542216 0.268660
0.547992 0.543757 0.270258
0.570769 0.545309 0.271867
0.593684 0.546872 0.273486
0.616730 0.548446 0.275114
0.639904 0.550029 0.276751
0.663199 0.551621 0.278397
0.686611 0.553223 0.280051
0.710137 0.554834 0.281714
0.733772 0.556454 0.283384
0.757514 0.558082 0.285062
0.781358 0.559718 0.286747
0.805303 0.561363 0.288440
0.829344 0.563015 0.290140
0.853479 0.564675 0.291846
0.877707 0.566342 0.293559
0.901545 0.567983 0.295245
0.901577 0.567966 0.295278
0.901609 0.567951 0.295311
0.235317 0.548678 0.253194
0.254446 0.549963 0.254547
0.274034 0.551281 0.255932
0.294012 0.552627 0.257344
0.314333 0.553998 0.258780
0.334959 0.555391 0.260237
0.355860 0.556805 0.261714
0.377011 0.558237 0.263209
0.398394 0.559687 0.264720
0.419991 0.561152 0.266246
0.441787 0.562633 0.267786
0.463771 0.564127 0.269339
0.485931 0.565635 0.270905
0.508259 0.567156 0.272483
0.530744 0.568689 0.274072
0.553380 0.570233 0.275672
0.576160 0.571788 0.277282
0.599077 0.573355 0.278902
0.622127 0.574931 0.280531
0.645303 0.576517 0.282169
0.668600 0.578113 0.283816
0.692016 0.579719 0.285472
0.715544 0.581333 0.287136
0.739183 0.582956 0.288807
0.762927 0.584588 0.290486
0.786775 0.586228 0.292173
0.810722 0.587876 0.293867
0.834767 0.589532 0.295568
0.858905 0.591195 0.297275
0.883136 0.592866 0.298990
0.906978 0.594512 0.300677
0.907011 0.594499 0.300711
0.907045 0.594487 0.300744
0.240708 0.575277 0.258626
0.259839 0.576564 0.259980
0.279428 0.577885 0.261366
0.299409 0.579234 0.262779
0.319732 0.580608 0.264216
0.340360 0.582004 0.265675
0.361263 0.583421 0.267153
0.382416 0.584856 0.268649
0.403801 0.586308 0.270161
0.425400 0.587777 0.271688
0.447199 0.589260 0.273229
0.469185 0.590758 0.274784
0.491348 0.592269 0.276351
0.513678 0.593793 0.277930
0.536166 0.595329 0.279520
0.558804 0.596877 0.281121
0.581587 0.598436 0.282733
0.604507 0.600005 0.284354
0.627559 0.601585 0.285984
0.650738 0.603175 0.287624
0.674038 0.604775 0.289272
0.697457 0.606384 0.290929
0.720988 0.608002 0.292594
0.744630 0.609629 0.294266
0.768378 0.611264 0.295947
0.792228 0.612908 0.297635
0.816179 0.614560 0.299330
0.840226 0.616219 0.301032
0.864368 0.617887 0.302741
0.888602 0.619562 0.304456
0.912447 0.621212 0.306145
0.912482 0.621203 0.306179
0.912518 0.621196 0.306214
0.246133 0.602034 0.264092
0.265265 0.603324 0.265447
0.284857 0.604648 0.266834
0.304839 0.606000 0.268249
0.325164 0.607377 0.269687
0.345794 0.608776 0.271147
0.366699 0.610196 0.272626
0.387855 0.611634 0.274123
0.409242 0.613090 0.275637
0.430844 0.614562 0.277165
0.452645 0.616049 0.278708
0.474634 0.617550 0.280263
0.496799 0.619065 0.281832
0.519131 0.620592 0.283412
0.541622 0.622132 0.285003
0.564263 0.623683 0.286605
0.587049 0.625245 0.288218
0.609971 0.626819 0.289840
0.633026 0.628402 0.291472
0.656208 0.629996 0.293113
0.679512 0.631600 0.294762
0.702933 0.633213 0.296420
0.726468 0.634834 0.298086
0.750112 0.636465 0.299760
0.773863 0.638105 0.301442
0.797717 0.639753 0.303131
0.821671 0.641409 0.304827
0.845722 0.643073 0.306531
0.869867 0.644745 0.308241
0.894105 0.646424 0.309957
0.917953 0.648078 0.311647
0.917989 0.648074 0.311682
0.918026 0.648071 0.311718
0.251589 0.628944 0.269592
0.270724 0.630238 0.270948
0.290317 0.631565 0.272337
0.310302 0.632920 0.273752
0.330629 0.634300 0.275192
0.351262 0.635703 0.276653
0.372169 0.637126 0.278133
0.393327 0.638568 0.279631
0.414717 0.640028 0.281146
0.436320 0.641503 0.282675
0.458124 0.642993 0.284219
0.480115 0.644498 0.285776
0.502283 0.646017 0.287346
0.524618 0.647548 0.288927
0.547112 0.649091 0.290520
0.569756 0.650646 0.292123
0.592544 0.652213 0.293737
0.615470 0.653790 0.295360
0.638527 0.655378 0.296993
0.661712 0.656976 0.298635
0.685019 0.658583 0.300286
0.708443 0.660200 0.301945
0.731981 0.661827 0.303612
0.755629 0.663462 0.305287
0.779383 0.665106 0.306970
0.803240 0.666758 0.308661
0.827197 0.668418 0.310358
0.851252 0.670087 0.312063
0.875401 0.671763 0.313774
0.899641 0.673448 0.315492
0.923493 0.675106 0.317183
0.923531 0.675106 0.317219
0.923570 0.675108 0.317255
0.257078 0.656004 0.275124
0.276214 0.657301 0.276482
0.295810 0.658631 0.277871
0.315797 0.659990 0.279288
0.336126 0.661374 0.280728
0.356760 0.662781 0.282191
0.377670 0.664208 0.283672
0.398831 0.665653 0.285172
0.420223 0.667116 0.286687
0.441829 0.668595 0.288218
0.463635 0.670090 0.289763
0.485629 0.671599 0.291321
0.507800 0.673121 0.292892
0.530137 0.674656 0.294474
0.552634 0.676204 0.296068
0.575281 0.677763 0.297673
0.598072 0.679334 0.299288
0.621000 0.680915 0.300912
0.644061 0.682507 0.302546
0.667249 0.684110 0.304190
0.690559 0.685722 0.305842
0.713986 0.687343 0.307502
0.737527 0.688974 0.309170
0.761178 0.690614 0.310847
0.784936 0.692262 0.312531
0.808796 0.693919 0.314222
0.832757 0.695584 0.315921
0.856815 0.697257 0.317627
0.880968 0.698939 0.319340
0.905212 0.700628 0.321059
0.929068 0.702291 0.322751
0.929107 0.702297 0.322788
0.929147 0.702303 0.322824
0.262596 0.683209 0.280688
0.281735 0.684510 0.282046
0.301332 0.685844 0.283436
0.321321 0.687206 0.284854
0.341653 0.688594 0.286296
0.362290 0.690004 0.287760
0.383202 0.691435 0.289243
0.404365 0.692885 0.290743
0.425760 0.694352 0.292260
0.447369 0.695835 0.293792
0.469178 0.697334 0.295338
0.491174 0.698847 0.296897
0.513347 0.700374 0.298469
0.535688 0.701913 0.300053
0.558187 0.703465 0.301648
0.580837 0.705029 0.303254
0.603631 0.706604 0.304870
0.626563 0.708190 0.306496
0.649627 0.709787 0.308131
0.672817 0.711394 0.309775
0.696130 0.713010 0.311429
0.719561 0.714637 0.313090
0.743106 0.716272 0.314760
0.766760 0.717917 0.316438
0.790521 0.719570 0.318123
0.814385 0.721232 0.319816
0.838349 0.722902 0.321516
0.862411 0.724580 0.323223
0.886567 0.726267 0.324936
0.910815 0.727961 0.326657
0.934675 0.729630 0.328350
0.934716 0.729640 0.328388
0.934757 0.729652 0.328425
0.268144 0.710555 0.286281
0.287285 0.711860 0.287641
0.306884 0.713198 0.289032
0.326876 0.714565 0.290451
0.347210 0.715957 0.291895
0.367849 0.717371 0.293359
0.388764 0.718806 0.294843
0.409929 0.720260 0.296345
0.431327 0.721732 0.297863
0.452938 0.723219 0.299396
0.474750 0.724722 0.300943
0.496749 0.726240 0.302504
0.518925 0.727771 0.304077
0.541269 0.729315 0.305662
0.563771 0.730872 0.307258
0.586424 0.732440 0.308865
0.609221 0.734020 0.310482
0.632156 0.735611 0.312109
0.655223 0.737213 0.313746
0.678417 0.738824 0.315392
0.701733 0.740446 0.317046
0.725167 0.742077 0.318709
0.748715 0.743718 0.320380
0.772373 0.745368 0.322059
0.796138 0.747026 0.323745
0.820005 0.748693 0.325439
0.843973 0.750369 0.327140
0.868038 0.752052 0.328849
0.892198 0.753744 0.330564
0.916450 0.755444 0.332285
0.940313 0.757118 0.333980
0.940356 0.757134 0.334018
0.940399 0.757152 0.334056
0.273720 0.738040 0.291904
0.292863 0.739349 0.293265
0.312465 0.740691 0.294658
0.332459 0.742062 0.296078
0.352796 0.743459 0.297522
0.373437 0.744878 0.298988
0.394354 0.746317 0.300473
0.415523 0.747776 0.301976
0.436923 0.749252 0.303495
0.458537 0.750744 0.305029
0.480352 0.752252 0.306578
0.502354 0.753774 0.308140
0.524533 0.755310 0.309714
0.546879 0.756859 0.311300
0.569384 0.758421 0.312898
0.592040 0.759994 0.314506
0.614841 0.761579 0.316124
0.637779 0.763175 0.317753
0.660849 0.764782 0.319390
0.684046 0.766399 0.321037
0.707366 0.768026 0.322693
0.730804 0.769662 0.324357
0.754355 0.771308 0.326029
0.778017 0.772963 0.327709
0.801785 0.774627 0.329397
0.825656 0.776300 0.331092
0.849628 0.777981 0.332795
0.873697 0.779670 0.334504
0.897860 0.781368 0.336220
0.922116 0.783073 0.337943
0.945927 0.784753 0.339639
0.945970 0.784775 0.339678
0.946013 0.784798 0.339717
0.279324 0.765660 0.297556
0.298469 0.766973 0.298918
0.318074 0.768320 0.300312
0.338070 0.769696 0.301733
0.358410 0.771097 0.303179
0.379054 0.772521 0.304646
0.399973 0.773965 0.306132
0.421145 0.775429 0.307636
0.442547 0.776910 0.309156
0.464164 0.778407 0.310692
0.485982 0.779920 0.312241
0.507987 0.781447 0.313804
0.530169 0.782988 0.315380
0.552519 0.784542 0.316967
0.575027 0.786109 0.318566
0.597686 0.787688 0.320175
0.620489 0.789278 0.321795
0.643431 0.790879 0.323425
0.666505 0.792491 0.325063
0.689705 0.794114 0.326712
0.713029 0.795746 0.328368
0.736470 0.797388 0.330034
0.760025 0.799040 0.331707
0.783690 0.800701 0.333388
0.807461 0.802370 0.335077
0.831337 0.804049 0.336774
0.855312 0.805736 0.338477
0.879385 0.807431 0.340188
0.903552 0.809134 0.341905
0.927812 0.810846 0.343630
0.951374 0.812532 0.345327
0.951414 0.812559 0.345367
0.951454 0.812589 0.345406
0.284955 0.793413 0.303236
0.304103 0.794731 0.304599
0.323710 0.796083 0.305994
0.343709 0.797464 0.307416
0.364051 0.798870 0.308863
0.384698 0.800299 0.310331
0.405620 0.801748 0.311818
0.426794 0.803217 0.313324
0.448199 0.804703 0.314845
0.469819 0.806205 0.316382
0.491640 0.807723 0.317933
0.513648 0.809256 0.319497
0.535833 0.810802 0.321074
0.558186 0.812362 0.322662
0.580697 0.813934 0.324262
0.603360 0.815519 0.325873
0.626167 0.817114 0.327494
0.649111 0.818721 0.329124
0.672189 0.820339 0.330764
0.695393 0.821967 0.332414
0.718720 0.823605 0.334072
0.742164 0.825253 0.335738
0.765723 0.826911 0.337413
0.789392 0.828578 0.339095
0.813167 0.830253 0.340786
0.837046 0.831938 0.342483
0.861026 0.833631 0.344188
0.885102 0.835332 0.345900
0.909274 0.837042 0.347619
0.933538 0.838760 0.349344
0.956819 0.840452 0.351042
0.956855 0.840486 0.351083
0.956892 0.840522 0.351123
0.290613 0.821297 0.308942
0.309763 0.822620 0.310306
0.329373 0.823977 0.311703
0.349374 0.825363 0.313126
0.369719 0.826774 0.314574
0.390368 0.828208 0.316043
0.411293 0.829663 0.317532
0.432470 0.831137 0.319038
0.453879 0.832629 0.320561
0.475502 0.834137 0.322099
0.497325 0.835660 0.323651
0.519337 0.837199 0.325216
0.541525 0.838751 0.326794
0.563881 0.840316 0.328384
0.586395 0.841894 0.329985
0.609061 0.843484 0.331597
0.631871 0.845086 0.333219
0.654820 0.846699 0.334851
0.677900 0.848322 0.336493
0.701108 0.849957 0.338143
