library/cube/Product_Prime_000.cube
# CINEGRADE LAB — Premium Cinematic LUT
# Title: Product Prime
# Category: Commercial Luxury
# Description: Polished, professional, product-ready aesthetic for commercial work
# Mood: Clean, premium, sharp
# Variant: 1
# Generated: 2026-05-21T16:12:41.116021
TITLE "Product Prime"
LUT_3D_SIZE 9
0.005000 0.002000 0.000000
0.090736 0.002935 0.000930
0.225465 0.004404 0.002392
0.360193 0.005873 0.003853
0.494921 0.007342 0.005315
0.629650 0.008811 0.006777
0.764378 0.010279 0.008238
0.899106 0.011748 0.009700
0.984843 0.012683 0.010630
0.008465 0.096115 0.003397
0.094201 0.097050 0.004327
0.243354 0.104569 0.006156
0.380777 0.106067 0.007647
0.518200 0.107565 0.009138
0.655623 0.109064 0.010628
0.767843 0.104395 0.011635
0.902572 0.105864 0.013097
0.988308 0.106799 0.014027
0.013389 0.229858 0.008225
0.099126 0.230793 0.009155
0.233854 0.232262 0.010617
0.385751 0.241147 0.012523
0.523174 0.242646 0.014013
0.660597 0.244144 0.015504
0.798020 0.245642 0.016995
0.935442 0.247141 0.018486
0.993498 0.247774 0.019116
0.018313 0.363601 0.013052
0.104050 0.364536 0.013983
0.238778 0.366005 0.015444
0.373506 0.367474 0.016906
0.508235 0.368943 0.018367
0.665570 0.379224 0.020380
0.802993 0.380723 0.021871
0.940416 0.382221 0.023362
0.998472 0.382854 0.023992
0.023238 0.497344 0.017880
0.108974 0.498279 0.018810
0.243702 0.499748 0.020272
0.378431 0.501217 0.021733
0.513159 0.502686 0.023195
0.647887 0.504155 0.024657
0.807966 0.515803 0.026747
0.945389 0.517301 0.028238
1.000000 0.517934 0.028868
0.028162 0.631087 0.022708
0.113898 0.632022 0.023638
0.248626 0.633491 0.025099
0.383355 0.634960 0.026561
0.518083 0.636429 0.028023
0.652811 0.637898 0.029484
0.787540 0.639367 0.030946
0.950363 0.652382 0.033114
1.000000 0.653015 0.033743
0.033086 0.764830 0.027535
0.118822 0.765765 0.028465
0.253550 0.767234 0.029927
0.388279 0.768703 0.031389
0.523007 0.770172 0.032850
0.657736 0.771641 0.034312
0.792464 0.773110 0.035773
0.927192 0.774579 0.037235
1.000000 0.775514 0.038165
0.038010 0.898573 0.032363
0.123746 0.899508 0.033293
0.258475 0.900977 0.034755
0.393203 0.902446 0.036216
0.527931 0.903915 0.037678
0.662660 0.905384 0.039139
0.797388 0.906853 0.040601
0.932116 0.908322 0.042063
1.000000 0.909257 0.042993
0.041475 0.992689 0.035760
0.127211 0.993624 0.036690
0.261940 0.995093 0.038152
0.396668 0.996561 0.039613
0.531397 0.998030 0.041075
0.666125 0.999499 0.042537
0.800853 1.000000 0.043998
0.935582 1.000000 0.045460
1.000000 1.000000 0.046390
0.005391 0.002385 0.101321
0.091127 0.003320 0.102251
0.225856 0.004789 0.103713
0.360584 0.006258 0.105174
0.495313 0.007727 0.106636
0.630041 0.009196 0.108098
0.764769 0.010665 0.109559
0.899498 0.012134 0.111021
0.985234 0.013069 0.111951
0.008856 0.096501 0.104718
0.094593 0.097436 0.105648
0.229321 0.098905 0.107110
0.364049 0.100374 0.108572
0.498778 0.101842 0.110033
0.633506 0.103311 0.111495
0.768234 0.104780 0.112957
0.902963 0.106249 0.114418
0.988699 0.107184 0.115348
0.013781 0.230244 0.109546
0.099517 0.231179 0.110476
0.234245 0.232648 0.111938
0.386142 0.241533 0.113844
0.523565 0.243031 0.115335
0.660988 0.244529 0.116825
0.798411 0.246028 0.118316
0.907887 0.239992 0.119246
0.993623 0.240927 0.120176
0.018705 0.363987 0.114373
0.104441 0.364922 0.115304
0.239169 0.366391 0.116765
0.373898 0.367860 0.118227
0.528538 0.378112 0.120210
0.665961 0.379610 0.121701
0.803384 0.381108 0.123192
0.940807 0.382607 0.124683
0.998863 0.383240 0.125313
0.023629 0.497730 0.119201
0.109365 0.498665 0.120131
0.244093 0.500134 0.121593
0.378822 0.501603 0.123054
0.513550 0.503071 0.124516
0.648278 0.504540 0.125978
0.808358 0.516189 0.128068
0.945781 0.517687 0.129559
1.000000 0.518320 0.130189
0.028553 0.631473 0.124029
0.114289 0.632408 0.124959
0.249018 0.633877 0.126420
0.383746 0.635346 0.127882
0.518474 0.636814 0.129344
0.653203 0.638283 0.130805
0.787931 0.639752 0.132267
0.950754 0.652767 0.134435
1.000000 0.653400 0.135065
0.033477 0.765216 0.128856
0.119213 0.766151 0.129786
0.253942 0.767620 0.131248
0.388670 0.769088 0.132710
0.523398 0.770557 0.134171
0.658127 0.772026 0.135633
0.792855 0.773495 0.137095
0.927584 0.774964 0.138556
1.000000 0.788481 0.139940
0.038401 0.898959 0.133684
0.124138 0.899894 0.134614
0.258866 0.901363 0.136076
0.393594 0.902831 0.137537
0.528323 0.904300 0.138999
0.663051 0.905769 0.140460
0.797779 0.907238 0.141922
0.932508 0.908707 0.143384
1.000000 0.909642 0.144314
0.041866 0.993074 0.137081
0.127603 0.994009 0.138011
0.262331 0.995478 0.139473
0.397059 0.996947 0.140934
0.531788 0.998416 0.142396
0.666516 0.999885 0.143858
0.801244 1.000000 0.145319
0.935973 1.000000 0.146781
1.000000 1.000000 0.147711
0.005875 0.002862 0.226482
0.091611 0.003796 0.227412
0.226339 0.005265 0.228874
0.361067 0.006734 0.230336
0.495796 0.008203 0.231797
0.630524 0.009672 0.233259
0.765253 0.011141 0.234721
0.899981 0.012610 0.236182
0.985717 0.013545 0.237112
0.009340 0.096977 0.229880
0.095076 0.097912 0.230810
0.229804 0.099381 0.232271
0.364533 0.100850 0.233733
0.499261 0.102319 0.235195
0.633989 0.103788 0.236656
0.768718 0.105257 0.238118
0.903446 0.106725 0.239579
0.989182 0.107660 0.240510
0.014264 0.230720 0.234707
0.100000 0.231655 0.235637
0.234728 0.233124 0.237099
0.369457 0.234593 0.238561
0.504185 0.236062 0.240022
0.638913 0.237531 0.241484
0.773642 0.239000 0.242945
0.908370 0.240468 0.244407
0.994106 0.241403 0.245337
0.019188 0.364463 0.239535
0.104924 0.365398 0.240465
0.239653 0.366867 0.241927
0.374381 0.368336 0.243388
0.529022 0.378588 0.245372
0.666445 0.380086 0.246863
0.803867 0.381584 0.248353
0.941290 0.383083 0.249844
0.999031 0.375146 0.250165
0.024112 0.498206 0.244362
0.109848 0.499141 0.245292
0.244577 0.500610 0.246754
0.379305 0.502079 0.248216
0.514033 0.503548 0.249677
0.671418 0.515166 0.251738
0.808841 0.516665 0.253229
0.946264 0.518163 0.254720
1.000000 0.518796 0.255350
0.029036 0.631949 0.249190
0.114773 0.632884 0.250120
0.249501 0.634353 0.251582
0.384229 0.635822 0.253043
0.518958 0.637291 0.254505
0.653686 0.638760 0.255967
0.788414 0.640228 0.257428
0.951237 0.653244 0.259596
1.000000 0.653877 0.260226
0.033960 0.765692 0.254018
0.119697 0.766627 0.254948
0.254425 0.768096 0.256409
0.389153 0.769565 0.257871
0.523882 0.771034 0.259333
0.658610 0.772503 0.260794
0.793338 0.773971 0.262256
0.928067 0.775440 0.263717
1.000000 0.788957 0.265102
0.038885 0.899435 0.258845
0.124621 0.900370 0.259775
0.259349 0.901839 0.261237
0.394078 0.903308 0.262699
0.528806 0.904777 0.264160
0.663534 0.906246 0.265622
0.798263 0.907714 0.267083
0.932991 0.909183 0.268545
1.000000 0.910118 0.269475
0.042350 0.993550 0.262242
0.128086 0.994485 0.263172
0.262814 0.995954 0.264634
0.397543 0.997423 0.266096
0.532271 0.998892 0.267557
0.666999 1.000000 0.269019
0.801728 1.000000 0.270481
0.936456 1.000000 0.271942
1.000000 1.000000 0.272872
0.006358 0.003338 0.351644
0.092094 0.004273 0.352574
0.226822 0.005742 0.354035
0.361551 0.007210 0.355497
0.496279 0.008679 0.356959
0.631007 0.010148 0.358420
0.765736 0.011617 0.359882
0.900464 0.013086 0.361344
0.986200 0.014021 0.362274
0.009823 0.097453 0.355041
0.095559 0.098388 0.355971
0.230288 0.099857 0.357433
0.365016 0.101326 0.358894
0.499744 0.102795 0.360356
0.634473 0.104264 0.361818
0.769201 0.105733 0.363279
0.903929 0.107202 0.364741
0.989666 0.108136 0.365671
0.014747 0.231196 0.359868
0.100483 0.232131 0.360799
0.235212 0.233600 0.362260
0.369940 0.235069 0.363722
0.504668 0.236538 0.365183
0.639397 0.238007 0.366645
0.774125 0.239476 0.368107
0.908853 0.240945 0.369568
0.994590 0.241879 0.370498
0.019671 0.364939 0.364696
0.105407 0.365874 0.365626
0.240136 0.367343 0.367088
0.374864 0.368812 0.368549
0.509593 0.370281 0.370011
0.644321 0.371750 0.371473
0.779049 0.373219 0.372934
0.913778 0.374688 0.374396
0.999514 0.375622 0.375326
0.024595 0.498682 0.369524
0.110332 0.499617 0.370454
0.245060 0.501086 0.371915
0.379788 0.502555 0.373377
0.514517 0.504024 0.374839
0.671901 0.515643 0.376900
0.809324 0.517141 0.378391
0.946747 0.518639 0.379881
1.000000 0.519272 0.380511
0.029520 0.632425 0.374351
0.115256 0.633360 0.375281
0.249984 0.634829 0.376743
0.384713 0.636298 0.378205
0.519441 0.637767 0.379666
0.654169 0.639236 0.381128
0.814298 0.652221 0.383266
0.951720 0.653720 0.384757
1.000000 0.654353 0.385387
0.034444 0.766168 0.379179
0.120180 0.767103 0.380109
0.254908 0.768572 0.381571
0.389637 0.770041 0.383032
0.524365 0.771510 0.384494
0.659093 0.772979 0.385956
0.793822 0.774448 0.387417
0.928550 0.775917 0.388879
1.000000 0.789433 0.390263
0.039368 0.899911 0.384006
0.125104 0.900846 0.384937
0.259832 0.902315 0.386398
0.394561 0.903784 0.387860
0.529289 0.905253 0.389321
0.664018 0.906722 0.390783
0.798746 0.908191 0.392245
0.933474 0.909660 0.393706
1.000000 0.910594 0.394636
0.042833 0.994027 0.387404
0.128569 0.994961 0.388334
0.263298 0.996430 0.389795
0.398026 0.997899 0.391257
0.532754 0.999368 0.392719
0.667483 1.000000 0.394180
0.802211 1.000000 0.395642
0.936939 1.000000 0.397104
1.000000 1.000000 0.398034
0.006841 0.003814 0.476805
0.092577 0.004749 0.477735
0.227306 0.006218 0.479197
0.362034 0.007687 0.480658
0.496762 0.009156 0.482120
0.631491 0.010625 0.483582
0.766219 0.012093 0.485043
0.900947 0.013562 0.486505
0.986684 0.014497 0.487435
0.010306 0.097929 0.480202
0.096042 0.098864 0.481132
0.230771 0.100333 0.482594
0.365499 0.101802 0.484056
0.500228 0.103271 0.485517
0.634956 0.104740 0.486979
0.769684 0.106209 0.488440
0.904413 0.107678 0.489902
0.990149 0.108613 0.490832
0.015230 0.231672 0.485030
0.100967 0.232607 0.485960
0.235695 0.234076 0.487422
0.370423 0.235545 0.488883
0.505152 0.237014 0.490345
0.639880 0.238483 0.491806
0.774608 0.239952 0.493268
0.909337 0.241421 0.494730
0.995073 0.242356 0.495660
0.020155 0.365415 0.489857
0.105891 0.366350 0.490788
0.240619 0.367819 0.492249
0.375347 0.369288 0.493711
0.510076 0.370757 0.495172
0.644804 0.372226 0.496634
0.779533 0.373695 0.498096
0.914261 0.375164 0.499557
0.999997 0.376099 0.500487
0.025079 0.499158 0.494685
0.110815 0.500093 0.495615
0.245543 0.501562 0.497077
0.380272 0.503031 0.498538
0.515000 0.504500 0.500000
0.649728 0.505969 0.501462
0.784457 0.507438 0.502923
0.919185 0.508907 0.504385
1.000000 0.509842 0.505315
0.030003 0.632901 0.499513
0.115739 0.633836 0.500443
0.250467 0.635305 0.501904
0.385196 0.636774 0.503366
0.519924 0.638243 0.504828
0.654653 0.639712 0.506289
0.814781 0.652698 0.508428
0.952204 0.654196 0.509919
1.000000 0.654829 0.510548
0.034927 0.766644 0.504340
0.120663 0.767579 0.505270
0.255392 0.769048 0.506732
0.390120 0.770517 0.508194
0.524848 0.771986 0.509655
0.659577 0.773455 0.511117
0.794305 0.774924 0.512578
0.957177 0.789276 0.514795
1.000000 0.789909 0.515424
0.039851 0.900387 0.509168
0.125587 0.901322 0.510098
0.260316 0.902791 0.511560
0.395044 0.904260 0.513021
0.529772 0.905729 0.514483
0.664501 0.907198 0.515944
0.799229 0.908667 0.517406
0.933958 0.910136 0.518868
1.000000 0.911071 0.519798
0.043316 0.994503 0.512565
0.129053 0.995438 0.513495
0.263781 0.996907 0.514957
0.398509 0.998375 0.516418
0.533238 0.999844 0.517880
0.667966 1.000000 0.519342
0.802694 1.000000 0.520803
0.937423 1.000000 0.522265
1.000000 1.000000 0.523195
0.007324 0.004290 0.601966
0.093061 0.005225 0.602896
0.227789 0.006694 0.604358
0.362517 0.008163 0.605820
0.497246 0.009632 0.607281
0.631974 0.011101 0.608743
0.766702 0.012570 0.610205
0.901431 0.014039 0.611666
0.987167 0.014973 0.612596
0.010790 0.098406 0.605364
0.096526 0.099340 0.606294
0.231254 0.100809 0.607755
0.365982 0.102278 0.609217
0.500711 0.103747 0.610679
0.635439 0.105216 0.612140
0.770168 0.106685 0.613602
0.904896 0.108154 0.615063
0.990632 0.109089 0.615994
0.015714 0.232149 0.610191
0.101450 0.233083 0.611121
0.236178 0.234552 0.612583
0.370907 0.236021 0.614044
0.505635 0.237490 0.615506
0.640363 0.238959 0.616968
0.775092 0.240428 0.618429
0.909820 0.241897 0.619891
0.995556 0.242832 0.620821
0.020638 0.365892 0.615019
0.106374 0.366826 0.615949
0.241102 0.368295 0.617410
0.375831 0.369764 0.618872
0.510559 0.371233 0.620334
0.645287 0.372702 0.621795
0.780016 0.374171 0.623257
0.914744 0.375640 0.624719
1.000000 0.376575 0.625649
0.025562 0.499635 0.619846
0.111298 0.500569 0.620776
0.246027 0.502038 0.622238
0.380755 0.503507 0.623700
0.515483 0.504976 0.625161
0.650212 0.506445 0.626623
0.784940 0.507914 0.628085
0.919668 0.509383 0.629546
1.000000 0.510318 0.630476
0.030486 0.633378 0.624674
0.116222 0.634312 0.625604
0.250951 0.635781 0.627066
0.385679 0.637250 0.628527
0.520407 0.638719 0.629989
0.655136 0.640188 0.631451
0.789864 0.641657 0.632912
0.924593 0.643126 0.634374
1.000000 0.644061 0.635304
0.035410 0.767121 0.629502
0.121147 0.768055 0.630432
0.255875 0.769524 0.631893
0.390603 0.770993 0.633355
0.525332 0.772462 0.634817
0.660060 0.773931 0.636278
0.794788 0.775400 0.637740
0.957660 0.789753 0.639956
1.000000 0.790385 0.640586
0.040334 0.900864 0.634329
0.126071 0.901798 0.635259
0.260799 0.903267 0.636721
0.395527 0.904736 0.638182
0.530256 0.906205 0.639644
0.664984 0.907674 0.641106
0.799712 0.909143 0.642567
0.934441 0.910612 0.644029
1.000000 0.925466 0.645462
0.043800 0.994979 0.637726
0.129536 0.995914 0.638656
0.264264 0.997383 0.640118
0.398993 0.998852 0.641580
0.533721 1.000000 0.643041
0.668449 1.000000 0.644503
0.803178 1.000000 0.645965
0.937906 1.000000 0.647426
1.000000 1.000000 0.648356
0.007808 0.004766 0.727128
0.093544 0.005701 0.728058
0.228272 0.007170 0.729519
0.363001 0.008639 0.730981
0.497729 0.010108 0.732443
0.632457 0.011577 0.733904
0.767186 0.013046 0.735366
0.901914 0.014515 0.736827
0.987650 0.015450 0.737758
0.011273 0.098882 0.730525
0.097009 0.099817 0.731455
0.231737 0.101286 0.732917
0.366466 0.102754 0.734378
0.501194 0.104223 0.735840
0.635922 0.105692 0.737301
0.770651 0.107161 0.738763
0.905379 0.108630 0.740225
0.991115 0.109565 0.741155
0.016197 0.232625 0.735352
0.101933 0.233560 0.736283
0.236662 0.235029 0.737744
0.371390 0.236497 0.739206
0.506118 0.237966 0.740667
0.640847 0.239435 0.742129
0.775575 0.240904 0.743591
0.910303 0.242373 0.745052
0.996040 0.243308 0.745982
0.021121 0.366368 0.740180
0.106857 0.367303 0.741110
0.241586 0.368772 0.742572
0.376314 0.370240 0.744033
0.511042 0.371709 0.745495
0.645771 0.373178 0.746957
0.780499 0.374647 0.748418
0.915227 0.376116 0.749880
1.000000 0.377051 0.750810
0.026045 0.500111 0.745008
0.111782 0.501046 0.745938
0.246510 0.502514 0.747399
0.381238 0.503983 0.748861
0.515967 0.505452 0.750323
0.650695 0.506921 0.751784
0.785423 0.508390 0.753246
0.920152 0.509859 0.754707
1.000000 0.510794 0.755638
0.030969 0.633854 0.749835
0.116706 0.634789 0.750765
0.251434 0.636257 0.752227
0.386162 0.637726 0.753689
0.520891 0.639195 0.755150
0.655619 0.640664 0.756612
0.790347 0.642133 0.758073
0.925076 0.643602 0.759535
1.000000 0.644537 0.760465
0.035894 0.767597 0.754663
0.121630 0.768532 0.755593
0.256358 0.770000 0.757055
0.391087 0.771469 0.758516
0.525815 0.772938 0.759978
0.660543 0.774407 0.761439
0.795272 0.775876 0.762901
0.930000 0.777345 0.764363
1.000000 0.778280 0.765293
0.040818 0.901340 0.759490
0.126554 0.902275 0.760421
0.261282 0.903743 0.761882
0.396011 0.905212 0.763344
0.530739 0.906681 0.764805
0.665467 0.908150 0.766267
0.800196 0.909619 0.767729
0.934924 0.911088 0.769190
1.000000 0.925942 0.770623
0.044283 0.995455 0.762888
0.130019 0.996390 0.763818
0.264747 0.997859 0.765279
0.399476 0.999328 0.766741
0.534204 1.000000 0.768203
0.668933 1.000000 0.769664
0.803661 1.000000 0.771126
0.938389 1.000000 0.772587
1.000000 1.000000 0.773518
0.008291 0.005243 0.852289
0.094027 0.006177 0.853219
0.228756 0.007646 0.854681
0.363484 0.009115 0.856142
0.498212 0.010584 0.857604
0.632941 0.012053 0.859066
0.767669 0.013522 0.860527
0.902397 0.014991 0.861989
0.988134 0.015926 0.862919
0.011756 0.099358 0.855686
0.097492 0.100293 0.856616
0.232221 0.101762 0.858078
0.366949 0.103231 0.859540
0.501677 0.104700 0.861001
0.636406 0.106169 0.862463
0.771134 0.107637 0.863924
0.905862 0.109106 0.865386
0.991599 0.110041 0.866316
0.016680 0.233101 0.860514
0.102416 0.234036 0.861444
0.237145 0.235505 0.862905
0.371873 0.236974 0.864367
0.506602 0.238443 0.865829
0.641330 0.239912 0.867290
0.776058 0.241380 0.868752
0.910787 0.242849 0.870214
0.996523 0.243784 0.871144
0.021604 0.366844 0.865341
0.107341 0.367779 0.866271
0.242069 0.369248 0.867733
0.376797 0.370717 0.869195
0.511526 0.372186 0.870656
0.646254 0.373654 0.872118
0.780982 0.375123 0.873580
0.915711 0.376592 0.875041
1.000000 0.377527 0.875971
0.026529 0.500587 0.870169
0.112265 0.501522 0.871099
0.246993 0.502991 0.872561
0.381722 0.504460 0.874022
0.516450 0.505929 0.875484
0.651178 0.507397 0.876946
0.785907 0.508866 0.878407
0.920635 0.510335 0.879869
1.000000 0.511270 0.880799
0.031453 0.634330 0.874997
0.117189 0.635265 0.875927
0.251917 0.636734 0.877388
0.386646 0.638203 0.878850
0.521374 0.639672 0.880312
0.656102 0.641140 0.881773
0.790831 0.642609 0.883235
0.925559 0.644078 0.884696
1.000000 0.645013 0.885627
0.036377 0.768073 0.879824
0.122113 0.769008 0.880754
0.256841 0.770477 0.882216
0.391570 0.771946 0.883678
0.526298 0.773415 0.885139
0.661027 0.774883 0.886601
0.795755 0.776352 0.888062
0.930483 0.777821 0.889524
1.000000 0.778756 0.890454
0.041301 0.901816 0.884652
0.127037 0.902751 0.885582
0.261766 0.904220 0.887043
0.396494 0.905689 0.888505
0.531222 0.907158 0.889967
0.665951 0.908626 0.891428
0.800679 0.910095 0.892890
0.935407 0.911564 0.894352
1.000000 0.912499 0.895282
0.044766 0.995931 0.888049
0.130502 0.996866 0.888979
0.265231 0.998335 0.890441
0.399959 0.999804 0.891902
0.534687 1.000000 0.893364
0.669416 1.000000 0.894826
0.804144 1.000000 0.896287
0.938873 1.000000 0.897749
1.000000 1.000000 0.898679
0.008682 0.005628 0.953610
0.094418 0.006563 0.954540
0.229147 0.008032 0.956002
0.363875 0.009501 0.957463
0.498604 0.010970 0.958925
0.633332 0.012439 0.960387
0.768060 0.013907 0.961848
0.902789 0.015376 0.963310
0.988525 0.016311 0.964240
0.012147 0.099743 0.957007
0.097884 0.100678 0.957937
0.232612 0.102147 0.959399
0.367340 0.103616 0.960861
0.502069 0.105085 0.962322
0.636797 0.106554 0.963784
0.771525 0.108023 0.965245
0.906254 0.109492 0.966707
0.991990 0.110427 0.967637
0.017071 0.233486 0.961835
0.102808 0.234421 0.962765
0.237536 0.235890 0.964227
0.372264 0.237359 0.965688
0.506993 0.238828 0.967150
0.641721 0.240297 0.968611
0.776450 0.241766 0.970073
0.911178 0.243235 0.971535
0.996914 0.244170 0.972465
0.021996 0.367229 0.966662
0.107732 0.368164 0.967593
0.242460 0.369633 0.969054
0.377189 0.371102 0.970516
0.511917 0.372571 0.971977
0.646645 0.374040 0.973439
0.781374 0.375509 0.974901
0.916102 0.376978 0.976362
1.000000 0.377913 0.977292
0.026920 0.500972 0.971490
0.112656 0.501907 0.972420
0.247384 0.503376 0.973882
0.382113 0.504845 0.975343
0.516841 0.506314 0.976805
0.651569 0.507783 0.978267
0.786298 0.509252 0.979728
0.921026 0.510721 0.981190
1.000000 0.511656 0.982120
0.031844 0.634715 0.976318
0.117580 0.635650 0.977248
0.252309 0.637119 0.978709
0.387037 0.638588 0.980171
0.521765 0.640057 0.981633
0.656494 0.641526 0.983094
0.791222 0.642995 0.984556
0.925950 0.644464 0.986017
1.000000 0.645399 0.986948
0.036768 0.768458 0.981145
0.122504 0.769393 0.982075
0.257233 0.770862 0.983537
0.391961 0.772331 0.984999
0.526689 0.773800 0.986460
0.661418 0.775269 0.987922
0.796146 0.776738 0.989383
0.930874 0.778207 0.990845
1.000000 0.779142 0.991775
0.041692 0.902201 0.985973
0.127428 0.903136 0.986903
0.262157 0.904605 0.988365
0.396885 0.906074 0.989826
0.531614 0.907543 0.991288
0.666342 0.909012 0.992749
0.801070 0.910481 0.994211
0.935799 0.911950 0.995673
1.000000 0.912885 0.996603
0.045157 0.996317 0.989370
0.130894 0.997252 0.990300
0.265622 0.998721 0.991762
0.400350 1.000000 0.993223
0.535079 1.000000 0.994685
0.669807 1.000000 0.996147
0.804535 1.000000 0.997608
0.939264 1.000000 0.999070
1.000000 1.000000 1.000000
