library/cube/Product_Prime_000.cube
# CINEGRADE LAB — Premium Cinematic LUT
# Title: Product Prime
# Category: Commercial Luxury
# Description: Polished, professional, product-ready aesthetic for commercial work
# Mood: Clean, premium, sharp
# Variant: 1
# Generated: 2026-05-21T16:12:41.116021
TITLE "Product Prime"
LUT_3D_SIZE 5
0.005000 0.002000 0.000000
0.225465 0.004404 0.002392
0.494921 0.007342 0.005315
0.764378 0.010279 0.008238
0.984843 0.012683 0.010630
0.013389 0.229858 0.008225
0.233854 0.232262 0.010617
0.523174 0.242646 0.014013
0.798020 0.245642 0.016995
0.993498 0.247774 0.019116
0.023238 0.497344 0.017880
0.243702 0.499748 0.020272
0.513159 0.502686 0.023195
0.807966 0.515803 0.026747
1.000000 0.517934 0.028868
0.033086 0.764830 0.027535
0.253550 0.767234 0.029927
0.523007 0.770172 0.032850
0.792464 0.773110 0.035773
1.000000 0.775514 0.038165
0.041475 0.992689 0.035760
0.261940 0.995093 0.038152
0.531397 0.998030 0.041075
0.800853 1.000000 0.043998
1.000000 1.000000 0.046390
0.005875 0.002862 0.226482
0.226339 0.005265 0.228874
0.495796 0.008203 0.231797
0.765253 0.011141 0.234721
0.985717 0.013545 0.237112
0.014264 0.230720 0.234707
0.234728 0.233124 0.237099
0.504185 0.236062 0.240022
0.773642 0.239000 0.242945
0.994106 0.241403 0.245337
0.024112 0.498206 0.244362
0.244577 0.500610 0.246754
0.514033 0.503548 0.249677
0.808841 0.516665 0.253229
1.000000 0.518796 0.255350
0.033960 0.765692 0.254018
0.254425 0.768096 0.256409
0.523882 0.771034 0.259333
0.793338 0.773971 0.262256
1.000000 0.788957 0.265102
0.042350 0.993550 0.262242
0.262814 0.995954 0.264634
0.532271 0.998892 0.267557
0.801728 1.000000 0.270481
1.000000 1.000000 0.272872
0.006841 0.003814 0.476805
0.227306 0.006218 0.479197
0.496762 0.009156 0.482120
0.766219 0.012093 0.485043
0.986684 0.014497 0.487435
0.015230 0.231672 0.485030
0.235695 0.234076 0.487422
0.505152 0.237014 0.490345
0.774608 0.239952 0.493268
0.995073 0.242356 0.495660
0.025079 0.499158 0.494685
0.245543 0.501562 0.497077
0.515000 0.504500 0.500000
0.784457 0.507438 0.502923
1.000000 0.509842 0.505315
0.034927 0.766644 0.504340
0.255392 0.769048 0.506732
0.524848 0.771986 0.509655
0.794305 0.774924 0.512578
1.000000 0.789909 0.515424
0.043316 0.994503 0.512565
0.263781 0.996907 0.514957
0.533238 0.999844 0.517880
0.802694 1.000000 0.520803
1.000000 1.000000 0.523195
0.007808 0.004766 0.727128
0.228272 0.007170 0.729519
0.497729 0.010108 0.732443
0.767186 0.013046 0.735366
0.987650 0.015450 0.737758
0.016197 0.232625 0.735352
0.236662 0.235029 0.737744
0.506118 0.237966 0.740667
0.775575 0.240904 0.743591
0.996040 0.243308 0.745982
0.026045 0.500111 0.745008
0.246510 0.502514 0.747399
0.515967 0.505452 0.750323
0.785423 0.508390 0.753246
1.000000 0.510794 0.755638
0.035894 0.767597 0.754663
0.256358 0.770000 0.757055
0.525815 0.772938 0.759978
0.795272 0.775876 0.762901
1.000000 0.778280 0.765293
0.044283 0.995455 0.762888
0.264747 0.997859 0.765279
0.534204 1.000000 0.768203
0.803661 1.000000 0.771126
1.000000 1.000000 0.773518
0.008682 0.005628 0.953610
0.229147 0.008032 0.956002
0.498604 0.010970 0.958925
0.768060 0.013907 0.961848
0.988525 0.016311 0.964240
0.017071 0.233486 0.961835
0.237536 0.235890 0.964227
0.506993 0.238828 0.967150
0.776450 0.241766 0.970073
0.996914 0.244170 0.972465
0.026920 0.500972 0.971490
0.247384 0.503376 0.973882
0.516841 0.506314 0.976805
0.786298 0.509252 0.979728
1.000000 0.511656 0.982120
0.036768 0.768458 0.981145
0.257233 0.770862 0.983537
0.526689 0.773800 0.986460
0.796146 0.776738 0.989383
1.000000 0.779142 0.991775
0.045157 0.996317 0.989370
0.265622 0.998721 0.991762
0.535079 1.000000 0.994685
0.804535 1.000000 0.997608
1.000000 1.000000 1.000000
