library/cube/Product_Prime_000.cube
# CINEGRADE LAB — Premium Cinematic LUT
# Title: Product Prime
# Category: Commercial Luxury
# Description: Polished, professional, product-ready aesthetic for commercial work
# Mood: Clean, premium, sharp
# Variant: 1
# Generated: 2026-05-21T16:12:41.116021
TITLE "Product Prime"
LUT_3D_SIZE 33
0.005000 0.002000 0.000000
0.005000 0.002000 0.000000
0.023372 0.002200 0.000199
0.057054 0.002568 0.000565
0.090736 0.002935 0.000930
0.124418 0.003302 0.001296
0.158100 0.003669 0.001661
0.191782 0.004036 0.002026
0.225465 0.004404 0.002392
0.259147 0.004771 0.002757
0.292829 0.005138 0.003123
0.326511 0.005505 0.003488
0.360193 0.005873 0.003853
0.393875 0.006240 0.004219
0.427557 0.006607 0.004584
0.461239 0.006974 0.004950
0.494921 0.007342 0.005315
0.528603 0.007709 0.005680
0.562285 0.008076 0.006046
0.595968 0.008443 0.006411
0.629650 0.008811 0.006777
0.663332 0.009178 0.007142
0.697014 0.009545 0.007507
0.730696 0.009912 0.007873
0.764378 0.010279 0.008238
0.798060 0.010647 0.008604
0.831742 0.011014 0.008969
0.865424 0.011381 0.009334
0.899106 0.011748 0.009700
0.932788 0.012116 0.010065
0.966471 0.012483 0.010431
0.984843 0.012683 0.010630
0.984843 0.012683 0.010630
0.005000 0.002000 0.000000
0.005000 0.002000 0.000000
0.033720 0.007265 0.000488
0.068076 0.007639 0.000861
0.102432 0.008014 0.001234
0.136787 0.008388 0.001607
0.158100 0.003669 0.001661
0.191782 0.004036 0.002026
0.225465 0.004404 0.002392
0.259147 0.004771 0.002757
0.292829 0.005138 0.003123
0.326511 0.005505 0.003488
0.360193 0.005873 0.003853
0.393875 0.006240 0.004219
0.427557 0.006607 0.004584
0.461239 0.006974 0.004950
0.494921 0.007342 0.005315
0.528603 0.007709 0.005680
0.562285 0.008076 0.006046
0.595968 0.008443 0.006411
0.629650 0.008811 0.006777
0.663332 0.009178 0.007142
0.697014 0.009545 0.007507
0.730696 0.009912 0.007873
0.764378 0.010279 0.008238
0.798060 0.010647 0.008604
0.831742 0.011014 0.008969
0.865424 0.011381 0.009334
0.899106 0.011748 0.009700
0.932788 0.012116 0.010065
0.966471 0.012483 0.010431
0.984843 0.012683 0.010630
0.984843 0.012683 0.010630
0.006003 0.029244 0.000983
0.006003 0.029244 0.000983
0.024375 0.029444 0.001183
0.069089 0.035156 0.001854
0.103445 0.035530 0.002227
0.137801 0.035905 0.002600
0.172156 0.036279 0.002972
0.206512 0.036654 0.003345
0.240868 0.037028 0.003718
0.275224 0.037403 0.004091
0.309579 0.037778 0.004463
0.343935 0.038152 0.004836
0.361196 0.033117 0.004837
0.394878 0.033484 0.005202
0.428560 0.033851 0.005568
0.462242 0.034218 0.005933
0.495924 0.034586 0.006298
0.529606 0.034953 0.006664
0.563289 0.035320 0.007029
0.596971 0.035687 0.007395
0.630653 0.036054 0.007760
0.664335 0.036422 0.008125
0.698017 0.036789 0.008491
0.731699 0.037156 0.008856
0.765381 0.037523 0.009222
0.799063 0.037891 0.009587
0.832745 0.038258 0.009952
0.866427 0.038625 0.010318
0.900109 0.038992 0.010683
0.933792 0.039360 0.011049
0.967474 0.039727 0.011414
0.985846 0.039927 0.011613
0.985846 0.039927 0.011613
0.007234 0.062680 0.002190
0.007234 0.062680 0.002190
0.025606 0.062880 0.002390
0.059288 0.063247 0.002755
0.092970 0.063614 0.003120
0.139044 0.069675 0.003819
0.173400 0.070049 0.004191
0.207755 0.070424 0.004564
0.242111 0.070799 0.004937
0.276467 0.071173 0.005310
0.310823 0.071548 0.005682
0.345178 0.071922 0.006055
0.379534 0.072297 0.006428
0.413890 0.072671 0.006800
0.448246 0.073046 0.007173
0.482601 0.073421 0.007546
0.516957 0.073795 0.007919
0.530837 0.068388 0.007871
0.564520 0.068756 0.008236
0.598202 0.069123 0.008602
0.631884 0.069490 0.008967
0.665566 0.069857 0.009332
0.699248 0.070225 0.009698
0.732930 0.070592 0.010063
0.766612 0.070959 0.010429
0.800294 0.071326 0.010794
0.833976 0.071694 0.011159
0.867658 0.072061 0.011525
0.901340 0.072428 0.011890
0.935023 0.072795 0.012256
0.968705 0.073163 0.012621
0.987077 0.073363 0.012820
0.987077 0.073363 0.012820
0.008465 0.096115 0.003397
0.008465 0.096115 0.003397
0.026837 0.096316 0.003597
0.060519 0.096683 0.003962
0.094201 0.097050 0.004327
0.127883 0.097417 0.004693
0.174643 0.103819 0.005410
0.208999 0.104194 0.005783
0.243354 0.104569 0.006156
0.277710 0.104943 0.006529
0.312066 0.105318 0.006901
0.346422 0.105692 0.007274
0.380777 0.106067 0.007647
0.415133 0.106442 0.008019
0.449489 0.106816 0.008392
0.483845 0.107191 0.008765
0.518200 0.107565 0.009138
0.552556 0.107940 0.009510
0.586912 0.108314 0.009883
0.621268 0.108689 0.010256
0.655623 0.109064 0.010628
0.689979 0.109438 0.011001
0.724335 0.109813 0.011374
0.734161 0.104028 0.011270
0.767843 0.104395 0.011635
0.801525 0.104762 0.012001
0.835207 0.105129 0.012366
0.868889 0.105497 0.012732
0.902572 0.105864 0.013097
0.936254 0.106231 0.013462
0.969936 0.106598 0.013828
0.988308 0.106799 0.014027
0.988308 0.106799 0.014027
0.009696 0.129551 0.004604
0.009696 0.129551 0.004604
0.028068 0.129751 0.004803
0.061750 0.130119 0.005169
0.095432 0.130486 0.005534
0.129114 0.130853 0.005900
0.162797 0.131220 0.006265
0.210242 0.137964 0.007002
0.244598 0.138339 0.007375
0.278954 0.138713 0.007748
0.313309 0.139088 0.008120
0.347665 0.139462 0.008493
0.382021 0.139837 0.008866
0.416376 0.140212 0.009238
0.450732 0.140586 0.009611
0.485088 0.140961 0.009984
0.519444 0.141335 0.010357
0.553799 0.141710 0.010729
0.588155 0.142085 0.011102
0.622511 0.142459 0.011475
0.656867 0.142834 0.011847
0.691222 0.143208 0.012220
0.725578 0.143583 0.012593
0.759934 0.143957 0.012966
0.794290 0.144332 0.013338
0.828645 0.144707 0.013711
0.863001 0.145081 0.014084
0.897357 0.145456 0.014456
0.903803 0.139300 0.014304
0.937485 0.139667 0.014669
0.971167 0.140034 0.015035
0.989539 0.140234 0.015234
0.989539 0.140234 0.015234
0.010927 0.162987 0.005811
0.010927 0.162987 0.005811
0.029299 0.163187 0.006010
0.062981 0.163554 0.006376
0.096663 0.163922 0.006741
0.130346 0.164289 0.007107
0.164028 0.164656 0.007472
0.197710 0.165023 0.007837
0.231392 0.165391 0.008203
0.280197 0.172483 0.008967
0.314553 0.172858 0.009339
0.348908 0.173233 0.009712
0.383264 0.173607 0.010085
0.417620 0.173982 0.010457
0.451976 0.174356 0.010830
0.486331 0.174731 0.011203
0.520687 0.175105 0.011576
0.555043 0.175480 0.011948
0.589398 0.175855 0.012321
0.623754 0.176229 0.012694
0.658110 0.176604 0.013066
0.692466 0.176978 0.013439
0.726821 0.177353 0.013812
0.761177 0.177728 0.014185
0.795533 0.178102 0.014557
0.829889 0.178477 0.014930
0.864244 0.178851 0.015303
0.898600 0.179226 0.015675
0.932956 0.179600 0.016048
0.967312 0.179975 0.016421
0.991011 0.180233 0.016678
0.991011 0.180233 0.016678
0.991011 0.180233 0.016678
0.012158 0.196423 0.007018
0.012158 0.196423 0.007018
0.030530 0.196623 0.007217
0.064212 0.196990 0.007583
0.097894 0.197357 0.007948
0.131577 0.197725 0.008313
0.165259 0.198092 0.008679
0.198941 0.198459 0.009044
0.232623 0.198826 0.009410
0.266305 0.199194 0.009775
0.315796 0.206628 0.010558
0.350152 0.207003 0.010931
0.384507 0.207377 0.011304
0.418863 0.207752 0.011676
0.453219 0.208126 0.012049
0.487575 0.208501 0.012422
0.521930 0.208876 0.012794
0.556286 0.209250 0.013167
0.590642 0.209625 0.013540
0.624998 0.209999 0.013913
0.659353 0.210374 0.014285
0.693709 0.210748 0.014658
0.728065 0.211123 0.015031
0.762420 0.211498 0.015403
0.796776 0.211872 0.015776
0.831132 0.212247 0.016149
0.865488 0.212621 0.016522
0.899843 0.212996 0.016894
0.934199 0.213371 0.017267
0.968555 0.213745 0.017640
0.992255 0.214003 0.017897
0.992255 0.214003 0.017897
0.992255 0.214003 0.017897
0.013389 0.229858 0.008225
0.013389 0.229858 0.008225
0.031761 0.230059 0.008424
0.065443 0.230426 0.008790
0.099126 0.230793 0.009155
0.132808 0.231160 0.009520
0.166490 0.231528 0.009886
0.200172 0.231895 0.010251
0.233854 0.232262 0.010617
0.267536 0.232629 0.010982
0.301218 0.232997 0.011347
0.334900 0.233364 0.011713
0.385751 0.241147 0.012523
0.420107 0.241522 0.012895
0.454462 0.241897 0.013268
0.488818 0.242271 0.013641
0.523174 0.242646 0.014013
0.557529 0.243020 0.014386
0.591885 0.243395 0.014759
0.626241 0.243769 0.015132
0.660597 0.244144 0.015504
0.694952 0.244519 0.015877
0.729308 0.244893 0.016250
0.763664 0.245268 0.016622
0.798020 0.245642 0.016995
0.832375 0.246017 0.017368
0.866731 0.246391 0.017741
0.901087 0.246766 0.018113
0.935442 0.247141 0.018486
0.969798 0.247515 0.018859
0.993498 0.247774 0.019116
0.993498 0.247774 0.019116
0.993498 0.247774 0.019116
0.014620 0.263294 0.009432
0.014620 0.263294 0.009432
0.032992 0.263494 0.009631
0.066674 0.263862 0.009996
0.100357 0.264229 0.010362
0.134039 0.264596 0.010727
0.167721 0.264963 0.011093
0.201403 0.265331 0.011458
0.235085 0.265698 0.011823
0.268767 0.266065 0.012189
0.302449 0.266432 0.012554
0.336131 0.266800 0.012920
0.369813 0.267167 0.013285
0.421350 0.275292 0.014114
0.455706 0.275667 0.014487
0.490061 0.276041 0.014860
0.524417 0.276416 0.015232
0.558773 0.276790 0.015605
0.593129 0.277165 0.015978
0.627484 0.277540 0.016351
0.661840 0.277914 0.016723
0.696196 0.278289 0.017096
0.730551 0.278663 0.017469
0.764907 0.279038 0.017841
0.799263 0.279412 0.018214
0.833619 0.279787 0.018587
0.867974 0.280162 0.018960
0.902330 0.280536 0.019332
0.936686 0.280911 0.019705
0.971042 0.281285 0.020078
0.994742 0.281544 0.020335
0.994742 0.281544 0.020335
0.994742 0.281544 0.020335
0.015851 0.296730 0.010639
0.015851 0.296730 0.010639
0.034223 0.296930 0.010838
0.067906 0.297297 0.011203
0.101588 0.297665 0.011569
0.135270 0.298032 0.011934
0.168952 0.298399 0.012300
0.202634 0.298766 0.012665
0.236316 0.299134 0.013030
0.269998 0.299501 0.013396
0.303680 0.299868 0.013761
0.337362 0.300235 0.014127
0.371044 0.300603 0.014492
0.404726 0.300970 0.014857
0.456949 0.309437 0.015706
0.491305 0.309811 0.016079
0.525660 0.310186 0.016451
0.560016 0.310560 0.016824
0.594372 0.310935 0.017197
0.628728 0.311310 0.017570
0.663083 0.311684 0.017942
0.697439 0.312059 0.018315
0.731795 0.312433 0.018688
0.766151 0.312808 0.019060
0.800506 0.313183 0.019433
0.834862 0.313557 0.019806
0.869218 0.313932 0.020179
0.903573 0.314306 0.020551
0.937929 0.314681 0.020924
0.972285 0.315055 0.021297
0.995985 0.315314 0.021554
0.995985 0.315314 0.021554
0.995985 0.315314 0.021554
0.017082 0.330166 0.011846
0.017082 0.330166 0.011846
0.035454 0.330366 0.012045
0.069137 0.330733 0.012410
0.102819 0.331100 0.012776
0.136501 0.331468 0.013141
0.170183 0.331835 0.013506
0.203865 0.332202 0.013872
0.237547 0.332569 0.014237
0.271229 0.332937 0.014603
0.304911 0.333304 0.014968
0.338593 0.333671 0.015333
0.372275 0.334038 0.015699
0.405957 0.334406 0.016064
0.439640 0.334773 0.016430
0.473322 0.335140 0.016795
0.526904 0.343956 0.017670
0.561259 0.344331 0.018043
0.595615 0.344705 0.018416
0.629971 0.345080 0.018788
0.664327 0.345454 0.019161
0.698682 0.345829 0.019534
0.733038 0.346203 0.019907
0.767394 0.346578 0.020279
0.801750 0.346953 0.020652
0.836105 0.347327 0.021025
0.870461 0.347702 0.021397
0.904817 0.348076 0.021770
0.939173 0.348451 0.022143
0.973528 0.348826 0.022516
0.997228 0.349084 0.022773
0.997228 0.349084 0.022773
0.997228 0.349084 0.022773
0.018313 0.363601 0.013052
0.018313 0.363601 0.013052
0.036685 0.363802 0.013252
0.070368 0.364169 0.013617
0.104050 0.364536 0.013983
0.137732 0.364903 0.014348
0.171414 0.365271 0.014713
0.205096 0.365638 0.015079
0.238778 0.366005 0.015444
0.272460 0.366372 0.015810
0.306142 0.366740 0.016175
0.339824 0.367107 0.016540
0.373506 0.367474 0.016906
0.407188 0.367841 0.017271
0.440871 0.368209 0.017637
0.474553 0.368576 0.018002
0.508235 0.368943 0.018367
0.562503 0.378101 0.019262
0.596859 0.378475 0.019635
0.631214 0.378850 0.020007
0.665570 0.379224 0.020380
0.699926 0.379599 0.020753
0.734281 0.379974 0.021126
0.768637 0.380348 0.021498
0.802993 0.380723 0.021871
0.837349 0.381097 0.022244
0.871704 0.381472 0.022616
0.906060 0.381846 0.022989
0.940416 0.382221 0.023362
0.974772 0.382596 0.023735
0.998472 0.382854 0.023992
0.998472 0.382854 0.023992
0.998472 0.382854 0.023992
0.019544 0.397037 0.014259
0.019544 0.397037 0.014259
0.037917 0.397237 0.014459
0.071599 0.397605 0.014824
0.105281 0.397972 0.015189
0.138963 0.398339 0.015555
0.172645 0.398706 0.015920
0.206327 0.399074 0.016286
0.240009 0.399441 0.016651
0.273691 0.399808 0.017016
0.307373 0.400175 0.017382
0.341055 0.400543 0.017747
0.374737 0.400910 0.018113
0.408420 0.401277 0.018478
0.442102 0.401644 0.018843
0.475784 0.402012 0.019209
0.509466 0.402379 0.019574
0.543148 0.402746 0.019940
0.576830 0.403113 0.020305
0.632458 0.412620 0.021226
0.666813 0.412995 0.021599
0.701169 0.413369 0.021972
0.735525 0.413744 0.022345
0.769881 0.414118 0.022717
0.804236 0.414493 0.023090
0.838592 0.414867 0.023463
0.872948 0.415242 0.023835
0.907304 0.415617 0.024208
0.941659 0.415991 0.024581
0.976015 0.416366 0.024954
0.999715 0.416624 0.025211
0.999715 0.416624 0.025211
0.999715 0.416624 0.025211
0.020776 0.430473 0.015466
0.020776 0.430473 0.015466
0.039148 0.430673 0.015666
0.072830 0.431040 0.016031
0.106512 0.431408 0.016396
0.140194 0.431775 0.016762
0.173876 0.432142 0.017127
0.207558 0.432509 0.017493
0.241240 0.432877 0.017858
0.274922 0.433244 0.018223
0.308604 0.433611 0.018589
0.342286 0.433978 0.018954
0.375968 0.434346 0.019320
0.409651 0.434713 0.019685
0.443333 0.435080 0.020050
0.477015 0.435447 0.020416
0.510697 0.435814 0.020781
0.544379 0.436182 0.021147
0.578061 0.436549 0.021512
0.611743 0.436916 0.021877
0.668057 0.446765 0.022818
0.702412 0.447139 0.023191
0.736768 0.447514 0.023564
0.771124 0.447888 0.023936
0.805480 0.448263 0.024309
0.839835 0.448638 0.024682
0.874191 0.449012 0.025054
0.908547 0.449387 0.025427
0.942903 0.449761 0.025800
0.977258 0.450136 0.026173
1.000000 0.450394 0.026430
1.000000 0.450394 0.026430
1.000000 0.450394 0.026430
0.022007 0.463909 0.016673
0.022007 0.463909 0.016673
0.040379 0.464109 0.016872
0.074061 0.464476 0.017238
0.107743 0.464843 0.017603
0.141425 0.465211 0.017969
0.175107 0.465578 0.018334
0.208789 0.465945 0.018699
0.242471 0.466312 0.019065
0.276153 0.466680 0.019430
0.309835 0.467047 0.019796
0.343517 0.467414 0.020161
0.377200 0.467781 0.020526
0.410882 0.468149 0.020892
0.444564 0.468516 0.021257
0.478246 0.468883 0.021623
0.511928 0.469250 0.021988
0.545610 0.469617 0.022354
0.579292 0.469985 0.022719
0.612974 0.470352 0.023084
0.646656 0.470719 0.023450
0.703656 0.480909 0.024410
0.738012 0.481284 0.024783
0.772367 0.481658 0.025155
0.806723 0.482033 0.025528
0.841079 0.482408 0.025901
0.875434 0.482782 0.026273
0.909790 0.483157 0.026646
0.944146 0.483531 0.027019
0.978502 0.483906 0.027392
1.000000 0.484164 0.027649
1.000000 0.484164 0.027649
1.000000 0.484164 0.027649
0.023238 0.497344 0.017880
0.023238 0.497344 0.017880
0.041610 0.497545 0.018079
0.075292 0.497912 0.018445
0.108974 0.498279 0.018810
0.142656 0.498646 0.019176
0.176338 0.499014 0.019541
0.210020 0.499381 0.019906
0.243702 0.499748 0.020272
0.277384 0.500115 0.020637
0.311066 0.500483 0.021003
0.344748 0.500850 0.021368
0.378431 0.501217 0.021733
0.412113 0.501584 0.022099
0.445795 0.501952 0.022464
0.479477 0.502319 0.022830
0.513159 0.502686 0.023195
0.546841 0.503053 0.023560
0.580523 0.503420 0.023926
0.614205 0.503788 0.024291
0.647887 0.504155 0.024657
0.681569 0.504522 0.025022
0.715251 0.504889 0.025387
0.773611 0.515429 0.026374
0.807966 0.515803 0.026747
0.842322 0.516178 0.027120
0.876678 0.516552 0.027492
0.911034 0.516927 0.027865
0.945389 0.517301 0.028238
0.979745 0.517676 0.028610
1.000000 0.517934 0.028868
1.000000 0.517934 0.028868
1.000000 0.517934 0.028868
0.024469 0.530780 0.019087
0.024469 0.530780 0.019087
0.042841 0.530980 0.019286
0.076523 0.531348 0.019652
0.110205 0.531715 0.020017
0.143887 0.532082 0.020382
0.177569 0.532449 0.020748
0.211251 0.532817 0.021113
0.244933 0.533184 0.021479
0.278615 0.533551 0.021844
0.312297 0.533918 0.022209
0.345979 0.534286 0.022575
0.379662 0.534653 0.022940
0.413344 0.535020 0.023306
0.447026 0.535387 0.023671
0.480708 0.535754 0.024036
0.514390 0.536122 0.024402
0.548072 0.536489 0.024767
0.581754 0.536856 0.025133
0.615436 0.537223 0.025498
0.649118 0.537591 0.025864
0.682800 0.537958 0.026229
0.716482 0.538325 0.026594
0.750165 0.538692 0.026960
0.809210 0.549573 0.027966
0.843565 0.549948 0.028339
0.877921 0.550322 0.028711
0.912277 0.550697 0.029084
0.946633 0.551072 0.029457
0.980988 0.551446 0.029829
1.000000 0.551705 0.030087
1.000000 0.551705 0.030087
1.000000 0.551705 0.030087
0.025700 0.564216 0.020294
0.025700 0.564216 0.020294
0.044072 0.564416 0.020493
0.077754 0.564783 0.020859
0.111436 0.565151 0.021224
0.145118 0.565518 0.021589
0.178800 0.565885 0.021955
0.212482 0.566252 0.022320
0.246164 0.566620 0.022686
0.279846 0.566987 0.023051
0.313528 0.567354 0.023416
0.347211 0.567721 0.023782
0.380893 0.568089 0.024147
0.414575 0.568456 0.024513
0.448257 0.568823 0.024878
0.481939 0.569190 0.025243
0.515621 0.569557 0.025609
0.549303 0.569925 0.025974
0.582985 0.570292 0.026340
0.616667 0.570659 0.026705
0.650349 0.571026 0.027070
0.684031 0.571394 0.027436
0.717714 0.571761 0.027801
0.751396 0.572128 0.028167
0.785078 0.572495 0.028532
0.844809 0.583718 0.029558
0.879165 0.584093 0.029930
0.913520 0.584467 0.030303
0.947876 0.584842 0.030676
0.982232 0.585216 0.031048
1.000000 0.585475 0.031306
1.000000 0.585475 0.031306
1.000000 0.585475 0.031306
0.026931 0.597652 0.021501
0.026931 0.597652 0.021501
0.045303 0.597852 0.021700
0.078985 0.598219 0.022065
0.112667 0.598586 0.022431
0.146349 0.598954 0.022796
0.180031 0.599321 0.023162
0.213713 0.599688 0.023527
0.247395 0.600055 0.023892
0.281077 0.600423 0.024258
0.314759 0.600790 0.024623
0.348442 0.601157 0.024989
0.382124 0.601524 0.025354
0.415806 0.601892 0.025719
0.449488 0.602259 0.026085
0.483170 0.602626 0.026450
0.516852 0.602993 0.026816
0.550534 0.603360 0.027181
0.584216 0.603728 0.027547
0.617898 0.604095 0.027912
0.651580 0.604462 0.028277
0.685262 0.604829 0.028643
0.718945 0.605197 0.029008
0.752627 0.605564 0.029374
0.786309 0.605931 0.029739
0.819991 0.606298 0.030104
0.853673 0.606666 0.030470
0.914764 0.618237 0.031522
0.949119 0.618612 0.031895
0.983475 0.618986 0.032267
1.000000 0.619245 0.032525
1.000000 0.619245 0.032525
1.000000 0.619245 0.032525
0.028162 0.631087 0.022708
0.028162 0.631087 0.022708
0.046534 0.631288 0.022907
0.080216 0.631655 0.023272
0.113898 0.632022 0.023638
0.147580 0.632389 0.024003
0.181262 0.632757 0.024369
0.214944 0.633124 0.024734
0.248626 0.633491 0.025099
0.282308 0.633858 0.025465
0.315991 0.634226 0.025830
0.349673 0.634593 0.026196
0.383355 0.634960 0.026561
0.417037 0.635327 0.026926
0.450719 0.635694 0.027292
0.484401 0.636062 0.027657
0.518083 0.636429 0.028023
0.551765 0.636796 0.028388
0.585447 0.637163 0.028753
0.619129 0.637531 0.029119
0.652811 0.637898 0.029484
0.686493 0.638265 0.029850
0.720176 0.638632 0.030215
0.753858 0.639000 0.030580
0.787540 0.639367 0.030946
0.821222 0.639734 0.031311
0.854904 0.640101 0.031677
0.888586 0.640469 0.032042
0.950363 0.652382 0.033114
0.984718 0.652756 0.033486
1.000000 0.653015 0.033743
1.000000 0.653015 0.033743
1.000000 0.653015 0.033743
0.029393 0.664523 0.023915
0.029393 0.664523 0.023915
0.047765 0.664723 0.024114
0.081447 0.665091 0.024479
0.115129 0.665458 0.024845
0.148811 0.665825 0.025210
0.182493 0.666192 0.025575
0.216175 0.666560 0.025941
0.249857 0.666927 0.026306
0.283539 0.667294 0.026672
0.317222 0.667661 0.027037
0.350904 0.668029 0.027402
0.384586 0.668396 0.027768
0.418268 0.668763 0.028133
0.451950 0.669130 0.028499
0.485632 0.669497 0.028864
0.519314 0.669865 0.029230
0.552996 0.670232 0.029595
0.586678 0.670599 0.029960
0.620360 0.670966 0.030326
0.654042 0.671334 0.030691
0.687725 0.671701 0.031057
0.721407 0.672068 0.031422
0.755089 0.672435 0.031787
0.788771 0.672803 0.032153
0.822453 0.673170 0.032518
0.856135 0.673537 0.032884
0.889817 0.673904 0.033249
0.923499 0.674272 0.033614
0.957181 0.674639 0.033980
1.000000 0.686785 0.034962
1.000000 0.686785 0.034962
1.000000 0.686785 0.034962
0.030624 0.697959 0.025121
0.030624 0.697959 0.025121
0.048996 0.698159 0.025321
0.082678 0.698526 0.025686
0.116360 0.698894 0.026052
0.150042 0.699261 0.026417
0.183724 0.699628 0.026782
0.217406 0.699995 0.027148
0.251088 0.700363 0.027513
0.284771 0.700730 0.027879
0.318453 0.701097 0.028244
0.352135 0.701464 0.028609
0.385817 0.701832 0.028975
0.419499 0.702199 0.029340
0.453181 0.702566 0.029706
0.486863 0.702933 0.030071
0.520545 0.703300 0.030436
0.554227 0.703668 0.030802
0.587909 0.704035 0.031167
0.621591 0.704402 0.031533
0.655273 0.704769 0.031898
0.688956 0.705137 0.032263
0.722638 0.705504 0.032629
0.756320 0.705871 0.032994
0.790002 0.706238 0.033360
0.823684 0.706606 0.033725
0.857366 0.706973 0.034090
0.891048 0.707340 0.034456
0.924730 0.707707 0.034821
0.958412 0.708074 0.035187
0.992094 0.708442 0.035552
1.000000 0.720555 0.036181
1.000000 0.720555 0.036181
0.031855 0.731395 0.026328
0.031855 0.731395 0.026328
0.050227 0.731595 0.026528
0.083909 0.731962 0.026893
0.117591 0.732329 0.027258
0.151273 0.732697 0.027624
0.184955 0.733064 0.027989
0.218637 0.733431 0.028355
0.252319 0.733798 0.028720
0.286002 0.734166 0.029085
0.319684 0.734533 0.029451
0.353366 0.734900 0.029816
0.387048 0.735267 0.030182
0.420730 0.735635 0.030547
0.454412 0.736002 0.030912
0.488094 0.736369 0.031278
0.521776 0.736736 0.031643
0.555458 0.737103 0.032009
0.589140 0.737471 0.032374
0.622822 0.737838 0.032740
0.656505 0.738205 0.033105
0.690187 0.738572 0.033470
0.723869 0.738940 0.033836
0.757551 0.739307 0.034201
0.791233 0.739674 0.034567
0.824915 0.740041 0.034932
0.858597 0.740409 0.035297
0.892279 0.740776 0.035663
0.925961 0.741143 0.036028
0.959643 0.741510 0.036394
0.993325 0.741877 0.036759
1.000000 0.742078 0.036958
1.000000 0.754325 0.037400
0.033086 0.764830 0.027535
0.033086 0.764830 0.027535
0.051458 0.765031 0.027735
0.085140 0.765398 0.028100
0.118822 0.765765 0.028465
0.152504 0.766132 0.028831
0.186186 0.766500 0.029196
0.219868 0.766867 0.029562
0.253550 0.767234 0.029927
0.287233 0.767601 0.030292
0.320915 0.767969 0.030658
0.354597 0.768336 0.031023
0.388279 0.768703 0.031389
0.421961 0.769070 0.031754
0.455643 0.769437 0.032119
0.489325 0.769805 0.032485
0.523007 0.770172 0.032850
0.556689 0.770539 0.033216
0.590371 0.770906 0.033581
0.624053 0.771274 0.033946
0.657736 0.771641 0.034312
0.691418 0.772008 0.034677
0.725100 0.772375 0.035043
0.758782 0.772743 0.035408
0.792464 0.773110 0.035773
0.826146 0.773477 0.036139
0.859828 0.773844 0.036504
0.893510 0.774212 0.036870
0.927192 0.774579 0.037235
0.960874 0.774946 0.037600
0.994556 0.775313 0.037966
1.000000 0.775514 0.038165
1.000000 0.775514 0.038165
0.034317 0.798266 0.028742
0.034317 0.798266 0.028742
0.052689 0.798466 0.028941
0.086371 0.798834 0.029307
0.120053 0.799201 0.029672
0.153735 0.799568 0.030038
0.187417 0.799935 0.030403
0.221099 0.800303 0.030768
0.254782 0.800670 0.031134
0.288464 0.801037 0.031499
0.322146 0.801404 0.031865
0.355828 0.801772 0.032230
0.389510 0.802139 0.032595
0.423192 0.802506 0.032961
0.456874 0.802873 0.033326
0.490556 0.803240 0.033692
0.524238 0.803608 0.034057
0.557920 0.803975 0.034423
0.591602 0.804342 0.034788
0.625285 0.804709 0.035153
0.658967 0.805077 0.035519
0.692649 0.805444 0.035884
0.726331 0.805811 0.036250
0.760013 0.806178 0.036615
0.793695 0.806546 0.036980
0.827377 0.806913 0.037346
0.861059 0.807280 0.037711
0.894741 0.807647 0.038077
0.928423 0.808014 0.038442
0.962105 0.808382 0.038807
0.995787 0.808749 0.039173
1.000000 0.808949 0.039372
1.000000 0.808949 0.039372
0.035548 0.831702 0.029949
0.035548 0.831702 0.029949
0.053920 0.831902 0.030148
0.087602 0.832269 0.030514
0.121284 0.832637 0.030879
0.154966 0.833004 0.031245
0.188648 0.833371 0.031610
0.222330 0.833738 0.031975
0.256013 0.834106 0.032341
0.289695 0.834473 0.032706
0.323377 0.834840 0.033072
0.357059 0.835207 0.033437
0.390741 0.835575 0.033802
0.424423 0.835942 0.034168
0.458105 0.836309 0.034533
0.491787 0.836676 0.034899
0.525469 0.837043 0.035264
0.559151 0.837411 0.035629
0.592833 0.837778 0.035995
