library/cube/Raw_Truth_000.cube
# CINEGRADE LAB — Premium Cinematic LUT
# Title: Raw Truth
# Category: Moody Documentary
# Description: Desaturated, contrasty, journalistic style for documentary storytelling
# Mood: Raw, honest, gritty
# Variant: 1
# Generated: 2026-05-21T16:12:16.069756
TITLE "Raw Truth"
LUT_3D_SIZE 5
0.000000 0.000000 0.003600
0.138580 0.009273 0.012544
0.375805 0.025108 0.028132
0.614161 0.040977 0.043737
0.793208 0.052858 0.055306
0.031036 0.162470 0.033784
0.170813 0.171930 0.042811
0.409745 0.187952 0.058471
0.649466 0.203984 0.074151
0.829193 0.215993 0.085806
0.084475 0.440646 0.086468
0.225105 0.450260 0.095574
0.465195 0.466425 0.111305
0.705770 0.482570 0.127060
0.885838 0.494659 0.138795
0.138292 0.719694 0.139397
0.279423 0.729315 0.148588
0.520154 0.745479 0.164398
0.761119 0.761604 0.180232
0.941230 0.773655 0.192049
0.178626 0.928398 0.179002
0.319968 0.937912 0.188277
0.560929 0.953971 0.204164
0.801944 0.969990 0.220072
0.981919 0.981936 0.231957
0.003109 0.003146 0.139391
0.141828 0.012427 0.148245
0.379253 0.028272 0.163750
0.617774 0.044149 0.179279
0.796908 0.056034 0.190782
0.034195 0.165682 0.169305
0.174071 0.175143 0.178268
0.413142 0.191167 0.193871
0.652969 0.207199 0.209501
0.832744 0.219207 0.221114
0.087674 0.443914 0.221802
0.228366 0.453519 0.230867
0.468540 0.469676 0.246565
0.709171 0.485813 0.262292
0.889254 0.497893 0.274006
0.141502 0.722966 0.274620
0.282665 0.732573 0.283791
0.523434 0.748723 0.299587
0.764416 0.764835 0.315410
0.944519 0.776872 0.327221
0.181826 0.931634 0.314178
0.323178 0.941133 0.323448
0.564145 0.957177 0.339334
0.805153 0.973184 0.355243
0.985112 0.985120 0.367131
0.008415 0.008513 0.370877
0.147276 0.017804 0.379577
0.384901 0.033660 0.394941
0.623585 0.049547 0.410343
0.802806 0.061440 0.421732
0.039568 0.171121 0.400328
0.179544 0.180583 0.409183
0.418752 0.196611 0.424689
0.658684 0.212645 0.440234
0.838506 0.224652 0.451773
0.093097 0.449411 0.452505
0.233851 0.459008 0.461502
0.474107 0.475159 0.477141
0.714792 0.491288 0.492819
0.894888 0.503361 0.504495
0.146944 0.728469 0.505132
0.288138 0.738062 0.514268
0.528943 0.754199 0.530036
0.769940 0.770298 0.545841
0.950033 0.782323 0.557639
0.187262 0.937103 0.544604
0.328621 0.946586 0.553863
0.569593 0.962618 0.569745
0.810593 0.978613 0.585653
0.990536 0.990539 0.597544
0.013733 0.013885 0.602250
0.152729 0.023185 0.610807
0.390547 0.039052 0.626039
0.629388 0.054948 0.641322
0.808692 0.066848 0.652607
0.044948 0.176561 0.631271
0.185020 0.186025 0.640026
0.424359 0.202055 0.655443
0.664390 0.218091 0.670911
0.844255 0.230098 0.682384
0.098524 0.454905 0.683156
0.239337 0.464495 0.692092
0.479668 0.480639 0.707679
0.720403 0.496761 0.723315
0.900510 0.508825 0.734958
0.152387 0.733967 0.735615
0.293609 0.743546 0.744721
0.534446 0.759670 0.760468
0.775454 0.775757 0.776258
0.955536 0.787770 0.788049
0.192696 0.942566 0.775018
0.334061 0.952035 0.784271
0.575036 0.968053 0.800152
0.816026 0.984038 0.816063
0.995956 0.995956 0.827957
0.017713 0.017900 0.774856
0.156838 0.027208 0.783317
0.394840 0.043084 0.798463
0.633828 0.058988 0.813670
0.813207 0.070892 0.824889
0.048978 0.180637 0.803596
0.189139 0.190102 0.812288
0.428601 0.206133 0.827649
0.668724 0.222169 0.843070
0.848626 0.234174 0.854506
0.102589 0.459029 0.855299
0.243456 0.468611 0.864200
0.483857 0.484747 0.879758
0.724636 0.500861 0.895373
0.904749 0.512916 0.907000
0.156461 0.738091 0.907665
0.297707 0.747655 0.916759
0.538572 0.763767 0.932452
0.779588 0.779841 0.948205
0.959657 0.791842 0.960014
0.196758 0.946653 0.946983
0.338127 0.956107 0.956258
0.579101 0.972114 0.972162
0.820082 0.988088 0.988095
1.000000 1.000000 1.000000
