library/cube/Raw_Truth_000.cube
# CINEGRADE LAB — Premium Cinematic LUT
# Title: Raw Truth
# Category: Moody Documentary
# Description: Desaturated, contrasty, journalistic style for documentary storytelling
# Mood: Raw, honest, gritty
# Variant: 1
# Generated: 2026-05-21T16:12:16.069756
TITLE "Raw Truth"
LUT_3D_SIZE 9
0.000000 0.000000 0.003600
0.020443 0.001369 0.004755
0.138580 0.009273 0.012544
0.257041 0.017186 0.020336
0.375805 0.025108 0.028132
0.494851 0.033039 0.035932
0.614161 0.040977 0.043737
0.733714 0.048923 0.051545
0.793208 0.052858 0.055306
0.004566 0.023958 0.007519
0.025109 0.025343 0.008703
0.143767 0.033275 0.016511
0.262703 0.041215 0.024324
0.381897 0.049161 0.032141
0.501331 0.057114 0.039962
0.620985 0.065073 0.047788
0.740841 0.073038 0.055619
0.800401 0.076984 0.059405
0.031036 0.162470 0.033784
0.051688 0.163923 0.034988
0.170813 0.171930 0.042811
0.290172 0.179940 0.050639
0.409745 0.187952 0.058471
0.529516 0.195967 0.066308
0.649466 0.203984 0.074151
0.769578 0.212002 0.081999
0.829193 0.215993 0.085806
0.057688 0.301402 0.060098
0.078427 0.302900 0.061324
0.197939 0.310959 0.069163
0.317643 0.319017 0.077008
0.437521 0.327073 0.084857
0.557556 0.335128 0.092713
0.677733 0.343181 0.100573
0.798035 0.351231 0.108440
0.857674 0.355247 0.112268
0.084475 0.440646 0.086468
0.105281 0.442171 0.087717
0.225105 0.450260 0.095574
0.345082 0.458345 0.103437
0.465195 0.466425 0.111305
0.585429 0.474500 0.119179
0.705770 0.482570 0.127060
0.826202 0.490634 0.134946
0.885838 0.494659 0.138795
0.111356 0.580107 0.112900
0.132210 0.581639 0.114171
0.252277 0.589740 0.122048
0.372460 0.597833 0.129930
0.492745 0.605919 0.137818
0.613118 0.613997 0.145712
0.733566 0.622068 0.153612
0.854075 0.630131 0.161518
0.913687 0.634150 0.165389
0.138292 0.719694 0.139397
0.159177 0.721219 0.140691
0.279423 0.729315 0.148588
0.399753 0.737402 0.156490
0.520154 0.745479 0.164398
0.640613 0.753546 0.172312
0.761119 0.761604 0.180232
0.881660 0.769653 0.188158
0.941230 0.773655 0.192049
0.165250 0.859332 0.165962
0.186152 0.860837 0.167279
0.306520 0.868915 0.175195
0.426943 0.876983 0.183117
0.547410 0.885039 0.191044
0.667910 0.893085 0.198978
0.788434 0.901121 0.206917
0.908971 0.909146 0.214861
0.968490 0.913123 0.218770
0.178626 0.928398 0.179002
0.199530 0.929867 0.180341
0.319968 0.937912 0.188277
0.440438 0.945947 0.196218
0.560929 0.953971 0.204164
0.681434 0.961985 0.212116
0.801944 0.969990 0.220072
0.922453 0.977987 0.228032
0.981919 0.981936 0.231957
0.000459 0.000465 0.023606
0.020912 0.001834 0.024756
0.139106 0.009740 0.032540
0.257618 0.017655 0.040327
0.376429 0.025579 0.048119
0.495518 0.033511 0.055915
0.614865 0.041451 0.063715
0.734452 0.049397 0.071520
0.793954 0.053333 0.075278
0.005029 0.024428 0.027511
0.025581 0.025814 0.028690
0.144287 0.033747 0.036495
0.263267 0.041688 0.044303
0.382501 0.049636 0.052117
0.501970 0.057590 0.059935
0.621655 0.065550 0.067758
0.741538 0.073515 0.075586
0.801103 0.077462 0.079370
0.031511 0.162964 0.053762
0.052170 0.164416 0.054963
0.171335 0.172423 0.062783
0.290730 0.180433 0.070607
0.410336 0.188445 0.078437
0.530134 0.196460 0.086272
0.650108 0.204476 0.094113
0.770241 0.212494 0.101959
0.829858 0.216484 0.105765
0.058171 0.301911 0.080065
0.078915 0.303408 0.081289
0.198460 0.311465 0.089126
0.318193 0.319522 0.096969
0.438096 0.327577 0.104817
0.558153 0.335631 0.112671
0.678348 0.343682 0.120531
0.798664 0.351731 0.128396
0.858303 0.355746 0.132224
0.084963 0.441165 0.106429
0.105773 0.442687 0.107676
0.225623 0.450774 0.115532
0.345622 0.458856 0.123394
0.465754 0.466934 0.131261
0.586004 0.475007 0.139135
0.706356 0.483074 0.147015
0.826797 0.491137 0.154901
0.886432 0.495159 0.158751
0.111846 0.580628 0.132857
0.132703 0.582157 0.134127
0.252789 0.590255 0.142003
0.372988 0.598345 0.149885
0.493287 0.606428 0.157773
0.613670 0.614503 0.165667
0.734125 0.622571 0.173568
0.854638 0.630631 0.181474
0.914246 0.634647 0.185346
0.138782 0.720213 0.159352
0.159668 0.721734 0.160647
0.279928 0.729827 0.168543
0.400269 0.737910 0.176446
0.520678 0.745983 0.184354
0.641142 0.754047 0.192269
0.761651 0.762102 0.200190
0.882193 0.770147 0.208116
0.941757 0.774145 0.212008
0.165737 0.859845 0.185918
0.186639 0.861345 0.187235
0.307016 0.869419 0.195152
0.427446 0.877483 0.203075
0.547917 0.885535 0.211003
0.668419 0.893578 0.218938
0.788942 0.901609 0.226878
0.909477 0.909631 0.234823
0.968990 0.913605 0.238734
0.179108 0.928898 0.198961
0.200012 0.930363 0.200300
0.320455 0.938404 0.208237
0.440927 0.946435 0.216180
0.561419 0.954456 0.224127
0.681923 0.962467 0.232080
0.802430 0.970469 0.240037
0.922936 0.978463 0.247998
0.982397 0.982409 0.251924
0.003109 0.003146 0.139391
0.023576 0.004518 0.140501
0.141828 0.012427 0.148245
0.260393 0.020345 0.155995
0.379253 0.028272 0.163750
0.498386 0.036207 0.171512
0.617774 0.044149 0.179279
0.737396 0.052098 0.187054
0.796908 0.056034 0.190782
0.007693 0.027120 0.143166
0.028257 0.028507 0.144311
0.147013 0.036443 0.152082
0.266039 0.044387 0.159858
0.385313 0.052337 0.167641
0.504819 0.060293 0.175431
0.624536 0.068254 0.183226
0.744447 0.076221 0.191029
0.804019 0.080169 0.194789
0.034195 0.165682 0.169305
0.054864 0.167135 0.170476
0.174071 0.175143 0.178268
0.293503 0.183154 0.186066
0.413142 0.191167 0.193871
0.532970 0.199182 0.201683
0.652969 0.207199 0.209501
0.773123 0.215217 0.217327
0.832744 0.219207 0.221114
0.060870 0.304649 0.195515
0.081622 0.306144 0.196714
0.201201 0.314202 0.204529
0.320964 0.322258 0.212350
0.440893 0.330312 0.220178
0.560973 0.338365 0.228013
0.681186 0.346416 0.235856
0.801517 0.354464 0.243705
0.861157 0.358477 0.247519
0.087674 0.443914 0.221802
0.108489 0.445433 0.223030
0.228366 0.453519 0.230867
0.348388 0.461600 0.238713
0.468540 0.469676 0.246565
0.588806 0.477747 0.254425
0.709171 0.485813 0.262292
0.829621 0.493873 0.270166
0.889254 0.497893 0.274006
0.114564 0.583382 0.248169
0.135424 0.584908 0.249426
0.255530 0.593003 0.257288
0.375747 0.601091 0.265158
0.496059 0.609171 0.273035
0.616452 0.617244 0.280919
0.736915 0.625309 0.288811
0.857433 0.633367 0.296709
0.917037 0.637379 0.300574
0.141502 0.722966 0.274620
0.162391 0.724483 0.275904
0.282665 0.732573 0.283791
0.403017 0.740653 0.291685
0.523434 0.748723 0.299587
0.643905 0.756784 0.307495
0.764416 0.764835 0.315410
0.884959 0.772877 0.323333
0.944519 0.776872 0.327221
0.168458 0.862592 0.301155
0.189361 0.864088 0.302465
0.309747 0.872159 0.310376
0.430183 0.880219 0.318294
0.550658 0.888268 0.326218
0.671162 0.896306 0.334150
0.791684 0.904335 0.342087
0.912217 0.912354 0.350031
0.971725 0.916324 0.353940
0.181826 0.931634 0.314178
0.202730 0.933095 0.315514
0.323178 0.941133 0.323448
0.443653 0.949160 0.331388
0.564145 0.957177 0.339334
0.684648 0.965185 0.347286
0.805153 0.973184 0.355243
0.925655 0.981176 0.363204
0.985112 0.985120 0.367131
0.005761 0.005829 0.255148
0.026242 0.007203 0.256219
0.144551 0.015115 0.263924
0.263169 0.023036 0.271637
0.382077 0.030966 0.279357
0.501254 0.038903 0.287085
0.620680 0.046847 0.294822
0.740337 0.054799 0.302566
0.799858 0.058737 0.306267
0.010359 0.029813 0.258797
0.030934 0.031201 0.259908
0.149740 0.039140 0.267646
0.268810 0.047086 0.275392
0.388125 0.055038 0.283145
0.507667 0.062996 0.290907
0.627416 0.070960 0.298677
0.747355 0.078928 0.306454
0.806933 0.082876 0.310192
0.036881 0.168401 0.284827
0.057559 0.169854 0.285970
0.176807 0.177863 0.293735
0.296276 0.185875 0.301507
0.415948 0.193889 0.309288
0.535804 0.201905 0.317077
0.655828 0.209922 0.324875
0.776002 0.217940 0.332681
0.835626 0.221929 0.336450
0.063571 0.307386 0.310946
0.084330 0.308881 0.312123
0.203943 0.316938 0.319915
0.323735 0.324993 0.327716
0.443690 0.333047 0.335525
0.563791 0.341099 0.343343
0.684022 0.349149 0.351169
0.804368 0.357197 0.359004
0.864008 0.361208 0.362804
0.090385 0.446663 0.337160
0.111206 0.448180 0.338370
0.231109 0.456264 0.346191
0.351153 0.464343 0.354020
0.471324 0.472418 0.361858
0.591605 0.480487 0.369705
0.711983 0.488551 0.377560
0.832442 0.496610 0.385423
0.892072 0.500627 0.389254
0.117281 0.586135 0.363471
0.138145 0.587658 0.364714
0.258271 0.595751 0.372563
0.378504 0.603836 0.380422
0.498829 0.611914 0.388288
0.619233 0.619984 0.396164
0.739702 0.628046 0.404047
0.860224 0.636101 0.411939
0.919824 0.640111 0.415798
0.144223 0.725718 0.389880
0.165114 0.727232 0.391154
0.285402 0.735318 0.399033
0.405765 0.743394 0.406919
0.526190 0.751461 0.414814
0.646665 0.759519 0.422717
0.767179 0.767567 0.430627
0.887722 0.775606 0.438546
0.947277 0.779598 0.442431
0.171179 0.865338 0.416386
0.192083 0.866830 0.417690
0.312478 0.874897 0.425596
0.432920 0.882953 0.433509
0.553398 0.890999 0.441430
0.673903 0.899034 0.449359
0.794425 0.907059 0.457294
0.914956 0.915075 0.465237
0.974458 0.919042 0.469146
0.184544 0.934369 0.429393
0.205447 0.935826 0.430725
0.325900 0.943860 0.438657
0.446377 0.951884 0.446595
0.566870 0.959898 0.454540
0.687371 0.967903 0.462491
0.807874 0.975899 0.470448
0.928372 0.983888 0.478410
0.987825 0.987830 0.482337
0.008415 0.008513 0.370877
0.028910 0.009889 0.371909
0.147276 0.017804 0.379577
0.265946 0.025728 0.387254
0.384901 0.033660 0.394941
0.504120 0.041600 0.402637
0.623585 0.049547 0.410343
0.743275 0.057500 0.418058
0.802806 0.061440 0.421732
0.013028 0.032506 0.374404
0.033614 0.033897 0.375482
0.152468 0.041838 0.383189
0.271582 0.049786 0.390904
0.390937 0.057740 0.398630
0.510513 0.065700 0.406364
0.630293 0.073665 0.414109
0.750259 0.081635 0.421863
0.809843 0.085584 0.425579
0.039568 0.171121 0.400328
0.060255 0.172573 0.401444
0.179544 0.180583 0.409183
0.299049 0.188596 0.416931
0.418752 0.196611 0.424689
0.538636 0.204627 0.432456
0.658684 0.212645 0.440234
0.778879 0.220663 0.448021
0.838506 0.224652 0.451773
0.066273 0.310124 0.426361
0.087039 0.311617 0.427515
0.206684 0.319674 0.435287
0.326505 0.327729 0.443068
0.446485 0.335782 0.450859
0.566607 0.343833 0.458660
0.686855 0.351882 0.466471
0.807215 0.359929 0.474292
0.866855 0.363939 0.478079
0.093097 0.449411 0.452505
0.113923 0.450926 0.453698
0.233851 0.459008 0.461502
0.353918 0.467086 0.469317
0.474107 0.475159 0.477141
0.594403 0.483226 0.484975
0.714792 0.491288 0.492819
0.835260 0.499345 0.500673
0.894888 0.503361 0.504495
0.120000 0.588887 0.478763
0.140867 0.590407 0.479992
0.261012 0.598497 0.487830
0.381260 0.606580 0.495678
0.501598 0.614655 0.503535
0.622011 0.622723 0.511402
0.742487 0.630783 0.519278
0.863013 0.638835 0.527163
0.922609 0.642842 0.531017
0.146944 0.728469 0.505132
0.167837 0.729979 0.506398
0.288138 0.738062 0.514268
0.408511 0.746135 0.522148
0.528943 0.754199 0.530036
0.649423 0.762253 0.537934
0.769940 0.770298 0.545841
0.890483 0.778334 0.553756
0.950033 0.782323 0.557639
0.173900 0.868083 0.531612
0.194805 0.869571 0.532911
0.315207 0.877634 0.540812
0.435655 0.885687 0.548721
0.556136 0.893729 0.556640
0.676642 0.901760 0.564566
0.797163 0.909782 0.572500
0.917691 0.917795 0.580441
0.977188 0.921759 0.584350
0.187262 0.937103 0.544604
0.208165 0.938555 0.545934
0.328621 0.946586 0.553863
0.449100 0.954607 0.561801
0.569593 0.962618 0.569745
0.690093 0.970619 0.577696
0.810593 0.978613 0.585653
0.931088 0.986599 0.593616
0.990536 0.990539 0.597544
0.011073 0.011199 0.486577
0.031580 0.012576 0.487572
0.150002 0.020494 0.495204
0.268723 0.028421 0.502847
0.387724 0.036356 0.510501
0.506985 0.044298 0.518166
0.626487 0.052247 0.525843
0.746211 0.060203 0.533531
0.805751 0.064143 0.537179
0.015698 0.035201 0.489986
0.036296 0.036593 0.491033
0.155198 0.044536 0.498709
0.274355 0.052486 0.506396
0.393748 0.060442 0.514094
0.513359 0.068404 0.521803
0.633169 0.076371 0.529524
0.753161 0.084343 0.537256
0.812751 0.088293 0.540951
0.042258 0.173841 0.515809
0.062954 0.175293 0.516900
0.182282 0.183304 0.524613
0.301822 0.191318 0.532337
0.421556 0.199333 0.540073
0.541467 0.207350 0.547820
0.661538 0.215368 0.555579
0.781752 0.223386 0.563349
0.841382 0.227375 0.567085
0.068976 0.312861 0.541759
0.089749 0.314353 0.542892
0.209426 0.322409 0.550644
0.329275 0.330464 0.558406
0.449278 0.338517 0.566180
0.569421 0.346567 0.573965
0.689686 0.354615 0.581762
0.810060 0.362661 0.589569
0.869699 0.366670 0.593345
0.095810 0.452158 0.567837
0.116641 0.453671 0.569013
0.236594 0.461752 0.576803
0.356682 0.469828 0.584603
0.476888 0.477899 0.592415
0.597199 0.485965 0.600237
0.717599 0.494025 0.608071
0.838075 0.502080 0.615916
0.897701 0.506093 0.619729
0.122718 0.591639 0.594044
0.143589 0.593155 0.595261
0.263752 0.601243 0.603088
0.384016 0.609323 0.610926
0.504365 0.617396 0.618774
0.624787 0.625461 0.626633
0.745269 0.633518 0.634503
0.865799 0.641568 0.642383
0.925391 0.645572 0.646232
0.149666 0.731219 0.620377
0.170560 0.732725 0.621634
0.290874 0.740804 0.629497
0.411256 0.748875 0.637371
0.531695 0.756935 0.645254
0.652180 0.764986 0.653148
0.772698 0.773028 0.661051
0.893241 0.781061 0.668963
0.952786 0.785047 0.672845
0.176621 0.870827 0.646833
0.197526 0.872311 0.648127
0.317936 0.880370 0.656024
0.438389 0.888419 0.663930
0.558873 0.896457 0.671846
0.679379 0.904486 0.679771
0.799899 0.912504 0.687704
0.920425 0.920514 0.695645
0.979916 0.924475 0.699554
0.189979 0.939835 0.659812
0.210882 0.941284 0.661140
0.331342 0.949311 0.669068
0.451822 0.957328 0.677005
0.572315 0.965336 0.684949
0.692813 0.973335 0.692900
0.813310 0.981326 0.700858
0.933802 0.989310 0.708821
0.993247 0.993248 0.712750
0.013733 0.013885 0.602250
0.034253 0.015264 0.603210
0.152729 0.023185 0.610807
0.271501 0.031115 0.618416
0.390547 0.039052 0.626039
0.509850 0.046997 0.633674
0.629388 0.054948 0.641322
0.749144 0.062906 0.648984
0.808692 0.066848 0.652607
0.018371 0.037897 0.605546
0.038979 0.039289 0.606562
0.157928 0.047235 0.614209
0.277127 0.055187 0.621868
0.396558 0.063146 0.629540
0.516203 0.071109 0.637225
0.636042 0.079078 0.644922
0.756060 0.087051 0.652632
0.815655 0.091002 0.656308
0.044948 0.176561 0.631271
0.065653 0.178014 0.632336
0.185020 0.186025 0.640026
0.304594 0.194040 0.647728
0.424359 0.202055 0.655443
0.544297 0.210073 0.663170
0.664390 0.218091 0.670911
0.784623 0.226109 0.678664
0.844255 0.230098 0.682384
0.071681 0.315598 0.657140
0.092460 0.317089 0.658254
0.212168 0.325145 0.665987
0.332044 0.333199 0.673732
0.452071 0.341251 0.681489
0.572233 0.349301 0.689260
0.692515 0.357348 0.697043
0.812901 0.365392 0.704838
0.872541 0.369400 0.708603
0.098524 0.454905 0.683156
0.119359 0.456416 0.684317
0.239337 0.464495 0.692092
0.359445 0.472569 0.699879
0.479668 0.480639 0.707679
0.599992 0.488703 0.715491
0.720403 0.496761 0.723315
0.840887 0.504814 0.731152
0.900510 0.508825 0.734958
0.125438 0.594389 0.709315
0.146311 0.595903 0.710522
0.266492 0.603988 0.718338
0.386770 0.612066 0.726167
0.507131 0.620136 0.734007
0.627561 0.628198 0.741860
0.748049 0.636253 0.749723
0.868582 0.644300 0.757598
0.928169 0.648301 0.761444
0.152387 0.733967 0.735615
0.173283 0.735470 0.736865
0.293609 0.743546 0.744721
0.414000 0.751613 0.752589
0.534446 0.759670 0.760468
0.654934 0.767719 0.768358
0.775454 0.775757 0.776258
0.895997 0.783788 0.784168
0.955536 0.787770 0.788049
0.179341 0.873569 0.762049
0.200247 0.875049 0.763339
0.320664 0.883105 0.771233
0.441121 0.891150 0.779137
0.561608 0.899185 0.787051
0.682115 0.907210 0.794974
0.802633 0.915225 0.802907
0.923156 0.923232 0.810848
0.982642 0.927191 0.814758
0.192696 0.942566 0.775018
0.213598 0.944011 0.776344
0.334061 0.952035 0.784271
0.454543 0.960049 0.792208
0.575036 0.968053 0.800152
0.695532 0.976050 0.808104
0.816026 0.984038 0.816063
0.936515 0.992020 0.824027
0.995956 0.995956 0.827957
0.016395 0.016572 0.717897
0.036928 0.017953 0.718822
0.155458 0.025877 0.726385
0.274279 0.033810 0.733963
0.393370 0.041750 0.741555
0.512712 0.049697 0.749161
0.632287 0.057650 0.756782
0.752074 0.065609 0.764418
0.811630 0.069552 0.768018
0.021045 0.040593 0.721082
0.041665 0.041987 0.722070
0.160659 0.049935 0.729688
0.279900 0.057890 0.737321
0.399368 0.065850 0.744968
0.519045 0.073815 0.752629
0.638914 0.081785 0.760304
0.758956 0.089760 0.767994
0.818556 0.093711 0.771651
0.047641 0.179282 0.746713
0.068354 0.180734 0.747755
0.187759 0.188747 0.755421
0.307367 0.196762 0.763102
0.427161 0.204778 0.770797
0.547124 0.212795 0.778506
0.667240 0.220814 0.786229
0.787491 0.228832 0.793967
0.847125 0.232820 0.797673
0.074386 0.318335 0.772507
0.095172 0.319825 0.773602
0.214911 0.327880 0.781316
0.334813 0.335934 0.789045
0.454863 0.343985 0.796787
0.575044 0.352034 0.804543
0.695341 0.360080 0.812313
0.815740 0.368123 0.820097
0.875378 0.372130 0.823852
0.101238 0.457652 0.798462
0.122078 0.459160 0.799609
0.242079 0.467238 0.807370
0.362207 0.475310 0.815146
0.482447 0.483378 0.822934
0.602784 0.491440 0.830737
0.723205 0.499497 0.838552
0.843696 0.507547 0.846381
0.903316 0.511556 0.850181
0.128157 0.597139 0.824577
0.149034 0.598649 0.825773
0.269232 0.606732 0.833581
0.389524 0.614807 0.841401
0.509895 0.622875 0.849234
0.630334 0.630934 0.857080
0.750826 0.638986 0.864939
0.871362 0.647031 0.872809
0.930945 0.651030 0.876652
0.155108 0.736715 0.850846
0.176006 0.738214 0.852089
0.296343 0.746287 0.859940
0.416743 0.754350 0.867803
0.537195 0.762405 0.875678
0.657687 0.770450 0.883565
0.778208 0.778486 0.891463
0.898749 0.786513 0.899371
0.958283 0.790492 0.903251
0.182062 0.876310 0.877261
0.202968 0.877786 0.878548
0.323392 0.885838 0.886439
0.443853 0.893880 0.894341
0.564342 0.901911 0.902253
0.684849 0.909933 0.910176
0.805365 0.917945 0.918109
0.925885 0.925949 0.926049
0.985366 0.929905 0.929959
0.195413 0.945296 0.890221
0.216314 0.946737 0.891547
0.336780 0.954757 0.899474
0.457263 0.962768 0.907410
0.577755 0.970770 0.915355
0.698249 0.978763 0.923308
0.818741 0.986749 0.931267
0.939226 0.994729 0.939233
0.998664 0.998664 0.943164
0.017713 0.017900 0.774856
0.038256 0.019282 0.775767
0.156838 0.027208 0.783317
0.275706 0.035143 0.790883
0.394840 0.043084 0.798463
0.514220 0.051033 0.806059
0.633828 0.058988 0.813670
0.753644 0.066948 0.821297
0.813207 0.070892 0.824889
0.022370 0.041927 0.778000
0.042998 0.043322 0.778976
0.162036 0.051272 0.786584
0.281316 0.059227 0.794207
0.400819 0.067189 0.801845
0.520527 0.075155 0.809498
0.640423 0.083126 0.817166
0.760488 0.091101 0.824848
0.820092 0.095053 0.828499
0.048978 0.180637 0.803596
0.069698 0.182089 0.804629
0.189139 0.190102 0.812288
0.308779 0.198117 0.819961
0.428601 0.206133 0.827649
0.548588 0.214151 0.835352
0.668724 0.222169 0.843070
0.788991 0.230187 0.850803
0.848626 0.234174 0.854506
0.075732 0.319705 0.829363
0.096523 0.321193 0.830452
0.216290 0.329247 0.838160
0.336217 0.337300 0.845884
0.456288 0.345350 0.853622
0.576487 0.353398 0.861374
0.696799 0.361443 0.869141
0.817208 0.369485 0.876922
0.876845 0.373489 0.880675
0.102589 0.459029 0.855299
0.123433 0.460535 0.856442
0.243456 0.468611 0.864200
0.363602 0.476681 0.871972
0.483857 0.484747 0.879758
0.604206 0.492807 0.887559
0.724636 0.500861 0.895373
0.845133 0.508910 0.903200
0.904749 0.512916 0.907000
0.129510 0.598518 0.881402
0.150389 0.600025 0.882597
0.270603 0.608105 0.890402
0.390908 0.616177 0.898221
0.511289 0.624242 0.906053
0.631734 0.632299 0.913899
0.752231 0.640348 0.921758
0.872768 0.648390 0.929597
0.932347 0.652386 0.933428
0.156461 0.738091 0.907665
0.177359 0.739586 0.908908
0.297707 0.747655 0.916759
0.418115 0.755716 0.924619
0.538572 0.763767 0.932452
0.659066 0.771808 0.940315
0.779588 0.779841 0.948205
0.900128 0.787865 0.956117
0.959657 0.791842 0.960014
0.183412 0.877679 0.934018
0.204318 0.879151 0.935311
0.324747 0.887199 0.943185
0.445212 0.895237 0.951083
0.565702 0.903265 0.959002
0.686209 0.911283 0.966937
0.806724 0.919293 0.974886
0.927240 0.927293 0.982845
0.986716 0.931247 0.986773
0.196758 0.946653 0.946983
0.217659 0.948090 0.948325
0.338127 0.956107 0.956258
0.458610 0.964115 0.964205
0.579101 0.972114 0.972162
0.699594 0.980104 0.980126
0.820082 0.988088 0.988095
0.940564 0.996066 0.996067
1.000000 1.000000 1.000000
