library/cube/Raw_Truth_000.cube
# CINEGRADE LAB — Premium Cinematic LUT
# Title: Raw Truth
# Category: Moody Documentary
# Description: Desaturated, contrasty, journalistic style for documentary storytelling
# Mood: Raw, honest, gritty
# Variant: 1
# Generated: 2026-05-21T16:12:16.069756
TITLE "Raw Truth"
LUT_3D_SIZE 33
0.000000 0.000000 0.003600
0.000000 0.000000 0.003541
0.000000 0.000000 0.003482
0.000000 0.000000 0.003423
0.020443 0.001369 0.004755
0.049945 0.003344 0.006702
0.079469 0.005320 0.008649
0.109014 0.007296 0.010596
0.138580 0.009273 0.012544
0.168166 0.011250 0.014492
0.197771 0.013228 0.016440
0.227396 0.015207 0.018388
0.257041 0.017186 0.020336
0.286704 0.019166 0.022285
0.316386 0.021146 0.024234
0.346086 0.023127 0.026183
0.375805 0.025108 0.028132
0.405541 0.027090 0.030082
0.435294 0.029073 0.032032
0.465064 0.031056 0.033982
0.494851 0.033039 0.035932
0.524655 0.035023 0.037883
0.554474 0.037007 0.039834
0.584310 0.038992 0.041785
0.614161 0.040977 0.043737
0.644027 0.042963 0.045688
0.673908 0.044949 0.047640
0.703804 0.046936 0.049593
0.733714 0.048923 0.051545
0.763638 0.050910 0.053498
0.792783 0.052845 0.055398
0.792997 0.052851 0.055352
0.793208 0.052858 0.055306
0.000000 0.000000 0.003402
0.000000 0.000000 0.003345
0.000000 0.000000 0.003288
0.000000 0.000000 0.003231
0.020467 0.001370 0.004565
0.050005 0.003346 0.006513
0.079564 0.005322 0.008462
0.109142 0.007300 0.010410
0.138741 0.009278 0.012359
0.168359 0.011256 0.014308
0.197996 0.013235 0.016257
0.227652 0.015214 0.018207
0.257326 0.017195 0.020157
0.287019 0.019175 0.022107
0.316729 0.021156 0.024057
0.346458 0.023138 0.026008
0.376203 0.025120 0.027958
0.405966 0.027103 0.029909
0.435745 0.029086 0.031861
0.465540 0.031070 0.033812
0.495352 0.033054 0.035764
0.525179 0.035038 0.037716
0.555022 0.037023 0.039669
0.584880 0.039009 0.041621
0.614753 0.040995 0.043574
0.644640 0.042981 0.045527
0.674542 0.044968 0.047481
0.704457 0.046955 0.049435
0.734387 0.048942 0.051389
0.764329 0.050930 0.053343
0.793492 0.052866 0.055245
0.793697 0.052872 0.055200
0.793899 0.052878 0.055156
0.000000 0.000000 0.003211
0.000000 0.000000 0.003156
0.000000 0.000000 0.003101
0.000000 0.000000 0.003046
0.020491 0.001370 0.004381
0.050063 0.003347 0.006331
0.079655 0.005325 0.008280
0.109266 0.007303 0.010230
0.138896 0.009282 0.012181
0.168545 0.011261 0.014131
0.198212 0.013241 0.016082
0.227898 0.015222 0.018033
0.257601 0.017203 0.019984
0.287322 0.019184 0.021935
0.317060 0.021166 0.023887
0.346815 0.023148 0.025839
0.376587 0.025131 0.027791
0.406374 0.027115 0.029744
0.436178 0.029099 0.031696
0.465998 0.031083 0.033649
0.495833 0.033068 0.035603
0.525683 0.035053 0.037556
0.555548 0.037039 0.039510
0.585427 0.039025 0.041464
0.615321 0.041011 0.043418
0.645228 0.042998 0.045373
0.675149 0.044986 0.047328
0.705084 0.046973 0.049283
0.735031 0.048961 0.051239
0.764992 0.050950 0.053195
0.794170 0.052886 0.055097
0.794366 0.052892 0.055055
0.794560 0.052897 0.055013
0.000000 0.000000 0.003027
0.000000 0.000000 0.002973
0.000000 0.000000 0.002920
0.000000 0.000000 0.002867
0.020514 0.001371 0.004204
0.050119 0.003349 0.006155
0.079742 0.005328 0.008106
0.109385 0.007307 0.010057
0.139045 0.009286 0.012009
0.168724 0.011267 0.013961
0.198420 0.013247 0.015913
0.228134 0.015229 0.017865
0.257865 0.017210 0.019818
0.287613 0.019193 0.021770
0.317378 0.021175 0.023723
0.347158 0.023159 0.025677
0.376955 0.025142 0.027630
0.406767 0.027126 0.029584
0.436595 0.029111 0.031538
0.466437 0.031096 0.033493
0.496295 0.033081 0.035447
0.526167 0.035067 0.037402
0.556052 0.037054 0.039358
0.585952 0.039040 0.041313
0.615865 0.041027 0.043269
0.645792 0.043015 0.045225
0.675732 0.045003 0.047181
0.705684 0.046991 0.049138
0.735649 0.048980 0.051095
0.765625 0.050969 0.053052
0.794819 0.052905 0.054957
0.795007 0.052910 0.054916
0.795191 0.052916 0.054876
0.004566 0.023958 0.007519
0.004568 0.023961 0.007467
0.004569 0.023965 0.007416
0.004570 0.023968 0.007365
0.025109 0.025343 0.008703
0.054746 0.027325 0.010654
0.084402 0.029308 0.012606
0.114075 0.031291 0.014559
0.143767 0.033275 0.016511
0.173475 0.035259 0.018464
0.203201 0.037244 0.020417
0.232944 0.039229 0.022370
0.262703 0.041215 0.024324
0.292478 0.043201 0.026278
0.322269 0.045187 0.028232
0.352075 0.047174 0.030186
0.381897 0.049161 0.032141
0.411734 0.051149 0.034096
0.441585 0.053137 0.036051
0.471451 0.055126 0.038007
0.501331 0.057114 0.039962
0.531224 0.059104 0.041918
0.561131 0.061093 0.043875
0.591052 0.063083 0.045831
0.620985 0.065073 0.047788
0.650930 0.067064 0.049746
0.680889 0.069055 0.051703
0.710859 0.071046 0.053661
0.740841 0.073038 0.055619
0.770834 0.075030 0.057577
0.800043 0.076969 0.059483
0.800223 0.076977 0.059444
0.800401 0.076984 0.059405
0.011164 0.058540 0.014081
0.011167 0.058548 0.014031
0.011171 0.058556 0.013981
0.011174 0.058564 0.013931
0.031736 0.059945 0.015270
0.061405 0.061932 0.017222
0.091093 0.063920 0.019175
0.120797 0.065909 0.021128
0.150518 0.067898 0.023082
0.180257 0.069887 0.025035
0.210011 0.071877 0.026989
0.239781 0.073867 0.028943
0.269568 0.075857 0.030898
0.299369 0.077848 0.032853
0.329186 0.079839 0.034808
0.359018 0.081831 0.036763
0.388864 0.083823 0.038719
0.418725 0.085815 0.040674
0.448599 0.087807 0.042631
0.478487 0.089800 0.044587
0.508389 0.091793 0.046544
0.538304 0.093787 0.048501
0.568231 0.095780 0.050458
0.598171 0.097774 0.052416
0.628124 0.099769 0.054374
0.658088 0.101763 0.056332
0.688064 0.103758 0.058290
0.718052 0.105753 0.060249
0.748050 0.107749 0.062209
0.778060 0.109744 0.064168
0.807284 0.111687 0.066075
0.807457 0.111698 0.066037
0.807627 0.111708 0.066000
0.017775 0.093154 0.020646
0.017781 0.093167 0.020597
0.017786 0.093179 0.020548
0.017791 0.093191 0.020500
0.038375 0.094576 0.021839
0.068076 0.096569 0.023793
0.097793 0.098562 0.025747
0.127527 0.100555 0.027701
0.157277 0.102549 0.029655
0.187043 0.104543 0.031610
0.216825 0.106537 0.033564
0.246622 0.108532 0.035520
0.276435 0.110527 0.037475
0.306262 0.112522 0.039431
0.336103 0.114517 0.041387
0.365959 0.116513 0.043343
0.395828 0.118509 0.045299
0.425711 0.120506 0.047256
0.455608 0.122502 0.049213
0.485517 0.124499 0.051171
0.515440 0.126496 0.053129
0.545374 0.128493 0.055087
0.575321 0.130491 0.057045
0.605280 0.132489 0.059004
0.635250 0.134487 0.060963
0.665232 0.136485 0.062922
0.695225 0.138483 0.064881
0.725229 0.140482 0.066841
0.755243 0.142481 0.068802
0.785268 0.144480 0.070762
0.814506 0.146426 0.072670
0.814671 0.146439 0.072634
0.814835 0.146452 0.072598
0.024400 0.127798 0.027214
0.024407 0.127815 0.027166
0.024414 0.127831 0.027118
0.024421 0.127847 0.027072
0.045026 0.129236 0.028412
0.074756 0.131233 0.030367
0.104502 0.133231 0.032321
0.134265 0.135229 0.034276
0.164042 0.137227 0.036231
0.193835 0.139225 0.038187
0.223643 0.141224 0.040143
0.253466 0.143222 0.042099
0.283303 0.145221 0.044055
0.313154 0.147221 0.046012
0.343019 0.149220 0.047969
0.372897 0.151220 0.049926
0.402789 0.153220 0.051884
0.432693 0.155220 0.053841
0.462611 0.157220 0.055800
0.492540 0.159221 0.057758
0.522482 0.161221 0.059717
0.552436 0.163222 0.061676
0.582401 0.165223 0.063635
0.612377 0.167224 0.065595
0.642365 0.169226 0.067555
0.672363 0.171227 0.069515
0.702371 0.173229 0.071476
0.732390 0.175230 0.073437
0.762419 0.177232 0.075398
0.792457 0.179234 0.077360
0.821708 0.181183 0.079269
0.821867 0.181199 0.079234
0.822023 0.181214 0.079200
0.031036 0.162470 0.033784
0.031045 0.162490 0.033738
0.031053 0.162510 0.033692
0.031062 0.162529 0.033646
0.051688 0.163923 0.034988
0.081446 0.165924 0.036943
0.111220 0.167926 0.038899
0.141009 0.169928 0.040855
0.170813 0.171930 0.042811
0.200631 0.173932 0.044767
0.230464 0.175934 0.046724
0.260311 0.177937 0.048681
0.290172 0.179940 0.050639
0.320046 0.181943 0.052596
0.349933 0.183946 0.054554
0.379833 0.185949 0.056512
0.409745 0.187952 0.058471
0.439670 0.189956 0.060430
0.469607 0.191960 0.062389
0.499556 0.193963 0.064349
0.529516 0.195967 0.066308
0.559487 0.197971 0.068269
0.589469 0.199975 0.070229
0.619462 0.201980 0.072190
0.649466 0.203984 0.074151
0.679479 0.205988 0.076113
0.709502 0.207993 0.078074
0.739535 0.209997 0.080036
0.769578 0.212002 0.081999
0.799629 0.214006 0.083962
0.828891 0.215958 0.085872
0.829043 0.215976 0.085838
0.829193 0.215993 0.085806
0.037684 0.197168 0.040358
0.037694 0.197191 0.040313
0.037704 0.197214 0.040268
0.037714 0.197237 0.040224
0.058359 0.198634 0.041567
0.088145 0.200639 0.043523
0.117945 0.202645 0.045480
0.147760 0.204650 0.047437
0.177589 0.206656 0.049394
0.207431 0.208662 0.051351
0.237288 0.210668 0.053309
0.267158 0.212674 0.055267
0.297041 0.214680 0.057225
0.326936 0.216686 0.059184
0.356844 0.218693 0.061143
0.386765 0.220699 0.063102
0.416697 0.222706 0.065062
0.446641 0.224712 0.067022
0.476596 0.226719 0.068982
0.506563 0.228726 0.070943
0.536540 0.230733 0.072904
0.566528 0.232739 0.074865
0.596527 0.234746 0.076827
0.626535 0.236753 0.078789
0.656553 0.238760 0.080751
0.686581 0.240767 0.082713
0.716618 0.242774 0.084676
0.746664 0.244781 0.086640
0.776719 0.246788 0.088603
0.806782 0.248795 0.090567
0.836055 0.250749 0.092478
0.836200 0.250768 0.092447
0.836342 0.250787 0.092415
0.044342 0.231890 0.046935
0.044354 0.231916 0.046891
0.044365 0.231942 0.046848
0.044376 0.231968 0.046805
0.065040 0.233369 0.048149
0.094851 0.235377 0.050106
0.124677 0.237386 0.052064
0.154516 0.239395 0.054022
0.184368 0.241404 0.055980
0.214234 0.243413 0.057939
0.244113 0.245422 0.059897
0.274005 0.247431 0.061856
0.303909 0.249441 0.063816
0.333825 0.251450 0.065776
0.363753 0.253459 0.067736
0.393693 0.255469 0.069696
0.423644 0.257478 0.071657
0.453606 0.259487 0.073618
0.483579 0.261497 0.075579
0.513562 0.263506 0.077541
0.543556 0.265515 0.079503
0.573559 0.267525 0.081465
0.603572 0.269534 0.083428
0.633595 0.271543 0.085391
0.663627 0.273553 0.087354
0.693668 0.275562 0.089318
0.723718 0.277571 0.091282
0.753776 0.279580 0.093247
0.783842 0.281589 0.095211
0.813916 0.283598 0.097177
0.843199 0.285554 0.099089
0.843337 0.285575 0.099059
0.843473 0.285595 0.099029
0.051011 0.266635 0.053515
0.051023 0.266664 0.053472
0.051035 0.266693 0.053431
0.051048 0.266721 0.053390
0.071729 0.268125 0.054735
0.101565 0.270136 0.056693
0.131414 0.272148 0.058652
0.161277 0.274160 0.060611
0.191152 0.276172 0.062570
0.221040 0.278184 0.064529
0.250940 0.280196 0.066489
0.280853 0.282208 0.068449
0.310777 0.284220 0.070410
0.340712 0.286232 0.072371
0.370659 0.288244 0.074332
0.400617 0.290256 0.076293
0.430585 0.292268 0.078255
0.460564 0.294279 0.080217
0.490553 0.296291 0.082180
0.520552 0.298303 0.084143
0.550561 0.300314 0.086106
0.580579 0.302326 0.088069
0.610606 0.304337 0.090033
0.640642 0.306349 0.091997
0.670687 0.308360 0.093962
0.700740 0.310371 0.095927
0.730801 0.312382 0.097892
0.760871 0.314393 0.099858
0.790947 0.316404 0.101824
0.821032 0.318415 0.103790
0.850324 0.320372 0.105703
0.850455 0.320394 0.105675
0.850583 0.320416 0.105646
0.057688 0.301402 0.060098
0.057702 0.301433 0.060057
0.057715 0.301464 0.060017
0.057728 0.301494 0.059978
0.078427 0.302900 0.061324
0.108286 0.304915 0.063283
0.138158 0.306930 0.065243
0.168042 0.308944 0.067203
0.197939 0.310959 0.069163
0.227848 0.312973 0.071124
0.257768 0.314988 0.073085
0.287700 0.317002 0.075046
0.317643 0.319017 0.077008
0.347596 0.321031 0.078970
0.377561 0.323045 0.080932
0.407536 0.325059 0.082894
0.437521 0.327073 0.084857
0.467515 0.329087 0.086821
0.497520 0.331101 0.088784
0.527533 0.333114 0.090748
0.557556 0.335128 0.092713
0.587588 0.337141 0.094677
0.617628 0.339154 0.096642
0.647676 0.341168 0.098608
0.677733 0.343181 0.100573
0.707797 0.345193 0.102539
0.737869 0.347206 0.104506
0.767948 0.349219 0.106473
0.798035 0.351231 0.108440
0.828128 0.353243 0.110407
0.857428 0.355202 0.112322
0.857552 0.355225 0.112295
0.857674 0.355247 0.112268
0.064374 0.336187 0.066685
0.064388 0.336221 0.066646
0.064402 0.336254 0.066607
0.064416 0.336286 0.066569
0.085131 0.337694 0.067916
0.115012 0.339712 0.069877
0.144906 0.341729 0.071838
0.174811 0.343746 0.073799
0.204728 0.345762 0.075760
0.234656 0.347779 0.077722
0.264596 0.349796 0.079684
0.294546 0.351812 0.081646
0.324507 0.353829 0.083609
0.354478 0.355845 0.085572
0.384459 0.357861 0.087535
0.414449 0.359877 0.089499
0.444450 0.361893 0.091463
0.474459 0.363909 0.093428
0.504478 0.365924 0.095393
0.534505 0.367939 0.097358
0.564541 0.369954 0.099323
0.594585 0.371969 0.101289
0.624637 0.373984 0.103255
0.654697 0.375999 0.105222
0.684764 0.378013 0.107189
0.714839 0.380027 0.109156
0.744920 0.382042 0.111124
0.775009 0.384055 0.113092
0.805104 0.386069 0.115060
0.835205 0.388082 0.117029
0.864513 0.390042 0.118945
0.864630 0.390066 0.118919
0.864745 0.390089 0.118894
0.071067 0.370991 0.073276
0.071083 0.371026 0.073238
0.071098 0.371061 0.073201
0.071112 0.371095 0.073164
0.091842 0.372505 0.074513
0.121744 0.374524 0.076474
0.151658 0.376544 0.078436
0.181583 0.378563 0.080398
0.211519 0.380581 0.082361
0.241466 0.382600 0.084324
0.271423 0.384619 0.086287
0.301391 0.386637 0.088250
0.331368 0.388655 0.090214
0.361355 0.390673 0.092179
0.391352 0.392691 0.094143
0.421358 0.394708 0.096108
0.451372 0.396726 0.098073
0.481395 0.398743 0.100039
0.511427 0.400760 0.102005
0.541467 0.402776 0.103971
0.571515 0.404793 0.105938
0.601571 0.406809 0.107905
0.631634 0.408825 0.109872
0.661704 0.410841 0.111840
0.691781 0.412857 0.113808
0.721865 0.414872 0.115777
0.751955 0.416887 0.117746
0.782052 0.418902 0.119715
0.812155 0.420916 0.121684
0.842264 0.422931 0.123654
0.871578 0.424892 0.125572
0.871688 0.424915 0.125547
0.871796 0.424939 0.125523
0.077768 0.405811 0.079870
0.077784 0.405848 0.079834
0.077800 0.405884 0.079798
0.077815 0.405919 0.079763
0.098559 0.407331 0.081113
0.128481 0.409352 0.083075
0.158414 0.411373 0.085038
0.188358 0.413394 0.087002
0.218312 0.415414 0.088965
0.248276 0.417435 0.090929
0.278250 0.419455 0.092894
0.308234 0.421475 0.094858
0.338227 0.423494 0.096823
0.368229 0.425514 0.098789
0.398240 0.427533 0.100755
0.428259 0.429551 0.102721
0.458287 0.431570 0.104687
0.488323 0.433588 0.106654
0.518367 0.435606 0.108621
0.548419 0.437624 0.110589
0.578478 0.439642 0.112557
0.608544 0.441659 0.114525
0.638617 0.443676 0.116494
0.668697 0.445693 0.118463
0.698783 0.447709 0.120432
0.728875 0.449725 0.122402
0.758974 0.451741 0.124372
0.789078 0.453757 0.126342
0.819188 0.455772 0.128313
0.849303 0.457787 0.130284
0.878622 0.459748 0.132203
0.878726 0.459772 0.132180
0.878827 0.459796 0.132157
0.084475 0.440646 0.086468
0.084492 0.440684 0.086434
0.084508 0.440721 0.086399
0.084523 0.440757 0.086365
0.105281 0.442171 0.087717
0.135222 0.444194 0.089680
0.165173 0.446216 0.091644
0.195134 0.448238 0.093609
0.225105 0.450260 0.095574
0.255086 0.452281 0.097539
0.285075 0.454303 0.099504
0.315074 0.456324 0.101470
0.345082 0.458345 0.103437
0.375098 0.460365 0.105403
0.405122 0.462385 0.107370
0.435155 0.464405 0.109337
0.465195 0.466425 0.111305
0.495243 0.468444 0.113273
0.525298 0.470463 0.115242
0.555360 0.472481 0.117210
0.585429 0.474500 0.119179
0.615505 0.476518 0.121149
0.645587 0.478535 0.123119
0.675676 0.480553 0.125089
0.705770 0.482570 0.127060
0.735870 0.484586 0.129031
0.765975 0.486603 0.131002
0.796086 0.488619 0.132974
0.826202 0.490634 0.134946
0.856322 0.492650 0.136918
0.885647 0.494612 0.138838
0.885744 0.494636 0.138816
0.885838 0.494659 0.138795
0.091188 0.475495 0.093070
0.091205 0.475533 0.093037
0.091221 0.475571 0.093004
0.091237 0.475608 0.092972
0.112008 0.477023 0.094324
0.141966 0.479047 0.096289
0.171934 0.481070 0.098255
0.201912 0.483094 0.100220
0.231899 0.485117 0.102186
0.261895 0.487139 0.104153
0.291899 0.489161 0.106119
0.321912 0.491183 0.108086
0.351933 0.493205 0.110054
0.381962 0.495226 0.112022
0.411999 0.497247 0.113990
0.442043 0.499268 0.115958
0.472095 0.501288 0.117927
0.502154 0.503308 0.119896
0.532219 0.505327 0.121866
0.562291 0.507347 0.123836
0.592369 0.509365 0.125806
0.622454 0.511384 0.127777
0.652544 0.513402 0.129748
0.682640 0.515420 0.131720
0.712742 0.517437 0.133691
0.742848 0.519454 0.135664
0.772960 0.521471 0.137636
0.803077 0.523487 0.139609
0.833198 0.525503 0.141582
0.863323 0.527518 0.143556
0.892652 0.529480 0.145477
0.892742 0.529504 0.145457
0.892830 0.529527 0.145437
0.097907 0.510355 0.099676
0.097923 0.510394 0.099644
0.097940 0.510433 0.099613
0.097956 0.510470 0.099582
0.118738 0.511886 0.100936
0.148713 0.513911 0.102902
0.178698 0.515935 0.104869
0.208691 0.517959 0.106835
0.238692 0.519983 0.108803
0.268702 0.522006 0.110770
0.298720 0.524029 0.112738
0.328746 0.526052 0.114706
0.358780 0.528074 0.116675
0.388821 0.530096 0.118644
0.418870 0.532117 0.120613
0.448925 0.534138 0.122583
0.478987 0.536159 0.124553
0.509055 0.538179 0.126524
0.539130 0.540199 0.128495
0.569211 0.542219 0.130466
0.599298 0.544238 0.132437
0.629390 0.546256 0.134409
0.659488 0.548275 0.136382
0.689591 0.550293 0.138354
0.719698 0.552310 0.140328
0.749811 0.554327 0.142301
0.779928 0.556344 0.144275
0.810049 0.558360 0.146249
0.840175 0.560376 0.148224
0.870305 0.562391 0.150198
0.899636 0.564353 0.152121
0.899720 0.564376 0.152102
0.899802 0.564399 0.152084
0.104629 0.545226 0.106286
0.104646 0.545266 0.106256
0.104663 0.545304 0.106226
0.104679 0.545342 0.106197
0.125473 0.546758 0.107552
0.155463 0.548784 0.109519
0.185462 0.550809 0.111487
0.215470 0.552833 0.113455
0.245485 0.554858 0.115423
0.275508 0.556881 0.117392
0.305539 0.558905 0.119361
0.335577 0.560928 0.121331
0.365622 0.562950 0.123300
0.395675 0.564973 0.125271
0.425734 0.566994 0.127241
0.455799 0.569016 0.129212
0.485870 0.571036 0.131184
0.515948 0.573057 0.133155
0.546031 0.575077 0.135127
0.576120 0.577096 0.137100
0.606214 0.579116 0.139073
0.636313 0.581134 0.141046
0.666418 0.583152 0.143020
0.696526 0.585170 0.144993
0.726640 0.587187 0.146968
0.756757 0.589204 0.148943
0.786879 0.591221 0.150918
0.817005 0.593237 0.152893
0.847134 0.595252 0.154869
0.877267 0.597267 0.156845
0.906602 0.599229 0.158768
0.906679 0.599251 0.158751
0.906754 0.599273 0.158734
0.111356 0.580107 0.112900
0.111373 0.580146 0.112871
0.111390 0.580185 0.112843
0.111406 0.580223 0.112815
0.132210 0.581639 0.114171
0.162215 0.583665 0.116140
0.192228 0.585690 0.118109
0.222248 0.587715 0.120078
0.252277 0.589740 0.122048
0.282312 0.591764 0.124018
0.312355 0.593787 0.125988
0.342404 0.595810 0.127959
0.372460 0.597833 0.129930
0.402522 0.599855 0.131901
0.432591 0.601877 0.133873
0.462665 0.603898 0.135846
0.492745 0.605919 0.137818
0.522831 0.607939 0.139791
0.552922 0.609959 0.141764
0.583018 0.611979 0.143738
0.613118 0.613997 0.145712
0.643224 0.616016 0.147687
0.673334 0.618034 0.149662
0.703448 0.620051 0.151637
0.733566 0.622068 0.153612
0.763688 0.624085 0.155588
0.793814 0.626101 0.157565
0.823943 0.628116 0.159541
0.854075 0.630131 0.161518
0.884211 0.632146 0.163496
0.913547 0.634107 0.165420
0.913618 0.634129 0.165405
0.913687 0.634150 0.165389
0.118086 0.614995 0.119518
0.118103 0.615034 0.119491
0.118120 0.615072 0.119464
0.118136 0.615110 0.119438
0.138949 0.616526 0.120795
0.168968 0.618552 0.122765
0.198994 0.620578 0.124735
0.229027 0.622603 0.126706
0.259067 0.624628 0.128676
0.289113 0.626652 0.130648
0.319167 0.628675 0.132619
0.349226 0.630698 0.134591
0.379292 0.632721 0.136564
0.409363 0.634743 0.138536
0.439441 0.636764 0.140509
0.469523 0.638785 0.142483
0.499611 0.640806 0.144457
0.529704 0.642826 0.146431
0.559802 0.644845 0.148406
0.589904 0.646864 0.150381
0.620010 0.648883 0.152356
0.650121 0.650900 0.154332
0.680236 0.652918 0.156308
0.710355 0.654935 0.158284
0.740477 0.656951 0.160261
0.770602 0.658967 0.162238
0.800731 0.660983 0.164216
0.830863 0.662997 0.166194
0.860998 0.665012 0.168172
0.891135 0.667026 0.170151
0.920473 0.668986 0.172076
0.920538 0.669007 0.172062
0.920601 0.669027 0.172048
0.124819 0.649889 0.126140
0.124836 0.649928 0.126115
0.124853 0.649966 0.126089
0.124869 0.650004 0.126064
0.145691 0.651420 0.127423
0.175722 0.653446 0.129394
0.205759 0.655471 0.131365
0.235804 0.657496 0.133337
0.265855 0.659520 0.135309
0.295912 0.661544 0.137282
0.325975 0.663567 0.139255
0.356044 0.665590 0.141228
0.386118 0.667612 0.143202
0.416198 0.669634 0.145175
0.446283 0.671655 0.147150
0.476373 0.673675 0.149125
0.506468 0.675695 0.151100
0.536567 0.677715 0.153075
0.566671 0.679734 0.155051
0.596779 0.681752 0.157027
0.626890 0.683770 0.159004
0.657006 0.685787 0.160981
0.687125 0.687804 0.162958
0.717247 0.689820 0.164936
0.747373 0.691836 0.166914
0.777501 0.693851 0.168892
0.807632 0.695865 0.170871
0.837766 0.697879 0.172850
0.867903 0.699893 0.174830
0.898041 0.701906 0.176810
0.927380 0.703865 0.178737
0.927439 0.703885 0.178724
0.927495 0.703904 0.178711
0.131555 0.684790 0.132767
0.131571 0.684828 0.132742
0.131587 0.684865 0.132718
0.131603 0.684902 0.132695
0.152434 0.686318 0.134055
0.182476 0.688343 0.136027
0.212525 0.690368 0.138000
0.242579 0.692393 0.139973
0.272640 0.694416 0.141946
0.302707 0.696440 0.143920
0.332779 0.698462 0.145894
0.362856 0.700484 0.147869
0.392939 0.702506 0.149844
0.423026 0.704527 0.151819
0.453118 0.706547 0.153794
0.483215 0.708567 0.155770
0.513315 0.710587 0.157747
0.543420 0.712605 0.159723
0.573529 0.714623 0.161701
0.603642 0.716641 0.163678
0.633758 0.718658 0.165656
0.663877 0.720674 0.167634
0.693999 0.722690 0.169613
0.724125 0.724706 0.171592
0.754253 0.726720 0.173571
0.784384 0.728734 0.175550
0.814517 0.730748 0.177530
0.844652 0.732761 0.179511
0.874790 0.734774 0.181492
0.904929 0.736785 0.183473
0.934268 0.738744 0.185401
0.934321 0.738762 0.185389
0.934372 0.738780 0.185378
0.138292 0.719694 0.139397
0.138308 0.719731 0.139374
0.138324 0.719768 0.139352
0.138339 0.719804 0.139330
0.159177 0.721219 0.140691
0.189230 0.723244 0.142665
0.219289 0.725268 0.144639
0.249353 0.727292 0.146613
0.279423 0.729315 0.148588
0.309498 0.731338 0.150563
0.339578 0.733360 0.152538
0.369663 0.735381 0.154514
0.399753 0.737402 0.156490
0.429847 0.739422 0.158466
0.459945 0.741442 0.160443
0.490047 0.743461 0.162420
0.520154 0.745479 0.164398
0.550263 0.747497 0.166376
0.580377 0.749514 0.168354
0.610493 0.751530 0.170333
0.640613 0.753546 0.172312
0.670735 0.755562 0.174291
0.700861 0.757577 0.176271
0.730988 0.759591 0.178251
0.761119 0.761604 0.180232
0.791251 0.763617 0.182213
0.821385 0.765630 0.184194
0.851522 0.767642 0.186176
0.881660 0.769653 0.188158
0.911799 0.771664 0.190140
0.941138 0.773621 0.192069
0.941185 0.773638 0.192059
0.941230 0.773655 0.192049
0.145031 0.754602 0.146032
0.145046 0.754638 0.146011
0.145062 0.754673 0.145990
0.145077 0.754708 0.145969
0.165921 0.756123 0.147332
0.195984 0.758147 0.149307
0.226052 0.760170 0.151282
0.256125 0.762193 0.153257
0.286203 0.764215 0.155233
0.316285 0.766237 0.157209
0.346373 0.768258 0.159186
0.376465 0.770279 0.161163
0.406561 0.772298 0.163140
0.436660 0.774317 0.165118
0.466764 0.776336 0.167096
0.496871 0.778354 0.169075
0.526982 0.780371 0.171053
0.557096 0.782388 0.173033
0.587213 0.784404 0.175012
0.617333 0.786419 0.176992
0.647455 0.788434 0.178972
0.677581 0.790448 0.180953
0.707708 0.792462 0.182934
0.737838 0.794475 0.184915
0.767969 0.796487 0.186897
0.798103 0.798499 0.188879
0.828238 0.800510 0.190862
0.858374 0.802521 0.192844
0.888512 0.804531 0.194828
0.918652 0.806540 0.196811
0.947989 0.808496 0.198742
0.948031 0.808512 0.198732
0.948070 0.808527 0.198724
0.151770 0.789511 0.152671
0.151785 0.789546 0.152651
0.151800 0.789581 0.152632
0.151815 0.789614 0.152613
0.172665 0.791027 0.153977
0.202737 0.793051 0.155953
0.232813 0.795073 0.157929
0.262894 0.797095 0.159906
0.292979 0.799116 0.161883
0.323069 0.801137 0.163860
0.353162 0.803157 0.165838
0.383260 0.805176 0.167816
0.413362 0.807195 0.169795
0.443467 0.809213 0.171774
0.473575 0.811230 0.173753
0.503687 0.813247 0.175733
0.533801 0.815263 0.177713
0.563919 0.817278 0.179693
0.594039 0.819293 0.181674
0.624161 0.821307 0.183655
