library/cube/Retail_Glow_003.cube
# CINEGRADE LAB — Premium Cinematic LUT
# Title: Retail Glow
# Category: Commercial Luxury
# Description: Polished, professional, product-ready aesthetic for commercial work
# Mood: Clean, premium, sharp
# Variant: 4
# Generated: 2026-05-21T16:12:42.103034
TITLE "Retail Glow"
LUT_3D_SIZE 33
0.005000 0.002000 0.000000
0.005000 0.002000 0.000000
0.007254 0.002036 0.000036
0.041442 0.002587 0.000584
0.075630 0.003138 0.001132
0.109818 0.003688 0.001680
0.144006 0.004239 0.002228
0.178194 0.004790 0.002776
0.212382 0.005340 0.003324
0.246570 0.005891 0.003871
0.280758 0.006441 0.004419
0.314946 0.006992 0.004967
0.349134 0.007543 0.005515
0.383322 0.008093 0.006063
0.417510 0.008644 0.006611
0.451698 0.009195 0.007159
0.485886 0.009745 0.007707
0.520074 0.010296 0.008255
0.554262 0.010847 0.008803
0.588450 0.011397 0.009350
0.622638 0.011948 0.009898
0.656826 0.012498 0.010446
0.691014 0.013049 0.010994
0.725202 0.013600 0.011542
0.759390 0.014150 0.012090
0.793578 0.014701 0.012638
0.827766 0.015252 0.013186
0.861954 0.015802 0.013734
0.896142 0.016353 0.014282
0.930330 0.016904 0.014829
0.964518 0.017454 0.015377
0.966772 0.017491 0.015413
0.966772 0.017491 0.015413
0.005000 0.002000 0.000000
0.005000 0.002000 0.000000
0.017181 0.007113 0.000450
0.052053 0.007675 0.001009
0.086925 0.008236 0.001568
0.121797 0.008798 0.002127
0.144006 0.004239 0.002228
0.178194 0.004790 0.002776
0.212382 0.005340 0.003324
0.246570 0.005891 0.003871
0.280758 0.006441 0.004419
0.314946 0.006992 0.004967
0.349134 0.007543 0.005515
0.383322 0.008093 0.006063
0.417510 0.008644 0.006611
0.451698 0.009195 0.007159
0.485886 0.009745 0.007707
0.520074 0.010296 0.008255
0.554262 0.010847 0.008803
0.588450 0.011397 0.009350
0.622638 0.011948 0.009898
0.656826 0.012498 0.010446
0.691014 0.013049 0.010994
0.725202 0.013600 0.011542
0.759390 0.014150 0.012090
0.793578 0.014701 0.012638
0.827766 0.015252 0.013186
0.861954 0.015802 0.013734
0.896142 0.016353 0.014282
0.930330 0.016904 0.014829
0.964518 0.017454 0.015377
0.966772 0.017491 0.015413
0.966772 0.017491 0.015413
0.005587 0.012919 0.000575
0.005587 0.012919 0.000575
0.007841 0.012955 0.000611
0.052646 0.018703 0.001590
0.087517 0.019265 0.002149
0.122389 0.019826 0.002708
0.157261 0.020388 0.003267
0.192133 0.020950 0.003826
0.227004 0.021511 0.004384
0.261876 0.022073 0.004943
0.296748 0.022635 0.005502
0.331620 0.023196 0.006061
0.349721 0.018462 0.006090
0.383909 0.019012 0.006638
0.418097 0.019563 0.007186
0.452285 0.020114 0.007734
0.486473 0.020664 0.008282
0.520661 0.021215 0.008830
0.554849 0.021766 0.009378
0.589037 0.022316 0.009926
0.623225 0.022867 0.010474
0.657413 0.023417 0.011021
0.691601 0.023968 0.011569
0.725788 0.024519 0.012117
0.759976 0.025069 0.012665
0.794164 0.025620 0.013213
0.828352 0.026171 0.013761
0.862540 0.026721 0.014309
0.896728 0.027272 0.014857
0.930916 0.027823 0.015405
0.965104 0.028373 0.015953
0.967359 0.028410 0.015989
0.967359 0.028410 0.015989
0.007434 0.047291 0.002386
0.007434 0.047291 0.002386
0.009688 0.047327 0.002422
0.043876 0.047878 0.002970
0.078064 0.048428 0.003518
0.124255 0.054542 0.004537
0.159126 0.055104 0.005096
0.193998 0.055665 0.005654
0.228870 0.056227 0.006213
0.263742 0.056788 0.006772
0.298613 0.057350 0.007331
0.333485 0.057912 0.007890
0.368357 0.058473 0.008449
0.403229 0.059035 0.009008
0.438100 0.059597 0.009566
0.472972 0.060158 0.010125
0.507844 0.060720 0.010684
0.522508 0.055587 0.010641
0.556696 0.056137 0.011189
0.590884 0.056688 0.011736
0.625072 0.057239 0.012284
0.659260 0.057789 0.012832
0.693447 0.058340 0.013380
0.727635 0.058891 0.013928
0.761823 0.059441 0.014476
0.796011 0.059992 0.015024
0.830199 0.060543 0.015572
0.864387 0.061093 0.016120
0.898575 0.061644 0.016668
0.932763 0.062194 0.017215
0.966951 0.062745 0.017763
0.969205 0.062781 0.017800
0.969205 0.062781 0.017800
0.009281 0.081663 0.004197
0.009281 0.081663 0.004197
0.011535 0.081699 0.004233
0.045723 0.082250 0.004781
0.079911 0.082800 0.005329
0.114099 0.083351 0.005877
0.160992 0.089819 0.006924
0.195864 0.090381 0.007483
0.230735 0.090942 0.008042
0.265607 0.091504 0.008601
0.300479 0.092066 0.009160
0.335351 0.092627 0.009719
0.370222 0.093189 0.010278
0.405094 0.093751 0.010836
0.439966 0.094312 0.011395
0.474838 0.094874 0.011954
0.509709 0.095436 0.012513
0.544581 0.095997 0.013072
0.579453 0.096559 0.013631
0.614325 0.097121 0.014190
0.649196 0.097682 0.014748
0.684068 0.098244 0.015307
0.718940 0.098806 0.015866
0.729482 0.093262 0.015739
0.763670 0.093813 0.016287
0.797858 0.094364 0.016835
0.832046 0.094914 0.017383
0.866234 0.095465 0.017930
0.900422 0.096016 0.018478
0.934610 0.096566 0.019026
0.968798 0.097117 0.019574
0.971052 0.097153 0.019610
0.971052 0.097153 0.019610
0.011128 0.116034 0.006008
0.011128 0.116034 0.006008
0.013382 0.116071 0.006044
0.047570 0.116621 0.006592
0.081758 0.117172 0.007139
0.115946 0.117723 0.007687
0.150134 0.118273 0.008235
0.197729 0.125096 0.009312
0.232601 0.125658 0.009871
0.267473 0.126220 0.010430
0.302344 0.126781 0.010989
0.337216 0.127343 0.011548
0.372088 0.127905 0.012106
0.406960 0.128466 0.012665
0.441831 0.129028 0.013224
0.476703 0.129589 0.013783
0.511575 0.130151 0.014342
0.546446 0.130713 0.014901
0.581318 0.131274 0.015460
0.616190 0.131836 0.016018
0.651062 0.132398 0.016577
0.685933 0.132959 0.017136
0.720805 0.133521 0.017695
0.755677 0.134083 0.018254
0.790549 0.134644 0.018813
0.825420 0.135206 0.019372
0.860292 0.135768 0.019930
0.895164 0.136329 0.020489
0.902269 0.130387 0.020289
0.936457 0.130938 0.020837
0.970645 0.131489 0.021385
0.972899 0.131525 0.021421
0.972899 0.131525 0.021421
0.012975 0.150406 0.007818
0.012975 0.150406 0.007818
0.015229 0.150443 0.007854
0.049417 0.150993 0.008402
0.083605 0.151544 0.008950
0.117793 0.152094 0.009498
0.151981 0.152645 0.010046
0.186169 0.153196 0.010594
0.220357 0.153746 0.011142
0.269338 0.160935 0.012259
0.304210 0.161497 0.012818
0.339081 0.162058 0.013376
0.373953 0.162620 0.013935
0.408825 0.163182 0.014494
0.443697 0.163743 0.015053
0.478568 0.164305 0.015612
0.513440 0.164867 0.016171
0.548312 0.165428 0.016730
0.583184 0.165990 0.017288
0.618055 0.166552 0.017847
0.652927 0.167113 0.018406
0.687799 0.167675 0.018965
0.722671 0.168237 0.019524
0.757542 0.168798 0.020083
0.792414 0.169360 0.020642
0.827286 0.169922 0.021201
0.862158 0.170483 0.021759
0.897029 0.171045 0.022318
0.931901 0.171607 0.022877
0.966773 0.172168 0.023436
0.975091 0.172302 0.023569
0.975091 0.172302 0.023569
0.975091 0.172302 0.023569
0.014822 0.184778 0.009629
0.014822 0.184778 0.009629
0.017076 0.184814 0.009665
0.051264 0.185365 0.010213
0.085452 0.185916 0.010761
0.119640 0.186466 0.011309
0.153828 0.187017 0.011857
0.188016 0.187568 0.012405
0.222204 0.188118 0.012953
0.256392 0.188669 0.013501
0.306075 0.196212 0.014646
0.340947 0.196774 0.015205
0.375819 0.197336 0.015764
0.410690 0.197897 0.016323
0.445562 0.198459 0.016882
0.480434 0.199021 0.017441
0.515306 0.199582 0.018000
0.550177 0.200144 0.018559
0.585049 0.200705 0.019117
0.619921 0.201267 0.019676
0.654793 0.201829 0.020235
0.689664 0.202390 0.020794
0.724536 0.202952 0.021353
0.759408 0.203514 0.021912
0.794280 0.204075 0.022471
0.829151 0.204637 0.023029
0.864023 0.205199 0.023588
0.898895 0.205760 0.024147
0.933767 0.206322 0.024706
0.968638 0.206884 0.025265
0.976956 0.207018 0.025398
0.976956 0.207018 0.025398
0.976956 0.207018 0.025398
0.016669 0.219150 0.011440
0.016669 0.219150 0.011440
0.018923 0.219186 0.011476
0.053111 0.219737 0.012024
0.087299 0.220287 0.012572
0.121487 0.220838 0.013120
0.155675 0.221389 0.013668
0.189863 0.221939 0.014215
0.224051 0.222490 0.014763
0.258239 0.223041 0.015311
0.292427 0.223591 0.015859
0.326615 0.224142 0.016407
0.377684 0.232051 0.017593
0.412556 0.232613 0.018152
0.447428 0.233174 0.018711
0.482299 0.233736 0.019270
0.517171 0.234298 0.019829
0.552043 0.234859 0.020387
0.586915 0.235421 0.020946
0.621786 0.235983 0.021505
0.656658 0.236544 0.022064
0.691530 0.237106 0.022623
0.726402 0.237668 0.023182
0.761273 0.238229 0.023741
0.796145 0.238791 0.024299
0.831017 0.239353 0.024858
0.865889 0.239914 0.025417
0.900760 0.240476 0.025976
0.935632 0.241038 0.026535
0.970504 0.241599 0.027094
0.978822 0.241733 0.027227
0.978822 0.241733 0.027227
0.978822 0.241733 0.027227
0.018516 0.253522 0.013251
0.018516 0.253522 0.013251
0.020770 0.253558 0.013287
0.054958 0.254109 0.013835
0.089146 0.254659 0.014383
0.123334 0.255210 0.014930
0.157522 0.255761 0.015478
0.191710 0.256311 0.016026
0.225898 0.256862 0.016574
0.260086 0.257412 0.017122
0.294274 0.257963 0.017670
0.328462 0.258514 0.018218
0.362650 0.259064 0.018766
0.414421 0.267328 0.019981
0.449293 0.267890 0.020540
0.484165 0.268452 0.021099
0.519037 0.269013 0.021657
0.553908 0.269575 0.022216
0.588780 0.270137 0.022775
0.623652 0.270698 0.023334
0.658524 0.271260 0.023893
0.693395 0.271822 0.024452
0.728267 0.272383 0.025011
0.763139 0.272945 0.025569
0.798010 0.273506 0.026128
0.832882 0.274068 0.026687
0.867754 0.274630 0.027246
0.902626 0.275191 0.027805
0.937497 0.275753 0.028364
0.972369 0.276315 0.028923
0.980687 0.276449 0.029056
0.980687 0.276449 0.029056
0.980687 0.276449 0.029056
0.020363 0.287894 0.015061
0.020363 0.287894 0.015061
0.022617 0.287930 0.015098
0.056805 0.288480 0.015645
0.090993 0.289031 0.016193
0.125181 0.289582 0.016741
0.159369 0.290132 0.017289
0.193557 0.290683 0.017837
0.227745 0.291234 0.018385
0.261933 0.291784 0.018933
0.296121 0.292335 0.019481
0.330309 0.292886 0.020029
0.364497 0.293436 0.020577
0.398685 0.293987 0.021124
0.451159 0.302605 0.022369
0.486030 0.303167 0.022927
0.520902 0.303729 0.023486
0.555774 0.304290 0.024045
0.590645 0.304852 0.024604
0.625517 0.305414 0.025163
0.660389 0.305975 0.025722
0.695261 0.306537 0.026281
0.730132 0.307099 0.026839
0.765004 0.307660 0.027398
0.799876 0.308222 0.027957
0.834748 0.308784 0.028516
0.869619 0.309345 0.029075
0.904491 0.309907 0.029634
0.939363 0.310469 0.030193
0.974235 0.311030 0.030751
0.982552 0.311164 0.030885
0.982552 0.311164 0.030885
0.982552 0.311164 0.030885
0.022210 0.322265 0.016872
0.022210 0.322265 0.016872
0.024464 0.322302 0.016908
0.058652 0.322852 0.017456
0.092840 0.323403 0.018004
0.127028 0.323954 0.018552
0.161216 0.324504 0.019100
0.195404 0.325055 0.019648
0.229592 0.325605 0.020196
0.263780 0.326156 0.020744
0.297968 0.326707 0.021291
0.332156 0.327257 0.021839
0.366344 0.327808 0.022387
0.400532 0.328359 0.022935
0.434720 0.328909 0.023483
0.468908 0.329460 0.024031
0.522767 0.338444 0.025315
0.557639 0.339006 0.025874
0.592511 0.339568 0.026433
0.627383 0.340129 0.026992
0.662254 0.340691 0.027551
0.697126 0.341253 0.028109
0.731998 0.341814 0.028668
0.766870 0.342376 0.029227
0.801741 0.342938 0.029786
0.836613 0.343499 0.030345
0.871485 0.344061 0.030904
0.906357 0.344623 0.031463
0.941228 0.345184 0.032021
0.976100 0.345746 0.032580
0.984418 0.345880 0.032714
0.984418 0.345880 0.032714
0.984418 0.345880 0.032714
0.024057 0.356637 0.018683
0.024057 0.356637 0.018683
0.026311 0.356673 0.018719
0.060499 0.357224 0.019267
0.094687 0.357775 0.019815
0.128875 0.358325 0.020363
0.163063 0.358876 0.020911
0.197251 0.359427 0.021459
0.231439 0.359977 0.022006
0.265627 0.360528 0.022554
0.299815 0.361079 0.023102
0.334003 0.361629 0.023650
0.368191 0.362180 0.024198
0.402379 0.362730 0.024746
0.436567 0.363281 0.025294
0.470754 0.363832 0.025842
0.504942 0.364382 0.026390
0.559505 0.373721 0.027703
0.594376 0.374283 0.028262
0.629248 0.374845 0.028821
0.664120 0.375406 0.029379
0.698992 0.375968 0.029938
0.733863 0.376530 0.030497
0.768735 0.377091 0.031056
0.803607 0.377653 0.031615
0.838479 0.378215 0.032174
0.873350 0.378776 0.032733
0.908222 0.379338 0.033291
0.943094 0.379900 0.033850
0.977966 0.380461 0.034409
0.986283 0.380595 0.034543
0.986283 0.380595 0.034543
0.986283 0.380595 0.034543
0.025904 0.391009 0.020494
0.025904 0.391009 0.020494
0.028158 0.391045 0.020530
0.062346 0.391596 0.021078
0.096534 0.392147 0.021626
0.130722 0.392697 0.022174
0.164910 0.393248 0.022721
0.199098 0.393798 0.023269
0.233286 0.394349 0.023817
0.267474 0.394900 0.024365
0.301662 0.395450 0.024913
0.335850 0.396001 0.025461
0.370038 0.396552 0.026009
0.404226 0.397102 0.026557
0.438413 0.397653 0.027105
0.472601 0.398204 0.027653
0.506789 0.398754 0.028200
0.540977 0.399305 0.028748
0.575165 0.399856 0.029296
0.631114 0.409560 0.030649
0.665985 0.410122 0.031208
0.700857 0.410684 0.031767
0.735729 0.411245 0.032326
0.770601 0.411807 0.032885
0.805472 0.412369 0.033444
0.840344 0.412930 0.034003
0.875216 0.413492 0.034562
0.910088 0.414054 0.035120
0.944959 0.414615 0.035679
0.979831 0.415177 0.036238
0.988149 0.415311 0.036371
0.988149 0.415311 0.036371
0.988149 0.415311 0.036371
0.027751 0.425381 0.022304
0.027751 0.425381 0.022304
0.030005 0.425417 0.022341
0.064193 0.425968 0.022888
0.098381 0.426518 0.023436
0.132569 0.427069 0.023984
0.166757 0.427620 0.024532
0.200945 0.428170 0.025080
0.235133 0.428721 0.025628
0.269321 0.429272 0.026176
0.303509 0.429822 0.026724
0.337697 0.430373 0.027272
0.371885 0.430923 0.027820
0.406072 0.431474 0.028368
0.440260 0.432025 0.028915
0.474448 0.432575 0.029463
0.508636 0.433126 0.030011
0.542824 0.433677 0.030559
0.577012 0.434227 0.031107
0.611200 0.434778 0.031655
0.667851 0.444838 0.033037
0.702723 0.445399 0.033596
0.737594 0.445961 0.034155
0.772466 0.446522 0.034714
0.807338 0.447084 0.035273
0.842209 0.447646 0.035832
0.877081 0.448207 0.036390
0.911953 0.448769 0.036949
0.946825 0.449331 0.037508
0.981696 0.449892 0.038067
0.990014 0.450026 0.038200
0.990014 0.450026 0.038200
0.990014 0.450026 0.038200
0.029598 0.459753 0.024115
0.029598 0.459753 0.024115
0.031852 0.459789 0.024151
0.066040 0.460340 0.024699
0.100228 0.460890 0.025247
0.134416 0.461441 0.025795
0.168604 0.461991 0.026343
0.202792 0.462542 0.026891
0.236980 0.463093 0.027439
0.271168 0.463643 0.027987
0.305356 0.464194 0.028535
0.339544 0.464745 0.029082
0.373731 0.465295 0.029630
0.407919 0.465846 0.030178
0.442107 0.466397 0.030726
0.476295 0.466947 0.031274
0.510483 0.467498 0.031822
0.544671 0.468048 0.032370
0.578859 0.468599 0.032918
0.613047 0.469150 0.033466
0.647235 0.469700 0.034014
0.704588 0.480115 0.035425
0.739460 0.480676 0.035984
0.774331 0.481238 0.036543
0.809203 0.481800 0.037102
0.844075 0.482361 0.037660
0.878947 0.482923 0.038219
0.913818 0.483485 0.038778
0.948690 0.484046 0.039337
0.983562 0.484608 0.039896
0.991880 0.484742 0.040029
0.991880 0.484742 0.040029
0.991880 0.484742 0.040029
0.031445 0.494124 0.025926
0.031445 0.494124 0.025926
0.033699 0.494161 0.025962
0.067887 0.494711 0.026510
0.102075 0.495262 0.027058
0.136263 0.495813 0.027606
0.170451 0.496363 0.028154
0.204639 0.496914 0.028702
0.238827 0.497465 0.029250
0.273015 0.498015 0.029797
0.307203 0.498566 0.030345
0.341391 0.499116 0.030893
0.375578 0.499667 0.031441
0.409766 0.500218 0.031989
0.443954 0.500768 0.032537
0.478142 0.501319 0.033085
0.512330 0.501870 0.033633
0.546518 0.502420 0.034181
0.580706 0.502971 0.034729
0.614894 0.503522 0.035276
0.649082 0.504072 0.035824
0.683270 0.504623 0.036372
0.717458 0.505174 0.036920
0.776197 0.515954 0.038372
0.811069 0.516515 0.038930
0.845940 0.517077 0.039489
0.880812 0.517639 0.040048
0.915684 0.518200 0.040607
0.950556 0.518762 0.041166
0.985427 0.519323 0.041725
0.993745 0.519457 0.041858
0.993745 0.519457 0.041858
0.993745 0.519457 0.041858
0.033292 0.528496 0.027737
0.033292 0.528496 0.027737
0.035546 0.528532 0.027773
0.069734 0.529083 0.028321
0.103922 0.529634 0.028869
0.138110 0.530184 0.029417
0.172298 0.530735 0.029965
0.206486 0.531286 0.030512
0.240674 0.531836 0.031060
0.274862 0.532387 0.031608
0.309050 0.532938 0.032156
0.343237 0.533488 0.032704
0.377425 0.534039 0.033252
0.411613 0.534590 0.033800
0.445801 0.535140 0.034348
0.479989 0.535691 0.034896
0.514177 0.536241 0.035444
0.548365 0.536792 0.035991
0.582553 0.537343 0.036539
0.616741 0.537893 0.037087
0.650929 0.538444 0.037635
0.685117 0.538995 0.038183
0.719305 0.539545 0.038731
0.753493 0.540096 0.039279
0.812934 0.551231 0.040759
0.847806 0.551792 0.041318
0.882678 0.552354 0.041877
0.917549 0.552916 0.042436
0.952421 0.553477 0.042995
0.987293 0.554039 0.043554
0.995611 0.554173 0.043687
0.995611 0.554173 0.043687
0.995611 0.554173 0.043687
0.035138 0.562868 0.029548
0.035138 0.562868 0.029548
0.037393 0.562904 0.029584
0.071581 0.563455 0.030132
0.105769 0.564006 0.030679
0.139957 0.564556 0.031227
0.174145 0.565107 0.031775
0.208333 0.565658 0.032323
0.242521 0.566208 0.032871
0.276709 0.566759 0.033419
0.310896 0.567309 0.033967
0.345084 0.567860 0.034515
0.379272 0.568411 0.035063
0.413460 0.568961 0.035611
0.447648 0.569512 0.036158
0.481836 0.570063 0.036706
0.516024 0.570613 0.037254
0.550212 0.571164 0.037802
0.584400 0.571715 0.038350
0.618588 0.572265 0.038898
0.652776 0.572816 0.039446
0.686964 0.573366 0.039994
0.721152 0.573917 0.040542
0.755340 0.574468 0.041090
0.789528 0.575018 0.041638
0.849671 0.586508 0.043147
0.884543 0.587070 0.043706
0.919415 0.587631 0.044265
0.954287 0.588193 0.044824
0.989158 0.588755 0.045382
0.997476 0.588888 0.045516
0.997476 0.588888 0.045516
0.997476 0.588888 0.045516
0.036985 0.597240 0.031358
0.036985 0.597240 0.031358
0.039240 0.597276 0.031394
0.073428 0.597827 0.031942
0.107616 0.598377 0.032490
0.141804 0.598928 0.033038
0.175992 0.599479 0.033586
0.210180 0.600029 0.034134
0.244368 0.600580 0.034682
0.278555 0.601131 0.035230
0.312743 0.601681 0.035778
0.346931 0.602232 0.036326
0.381119 0.602783 0.036873
0.415307 0.603333 0.037421
0.449495 0.603884 0.037969
0.483683 0.604434 0.038517
0.517871 0.604985 0.039065
0.552059 0.605536 0.039613
0.586247 0.606086 0.040161
0.620435 0.606637 0.040709
0.654623 0.607188 0.041257
0.688811 0.607738 0.041805
0.722999 0.608289 0.042352
0.757187 0.608840 0.042900
0.791375 0.609390 0.043448
0.825563 0.609941 0.043996
0.859751 0.610492 0.044544
0.921280 0.622347 0.046094
0.956152 0.622908 0.046652
0.991024 0.623470 0.047211
0.999342 0.623604 0.047345
0.999342 0.623604 0.047345
0.999342 0.623604 0.047345
0.038832 0.631612 0.033169
0.038832 0.631612 0.033169
0.041087 0.631648 0.033205
0.075275 0.632199 0.033753
0.109463 0.632749 0.034301
0.143651 0.633300 0.034849
0.177839 0.633850 0.035397
0.212027 0.634401 0.035945
0.246214 0.634952 0.036493
0.280402 0.635502 0.037041
0.314590 0.636053 0.037588
0.348778 0.636604 0.038136
0.382966 0.637154 0.038684
0.417154 0.637705 0.039232
0.451342 0.638256 0.039780
0.485530 0.638806 0.040328
0.519718 0.639357 0.040876
0.553906 0.639908 0.041424
0.588094 0.640458 0.041972
0.622282 0.641009 0.042520
0.656470 0.641559 0.043067
0.690658 0.642110 0.043615
0.724846 0.642661 0.044163
0.759034 0.643211 0.044711
0.793222 0.643762 0.045259
0.827410 0.644313 0.045807
0.861598 0.644863 0.046355
0.895786 0.645414 0.046903
0.958017 0.657624 0.048481
0.992889 0.658186 0.049040
1.000000 0.658320 0.049174
1.000000 0.658320 0.049174
1.000000 0.658320 0.049174
0.040679 0.665983 0.034980
0.040679 0.665983 0.034980
0.042934 0.666020 0.035016
0.077122 0.666570 0.035564
0.111310 0.667121 0.036112
0.145498 0.667672 0.036660
0.179686 0.668222 0.037208
0.213873 0.668773 0.037755
0.248061 0.669324 0.038303
0.282249 0.669874 0.038851
0.316437 0.670425 0.039399
0.350625 0.670976 0.039947
0.384813 0.671526 0.040495
0.419001 0.672077 0.041043
0.453189 0.672627 0.041591
0.487377 0.673178 0.042139
0.521565 0.673729 0.042687
0.555753 0.674279 0.043234
0.589941 0.674830 0.043782
0.624129 0.675381 0.044330
0.658317 0.675931 0.044878
0.692505 0.676482 0.045426
0.726693 0.677033 0.045974
0.760881 0.677583 0.046522
0.795069 0.678134 0.047070
0.829257 0.678684 0.047618
0.863445 0.679235 0.048166
0.897633 0.679786 0.048714
0.931821 0.680336 0.049261
0.966009 0.680887 0.049809
1.000000 0.693035 0.051002
1.000000 0.693035 0.051002
1.000000 0.693035 0.051002
0.042526 0.700355 0.036791
0.042526 0.700355 0.036791
0.044781 0.700392 0.036827
0.078969 0.700942 0.037375
0.113157 0.701493 0.037923
0.147345 0.702043 0.038470
0.181533 0.702594 0.039018
0.215720 0.703145 0.039566
0.249908 0.703695 0.040114
0.284096 0.704246 0.040662
0.318284 0.704797 0.041210
0.352472 0.705347 0.041758
0.386660 0.705898 0.042306
0.420848 0.706449 0.042854
0.455036 0.706999 0.043402
0.489224 0.707550 0.043949
0.523412 0.708101 0.044497
0.557600 0.708651 0.045045
0.591788 0.709202 0.045593
0.625976 0.709752 0.046141
0.660164 0.710303 0.046689
0.694352 0.710854 0.047237
0.728540 0.711404 0.047785
0.762728 0.711955 0.048333
0.796916 0.712506 0.048881
0.831104 0.713056 0.049428
0.865292 0.713607 0.049976
0.899480 0.714158 0.050524
0.933668 0.714708 0.051072
0.967856 0.715259 0.051620
1.000000 0.715810 0.052168
1.000000 0.727751 0.052831
1.000000 0.727751 0.052831
0.044373 0.734727 0.038601
0.044373 0.734727 0.038601
0.046628 0.734763 0.038638
0.080816 0.735314 0.039185
0.115004 0.735865 0.039733
0.149192 0.736415 0.040281
0.183379 0.736966 0.040829
0.217567 0.737517 0.041377
0.251755 0.738067 0.041925
0.285943 0.738618 0.042473
0.320131 0.739169 0.043021
0.354319 0.739719 0.043569
0.388507 0.740270 0.044117
0.422695 0.740820 0.044664
0.456883 0.741371 0.045212
0.491071 0.741922 0.045760
0.525259 0.742472 0.046308
0.559447 0.743023 0.046856
0.593635 0.743574 0.047404
0.627823 0.744124 0.047952
0.662011 0.744675 0.048500
0.696199 0.745226 0.049048
0.730387 0.745776 0.049596
0.764575 0.746327 0.050143
0.798763 0.746877 0.050691
0.832951 0.747428 0.051239
0.867139 0.747979 0.051787
0.901327 0.748529 0.052335
0.935515 0.749080 0.052883
0.969703 0.749631 0.053431
1.000000 0.750181 0.053979
1.000000 0.750218 0.054015
1.000000 0.762466 0.054660
0.046220 0.769099 0.040412
0.046220 0.769099 0.040412
0.048475 0.769135 0.040448
0.082663 0.769686 0.040996
0.116851 0.770236 0.041544
0.151038 0.770787 0.042092
0.185226 0.771338 0.042640
0.219414 0.771888 0.043188
0.253602 0.772439 0.043736
0.287790 0.772990 0.044284
0.321978 0.773540 0.044831
0.356166 0.774091 0.045379
0.390354 0.774642 0.045927
0.424542 0.775192 0.046475
0.458730 0.775743 0.047023
0.492918 0.776294 0.047571
0.527106 0.776844 0.048119
0.561294 0.777395 0.048667
0.595482 0.777945 0.049215
0.629670 0.778496 0.049763
0.663858 0.779047 0.050311
0.698046 0.779597 0.050858
0.732234 0.780148 0.051406
0.766422 0.780699 0.051954
0.800610 0.781249 0.052502
0.834798 0.781800 0.053050
0.868986 0.782351 0.053598
0.903174 0.782901 0.054146
0.937362 0.783452 0.054694
0.971550 0.784002 0.055242
1.000000 0.784553 0.055790
1.000000 0.784589 0.055826
1.000000 0.784589 0.055826
0.048067 0.803471 0.042223
0.048067 0.803471 0.042223
0.050322 0.803507 0.042259
0.084510 0.804058 0.042807
0.118697 0.804608 0.043355
0.152885 0.805159 0.043903
0.187073 0.805710 0.044451
0.221261 0.806260 0.044999
0.255449 0.806811 0.045546
0.289637 0.807361 0.046094
0.323825 0.807912 0.046642
0.358013 0.808463 0.047190
0.392201 0.809013 0.047738
0.426389 0.809564 0.048286
0.460577 0.810115 0.048834
0.494765 0.810665 0.049382
0.528953 0.811216 0.049930
0.563141 0.811767 0.050478
0.597329 0.812317 0.051025
0.631517 0.812868 0.051573
0.665705 0.813419 0.052121
0.699893 0.813969 0.052669
0.734081 0.814520 0.053217
0.768269 0.815070 0.053765
0.802457 0.815621 0.054313
0.836645 0.816172 0.054861
0.870833 0.816722 0.055409
0.905021 0.817273 0.055957
0.939209 0.817824 0.056504
0.973397 0.818374 0.057052
1.000000 0.818925 0.057600
1.000000 0.818961 0.057636
1.000000 0.818961 0.057636
0.049914 0.837843 0.044034
0.049914 0.837843 0.044034
0.052169 0.837879 0.044070
0.086356 0.838429 0.044618
0.120544 0.838980 0.045166
0.154732 0.839531 0.045714
0.188920 0.840081 0.046261
0.223108 0.840632 0.046809
0.257296 0.841183 0.047357
0.291484 0.841733 0.047905
0.325672 0.842284 0.048453
0.359860 0.842835 0.049001
0.394048 0.843385 0.049549
0.428236 0.843936 0.050097
0.462424 0.844487 0.050645
0.496612 0.845037 0.051193
0.530800 0.845588 0.051740
0.564988 0.846138 0.052288
0.599176 0.846689 0.052836
0.633364 0.847240 0.053384
