library/cube/Retail_Glow_003.cube
# CINEGRADE LAB — Premium Cinematic LUT
# Title: Retail Glow
# Category: Commercial Luxury
# Description: Polished, professional, product-ready aesthetic for commercial work
# Mood: Clean, premium, sharp
# Variant: 4
# Generated: 2026-05-21T16:12:42.103034
TITLE "Retail Glow"
LUT_3D_SIZE 9
0.005000 0.002000 0.000000
0.075630 0.003138 0.001132
0.212382 0.005340 0.003324
0.349134 0.007543 0.005515
0.485886 0.009745 0.007707
0.622638 0.011948 0.009898
0.759390 0.014150 0.012090
0.896142 0.016353 0.014282
0.966772 0.017491 0.015413
0.009281 0.081663 0.004197
0.079911 0.082800 0.005329
0.230735 0.090942 0.008042
0.370222 0.093189 0.010278
0.509709 0.095436 0.012513
0.649196 0.097682 0.014748
0.763670 0.093813 0.016287
0.900422 0.096016 0.018478
0.971052 0.097153 0.019610
0.016669 0.219150 0.011440
0.087299 0.220287 0.012572
0.224051 0.222490 0.014763
0.377684 0.232051 0.017593
0.517171 0.234298 0.019829
0.656658 0.236544 0.022064
0.796145 0.238791 0.024299
0.935632 0.241038 0.026535
0.978822 0.241733 0.027227
0.024057 0.356637 0.018683
0.094687 0.357775 0.019815
0.231439 0.359977 0.022006
0.368191 0.362180 0.024198
0.504942 0.364382 0.026390
0.664120 0.375406 0.029379
0.803607 0.377653 0.031615
0.943094 0.379900 0.033850
0.986283 0.380595 0.034543
0.031445 0.494124 0.025926
0.102075 0.495262 0.027058
0.238827 0.497465 0.029250
0.375578 0.499667 0.031441
0.512330 0.501870 0.033633
0.649082 0.504072 0.035824
0.811069 0.516515 0.038930
0.950556 0.518762 0.041166
0.993745 0.519457 0.041858
0.038832 0.631612 0.033169
0.109463 0.632749 0.034301
0.246214 0.634952 0.036493
0.382966 0.637154 0.038684
0.519718 0.639357 0.040876
0.656470 0.641559 0.043067
0.793222 0.643762 0.045259
0.958017 0.657624 0.048481
1.000000 0.658320 0.049174
0.046220 0.769099 0.040412
0.116851 0.770236 0.041544
0.253602 0.772439 0.043736
0.390354 0.774642 0.045927
0.527106 0.776844 0.048119
0.663858 0.779047 0.050311
0.800610 0.781249 0.052502
0.937362 0.783452 0.054694
1.000000 0.784589 0.055826
0.053608 0.906586 0.047655
0.124238 0.907724 0.048787
0.260990 0.909926 0.050979
0.397742 0.912129 0.053170
0.534494 0.914331 0.055362
0.671246 0.916534 0.057554
0.807998 0.918737 0.059745
0.944750 0.920939 0.061937
1.000000 0.922077 0.063069
0.057889 0.986249 0.051852
0.128519 0.987386 0.052984
0.265271 0.989589 0.055176
0.402023 0.991791 0.057367
0.538775 0.993994 0.059559
0.675527 0.996197 0.061750
0.812279 0.998399 0.063942
0.949031 1.000000 0.066134
1.000000 1.000000 0.067265
0.005522 0.002515 0.091233
0.076152 0.003652 0.092365
0.212904 0.005855 0.094557
0.349656 0.008057 0.096748
0.486408 0.010260 0.098940
0.623160 0.012462 0.101131
0.759912 0.014665 0.103323
0.896664 0.016868 0.105515
0.967294 0.018005 0.106647
0.009803 0.082177 0.095430
0.080433 0.083315 0.096562
0.217185 0.085517 0.098753
0.353937 0.087720 0.100945
0.490689 0.089922 0.103137
0.627441 0.092125 0.105328
0.764193 0.094328 0.107520
0.900945 0.096530 0.109711
0.971575 0.097668 0.110843
0.017191 0.219664 0.102673
0.087821 0.220802 0.103805
0.224573 0.223005 0.105996
0.378206 0.232566 0.108826
0.517693 0.234812 0.111062
0.657180 0.237059 0.113297
0.796667 0.239306 0.115532
0.908333 0.234017 0.116955
0.978963 0.235155 0.118086
0.024579 0.357152 0.109916
0.095209 0.358289 0.111048
0.231961 0.360492 0.113240
0.368713 0.362694 0.115431
0.525155 0.373674 0.118377
0.664642 0.375921 0.120613
0.804129 0.378168 0.122848
0.943616 0.380414 0.125083
0.986806 0.381110 0.125776
0.031967 0.494639 0.117159
0.102597 0.495777 0.118291
0.239349 0.497979 0.120483
0.376101 0.500182 0.122674
0.512853 0.502384 0.124866
0.649605 0.504587 0.127057
0.811591 0.517030 0.130164
0.951078 0.519276 0.132399
0.994267 0.519972 0.133091
0.039355 0.632126 0.124402
0.109985 0.633264 0.125534
0.246737 0.635466 0.127726
0.383489 0.637669 0.129917
0.520241 0.639871 0.132109
0.656993 0.642074 0.134301
0.793744 0.644277 0.136492
0.958540 0.658138 0.139714
1.000000 0.658834 0.140407
0.046743 0.769613 0.131645
0.117373 0.770751 0.132777
0.254125 0.772954 0.134969
0.390877 0.775156 0.137160
0.527629 0.777359 0.139352
0.664380 0.779561 0.141544
0.801132 0.781764 0.143735
0.937884 0.783966 0.145927
1.000000 0.797696 0.147722
0.054131 0.907101 0.138888
0.124761 0.908238 0.140020
0.261513 0.910441 0.142212
0.398265 0.912643 0.144403
0.535016 0.914846 0.146595
0.671768 0.917049 0.148787
0.808520 0.919251 0.150978
0.945272 0.921454 0.153170
1.000000 0.922591 0.154302
0.058411 0.986763 0.143085
0.129041 0.987901 0.144217
0.265793 0.990103 0.146409
0.402545 0.992306 0.148600
0.539297 0.994509 0.150792
0.676049 0.996711 0.152983
0.812801 0.998914 0.155175
0.949553 1.000000 0.157367
1.000000 1.000000 0.158499
0.006238 0.003220 0.216278
0.076868 0.004357 0.217410
0.213620 0.006560 0.219601
0.350372 0.008763 0.221793
0.487124 0.010965 0.223985
0.623876 0.013168 0.226176
0.760628 0.015370 0.228368
0.897380 0.017573 0.230559
0.968010 0.018710 0.231691
0.010519 0.082882 0.220475
0.081149 0.084020 0.221607
0.217901 0.086223 0.223798
0.354653 0.088425 0.225990
0.491405 0.090628 0.228181
0.628157 0.092830 0.230373
0.764908 0.095033 0.232565
0.901660 0.097235 0.234756
0.972291 0.098373 0.235888
0.017907 0.220370 0.227718
0.088537 0.221507 0.228850
0.225289 0.223710 0.231041
0.362041 0.225912 0.233233
0.498793 0.228115 0.235424
0.635544 0.230318 0.237616
0.772296 0.232520 0.239808
0.909048 0.234723 0.241999
0.979678 0.235860 0.243131
0.025295 0.357857 0.234961
0.095925 0.358995 0.236093
0.232677 0.361197 0.238284
0.369429 0.363400 0.240476
0.525871 0.374380 0.243422
0.665358 0.376626 0.245657
0.804845 0.378873 0.247893
0.944332 0.381120 0.250128
0.987066 0.373348 0.250374
0.032683 0.495344 0.242204
0.103313 0.496482 0.243336
0.240065 0.498684 0.245527
0.376817 0.500887 0.247719
0.513568 0.503089 0.249911
0.672820 0.515488 0.252973
0.812307 0.517735 0.255208
0.951794 0.519982 0.257444
0.994983 0.520677 0.258136
0.040070 0.632831 0.249447
0.110701 0.633969 0.250579
0.247453 0.636172 0.252770
0.384204 0.638374 0.254962
0.520956 0.640577 0.257154
0.657708 0.642779 0.259345
0.794460 0.644982 0.261537
0.959255 0.658844 0.264759
1.000000 0.659539 0.265451
0.047458 0.770319 0.256690
0.118089 0.771456 0.257822
0.254840 0.773659 0.260014
0.391592 0.775861 0.262205
0.528344 0.778064 0.264397
0.665096 0.780267 0.266588
0.801848 0.782469 0.268780
0.938600 0.784672 0.270972
1.000000 0.798401 0.272767
0.054846 0.907806 0.263933
0.125476 0.908944 0.265065
0.262228 0.911146 0.267257
0.398980 0.913349 0.269448
0.535732 0.915551 0.271640
0.672484 0.917754 0.273831
0.809236 0.919956 0.276023
0.945988 0.922159 0.278215
1.000000 0.923297 0.279347
0.059127 0.987469 0.268130
0.129757 0.988606 0.269262
0.266509 0.990809 0.271453
0.403261 0.993011 0.273645
0.540013 0.995214 0.275837
0.676765 0.997416 0.278028
0.813517 0.999619 0.280220
0.950269 1.000000 0.282411
1.000000 1.000000 0.283543
0.006954 0.003925 0.341323
0.077584 0.005063 0.342454
0.214336 0.007265 0.344646
0.351088 0.009468 0.346838
0.487840 0.011670 0.349029
0.624592 0.013873 0.351221
0.761344 0.016075 0.353412
0.898095 0.018278 0.355604
0.968726 0.019416 0.356736
0.011235 0.083588 0.345519
0.081865 0.084725 0.346651
0.218617 0.086928 0.348843
0.355368 0.089130 0.351034
0.492120 0.091333 0.353226
0.628872 0.093536 0.355418
0.765624 0.095738 0.357609
0.902376 0.097941 0.359801
0.973006 0.099078 0.360933
0.018622 0.221075 0.352762
0.089253 0.222213 0.353894
0.226004 0.224415 0.356086
0.362756 0.226618 0.358278
0.499508 0.228820 0.360469
0.636260 0.231023 0.362661
0.773012 0.233225 0.364852
0.909764 0.235428 0.367044
0.980394 0.236566 0.368176
0.026010 0.358562 0.360005
0.096641 0.359700 0.361137
0.233392 0.361902 0.363329
0.370144 0.364105 0.365521
0.506896 0.366307 0.367712
0.643648 0.368510 0.369904
0.780400 0.370713 0.372095
0.917152 0.372915 0.374287
0.987782 0.374053 0.375419
0.033398 0.496049 0.367249
0.104028 0.497187 0.368380
0.240780 0.499390 0.370572
0.377532 0.501592 0.372764
0.514284 0.503795 0.374955
0.673536 0.516194 0.378018
0.813022 0.518440 0.380253
0.952509 0.520687 0.382488
0.995699 0.521383 0.383181
0.040786 0.633537 0.374492
0.111416 0.634674 0.375624
0.248168 0.636877 0.377815
0.384920 0.639079 0.380007
0.521672 0.641282 0.382198
0.658424 0.643485 0.384390
0.820484 0.657302 0.387568
0.959971 0.659549 0.389804
1.000000 0.660245 0.390496
0.048174 0.771024 0.381735
0.118804 0.772162 0.382867
0.255556 0.774364 0.385058
0.392308 0.776567 0.387250
0.529060 0.778769 0.389441
0.665812 0.780972 0.391633
0.802564 0.783174 0.393825
0.939316 0.785377 0.396016
1.000000 0.799107 0.397812
0.055562 0.908511 0.388978
0.126192 0.909649 0.390110
0.262944 0.911851 0.392301
0.399696 0.914054 0.394493
0.536448 0.916256 0.396685
0.673200 0.918459 0.398876
0.809952 0.920662 0.401068
0.946704 0.922864 0.403259
1.000000 0.924002 0.404391
0.059843 0.988174 0.393175
0.130473 0.989311 0.394306
0.267225 0.991514 0.396498
0.403977 0.993717 0.398690
0.540729 0.995919 0.400881
0.677481 0.998122 0.403073
0.814233 1.000000 0.405264
0.950985 1.000000 0.407456
1.000000 1.000000 0.408588
0.007670 0.004630 0.466367
0.078300 0.005768 0.467499
0.215052 0.007970 0.469691
0.351804 0.010173 0.471882
0.488555 0.012376 0.474074
0.625307 0.014578 0.476266
0.762059 0.016781 0.478457
0.898811 0.018983 0.480649
0.969441 0.020121 0.481781
0.011950 0.084293 0.470564
0.082580 0.085431 0.471696
0.219332 0.087633 0.473888
0.356084 0.089836 0.476079
0.492836 0.092038 0.478271
0.629588 0.094241 0.480462
0.766340 0.096443 0.482654
0.903092 0.098646 0.484846
0.973722 0.099784 0.485978
0.019338 0.221780 0.477807
0.089968 0.222918 0.478939
0.226720 0.225120 0.481131
0.363472 0.227323 0.483322
0.500224 0.229526 0.485514
0.636976 0.231728 0.487705
0.773728 0.233931 0.489897
0.910480 0.236133 0.492089
0.981110 0.237271 0.493221
0.026726 0.359267 0.485050
0.097356 0.360405 0.486182
0.234108 0.362608 0.488374
0.370860 0.364810 0.490565
0.507612 0.367013 0.492757
0.644364 0.369215 0.494949
0.781116 0.371418 0.497140
0.917868 0.373620 0.499332
0.988498 0.374758 0.500464
0.034114 0.496755 0.492293
0.104744 0.497892 0.493425
0.241496 0.500095 0.495617
0.378248 0.502297 0.497808
0.515000 0.504500 0.500000
0.651752 0.506703 0.502192
0.788504 0.508905 0.504383
0.925256 0.511108 0.506575
0.995886 0.512245 0.507707
0.041502 0.634242 0.499536
0.112132 0.635380 0.500668
0.248884 0.637582 0.502860
0.385636 0.639785 0.505051
0.522388 0.641987 0.507243
0.659140 0.644190 0.509435
0.821200 0.658008 0.512613
0.960687 0.660254 0.514849
1.000000 0.660950 0.515541
0.048890 0.771729 0.506779
0.119520 0.772867 0.507911
0.256272 0.775069 0.510103
0.393024 0.777272 0.512295
0.529776 0.779474 0.514486
0.666528 0.781677 0.516678
0.803280 0.783880 0.518869
0.968149 0.799116 0.522164
1.000000 0.799812 0.522856
0.056278 0.909216 0.514022
0.126908 0.910354 0.515154
0.263660 0.912557 0.517346
0.400412 0.914759 0.519538
0.537164 0.916962 0.521729
0.673916 0.919164 0.523921
0.810668 0.921367 0.526112
0.947420 0.923569 0.528304
1.000000 0.924707 0.529436
0.060559 0.988879 0.518219
0.131189 0.990017 0.519351
0.267941 0.992219 0.521543
0.404693 0.994422 0.523734
0.541445 0.996624 0.525926
0.678196 0.998827 0.528118
0.814948 1.000000 0.530309
0.951700 1.000000 0.532501
1.000000 1.000000 0.533633
0.008385 0.005336 0.591412
0.079015 0.006473 0.592544
0.215767 0.008676 0.594736
0.352519 0.010878 0.596927
0.489271 0.013081 0.599119
0.626023 0.015283 0.601310
0.762775 0.017486 0.603502
0.899527 0.019689 0.605694
0.970157 0.020826 0.606825
0.012666 0.084998 0.595609
0.083296 0.086136 0.596741
0.220048 0.088338 0.598932
0.356800 0.090541 0.601124
0.493552 0.092744 0.603315
0.630304 0.094946 0.605507
0.767056 0.097149 0.607699
0.903808 0.099351 0.609890
0.974438 0.100489 0.611022
0.020054 0.222485 0.602852
0.090684 0.223623 0.603984
0.227436 0.225826 0.606175
0.364188 0.228028 0.608367
0.500940 0.230231 0.610559
0.637692 0.232433 0.612750
0.774444 0.234636 0.614942
0.911196 0.236838 0.617133
0.981826 0.237976 0.618265
0.027442 0.359973 0.610095
0.098072 0.361110 0.611227
0.234824 0.363313 0.613418
0.371576 0.365515 0.615610
0.508328 0.367718 0.617802
0.645080 0.369921 0.619993
0.781832 0.372123 0.622185
0.918584 0.374326 0.624376
0.989214 0.375463 0.625508
0.034830 0.497460 0.617338
0.105460 0.498598 0.618470
0.242212 0.500800 0.620662
0.378964 0.503003 0.622853
0.515716 0.505205 0.625045
0.652468 0.507408 0.627236
0.789220 0.509610 0.629428
0.925972 0.511813 0.631620
0.996602 0.512951 0.632751
0.042218 0.634947 0.624581
0.112848 0.636085 0.625713
0.249600 0.638287 0.627905
0.386352 0.640490 0.630096
0.523104 0.642693 0.632288
0.659856 0.644895 0.634479
0.796608 0.647098 0.636671
0.933359 0.649300 0.638863
1.000000 0.650438 0.639995
0.049606 0.772434 0.631824
0.120236 0.773572 0.632956
0.256988 0.775775 0.635148
0.393740 0.777977 0.637339
0.530492 0.780180 0.639531
0.667244 0.782382 0.641722
0.803996 0.784585 0.643914
0.968865 0.799822 0.647209
1.000000 0.800517 0.647901
0.056994 0.909922 0.639067
0.127624 0.911059 0.640199
0.264376 0.913262 0.642391
0.401128 0.915464 0.644582
0.537880 0.917667 0.646774
0.674632 0.919870 0.648966
0.811383 0.922072 0.651157
0.948135 0.924275 0.653349
1.000000 0.939379 0.655217
0.061274 0.989584 0.643264
0.131905 0.990722 0.644396
0.268656 0.992925 0.646588
0.405408 0.995127 0.648779
0.542160 0.997330 0.650971
0.678912 0.999532 0.653162
0.815664 1.000000 0.655354
0.952416 1.000000 0.657546
1.000000 1.000000 0.658677
0.009101 0.006041 0.716457
0.079731 0.007178 0.717589
0.216483 0.009381 0.719780
0.353235 0.011584 0.721972
0.489987 0.013786 0.724163
0.626739 0.015989 0.726355
0.763491 0.018191 0.728547
0.900243 0.020394 0.730738
0.970873 0.021531 0.731870
0.013382 0.085703 0.720653
0.084012 0.086841 0.721785
0.220764 0.089044 0.723977
0.357516 0.091246 0.726169
0.494268 0.093449 0.728360
0.631020 0.095651 0.730552
0.767772 0.097854 0.732743
0.904524 0.100056 0.734935
0.975154 0.101194 0.736067
0.020770 0.223191 0.727897
0.091400 0.224328 0.729028
0.228152 0.226531 0.731220
0.364904 0.228733 0.733412
0.501656 0.230936 0.735603
0.638408 0.233139 0.737795
0.775160 0.235341 0.739986
0.911911 0.237544 0.742178
0.982542 0.238681 0.743310
0.028158 0.360678 0.735140
0.098788 0.361816 0.736272
0.235540 0.364018 0.738463
0.372292 0.366221 0.740655
0.509044 0.368423 0.742846
0.645796 0.370626 0.745038
0.782547 0.372828 0.747230
0.919299 0.375031 0.749421
0.989930 0.376169 0.750553
0.035546 0.498165 0.742383
0.106176 0.499303 0.743515
0.242928 0.501505 0.745706
0.379680 0.503708 0.747898
0.516432 0.505911 0.750089
0.653183 0.508113 0.752281
0.789935 0.510316 0.754473
0.926687 0.512518 0.756664
0.997317 0.513656 0.757796
0.042934 0.635652 0.749626
0.113564 0.636790 0.750758
0.250316 0.638993 0.752949
0.387068 0.641195 0.755141
0.523820 0.643398 0.757333
0.660571 0.645600 0.759524
0.797323 0.647803 0.761716
0.934075 0.650005 0.763907
1.000000 0.651143 0.765039
0.050322 0.773140 0.756869
0.120952 0.774277 0.758001
0.257704 0.776480 0.760192
0.394456 0.778682 0.762384
0.531207 0.780885 0.764576
0.667959 0.783088 0.766767
0.804711 0.785290 0.768959
0.941463 0.787493 0.771150
1.000000 0.788630 0.772282
0.057709 0.910627 0.764112
0.128340 0.911765 0.765244
0.265092 0.913967 0.767435
0.401843 0.916170 0.769627
0.538595 0.918372 0.771819
0.675347 0.920575 0.774010
0.812099 0.922777 0.776202
0.948851 0.924980 0.778393
1.000000 0.940085 0.780261
0.061990 0.990290 0.768309
0.132620 0.991427 0.769441
0.269372 0.993630 0.771632
0.406124 0.995832 0.773824
0.542876 0.998035 0.776015
0.679628 1.000000 0.778207
0.816380 1.000000 0.780399
0.953132 1.000000 0.782590
1.000000 1.000000 0.783722
0.009817 0.006746 0.841501
0.080447 0.007884 0.842633
0.217199 0.010086 0.844825
0.353951 0.012289 0.847017
0.490703 0.014491 0.849208
0.627455 0.016694 0.851400
0.764207 0.018897 0.853591
0.900959 0.021099 0.855783
0.971589 0.022237 0.856915
0.014098 0.086409 0.845698
0.084728 0.087546 0.846830
0.221480 0.089749 0.849022
0.358232 0.091951 0.851213
0.494984 0.094154 0.853405
0.631735 0.096357 0.855597
0.768487 0.098559 0.857788
0.905239 0.100762 0.859980
0.975869 0.101899 0.861112
0.021486 0.223896 0.852941
0.092116 0.225034 0.854073
0.228868 0.227236 0.856265
0.365620 0.229439 0.858456
0.502371 0.231641 0.860648
0.639123 0.233844 0.862840
0.775875 0.236046 0.865031
0.912627 0.238249 0.867223
0.983257 0.239387 0.868355
0.028874 0.361383 0.860184
0.099504 0.362521 0.861316
0.236256 0.364723 0.863508
0.373007 0.366926 0.865699
0.509759 0.369129 0.867891
0.646511 0.371331 0.870083
0.783263 0.373534 0.872274
0.920015 0.375736 0.874466
0.990645 0.376874 0.875598
0.036261 0.498870 0.867427
0.106892 0.500008 0.868559
0.243644 0.502211 0.870751
0.380395 0.504413 0.872943
0.517147 0.506616 0.875134
0.653899 0.508818 0.877326
0.790651 0.511021 0.879517
0.927403 0.513223 0.881709
0.998033 0.514361 0.882841
0.043649 0.636358 0.874670
0.114280 0.637495 0.875802
0.251031 0.639698 0.877994
0.387783 0.641900 0.880186
0.524535 0.644103 0.882377
0.661287 0.646306 0.884569
0.798039 0.648508 0.886760
0.934791 0.650711 0.888952
1.000000 0.651848 0.890084
0.051037 0.773845 0.881914
0.121667 0.774983 0.883045
0.258419 0.777185 0.885237
0.395171 0.779388 0.887429
0.531923 0.781590 0.889620
0.668675 0.783793 0.891812
0.805427 0.785995 0.894004
0.942179 0.788198 0.896195
1.000000 0.789336 0.897327
0.058425 0.911332 0.889157
0.129055 0.912470 0.890289
0.265807 0.914672 0.892480
0.402559 0.916875 0.894672
0.539311 0.919078 0.896863
0.676063 0.921280 0.899055
0.812815 0.923483 0.901247
0.949567 0.925685 0.903438
1.000000 0.926823 0.904570
0.062706 0.990995 0.893353
0.133336 0.992132 0.894485
0.270088 0.994335 0.896677
0.406840 0.996538 0.898869
0.543592 0.998740 0.901060
0.680344 1.000000 0.903252
0.817096 1.000000 0.905443
0.953848 1.000000 0.907635
1.000000 1.000000 0.908767
0.010339 0.007261 0.932735
0.080969 0.008398 0.933866
0.217721 0.010601 0.936058
0.354473 0.012803 0.938250
0.491225 0.015006 0.940441
0.627977 0.017209 0.942633
0.764729 0.019411 0.944824
0.901481 0.021614 0.947016
0.972111 0.022751 0.948148
0.014620 0.086923 0.936931
0.085250 0.088061 0.938063
0.222002 0.090263 0.940255
0.358754 0.092466 0.942446
0.495506 0.094669 0.944638
0.632258 0.096871 0.946830
0.769010 0.099074 0.949021
0.905762 0.101276 0.951213
0.976392 0.102414 0.952345
0.022008 0.224411 0.944174
0.092638 0.225548 0.945306
0.229390 0.227751 0.947498
0.366142 0.229953 0.949689
0.502894 0.232156 0.951881
0.639646 0.234358 0.954073
0.776398 0.236561 0.956264
0.913149 0.238764 0.958456
0.983780 0.239901 0.959588
0.029396 0.361898 0.951417
0.100026 0.363035 0.952549
0.236778 0.365238 0.954741
0.373530 0.367441 0.956933
0.510282 0.369643 0.959124
0.647034 0.371846 0.961316
0.783786 0.374048 0.963507
0.920537 0.376251 0.965699
0.991168 0.377388 0.966831
0.036784 0.499385 0.958661
0.107414 0.500523 0.959792
0.244166 0.502725 0.961984
0.380918 0.504928 0.964176
0.517670 0.507130 0.966367
0.654422 0.509333 0.968559
0.791173 0.511535 0.970750
0.927925 0.513738 0.972942
0.998555 0.514876 0.974074
0.044172 0.636872 0.965904
0.114802 0.638010 0.967036
0.251554 0.640212 0.969227
0.388306 0.642415 0.971419
0.525058 0.644618 0.973610
0.661809 0.646820 0.975802
0.798561 0.649023 0.977994
0.935313 0.651225 0.980185
1.000000 0.652363 0.981317
0.051560 0.774360 0.973147
0.122190 0.775497 0.974279
0.258942 0.777700 0.976470
0.395694 0.779902 0.978662
0.532445 0.782105 0.980853
0.669197 0.784307 0.983045
0.805949 0.786510 0.985237
0.942701 0.788713 0.987428
1.000000 0.789850 0.988560
0.058948 0.911847 0.980390
0.129578 0.912984 0.981522
0.266330 0.915187 0.983713
0.403081 0.917390 0.985905
0.539833 0.919592 0.988096
0.676585 0.921795 0.990288
0.813337 0.923997 0.992480
0.950089 0.926200 0.994671
1.000000 0.927337 0.995803
0.063228 0.991509 0.984587
0.133858 0.992647 0.985718
0.270610 0.994850 0.987910
0.407362 0.997052 0.990102
0.544114 0.999255 0.992293
0.680866 1.000000 0.994485
0.817618 1.000000 0.996676
0.954370 1.000000 0.998868
1.000000 1.000000 1.000000
