library/cube/Retail_Glow_003.cube
# CINEGRADE LAB — Premium Cinematic LUT
# Title: Retail Glow
# Category: Commercial Luxury
# Description: Polished, professional, product-ready aesthetic for commercial work
# Mood: Clean, premium, sharp
# Variant: 4
# Generated: 2026-05-21T16:12:42.103034
TITLE "Retail Glow"
LUT_3D_SIZE 5
0.005000 0.002000 0.000000
0.212382 0.005340 0.003324
0.485886 0.009745 0.007707
0.759390 0.014150 0.012090
0.966772 0.017491 0.015413
0.016669 0.219150 0.011440
0.224051 0.222490 0.014763
0.517171 0.234298 0.019829
0.796145 0.238791 0.024299
0.978822 0.241733 0.027227
0.031445 0.494124 0.025926
0.238827 0.497465 0.029250
0.512330 0.501870 0.033633
0.811069 0.516515 0.038930
0.993745 0.519457 0.041858
0.046220 0.769099 0.040412
0.253602 0.772439 0.043736
0.527106 0.776844 0.048119
0.800610 0.781249 0.052502
1.000000 0.784589 0.055826
0.057889 0.986249 0.051852
0.265271 0.989589 0.055176
0.538775 0.993994 0.059559
0.812279 0.998399 0.063942
1.000000 1.000000 0.067265
0.006238 0.003220 0.216278
0.213620 0.006560 0.219601
0.487124 0.010965 0.223985
0.760628 0.015370 0.228368
0.968010 0.018710 0.231691
0.017907 0.220370 0.227718
0.225289 0.223710 0.231041
0.498793 0.228115 0.235424
0.772296 0.232520 0.239808
0.979678 0.235860 0.243131
0.032683 0.495344 0.242204
0.240065 0.498684 0.245527
0.513568 0.503089 0.249911
0.812307 0.517735 0.255208
0.994983 0.520677 0.258136
0.047458 0.770319 0.256690
0.254840 0.773659 0.260014
0.528344 0.778064 0.264397
0.801848 0.782469 0.268780
1.000000 0.798401 0.272767
0.059127 0.987469 0.268130
0.266509 0.990809 0.271453
0.540013 0.995214 0.275837
0.813517 0.999619 0.280220
1.000000 1.000000 0.283543
0.007670 0.004630 0.466367
0.215052 0.007970 0.469691
0.488555 0.012376 0.474074
0.762059 0.016781 0.478457
0.969441 0.020121 0.481781
0.019338 0.221780 0.477807
0.226720 0.225120 0.481131
0.500224 0.229526 0.485514
0.773728 0.233931 0.489897
0.981110 0.237271 0.493221
0.034114 0.496755 0.492293
0.241496 0.500095 0.495617
0.515000 0.504500 0.500000
0.788504 0.508905 0.504383
0.995886 0.512245 0.507707
0.048890 0.771729 0.506779
0.256272 0.775069 0.510103
0.529776 0.779474 0.514486
0.803280 0.783880 0.518869
1.000000 0.799812 0.522856
0.060559 0.988879 0.518219
0.267941 0.992219 0.521543
0.541445 0.996624 0.525926
0.814948 1.000000 0.530309
1.000000 1.000000 0.533633
0.009101 0.006041 0.716457
0.216483 0.009381 0.719780
0.489987 0.013786 0.724163
0.763491 0.018191 0.728547
0.970873 0.021531 0.731870
0.020770 0.223191 0.727897
0.228152 0.226531 0.731220
0.501656 0.230936 0.735603
0.775160 0.235341 0.739986
0.982542 0.238681 0.743310
0.035546 0.498165 0.742383
0.242928 0.501505 0.745706
0.516432 0.505911 0.750089
0.789935 0.510316 0.754473
0.997317 0.513656 0.757796
0.050322 0.773140 0.756869
0.257704 0.776480 0.760192
0.531207 0.780885 0.764576
0.804711 0.785290 0.768959
1.000000 0.788630 0.772282
0.061990 0.990290 0.768309
0.269372 0.993630 0.771632
0.542876 0.998035 0.776015
0.816380 1.000000 0.780399
1.000000 1.000000 0.783722
0.010339 0.007261 0.932735
0.217721 0.010601 0.936058
0.491225 0.015006 0.940441
0.764729 0.019411 0.944824
0.972111 0.022751 0.948148
0.022008 0.224411 0.944174
0.229390 0.227751 0.947498
0.502894 0.232156 0.951881
0.776398 0.236561 0.956264
0.983780 0.239901 0.959588
0.036784 0.499385 0.958661
0.244166 0.502725 0.961984
0.517670 0.507130 0.966367
0.791173 0.511535 0.970750
0.998555 0.514876 0.974074
0.051560 0.774360 0.973147
0.258942 0.777700 0.976470
0.532445 0.782105 0.980853
0.805949 0.786510 0.985237
1.000000 0.789850 0.988560
0.063228 0.991509 0.984587
0.270610 0.994850 0.987910
0.544114 0.999255 0.992293
0.817618 1.000000 0.996676
1.000000 1.000000 1.000000
