library/cube/Retro_Chem_002.cube
# CINEGRADE LAB — Premium Cinematic LUT
# Title: Retro Chem
# Category: Vintage Film Lab
# Description: Faded, grainy, color-shifted retro film lab aesthetic
# Mood: Retro, faded, nostalgic
# Variant: 3
# Generated: 2026-05-21T16:12:32.578663
TITLE "Retro Chem"
LUT_3D_SIZE 9
0.185482 0.170102 0.160465
0.257879 0.176484 0.166970
0.335092 0.183311 0.173924
0.415772 0.190464 0.181211
0.499180 0.197875 0.188763
0.584844 0.205503 0.196541
0.672436 0.213319 0.204514
0.761714 0.221299 0.212661
0.793552 0.224125 0.215676
0.205807 0.256816 0.182379
0.277968 0.263186 0.188912
0.354943 0.270001 0.195896
0.435390 0.277142 0.203214
0.518572 0.284543 0.210799
0.604022 0.292161 0.218610
0.691411 0.299968 0.226618
0.780500 0.307940 0.234801
0.812339 0.310763 0.237852
0.227674 0.349374 0.205883
0.299627 0.355734 0.212448
0.376395 0.362541 0.219467
0.456641 0.369674 0.226820
0.539631 0.377068 0.234441
0.624900 0.384680 0.242290
0.712121 0.392481 0.250338
0.801057 0.400450 0.258562
0.832911 0.403272 0.261650
0.250684 0.446181 0.230589
0.322460 0.452537 0.237191
0.399053 0.459339 0.244248
0.479130 0.466469 0.251640
0.561962 0.473860 0.259303
0.647084 0.481470 0.267194
0.734174 0.489270 0.275285
0.822993 0.497239 0.283555
0.853872 0.500064 0.286685
0.274632 0.546374 0.256292
0.346261 0.552729 0.262935
0.422710 0.559531 0.270034
0.502652 0.566662 0.277470
0.585360 0.574055 0.285178
0.670372 0.581668 0.293117
0.757366 0.589473 0.301256
0.845583 0.597446 0.309576
0.876541 0.600280 0.312752
0.299395 0.649407 0.282866
0.370907 0.655766 0.289554
0.447245 0.662574 0.296700
0.527086 0.669711 0.304185
0.609705 0.677111 0.311943
0.694642 0.684732 0.319933
0.781576 0.692545 0.328126
0.869330 0.700528 0.336500
0.900809 0.703375 0.339725
0.324897 0.754907 0.310229
0.396323 0.761275 0.316967
0.472582 0.768093 0.324165
0.552355 0.775241 0.331702
0.634920 0.782653 0.339515
0.719818 0.790288 0.347561
0.806730 0.798115 0.355812
0.894526 0.806114 0.364246
0.926414 0.808979 0.367524
0.351088 0.862603 0.338324
0.422459 0.868986 0.345116
0.498673 0.875820 0.352370
0.578413 0.882984 0.359966
0.660959 0.890414 0.367838
0.745854 0.898067 0.375945
0.832736 0.905915 0.384258
0.920924 0.913935 0.392756
0.953106 0.916822 0.396092
0.360120 0.901637 0.349218
0.431475 0.908045 0.356061
0.507681 0.914905 0.363366
0.587427 0.922096 0.371016
0.669994 0.929553 0.378943
0.754926 0.937225 0.387107
0.841863 0.945090 0.395478
0.930523 0.953138 0.404035
0.962869 0.956063 0.407421
0.187533 0.172269 0.227645
0.259905 0.178652 0.234153
0.337093 0.185479 0.241113
0.417748 0.192632 0.248405
0.501131 0.200044 0.255965
0.586772 0.207672 0.263751
0.674342 0.215488 0.271734
0.763599 0.223469 0.279892
0.795437 0.226295 0.282919
0.207860 0.258979 0.249576
0.279999 0.265349 0.256116
0.356952 0.272165 0.263110
0.437377 0.279307 0.270438
0.520539 0.286708 0.278034
0.605968 0.294327 0.285858
0.693339 0.302134 0.293880
0.782411 0.310108 0.302078
0.814251 0.312931 0.305144
0.229731 0.351534 0.273110
0.301665 0.357895 0.279688
0.378414 0.364703 0.286719
0.458641 0.371837 0.294086
0.541614 0.379231 0.301724
0.626867 0.386845 0.309589
0.714074 0.394647 0.317655
0.802996 0.402616 0.325898
0.834852 0.405439 0.329007
0.252747 0.448339 0.297861
0.324507 0.454696 0.304479
0.401084 0.461499 0.311553
0.481146 0.468630 0.318964
0.563964 0.476023 0.326646
0.649074 0.483634 0.334559
0.736153 0.491436 0.342672
0.824962 0.499406 0.350965
0.855781 0.502233 0.354119
0.276704 0.548532 0.323623
0.348320 0.554888 0.330286
0.424756 0.561692 0.337406
0.504686 0.568824 0.344865
0.587384 0.576219 0.352597
0.672387 0.583834 0.360561
0.759374 0.591640 0.368726
0.847529 0.599615 0.377074
0.878544 0.602451 0.380277
0.301478 0.651566 0.350270
0.372980 0.657927 0.356982
0.449309 0.664737 0.364154
0.529141 0.671875 0.371665
0.611753 0.679277 0.379451
0.696685 0.686901 0.387470
0.783615 0.694716 0.395693
0.871364 0.702701 0.404099
0.902889 0.705550 0.407356
0.326992 0.757069 0.377719
0.398412 0.763439 0.384485
0.474666 0.770260 0.391713
0.554434 0.777410 0.399281
0.636996 0.784825 0.407126
0.721892 0.792462 0.415206
0.808803 0.800292 0.423491
0.896631 0.808293 0.431960
0.928553 0.811160 0.435275
0.353199 0.864770 0.405915
0.424568 0.871155 0.412739
0.500779 0.877992 0.420027
0.580517 0.885159 0.427657
0.663064 0.892592 0.435566
0.747961 0.900248 0.443710
0.834833 0.908098 0.452062
0.923082 0.916121 0.460600
0.955286 0.919011 0.463976
0.362253 0.903812 0.416920
0.433607 0.910224 0.423800
0.509814 0.917086 0.431143
0.589561 0.924280 0.438831
0.672132 0.931740 0.446799
0.757069 0.939411 0.455004
0.844014 0.947283 0.463418
0.932710 0.955335 0.472019
0.965069 0.958264 0.475449
0.189738 0.174588 0.299400
0.262084 0.180970 0.305912
0.339247 0.187798 0.312878
0.419877 0.194951 0.320178
0.503237 0.202363 0.327746
0.588854 0.209992 0.335542
0.676402 0.217808 0.343535
0.765639 0.225789 0.351706
0.797476 0.228617 0.354746
0.210066 0.261293 0.321351
0.282183 0.267664 0.327900
0.359114 0.274480 0.334904
0.439518 0.281623 0.342244
0.522659 0.289025 0.349853
0.608069 0.296644 0.357691
0.695422 0.304452 0.365728
0.784477 0.312426 0.373943
0.816317 0.315250 0.377027
0.231941 0.353844 0.344921
0.303856 0.360207 0.351511
0.380587 0.367015 0.358557
0.460796 0.374150 0.365940
0.543751 0.381546 0.373595
0.628988 0.389160 0.381479
0.716180 0.396963 0.389564
0.805090 0.404933 0.397829
0.836843 0.407758 0.400959
0.254963 0.450648 0.369721
0.326707 0.457006 0.376357
0.403269 0.463811 0.383450
0.483316 0.470943 0.390881
0.566121 0.478336 0.398585
0.651218 0.485949 0.406520
0.738286 0.493752 0.414657
0.827086 0.501723 0.422976
0.857845 0.504553 0.426157
0.278928 0.550840 0.395547
0.350531 0.557198 0.402233
0.426955 0.564004 0.409376
0.506874 0.571138 0.416860
0.589562 0.578534 0.424618
0.674556 0.586151 0.432608
0.761536 0.593958 0.440803
0.849631 0.601935 0.449180
0.880701 0.604773 0.452414
0.303713 0.653876 0.422274
0.375205 0.660239 0.429012
0.451525 0.667050 0.436212
0.531349 0.674191 0.443752
0.613955 0.681595 0.451569
0.698882 0.689220 0.459619
0.785809 0.697038 0.467875
0.873553 0.705025 0.476316
0.905122 0.707877 0.479608
0.329241 0.759382 0.449817
0.400654 0.765755 0.456614
0.476902 0.772578 0.463874
0.556666 0.779730 0.471476
0.639224 0.787147 0.479355
0.724119 0.794786 0.487471
0.811031 0.802619 0.495793
0.898890 0.810623 0.504301
0.930845 0.813493 0.507655
0.355464 0.867088 0.478122
0.426829 0.873476 0.484982
0.503038 0.880315 0.492306
0.582775 0.887485 0.499974
0.665322 0.894921 0.507921
0.750221 0.902580 0.516107
0.837087 0.910433 0.524500
0.925393 0.918458 0.533081
0.957618 0.921352 0.536500
0.364538 0.906139 0.489249
0.435891 0.912553 0.496167
0.512099 0.919418 0.503552
0.591849 0.926615 0.511282
0.674424 0.934077 0.519293
0.759366 0.941749 0.527543
0.846321 0.949627 0.536003
0.935050 0.957685 0.544651
0.967420 0.960617 0.548129
0.192055 0.177016 0.374495
0.264376 0.183399 0.381013
0.341514 0.190227 0.387985
0.422119 0.197380 0.395293
0.505455 0.204793 0.402871
0.591050 0.212422 0.410677
0.678576 0.220238 0.418683
0.767792 0.228220 0.426867
0.799629 0.231048 0.429923
0.212385 0.263718 0.396469
0.284480 0.270089 0.403029
0.361389 0.276906 0.410044
0.441771 0.284049 0.417396
0.524892 0.291451 0.425019
0.610283 0.299071 0.432873
0.697618 0.306880 0.440927
0.786656 0.314854 0.449160
0.818498 0.317680 0.452263
0.234262 0.356266 0.420078
0.306159 0.362628 0.426683
0.382871 0.369438 0.433745
0.463062 0.376574 0.441146
0.546001 0.383970 0.448819
0.631222 0.391585 0.456723
0.718400 0.399390 0.464829
0.807297 0.407361 0.473117
0.838913 0.410187 0.476271
0.257291 0.453068 0.444933
0.329019 0.459426 0.451588
0.405565 0.466232 0.458701
0.485598 0.473366 0.466154
0.568390 0.480761 0.473881
0.653475 0.488375 0.481841
0.740533 0.496179 0.490004
0.829324 0.504152 0.498350
0.860024 0.506983 0.501559
0.281264 0.553260 0.470829
0.352854 0.559619 0.477538
0.429267 0.566426 0.484707
0.509175 0.573562 0.492216
0.591853 0.580959 0.500002
0.676839 0.588578 0.508022
0.763811 0.596387 0.516247
0.851848 0.604366 0.524656
0.882973 0.607205 0.527923
0.306059 0.656297 0.497640
0.377542 0.662661 0.504408
0.453854 0.669475 0.511636
0.533670 0.676617 0.519208
0.616270 0.684023 0.527056
0.701192 0.691651 0.535141
0.788116 0.699470 0.543432
0.875858 0.707460 0.551909
0.907471 0.710314 0.555238
0.331601 0.761806 0.525285
0.403008 0.768181 0.532115
0.479250 0.775006 0.539408
0.559010 0.782161 0.547046
0.641566 0.789580 0.554962
0.726460 0.797222 0.563116
0.813372 0.805057 0.571478
0.901264 0.813063 0.580028
0.933251 0.815936 0.583423
0.357840 0.869517 0.553706
0.429202 0.875908 0.560603
0.505409 0.882749 0.567966
0.585146 0.889922 0.575674
0.667694 0.897360 0.583663
0.752595 0.905022 0.591891
0.839456 0.912878 0.600329
0.927817 0.920906 0.608956
0.960063 0.923803 0.612421
0.366935 0.908576 0.564962
0.438288 0.914993 0.571922
0.514497 0.921862 0.579349
0.594250 0.929061 0.587124
0.676829 0.936520 0.595181
0.761777 0.944199 0.603479
0.848742 0.952083 0.611987
0.937502 0.960145 0.620686
0.969882 0.963081 0.624214
0.194461 0.179533 0.452251
0.266758 0.185916 0.458775
0.343870 0.192744 0.465755
0.424451 0.199898 0.473072
0.507763 0.207310 0.480661
0.593336 0.214939 0.488480
0.680841 0.222756 0.496499
0.770037 0.230738 0.504698
0.801873 0.233567 0.507769
0.214792 0.266230 0.474253
0.286865 0.272601 0.480823
0.363753 0.279419 0.487851
0.444114 0.286562 0.495217
0.527215 0.293965 0.502856
0.612587 0.301586 0.510726
0.699904 0.309395 0.518798
0.788927 0.317371 0.527051
0.820769 0.320197 0.530175
0.236673 0.358775 0.497904
0.308552 0.365138 0.504525
0.385245 0.371949 0.511605
0.465419 0.379085 0.519024
0.548341 0.386483 0.526717
0.633547 0.394099 0.534642
0.720711 0.401904 0.542772
0.809595 0.409877 0.551084
0.841077 0.412704 0.554263
0.259707 0.455575 0.522818
0.331421 0.461935 0.529494
0.407952 0.468742 0.536629
0.487970 0.475877 0.544105
0.570749 0.483273 0.551857
0.655823 0.490888 0.559843
0.742870 0.498694 0.568034
0.831652 0.506668 0.576409
0.862298 0.509501 0.579647
0.283688 0.555767 0.548789
0.355267 0.562127 0.555523
0.431668 0.568936 0.562718
0.511565 0.576073 0.570256
0.594233 0.583473 0.578071
0.679211 0.591093 0.586122
0.766177 0.598904 0.594380
0.854160 0.606884 0.602822
0.885340 0.609726 0.606124
0.308495 0.658805 0.575691
0.379969 0.665172 0.582488
0.456272 0.671987 0.589748
0.536081 0.679132 0.597353
0.618675 0.686540 0.605235
0.703592 0.694169 0.613356
0.790513 0.701991 0.621684
0.878256 0.709983 0.630199
0.909912 0.712839 0.633567
0.334050 0.764318 0.603442
0.405451 0.770695 0.610307
0.481689 0.777522 0.617636
0.561445 0.784680 0.625311
0.643998 0.792101 0.633267
0.728891 0.799746 0.641461
0.815804 0.807583 0.649865
0.903730 0.815592 0.658458
0.935748 0.818467 0.661897
0.360305 0.872034 0.631986
0.431664 0.878427 0.638923
0.507870 0.885272 0.646326
0.587606 0.892447 0.654076
0.670156 0.899888 0.662109
0.755060 0.907553 0.670382
0.841919 0.915411 0.678867
0.930332 0.923443 0.687542
0.962598 0.926343 0.691055
0.369421 0.911102 0.643378
0.440775 0.917522 0.650382
0.516986 0.924393 0.657855
0.596741 0.931596 0.665677
0.679325 0.939053 0.673782
0.764280 0.946739 0.682129
0.851255 0.954628 0.690689
0.940044 0.962694 0.699441
0.972433 0.965632 0.703022
0.196941 0.182123 0.532235
0.269214 0.188506 0.538766
0.346302 0.195335 0.545756
0.426859 0.202488 0.553083
0.510147 0.209901 0.560683
0.595697 0.217531 0.568515
0.683181 0.225347 0.576549
0.772358 0.233330 0.584764
0.804193 0.236160 0.587853
0.217274 0.268815 0.554267
0.289326 0.275188 0.560850
0.366192 0.282006 0.567891
0.446533 0.289150 0.575272
0.529614 0.296553 0.582928
0.614967 0.304175 0.590816
0.702267 0.311984 0.598907
0.791273 0.319961 0.607181
0.823117 0.322788 0.610327
0.239159 0.361357 0.577966
0.311019 0.367722 0.584604
0.387694 0.374533 0.591701
0.467850 0.381671 0.599140
0.550757 0.389069 0.606855
0.635947 0.396686 0.614803
0.723098 0.404492 0.622957
0.811970 0.412466 0.631295
0.843323 0.415295 0.634501
0.262199 0.458156 0.602943
0.333897 0.464517 0.609640
0.410413 0.471325 0.616798
0.490418 0.478461 0.624299
0.573184 0.485859 0.632077
0.658246 0.493476 0.640091
0.745283 0.501283 0.648311
0.833996 0.509258 0.656717
0.864652 0.512092 0.659987
0.286188 0.558348 0.628993
0.357754 0.564710 0.635754
0.434144 0.571520 0.642977
0.514031 0.578659 0.650545
0.596690 0.586060 0.658391
0.681660 0.593682 0.666474
0.768620 0.601495 0.674766
0.856553 0.609477 0.683244
0.887786 0.612321 0.686582
0.311005 0.661388 0.655991
0.382471 0.667756 0.662820
0.458765 0.674574 0.670113
0.538568 0.681720 0.677751
0.621156 0.689130 0.685670
0.706069 0.696762 0.693828
0.792988 0.704585 0.702195
0.880734 0.712579 0.710751
0.912431 0.715438 0.714160
0.336574 0.766904 0.683855
0.407970 0.773283 0.690755
0.484202 0.780113 0.698123
0.563955 0.787272 0.705837
0.646507 0.794697 0.713833
0.731399 0.802343 0.722070
0.818313 0.810183 0.730518
0.906274 0.818194 0.739156
0.938323 0.821073 0.742640
0.362846 0.874625 0.712527
0.434203 0.881021 0.719505
0.510407 0.887868 0.726951
0.590143 0.895046 0.734746
0.672694 0.902490 0.742824
0.757602 0.910157 0.751144
0.844460 0.918019 0.759678
0.932924 0.926053 0.768403
0.965208 0.928956 0.771967
0.371983 0.913702 0.724061
0.443337 0.920125 0.731112
0.519550 0.926999 0.738632
0.599309 0.934202 0.746502
0.681897 0.941661 0.754658
0.766859 0.949353 0.763057
0.853846 0.957247 0.771671
0.942661 0.965317 0.780477
0.975059 0.968258 0.784113
0.199486 0.184776 0.614142
0.271734 0.191160 0.620682
0.348798 0.197988 0.627681
0.429331 0.205142 0.635020
0.512596 0.212555 0.642633
0.598124 0.220185 0.650479
0.685588 0.228002 0.658529
0.774745 0.235985 0.666761
0.806580 0.238816 0.669869
0.219820 0.271465 0.636209
0.291851 0.277837 0.642805
0.368696 0.284656 0.649861
0.449016 0.291800 0.657258
0.532078 0.299205 0.664932
0.617413 0.306827 0.672839
0.704695 0.314637 0.680951
0.793687 0.322614 0.689248
0.825532 0.325443 0.692417
0.241708 0.364003 0.659958
0.313550 0.370369 0.666614
0.390208 0.377181 0.673732
0.470348 0.384319 0.681192
0.553238 0.391719 0.688929
0.638414 0.399337 0.696902
0.725551 0.407144 0.705081
0.814411 0.415118 0.713446
0.845641 0.417949 0.716681
0.264754 0.460800 0.685003
0.336438 0.467163 0.691723
0.412940 0.473972 0.698906
0.492931 0.481110 0.706433
0.575684 0.488508 0.714239
0.660736 0.496127 0.722282
0.747763 0.503935 0.730533
0.836358 0.511912 0.738971
0.867078 0.514748 0.742274
0.288752 0.560992 0.711137
0.360307 0.567356 0.717926
0.436685 0.574168 0.725179
0.516562 0.581308 0.732778
0.599213 0.588711 0.740657
0.684175 0.596334 0.748774
0.771129 0.604149 0.757101
0.859016 0.612133 0.765617
0.890302 0.614979 0.768992
0.313580 0.664034 0.738236
0.385037 0.670405 0.745098
0.461324 0.677224 0.752425
0.541120 0.684372 0.760100
0.623703 0.691784 0.768057
0.708613 0.699418 0.776253
0.795529 0.707244 0.784661
0.883281 0.715240 0.793259
0.915019 0.718101 0.796711
0.339163 0.769553 0.766217
0.410553 0.775935 0.773156
0.486782 0.782767 0.780563
0.566531 0.789929 0.788319
0.649081 0.797356 0.796357
0.733973 0.805005 0.804638
0.820889 0.812847 0.813132
0.908887 0.820861 0.821817
0.940964 0.823742 0.825349
0.365452 0.877280 0.795025
0.436806 0.883679 0.802045
0.513009 0.890529 0.809536
0.592746 0.897710 0.817377
0.675299 0.905156 0.825503
0.760210 0.912826 0.833872
0.847071 0.920691 0.842456
0.935583 0.928728 0.851233
0.967884 0.931634 0.854849
0.374610 0.916366 0.806707
0.445965 0.922792 0.813805
0.522180 0.929668 0.821375
0.601942 0.936869 0.829296
0.684536 0.944334 0.837505
0.769505 0.952032 0.845958
0.856505 0.959931 0.854626
0.945344 0.968005 0.863490
0.977748 0.970948 0.867183
0.202087 0.187486 0.697748
0.274312 0.193869 0.704297
0.351351 0.200698 0.711307
0.431861 0.207852 0.718659
0.515103 0.215265 0.726286
0.600610 0.222896 0.734147
0.688053 0.230713 0.742214
0.777191 0.238697 0.750465
0.809026 0.241528 0.753592
0.222423 0.274170 0.719852
0.294433 0.280543 0.726463
0.371258 0.287362 0.733535
0.451557 0.294507 0.740950
0.534600 0.301912 0.748642
0.619916 0.309535 0.756570
0.707183 0.317346 0.764704
0.796159 0.325323 0.773024
0.828005 0.328153 0.776218
0.244315 0.366706 0.743656
0.316139 0.373072 0.750332
0.392780 0.379885 0.757470
0.472902 0.387024 0.764953
0.555777 0.394425 0.772714
0.640938 0.402044 0.780713
0.728063 0.409852 0.788919
0.816912 0.417827 0.797313
0.848024 0.420659 0.800577
0.267367 0.463501 0.768772
0.339036 0.469865 0.775517
0.415523 0.476676 0.782727
0.495501 0.483814 0.790281
0.578243 0.491214 0.798116
0.663283 0.498834 0.806190
0.750302 0.506643 0.814473
0.838784 0.514622 0.822944
0.869568 0.517459 0.826282
0.291373 0.563693 0.794996
0.362917 0.570058 0.801814
0.439284 0.576872 0.809098
0.519151 0.584014 0.816730
0.601793 0.591418 0.824643
0.686749 0.599043 0.832796
0.773697 0.606860 0.841160
0.861544 0.614846 0.849714
0.892880 0.617694 0.853130
0.316213 0.666737 0.822201
0.387662 0.673109 0.829097
0.463941 0.679930 0.836461
0.543731 0.687081 0.844173
0.626309 0.694495 0.852169
0.711215 0.702131 0.860406
0.798130 0.709959 0.868857
0.885891 0.717957 0.877498
0.917669 0.720820 0.880995
0.341810 0.772260 0.850305
0.413195 0.778644 0.857283
0.489419 0.785478 0.864731
0.569166 0.792642 0.872530
0.651714 0.800071 0.880613
0.736607 0.807723 0.888939
0.823525 0.815568 0.896914
0.911561 0.823584 0.904949
0.943666 0.826468 0.908187
0.368115 0.879992 0.879252
0.439468 0.886393 0.886318
0.515670 0.893246 0.893549
0.595408 0.900429 0.900849
0.677963 0.907879 0.908333
0.762878 0.915552 0.915956
0.849744 0.923419 0.923683
0.938300 0.931459 0.931487
0.970618 0.934368 0.934575
0.377295 0.919087 0.891035
0.448651 0.925515 0.897623
0.524868 0.932395 0.904569
0.604635 0.939593 0.911754
0.687234 0.947065 0.919108
0.772210 0.954769 0.926587
0.859225 0.962672 0.934156
0.948084 0.970749 0.941788
0.980494 0.973694 0.944797
0.202909 0.188442 0.728237
0.275112 0.194826 0.734794
0.352129 0.201656 0.741812
0.432617 0.208811 0.749172
0.515840 0.216224 0.756808
0.601327 0.223855 0.764680
0.688751 0.231674 0.772757
0.777873 0.239658 0.781019
0.809709 0.242490 0.784158
0.223253 0.275124 0.750369
0.295244 0.281498 0.756989
0.372050 0.288318 0.764071
0.452332 0.295464 0.771497
0.535357 0.302870 0.779200
0.620657 0.310493 0.787140
0.707909 0.318305 0.795287
0.796871 0.326284 0.803620
0.828721 0.329115 0.806827
0.245154 0.367658 0.774207
0.316963 0.374025 0.780894
0.393588 0.380839 0.788045
0.473695 0.387980 0.795541
0.556556 0.395382 0.803315
0.641705 0.403002 0.811328
0.728818 0.410812 0.819549
0.817657 0.418789 0.827957
0.848749 0.421622 0.831237
0.268217 0.464453 0.799365
0.339873 0.470818 0.806123
0.416349 0.477631 0.813347
0.496315 0.484770 0.820916
0.579046 0.492172 0.828766
0.664077 0.499793 0.836856
0.751088 0.507605 0.845156
0.839536 0.515585 0.853644
0.870374 0.518424 0.857000
0.292237 0.564646 0.825636
0.363771 0.571013 0.832470
0.440129 0.577829 0.839771
0.519987 0.584972 0.847419
0.602622 0.592379 0.855349
0.687572 0.600006 0.863520
0.774516 0.607824 0.871903
0.862374 0.615812 0.880477
0.893755 0.618662 0.883911
0.317092 0.667693 0.852896
0.388534 0.674067 0.859810
0.464807 0.680890 0.867192
0.544592 0.688043 0.874923
0.627166 0.695460 0.882939
0.712070 0.703097 0.891009
0.798984 0.710928 0.898983
0.886785 0.718928 0.907060
0.918598 0.721794 0.910272
0.342706 0.773220 0.881062
0.414087 0.779607 0.888033
0.490309 0.786443 0.895098
0.570054 0.793610 0.902427
0.652602 0.801042 0.909952
0.737496 0.808696 0.917625
0.824416 0.816544 0.925413
0.912505 0.824563 0.933288
0.944634 0.827449 0.936370
0.369031 0.880958 0.908714
0.440383 0.887363 0.915244
0.516586 0.894218 0.922143
0.596325 0.901404 0.929288
0.678883 0.908857 0.936612
0.763802 0.916533 0.944068
0.850682 0.924403 0.951621
0.939280 0.932446 0.959245
0.971610 0.935357 0.962158
0.378235 0.920062 0.919440
0.449593 0.926494 0.925867
0.525813 0.933377 0.932647
0.605584 0.940578 0.939657
0.688190 0.948055 0.946832
0.773174 0.955762 0.954124
0.860204 0.963669 0.961500
0.949081 0.971749 0.968932
0.981495 0.974695 0.971748
