library/cube/Retro_Chem_002.cube
# CINEGRADE LAB — Premium Cinematic LUT
# Title: Retro Chem
# Category: Vintage Film Lab
# Description: Faded, grainy, color-shifted retro film lab aesthetic
# Mood: Retro, faded, nostalgic
# Variant: 3
# Generated: 2026-05-21T16:12:32.578663
TITLE "Retro Chem"
LUT_3D_SIZE 33
0.185482 0.170102 0.160465
0.203009 0.171645 0.162038
0.220949 0.173226 0.163650
0.239252 0.174840 0.165294
0.257879 0.176484 0.166970
0.276800 0.178155 0.168672
0.295989 0.179851 0.170400
0.315426 0.181571 0.172151
0.335092 0.183311 0.173924
0.354973 0.185072 0.175718
0.375054 0.186852 0.177531
0.395324 0.188649 0.179362
0.415772 0.190464 0.181211
0.436390 0.192294 0.183076
0.457169 0.194140 0.184957
0.478101 0.196001 0.186853
0.499180 0.197875 0.188763
0.520399 0.199763 0.190688
0.541753 0.201664 0.192626
0.563236 0.203578 0.194577
0.584844 0.205503 0.196541
0.606572 0.207441 0.198517
0.628416 0.209389 0.200504
0.650372 0.211349 0.202503
0.672436 0.213319 0.204514
0.694606 0.215299 0.206535
0.716877 0.217290 0.208567
0.739247 0.219290 0.210609
0.761714 0.221299 0.212661
0.784274 0.223318 0.214723
0.794080 0.224191 0.215642
0.793815 0.224158 0.215659
0.793552 0.224125 0.215676
0.190382 0.191090 0.165759
0.207894 0.192632 0.167334
0.225819 0.194212 0.168947
0.244106 0.195825 0.170594
0.262718 0.197468 0.172270
0.281623 0.199139 0.173975
0.300797 0.200834 0.175704
0.320218 0.202553 0.177457
0.339869 0.204293 0.179232
0.359734 0.206053 0.181028
0.379799 0.207832 0.182843
0.400054 0.209628 0.184676
0.420488 0.211442 0.186526
0.441090 0.213272 0.188393
0.461854 0.215117 0.190276
0.482772 0.216977 0.192174
0.503836 0.218850 0.194087
0.525041 0.220738 0.196013
0.546380 0.222638 0.197953
0.567849 0.224551 0.199906
0.589443 0.226476 0.201872
0.611157 0.228412 0.203850
0.632988 0.230360 0.205840
0.654930 0.232319 0.207841
0.676981 0.234289 0.209853
0.699138 0.236268 0.211877
0.721396 0.238258 0.213910
0.743754 0.240258 0.215955
0.766209 0.242267 0.218009
0.788757 0.244285 0.220073
0.798561 0.245158 0.220995
0.798302 0.245124 0.221013
0.798046 0.245092 0.221033
0.195413 0.212575 0.171186
0.212910 0.214116 0.172762
0.230819 0.215696 0.174377
0.249092 0.217308 0.176025
0.267688 0.218951 0.177704
0.286578 0.220620 0.179410
0.305737 0.222315 0.181141
0.325143 0.224033 0.182896
0.344779 0.225772 0.184673
0.364629 0.227531 0.186470
0.384679 0.229309 0.188287
0.404919 0.231105 0.190122
0.425338 0.232918 0.191974
0.445927 0.234747 0.193843
0.466676 0.236592 0.195728
0.487579 0.238451 0.197628
0.508629 0.240324 0.199543
0.529820 0.242211 0.201471
0.551146 0.244110 0.203413
0.572601 0.246022 0.205369
0.594182 0.247947 0.207336
0.615883 0.249883 0.209316
0.637700 0.251830 0.211308
0.659630 0.253788 0.213312
0.681668 0.255757 0.215326
0.703812 0.257736 0.217352
0.726059 0.259726 0.219388
0.748405 0.261725 0.221434
0.770847 0.263733 0.223491
0.793384 0.265751 0.225557
0.803187 0.266623 0.226481
0.802934 0.266590 0.226502
0.802684 0.266557 0.226523
0.200558 0.234499 0.176729
0.218041 0.236040 0.178307
0.235936 0.237618 0.179924
0.254193 0.239230 0.181574
0.272775 0.240872 0.183254
0.291651 0.242541 0.184962
0.310795 0.244234 0.186696
0.330186 0.245951 0.188453
0.349807 0.247690 0.190231
0.369643 0.249448 0.192031
0.389679 0.251226 0.193849
0.409905 0.253021 0.195686
0.430310 0.254833 0.197541
0.450884 0.256662 0.199412
0.471619 0.258506 0.201299
0.492509 0.260364 0.203201
0.513545 0.262237 0.205117
0.534723 0.264123 0.207048
0.556035 0.266022 0.208992
0.577478 0.267933 0.210950
0.599045 0.269857 0.212920
0.620733 0.271793 0.214902
0.642538 0.273739 0.216896
0.664456 0.275697 0.218901
0.686482 0.277665 0.220918
0.708614 0.279644 0.222946
0.730849 0.281633 0.224985
0.753184 0.283631 0.227033
0.775615 0.285640 0.229092
0.798141 0.287657 0.231161
0.807942 0.288529 0.232087
0.807696 0.288495 0.232110
0.807452 0.288462 0.232133
0.205807 0.256816 0.182379
0.223276 0.258356 0.183959
0.241157 0.259934 0.185577
0.259400 0.261545 0.187229
0.277968 0.263186 0.188912
0.296829 0.264854 0.190622
0.315959 0.266547 0.192357
0.335336 0.268263 0.194116
0.354943 0.270001 0.195896
0.374765 0.271759 0.197698
0.394787 0.273536 0.199518
0.414999 0.275331 0.201357
0.435390 0.277142 0.203214
0.455951 0.278970 0.205087
0.476673 0.280813 0.206976
0.497549 0.282671 0.208880
0.518572 0.284543 0.210799
0.539737 0.286429 0.212732
0.561037 0.288327 0.214678
0.582467 0.290238 0.216638
0.604022 0.292161 0.218610
0.625698 0.294096 0.220595
0.647491 0.296043 0.222591
0.669396 0.298000 0.224599
0.691411 0.299968 0.226618
0.713532 0.301946 0.228648
0.735756 0.303934 0.230689
0.758079 0.305933 0.232740
0.780500 0.307940 0.234801
0.803015 0.309957 0.236873
0.812816 0.310829 0.237801
0.812576 0.310796 0.237826
0.812339 0.310763 0.237852
0.211150 0.279490 0.188126
0.228605 0.281029 0.189708
0.246472 0.282606 0.191328
0.264702 0.284216 0.192982
0.283256 0.285857 0.194666
0.302103 0.287524 0.196378
0.321220 0.289217 0.198116
0.340583 0.290932 0.199876
0.360177 0.292670 0.201659
0.379984 0.294427 0.203463
0.399994 0.296203 0.205285
0.420192 0.297997 0.207127
0.440570 0.299808 0.208985
0.461118 0.301636 0.210860
0.481827 0.303478 0.212752
0.502690 0.305336 0.214658
0.523701 0.307207 0.216579
0.544853 0.309092 0.218514
0.566141 0.310990 0.220463
0.587559 0.312901 0.222425
0.609102 0.314823 0.224399
0.630767 0.316758 0.226386
0.652548 0.318704 0.228385
0.674442 0.320661 0.230395
0.696446 0.322628 0.232416
0.718557 0.324606 0.234449
0.740770 0.326594 0.236492
0.763083 0.328592 0.238546
0.785494 0.330599 0.240610
0.807999 0.332616 0.242684
0.817799 0.333487 0.243614
0.817566 0.333454 0.243641
0.817335 0.333421 0.243669
0.216579 0.302490 0.193962
0.234021 0.304028 0.195547
0.251875 0.305605 0.197169
0.270092 0.307214 0.198825
0.288632 0.308854 0.200511
0.307467 0.310521 0.202225
0.326570 0.312213 0.203965
0.345920 0.313928 0.205727
0.365500 0.315665 0.207512
0.385295 0.317422 0.209318
0.405291 0.319197 0.211143
0.425477 0.320991 0.212986
0.445842 0.322802 0.214847
0.466378 0.324628 0.216725
0.487075 0.326470 0.218618
0.507926 0.328327 0.220527
0.528925 0.330198 0.222450
0.550065 0.332083 0.224387
0.571341 0.333981 0.226338
0.592747 0.335891 0.228302
0.614279 0.337813 0.230279
0.635933 0.339747 0.232269
0.657703 0.341693 0.234270
0.679587 0.343649 0.236282
0.701581 0.345616 0.238306
0.723680 0.347594 0.240341
0.745884 0.349582 0.242387
0.768187 0.351579 0.244443
0.790588 0.353586 0.246510
0.813085 0.355603 0.248586
0.822884 0.356474 0.249519
0.822657 0.356441 0.249548
0.822433 0.356408 0.249579
0.222089 0.325791 0.199883
0.239518 0.327329 0.201469
0.257360 0.328905 0.203094
0.275563 0.330515 0.204752
0.294091 0.332154 0.206440
0.312913 0.333820 0.208156
0.332003 0.335512 0.209898
0.351341 0.337226 0.211663
0.370908 0.338962 0.213450
0.390691 0.340719 0.215258
0.410675 0.342494 0.217085
0.430848 0.344287 0.218930
0.451201 0.346097 0.220794
0.471724 0.347924 0.222673
0.492409 0.349765 0.224569
0.513249 0.351622 0.226480
0.534236 0.353492 0.228406
0.555365 0.355377 0.230345
0.576630 0.357274 0.232299
0.598025 0.359184 0.234265
0.619547 0.361106 0.236245
0.641190 0.363040 0.238236
0.662950 0.364985 0.240240
0.684824 0.366941 0.242255
0.706807 0.368908 0.244282
0.728898 0.370885 0.246319
0.751091 0.372873 0.248368
0.773386 0.374870 0.250426
0.795778 0.376877 0.252495
0.818265 0.378893 0.254574
0.828065 0.379764 0.255510
0.827845 0.379731 0.255542
0.827626 0.379698 0.255574
0.227674 0.349374 0.205883
0.245091 0.350911 0.207471
0.262920 0.352487 0.209097
0.281112 0.354096 0.210757
0.299627 0.355734 0.212448
0.318436 0.357400 0.214166
0.337514 0.359091 0.215910
0.356840 0.360805 0.217677
0.376395 0.362541 0.219467
0.396166 0.364297 0.221277
0.416138 0.366072 0.223106
0.436299 0.367865 0.224954
0.456641 0.369674 0.226820
0.477152 0.371500 0.228702
0.497826 0.373342 0.230600
0.518655 0.375198 0.232513
0.539631 0.377068 0.234441
0.560749 0.378952 0.236383
0.582003 0.380849 0.238339
0.603388 0.382759 0.240308
0.624900 0.384680 0.242290
0.646532 0.386614 0.244284
0.668283 0.388559 0.246291
0.690147 0.390515 0.248308
0.712121 0.392481 0.250338
0.734203 0.394459 0.252378
0.756388 0.396446 0.254429
0.778673 0.398443 0.256490
0.801057 0.400450 0.258562
0.823537 0.402466 0.260644
0.833336 0.403337 0.261581
0.833122 0.403304 0.261615
0.832911 0.403272 0.261650
0.233329 0.373219 0.211956
0.250735 0.374756 0.213547
0.268552 0.376331 0.215175
0.286732 0.377939 0.216838
0.305235 0.379578 0.218531
0.324033 0.381243 0.220251
0.343099 0.382934 0.221997
0.362413 0.384648 0.223767
0.381957 0.386383 0.225558
0.401716 0.388138 0.227371
0.421676 0.389913 0.229203
0.441827 0.391705 0.231053
0.462157 0.393515 0.232921
0.482658 0.395340 0.234805
0.503321 0.397182 0.236706
0.524139 0.399037 0.238622
0.545105 0.400907 0.240552
0.566212 0.402791 0.242497
0.587457 0.404688 0.244455
0.608832 0.406597 0.246427
0.630333 0.408519 0.248411
0.651957 0.410452 0.250408
0.673698 0.412397 0.252417
0.695553 0.414353 0.254437
0.717519 0.416319 0.256469
0.739591 0.418296 0.258512
0.761768 0.420283 0.260566
0.784046 0.422280 0.262630
0.806422 0.424287 0.264704
0.828894 0.426303 0.266789
0.838495 0.427175 0.267729
0.838292 0.427142 0.267766
0.838092 0.427109 0.267803
0.239052 0.397311 0.218101
0.256446 0.398847 0.219693
0.274252 0.400422 0.221324
0.292420 0.402030 0.222989
0.310913 0.403668 0.224684
0.329699 0.405333 0.226407
0.348753 0.407024 0.228155
0.368056 0.408737 0.229927
0.387589 0.410472 0.231721
0.407337 0.412227 0.233536
0.427286 0.414001 0.235370
0.447426 0.415794 0.237223
0.467746 0.417603 0.239093
0.488236 0.419428 0.240980
0.508889 0.421269 0.242883
0.529697 0.423125 0.244802
0.550653 0.424995 0.246735
0.571751 0.426878 0.248682
0.592986 0.428775 0.250643
0.614352 0.430684 0.252617
0.635844 0.432605 0.254605
0.657459 0.434539 0.256604
0.679191 0.436483 0.258615
0.701038 0.438439 0.260639
0.722995 0.440406 0.262673
0.745060 0.442382 0.264719
0.767229 0.444370 0.266775
0.789499 0.446367 0.268842
0.811868 0.448373 0.270920
0.834333 0.450389 0.273007
0.843600 0.451261 0.273950
0.843412 0.451228 0.273989
0.843226 0.451196 0.274028
0.244838 0.421636 0.224312
0.262221 0.423172 0.225907
0.280016 0.424746 0.227541
0.298174 0.426354 0.229208
0.316655 0.427992 0.230905
0.335430 0.429657 0.232630
0.354474 0.431347 0.234381
0.373766 0.433060 0.236155
0.393289 0.434795 0.237952
0.413026 0.436550 0.239769
0.432965 0.438324 0.241606
0.453095 0.440116 0.243461
0.473404 0.441925 0.245334
0.493885 0.443750 0.247224
0.514528 0.445591 0.249129
0.535326 0.447446 0.251050
0.556273 0.449316 0.252986
0.577362 0.451200 0.254936
0.598588 0.453096 0.256900
0.619945 0.455005 0.258877
0.641429 0.456927 0.260866
0.663035 0.458860 0.262869
0.684759 0.460804 0.264883
0.706598 0.462760 0.266909
0.728548 0.464727 0.268946
0.750606 0.466704 0.270995
0.772767 0.468691 0.273054
0.795031 0.470688 0.275124
0.817393 0.472694 0.277204
0.839552 0.474711 0.279294
0.848834 0.475582 0.280240
0.848660 0.475550 0.280281
0.848488 0.475519 0.280323
0.250684 0.446181 0.230589
0.268058 0.447718 0.232186
0.285842 0.449292 0.233821
0.303989 0.450899 0.235491
0.322460 0.452537 0.237191
0.341225 0.454202 0.238919
0.360259 0.455891 0.240672
0.379541 0.457604 0.242449
0.399053 0.459339 0.244248
0.418780 0.461094 0.246067
0.438710 0.462868 0.247907
0.458830 0.464660 0.249765
0.479130 0.466469 0.251640
0.499601 0.468294 0.253532
0.520235 0.470135 0.255441
0.541024 0.471990 0.257364
0.561962 0.473860 0.259303
0.583042 0.475743 0.261255
0.604259 0.477640 0.263222
0.625608 0.479549 0.265202
0.647084 0.481470 0.267194
0.668683 0.483403 0.269199
0.690400 0.485348 0.271216
0.712231 0.487304 0.273245
0.734174 0.489270 0.275285
0.756225 0.491247 0.277337
0.778380 0.493235 0.279399
0.800637 0.495232 0.281472
0.822993 0.497239 0.283555
0.844859 0.499255 0.285648
0.854191 0.500127 0.286597
0.854031 0.500095 0.286641
0.853872 0.500064 0.286685
0.256589 0.470937 0.236927
0.273953 0.472473 0.238527
0.291728 0.474047 0.240165
0.309864 0.475655 0.241836
0.328326 0.477292 0.243539
0.347081 0.478957 0.245269
0.366104 0.480647 0.247025
0.385377 0.482360 0.248804
0.404879 0.484094 0.250606
0.424597 0.485849 0.252428
0.444517 0.487623 0.254270
0.464628 0.489415 0.256131
0.484919 0.491224 0.258009
0.505381 0.493049 0.259904
0.526007 0.494889 0.261815
0.546787 0.496745 0.263741
0.567717 0.498615 0.265682
0.588789 0.500498 0.267638
0.609999 0.502395 0.269607
0.631340 0.504304 0.271590
0.652809 0.506225 0.273585
0.674400 0.508159 0.275593
0.696110 0.510103 0.277613
0.717935 0.512059 0.279645
0.739871 0.514026 0.281688
0.761915 0.516003 0.283742
0.784065 0.517991 0.285808
0.806316 0.519988 0.287883
0.828666 0.521995 0.289970
0.850287 0.524012 0.292066
0.859667 0.524884 0.293017
0.859520 0.524853 0.293064
0.859374 0.524822 0.293111
0.262550 0.495894 0.243325
0.279904 0.497430 0.244927
0.297670 0.499004 0.246567
0.315797 0.500611 0.248242
0.334249 0.502248 0.249947
0.352994 0.503913 0.251680
0.372009 0.505603 0.253438
0.391272 0.507316 0.255220
0.410765 0.509050 0.257024
0.430474 0.510805 0.258849
0.450386 0.512579 0.260694
0.470488 0.514371 0.262557
0.490771 0.516180 0.264438
0.511225 0.518005 0.266336
0.531842 0.519846 0.268250
0.552615 0.521701 0.270179
0.573536 0.523571 0.272123
0.594601 0.525455 0.274081
0.615803 0.527351 0.276053
0.637138 0.529261 0.278039
0.658599 0.531182 0.280037
0.680184 0.533116 0.282048
0.701887 0.535061 0.284071
0.723706 0.537017 0.286106
0.745637 0.538984 0.288152
0.767675 0.540961 0.290209
0.789819 0.542949 0.292278
0.812065 0.544947 0.294357
0.834334 0.546954 0.296446
0.855831 0.548971 0.298545
0.865257 0.549844 0.299500
0.865122 0.549813 0.299549
0.864989 0.549783 0.299599
0.268565 0.521042 0.249780
0.285910 0.522578 0.251385
0.303667 0.524152 0.253028
0.321785 0.525759 0.254705
0.340228 0.527396 0.256413
0.358965 0.529061 0.258148
0.377970 0.530751 0.259909
0.397225 0.532464 0.261694
0.416710 0.534199 0.263501
0.436410 0.535953 0.265329
0.456313 0.537727 0.267176
0.476407 0.539519 0.269042
0.496682 0.541329 0.270926
0.517128 0.543154 0.272826
0.537738 0.544995 0.274743
0.558503 0.546851 0.276675
0.579418 0.548721 0.278622
0.600476 0.550604 0.280583
0.621671 0.552501 0.282559
0.642999 0.554411 0.284547
0.664454 0.556333 0.286548
0.686033 0.558266 0.288562
0.707731 0.560212 0.290588
0.729544 0.562168 0.292626
0.751469 0.564135 0.294675
0.773502 0.566113 0.296736
0.795641 0.568101 0.298807
0.817883 0.570099 0.300890
0.839903 0.572107 0.302982
0.861486 0.574124 0.305085
0.870957 0.574998 0.306042
0.870834 0.574968 0.306094
0.870713 0.574938 0.306146
0.274632 0.546374 0.256292
0.291969 0.547910 0.257899
0.309717 0.549484 0.259545
0.327827 0.551091 0.261224
0.346261 0.552729 0.262935
0.364989 0.554394 0.264673
0.383987 0.556084 0.266437
0.403233 0.557797 0.268224
0.422710 0.559531 0.270034
0.442403 0.561287 0.271865
0.462298 0.563061 0.273715
0.482385 0.564853 0.275584
0.502652 0.566662 0.277470
0.523091 0.568488 0.279374
0.543693 0.570329 0.281293
0.564452 0.572185 0.283228
0.585360 0.574055 0.285178
0.606411 0.575939 0.287143
0.627601 0.577836 0.289121
0.648922 0.579746 0.291112
0.670372 0.581668 0.293117
0.691945 0.583602 0.295134
0.713638 0.585548 0.297163
0.735446 0.587505 0.299204
0.757366 0.589473 0.301256
0.779395 0.591451 0.303320
0.801529 0.593439 0.305395
0.823767 0.595438 0.307480
0.845583 0.597446 0.309576
0.867248 0.599463 0.311682
0.876762 0.600338 0.312642
0.876651 0.600308 0.312697
0.876541 0.600280 0.312752
0.280750 0.571883 0.262857
0.298079 0.573419 0.264467
0.315819 0.574993 0.266116
0.333921 0.576601 0.267798
0.352347 0.578238 0.269511
0.371067 0.579903 0.271252
0.390057 0.581593 0.273019
0.409296 0.583307 0.274809
0.428765 0.585042 0.276622
0.448450 0.586797 0.278455
0.468339 0.588571 0.280309
0.488418 0.590364 0.282180
0.508678 0.592173 0.284070
0.529111 0.593999 0.285976
0.549707 0.595841 0.287899
0.570459 0.597697 0.289837
0.591361 0.599568 0.291790
0.612407 0.601452 0.293757
0.633590 0.603350 0.295739
0.654906 0.605260 0.297733
0.676351 0.607182 0.299741
0.697919 0.609117 0.301761
0.719607 0.611063 0.303793
0.741410 0.613020 0.305838
0.763326 0.614988 0.307893
0.785351 0.616967 0.309960
0.807482 0.618956 0.312038
0.829716 0.620955 0.314127
0.851370 0.622964 0.316226
0.873114 0.624982 0.318335
0.882668 0.625857 0.319299
0.882567 0.625828 0.319356
0.882469 0.625800 0.319414
0.286918 0.597562 0.269476
0.304239 0.599098 0.271089
0.321971 0.600673 0.272740
0.340065 0.602280 0.274425
0.358484 0.603918 0.276141
0.377197 0.605583 0.277885
0.396180 0.607274 0.279654
0.415411 0.608987 0.281448
0.434873 0.610723 0.283263
0.454552 0.612478 0.285100
0.474433 0.614253 0.286956
0.494506 0.616046 0.288831
0.514760 0.617856 0.290723
0.535186 0.619682 0.292633
0.555776 0.621524 0.294558
0.576523 0.623381 0.296499
0.597420 0.625252 0.298456
0.618460 0.627136 0.300426
0.639638 0.629034 0.302411
0.660950 0.630945 0.304408
0.682390 0.632868 0.306419
0.703953 0.634803 0.308443
0.725637 0.636750 0.310478
0.747437 0.638708 0.312526
0.769349 0.640676 0.314585
0.791371 0.642655 0.316655
0.813498 0.644645 0.318736
0.835577 0.646644 0.320829
0.857259 0.648654 0.322931
0.879078 0.650673 0.325044
0.888670 0.651548 0.326010
0.888580 0.651521 0.326070
0.888492 0.651494 0.326131
0.293133 0.623405 0.276146
0.310447 0.624942 0.277761
0.328172 0.626516 0.279415
0.346259 0.628124 0.281103
0.364671 0.629763 0.282822
0.383378 0.631428 0.284569
0.402353 0.633119 0.286342
0.421578 0.634833 0.288138
0.441034 0.636569 0.289956
0.460706 0.638325 0.291796
0.480581 0.640100 0.293655
0.500648 0.641893 0.295533
0.520896 0.643703 0.297429
0.541317 0.645530 0.299341
0.561902 0.647372 0.301270
0.582643 0.649230 0.303214
0.603535 0.651101 0.305174
0.624570 0.652986 0.307148
0.645744 0.654885 0.309135
0.667051 0.656796 0.311136
0.688487 0.658720 0.313150
0.710047 0.660655 0.315177
0.731727 0.662603 0.317216
0.753523 0.664561 0.319267
0.775433 0.666530 0.321329
0.797451 0.668510 0.323403
0.819577 0.670500 0.325488
0.841492 0.672501 0.327583
0.863247 0.674511 0.329690
0.885137 0.676530 0.331806
0.894765 0.677406 0.332775
0.894685 0.677380 0.332838
0.894607 0.677354 0.332902
0.299395 0.649407 0.282866
0.316703 0.650944 0.284484
0.334421 0.652519 0.286141
0.352502 0.654128 0.287832
0.370907 0.655766 0.289554
0.389607 0.657432 0.291304
0.408577 0.659123 0.293079
0.427795 0.660838 0.294879
0.447245 0.662574 0.296700
0.466912 0.664330 0.298543
0.486781 0.666106 0.300405
0.506843 0.667900 0.302286
0.527086 0.669711 0.304185
0.547501 0.671538 0.306101
0.568081 0.673381 0.308033
0.588818 0.675238 0.309981
0.609705 0.677111 0.311943
0.630736 0.678996 0.313920
0.651906 0.680896 0.315911
0.673209 0.682808 0.317916
0.694642 0.684732 0.319933
0.716198 0.686668 0.321963
0.737875 0.688616 0.324006
0.759669 0.690575 0.326060
0.781576 0.692545 0.328126
0.803592 0.694526 0.330203
0.825716 0.696516 0.332292
0.847506 0.698517 0.334391
0.869330 0.700528 0.336500
0.891287 0.702549 0.338620
0.900949 0.703426 0.339593
0.900879 0.703400 0.339659
0.900809 0.703375 0.339725
0.305704 0.675563 0.289635
0.323005 0.677100 0.291257
0.340717 0.678676 0.292917
0.358792 0.680285 0.294611
0.377192 0.681924 0.296336
0.395886 0.683590 0.298088
0.414849 0.685282 0.299867
0.434062 0.686997 0.301669
0.453507 0.688733 0.303494
0.473168 0.690491 0.305340
0.493032 0.692267 0.307206
0.513089 0.694061 0.309090
0.533327 0.695872 0.310992
0.553738 0.697700 0.312911
0.574313 0.699544 0.314846
0.595046 0.701402 0.316797
0.615929 0.703275 0.318763
0.636957 0.705162 0.320744
0.658123 0.707061 0.322738
0.679424 0.708974 0.324746
0.700853 0.710899 0.326767
0.722407 0.712836 0.328800
0.744082 0.714785 0.330846
0.765873 0.716745 0.332904
0.787778 0.718715 0.334974
0.809793 0.720697 0.337054
0.831860 0.722688 0.339146
0.853614 0.724690 0.341249
0.875503 0.726702 0.343362
0.897523 0.728723 0.345486
0.907217 0.729601 0.346462
0.907156 0.729577 0.346531
0.907095 0.729553 0.346600
0.312057 0.701868 0.296453
0.329353 0.703405 0.298077
0.347060 0.704981 0.299740
0.365129 0.706591 0.301437
0.383523 0.708231 0.303165
0.402211 0.709898 0.304921
0.421170 0.711590 0.306703
0.440378 0.713305 0.308509
0.459817 0.715043 0.310337
0.479473 0.716800 0.312186
0.499333 0.718577 0.314055
0.519385 0.720372 0.315942
0.539620 0.722184 0.317848
0.560026 0.724013 0.319770
0.580598 0.725857 0.321709
0.601327 0.727716 0.323663
0.622207 0.729590 0.325632
0.643232 0.731477 0.327616
0.664395 0.733378 0.329614
0.685693 0.735291 0.331625
0.707120 0.737217 0.333650
0.728672 0.739155 0.335687
0.750345 0.741104 0.337736
0.772135 0.743065 0.339798
0.794038 0.745037 0.341871
0.816052 0.747019 0.343955
0.837996 0.749012 0.346051
0.859813 0.751014 0.348157
0.881762 0.753027 0.350274
0.903842 0.755049 0.352402
0.913566 0.755929 0.353381
0.913513 0.755905 0.353453
0.913461 0.755882 0.353525
0.318455 0.728317 0.303318
0.335746 0.729855 0.304945
0.353447 0.731432 0.306611
0.371511 0.733042 0.308312
0.389900 0.734682 0.310043
0.408584 0.736350 0.311802
0.427538 0.738043 0.313587
0.446741 0.739759 0.315396
0.466176 0.741497 0.317227
0.485828 0.743256 0.319079
0.505684 0.745033 0.320952
0.525732 0.746829 0.322843
0.545963 0.748642 0.324751
0.566366 0.750471 0.326677
0.586935 0.752316 0.328619
0.607661 0.754176 0.330577
0.628538 0.756051 0.332550
0.649560 0.757939 0.334537
0.670721 0.759840 0.336539
0.692017 0.761755 0.338554
0.713442 0.763681 0.340582
0.734992 0.765620 0.342622
0.756664 0.767570 0.344676
0.778453 0.769532 0.346741
0.800356 0.771505 0.348817
0.822369 0.773488 0.350906
0.844223 0.775482 0.353005
0.866098 0.777485 0.355115
0.888105 0.779499 0.357236
0.910239 0.781522 0.359367
0.919992 0.782403 0.360350
0.919946 0.782381 0.360425
0.919902 0.782359 0.360500
0.324897 0.754907 0.310229
0.342182 0.756446 0.311860
0.359879 0.758023 0.313529
0.377939 0.759634 0.315233
0.396323 0.761275 0.316967
0.415003 0.762944 0.318729
0.433952 0.764637 0.320518
0.453151 0.766354 0.322330
0.472582 0.768093 0.324165
0.492231 0.769852 0.326020
0.512083 0.771631 0.327896
0.532128 0.773427 0.329790
0.552355 0.775241 0.331702
0.572756 0.777071 0.333632
0.593322 0.778917 0.335577
0.614046 0.780778 0.337539
0.634920 0.782653 0.339515
0.655941 0.784543 0.341506
0.677100 0.786445 0.343511
0.698394 0.788360 0.345530
0.719818 0.790288 0.347561
0.741368 0.792228 0.349606
0.763038 0.794179 0.351663
0.784827 0.796142 0.353732
0.806730 0.798115 0.355812
0.828738 0.800100 0.357904
0.850536 0.802095 0.360007
0.872466 0.804099 0.362121
0.894526 0.806114 0.364246
0.916712 0.808139 0.366381
0.926491 0.809020 0.367367
0.926452 0.808999 0.367445
0.926414 0.808979 0.367524
0.331381 0.781634 0.317186
0.348663 0.783174 0.318820
0.366355 0.784752 0.320492
0.384411 0.786364 0.322199
0.402791 0.788005 0.323937
0.421467 0.789675 0.325703
0.440412 0.791369 0.327494
0.459608 0.793087 0.329310
0.479036 0.794827 0.331148
0.498681 0.796587 0.333007
0.518531 0.798366 0.334886
0.538573 0.800164 0.336784
0.558797 0.801978 0.338700
0.579196 0.803810 0.340633
0.599759 0.805656 0.342582
0.620481 0.807518 0.344547
0.641354 0.809395 0.346527
0.662373 0.811285 0.348522
0.683532 0.813188 0.350531
0.704825 0.815104 0.352553
0.726248 0.817033 0.354588
0.747797 0.818974 0.356637
0.769468 0.820927 0.358697
0.791256 0.822890 0.360770
0.813159 0.824865 0.362854
0.835081 0.826851 0.364950
0.856932 0.828847 0.367057
0.878914 0.830853 0.369175
0.901023 0.832869 0.371303
0.923256 0.834894 0.373442
0.933058 0.835777 0.374432
0.933026 0.835758 0.374513
0.932995 0.835739 0.374595
0.337908 0.808494 0.324188
0.355186 0.810035 0.325825
0.372875 0.811614 0.327501
0.390926 0.813227 0.329211
0.409303 0.814869 0.330952
0.427976 0.816540 0.332722
0.446918 0.818235 0.334517
0.466111 0.819954 0.336336
0.485536 0.821694 0.338177
0.505178 0.823456 0.340040
0.525025 0.825236 0.341923
0.545065 0.827034 0.343824
0.565288 0.828850 0.345744
0.585684 0.830682 0.347680
0.606247 0.832530 0.349633
0.626967 0.834393 0.351602
0.647839 0.836270 0.353585
0.668857 0.838162 0.355584
0.690015 0.840066 0.357596
0.711308 0.841984 0.359622
