library/cube/Retrograde_003.cube
# CINEGRADE LAB — Premium Cinematic LUT
# Title: Retrograde
# Category: Analog Film
# Description: Film grain, muted colors, and vintage feel emulating classic film stocks
# Mood: Nostalgic, warm, organic
# Variant: 4
# Generated: 2026-05-21T16:12:15.296726
TITLE "Retrograde"
LUT_3D_SIZE 33
0.177343 0.161349 0.137863
0.196854 0.162783 0.139168
0.216730 0.164243 0.140498
0.236918 0.165726 0.141849
0.257382 0.167229 0.143218
0.278090 0.168750 0.144604
0.299019 0.170287 0.146004
0.320151 0.171839 0.147418
0.341469 0.173405 0.148844
0.362959 0.174984 0.150282
0.384610 0.176574 0.151731
0.406411 0.178176 0.153190
0.428355 0.179788 0.154658
0.450432 0.181409 0.156135
0.472637 0.183040 0.157621
0.494963 0.184680 0.159115
0.517404 0.186329 0.160616
0.539955 0.187985 0.162125
0.562612 0.189649 0.163641
0.585370 0.191321 0.165164
0.608225 0.193000 0.166693
0.631175 0.194686 0.168228
0.654214 0.196378 0.169770
0.677341 0.198077 0.171317
0.700553 0.199782 0.172871
0.723846 0.201493 0.174429
0.747219 0.203210 0.175993
0.770669 0.204932 0.177562
0.794193 0.206660 0.179136
0.817790 0.208393 0.180715
0.841458 0.210132 0.182298
0.850944 0.210829 0.182933
0.850944 0.210829 0.182933
0.182356 0.183505 0.142254
0.201866 0.184938 0.143560
0.221742 0.186398 0.144890
0.241931 0.187881 0.146241
0.262394 0.189384 0.147610
0.283102 0.190905 0.148995
0.304032 0.192443 0.150396
0.325163 0.193995 0.151810
0.346481 0.195561 0.153236
0.367971 0.197139 0.154674
0.389622 0.198730 0.156123
0.411423 0.200331 0.157581
0.433367 0.201943 0.159050
0.455445 0.203565 0.160527
0.477649 0.205196 0.162012
0.499975 0.206836 0.163506
0.522416 0.208484 0.165008
0.544967 0.210140 0.166517
0.567624 0.211805 0.168033
0.590382 0.213476 0.169555
0.613237 0.215155 0.171085
0.636187 0.216841 0.172620
0.659226 0.218533 0.174162
0.682353 0.220232 0.175709
0.705565 0.221937 0.177262
0.728858 0.223648 0.178821
0.752231 0.225365 0.180385
0.775681 0.227088 0.181954
0.799205 0.228816 0.183528
0.822802 0.230549 0.185106
0.846470 0.232287 0.186690
0.855957 0.232984 0.187325
0.855957 0.232984 0.187325
0.187462 0.206075 0.146728
0.206972 0.207508 0.148034
0.226848 0.208968 0.149364
0.247036 0.210451 0.150714
0.267500 0.211954 0.152084
0.288208 0.213475 0.153469
0.309138 0.215012 0.154870
0.330269 0.216565 0.156283
0.351587 0.218131 0.157710
0.373077 0.219709 0.159148
0.394728 0.221299 0.160596
0.416529 0.222901 0.162055
0.438473 0.224513 0.163523
0.460551 0.226135 0.165000
0.482755 0.227766 0.166486
0.505081 0.229405 0.167980
0.527522 0.231054 0.169482
0.550073 0.232710 0.170990
0.572730 0.234375 0.172506
0.595488 0.236046 0.174029
0.618343 0.237725 0.175558
0.641293 0.239411 0.177094
0.664332 0.241103 0.178635
0.687459 0.242802 0.180183
0.710671 0.244507 0.181736
0.733964 0.246218 0.183294
0.757337 0.247935 0.184858
0.780787 0.249657 0.186427
0.804311 0.251385 0.188001
0.827908 0.253119 0.189580
0.851576 0.254857 0.191164
0.861063 0.255554 0.191799
0.861063 0.255554 0.191799
0.192648 0.229000 0.151272
0.212158 0.230433 0.152578
0.232034 0.231893 0.153908
0.252223 0.233376 0.155259
0.272686 0.234879 0.156628
0.293394 0.236400 0.158013
0.314324 0.237938 0.159414
0.335455 0.239490 0.160828
0.356773 0.241056 0.162254
0.378263 0.242635 0.163692
0.399914 0.244225 0.165141
0.421716 0.245826 0.166599
0.443659 0.247438 0.168068
0.465737 0.249060 0.169545
0.487942 0.250691 0.171030
0.510267 0.252331 0.172524
0.532708 0.253979 0.174026
0.555260 0.255636 0.175535
0.577916 0.257300 0.177051
0.600674 0.258972 0.178573
0.623530 0.260651 0.180103
0.646479 0.262336 0.181638
0.669519 0.264029 0.183180
0.692646 0.265728 0.184727
0.715857 0.267433 0.186280
0.739151 0.269144 0.187839
0.762523 0.270860 0.189403
0.785973 0.272583 0.190972
0.809497 0.274311 0.192546
0.833095 0.276044 0.194124
0.856762 0.277783 0.195708
0.866249 0.278480 0.196343
0.866249 0.278480 0.196343
0.197905 0.252237 0.155879
0.217415 0.253671 0.157184
0.237291 0.255131 0.158514
0.257480 0.256613 0.159865
0.277943 0.258117 0.161234
0.298651 0.259638 0.162619
0.319581 0.261175 0.164020
0.340712 0.262727 0.165434
0.362030 0.264293 0.166860
0.383520 0.265872 0.168298
0.405171 0.267462 0.169747
0.426973 0.269064 0.171205
0.448916 0.270675 0.172674
0.470994 0.272297 0.174151
0.493199 0.273928 0.175636
0.515524 0.275568 0.177130
0.537965 0.277217 0.178632
0.560516 0.278873 0.180141
0.583173 0.280537 0.181657
0.605931 0.282209 0.183179
0.628787 0.283888 0.184709
0.651736 0.285574 0.186244
0.674776 0.287266 0.187786
0.697903 0.288965 0.189333
0.721114 0.290670 0.190886
0.744408 0.292381 0.192445
0.767780 0.294098 0.194009
0.791230 0.295820 0.195578
0.814754 0.297548 0.197152
0.838351 0.299281 0.198731
0.862019 0.301020 0.200314
0.871506 0.301717 0.200949
0.871506 0.301717 0.200949
0.203225 0.275753 0.160540
0.222735 0.277186 0.161845
0.242611 0.278646 0.163175
0.262800 0.280129 0.164526
0.283263 0.281632 0.165895
0.303971 0.283153 0.167281
0.324901 0.284690 0.168681
0.346032 0.286243 0.170095
0.367350 0.287809 0.171521
0.388840 0.289387 0.172959
0.410491 0.290978 0.174408
0.432292 0.292579 0.175866
0.454236 0.294191 0.177335
0.476314 0.295813 0.178812
0.498518 0.297444 0.180298
0.520844 0.299084 0.181791
0.543285 0.300732 0.183293
0.565836 0.302388 0.184802
0.588493 0.304053 0.186318
0.611251 0.305724 0.187841
0.634106 0.307403 0.189370
0.657056 0.309089 0.190905
0.680095 0.310781 0.192447
0.703222 0.312480 0.193994
0.726434 0.314185 0.195547
0.749727 0.315896 0.197106
0.773100 0.317613 0.198670
0.796550 0.319335 0.200239
0.820074 0.321063 0.201813
0.843671 0.322797 0.203392
0.867339 0.324535 0.204975
0.876826 0.325232 0.205610
0.876826 0.325232 0.205610
0.208601 0.299519 0.165251
0.228112 0.300953 0.166556
0.247988 0.302413 0.167886
0.268176 0.303896 0.169237
0.288639 0.305399 0.170606
0.309348 0.306920 0.171992
0.330277 0.308457 0.173392
0.351409 0.310009 0.174806
0.372726 0.311575 0.176232
0.394217 0.313154 0.177670
0.415867 0.314744 0.179119
0.437669 0.316346 0.180577
0.459613 0.317957 0.182046
0.481690 0.319579 0.183523
0.503895 0.321210 0.185009
0.526221 0.322850 0.186502
0.548662 0.324499 0.188004
0.571213 0.326155 0.189513
0.593870 0.327819 0.191029
0.616628 0.329491 0.192552
0.639483 0.331170 0.194081
0.662432 0.332856 0.195616
0.685472 0.334548 0.197158
0.708599 0.336247 0.198705
0.731811 0.337952 0.200258
0.755104 0.339663 0.201817
0.778477 0.341380 0.203381
0.801926 0.343102 0.204950
0.825451 0.344830 0.206524
0.849048 0.346563 0.208103
0.872716 0.348302 0.209686
0.882202 0.348999 0.210321
0.882202 0.348999 0.210321
0.214030 0.323516 0.170007
0.233540 0.324949 0.171313
0.253416 0.326409 0.172642
0.273605 0.327892 0.173993
0.294068 0.329395 0.175362
0.314776 0.330916 0.176748
0.335706 0.332453 0.178148
0.356837 0.334006 0.179562
0.378155 0.335571 0.180989
0.399645 0.337150 0.182427
0.421296 0.338740 0.183875
0.443098 0.340342 0.185334
0.465041 0.341954 0.186802
0.487119 0.343575 0.188279
0.509324 0.345206 0.189765
0.531649 0.346846 0.191259
0.554090 0.348495 0.192760
0.576642 0.350151 0.194269
0.599298 0.351815 0.195785
0.622056 0.353487 0.197308
0.644912 0.355166 0.198837
0.667861 0.356852 0.200373
0.690901 0.358544 0.201914
0.714028 0.360243 0.203462
0.737239 0.361948 0.205015
0.760533 0.363659 0.206573
0.783905 0.365376 0.208137
0.807355 0.367098 0.209706
0.830879 0.368826 0.211280
0.854477 0.370560 0.212859
0.878144 0.372298 0.214443
0.887631 0.372995 0.215077
0.887631 0.372995 0.215077
0.219506 0.347723 0.174805
0.239017 0.349156 0.176111
0.258892 0.350616 0.177441
0.279081 0.352099 0.178792
0.299544 0.353602 0.180161
0.320253 0.355123 0.181546
0.341182 0.356661 0.182947
0.362314 0.358213 0.184361
0.383631 0.359779 0.185787
0.405121 0.361357 0.187225
0.426772 0.362948 0.188674
0.448574 0.364549 0.190132
0.470518 0.366161 0.191601
0.492595 0.367783 0.193078
0.514800 0.369414 0.194563
0.537126 0.371054 0.196057
0.559567 0.372702 0.197559
0.582118 0.374359 0.199068
0.604775 0.376023 0.200584
0.627533 0.377695 0.202106
0.650388 0.379373 0.203636
0.673337 0.381059 0.205171
0.696377 0.382752 0.206713
0.719504 0.384450 0.208260
0.742716 0.386155 0.209813
0.766009 0.387866 0.211372
0.789382 0.389583 0.212936
0.812831 0.391306 0.214505
0.836356 0.393034 0.216079
0.859953 0.394767 0.217657
0.883621 0.396506 0.219241
0.893107 0.397202 0.219876
0.893107 0.397202 0.219876
0.225027 0.372126 0.179643
0.244537 0.373559 0.180948
0.264413 0.375019 0.182278
0.284602 0.376502 0.183629
0.305065 0.378005 0.184998
0.325773 0.379526 0.186384
0.346703 0.381064 0.187784
0.367834 0.382616 0.189198
0.389152 0.384182 0.190624
0.410642 0.385761 0.192062
0.432293 0.387351 0.193511
0.454095 0.388952 0.194969
0.476038 0.390564 0.196438
0.498116 0.392186 0.197915
0.520321 0.393817 0.199401
0.542646 0.395457 0.200894
0.565087 0.397105 0.202396
0.587639 0.398762 0.203905
0.610295 0.400426 0.205421
0.633053 0.402098 0.206943
0.655909 0.403777 0.208473
0.678858 0.405462 0.210008
0.701898 0.407155 0.211550
0.725025 0.408854 0.213097
0.748236 0.410559 0.214650
0.771530 0.412270 0.216209
0.794902 0.413986 0.217773
0.818352 0.415709 0.219342
0.841876 0.417437 0.220916
0.865474 0.419170 0.222495
0.889141 0.420909 0.224078
0.898628 0.421606 0.224713
0.898628 0.421606 0.224713
0.230589 0.396712 0.184516
0.250099 0.398145 0.185821
0.269975 0.399605 0.187151
0.290164 0.401088 0.188502
0.310627 0.402591 0.189871
0.331335 0.404112 0.191257
0.352265 0.405650 0.192657
0.373396 0.407202 0.194071
0.394714 0.408768 0.195498
0.416204 0.410346 0.196935
0.437855 0.411937 0.198384
0.459657 0.413538 0.199843
0.481600 0.415150 0.201311
0.503678 0.416772 0.202788
0.525883 0.418403 0.204274
0.548208 0.420043 0.205768
0.570649 0.421691 0.207269
0.593201 0.423348 0.208778
0.615857 0.425012 0.210294
0.638615 0.426684 0.211817
0.661471 0.428362 0.213346
0.684420 0.430048 0.214882
0.707460 0.431741 0.216423
0.730587 0.433439 0.217971
0.753798 0.435144 0.219524
0.777092 0.436855 0.221082
0.800464 0.438572 0.222646
0.823914 0.440295 0.224215
0.847438 0.442023 0.225789
0.871036 0.443756 0.227368
0.894703 0.445495 0.228952
0.904190 0.446191 0.229586
0.904190 0.446191 0.229586
0.236190 0.421469 0.189423
0.255700 0.422902 0.190729
0.275576 0.424362 0.192059
0.295765 0.425845 0.193409
0.316228 0.427348 0.194779
0.336936 0.428869 0.196164
0.357866 0.430407 0.197565
0.378997 0.431959 0.198978
0.400315 0.433525 0.200405
0.421805 0.435103 0.201843
0.443456 0.436694 0.203291
0.465257 0.438295 0.204750
0.487201 0.439907 0.206218
0.509279 0.441529 0.207696
0.531483 0.443160 0.209181
0.553809 0.444800 0.210675
0.576250 0.446448 0.212177
0.598801 0.448105 0.213685
0.621458 0.449769 0.215201
0.644216 0.451441 0.216724
0.667071 0.453119 0.218253
0.690021 0.454805 0.219789
0.713060 0.456498 0.221330
0.736187 0.458196 0.222878
0.759399 0.459901 0.224431
0.782692 0.461612 0.225990
0.806065 0.463329 0.227553
0.829515 0.465052 0.229122
0.853039 0.466780 0.230696
0.876636 0.468513 0.232275
0.900304 0.470252 0.233859
0.909791 0.470948 0.234494
0.909791 0.470948 0.234494
0.241827 0.446387 0.194363
0.261337 0.447820 0.195668
0.281213 0.449280 0.196998
0.301402 0.450763 0.198349
0.321865 0.452266 0.199718
0.342573 0.453788 0.201103
0.363503 0.455325 0.202504
0.384634 0.456877 0.203918
0.405952 0.458443 0.205344
0.427442 0.460022 0.206782
0.449093 0.461612 0.208231
0.470895 0.463213 0.209689
0.492838 0.464825 0.211158
0.514916 0.466447 0.212635
0.537121 0.468078 0.214120
0.559446 0.469718 0.215614
0.581887 0.471366 0.217116
0.604438 0.473023 0.218625
0.627095 0.474687 0.220141
0.649853 0.476359 0.221663
0.672709 0.478038 0.223193
0.695658 0.479723 0.224728
0.718698 0.481416 0.226270
0.741825 0.483115 0.227817
0.765036 0.484820 0.229370
0.788330 0.486531 0.230929
0.811702 0.488247 0.232493
0.835152 0.489970 0.234062
0.858676 0.491698 0.235636
0.882273 0.493431 0.237215
0.905941 0.495170 0.238798
0.915428 0.495867 0.239433
0.915428 0.495867 0.239433
0.247498 0.471458 0.199332
0.267009 0.472891 0.200637
0.286885 0.474351 0.201967
0.307073 0.475834 0.203318
0.327537 0.477337 0.204687
0.348245 0.478858 0.206073
0.369174 0.480395 0.207473
0.390306 0.481948 0.208887
0.411624 0.483513 0.210313
0.433114 0.485092 0.211751
0.454765 0.486682 0.213200
0.476566 0.488284 0.214659
0.498510 0.489896 0.216127
0.520587 0.491517 0.217604
0.542792 0.493148 0.219090
0.565118 0.494788 0.220584
0.587559 0.496437 0.222085
0.610110 0.498093 0.223594
0.632767 0.499758 0.225110
0.655525 0.501429 0.226633
0.678380 0.503108 0.228162
0.701329 0.504794 0.229698
0.724369 0.506486 0.231239
0.747496 0.508185 0.232787
0.770708 0.509890 0.234340
0.794001 0.511601 0.235898
0.817374 0.513318 0.237462
0.840824 0.515040 0.239031
0.864348 0.516768 0.240605
0.887945 0.518502 0.242184
0.911613 0.520240 0.243768
0.921099 0.520937 0.244402
0.921099 0.520937 0.244402
0.253203 0.496672 0.204330
0.272713 0.498106 0.205635
0.292589 0.499566 0.206965
0.312778 0.501049 0.208316
0.333241 0.502552 0.209685
0.353949 0.504073 0.211071
0.374879 0.505610 0.212471
0.396010 0.507162 0.213885
0.417328 0.508728 0.215311
0.438818 0.510307 0.216749
0.460469 0.511897 0.218198
0.482270 0.513499 0.219657
0.504214 0.515110 0.221125
0.526292 0.516732 0.222602
0.548496 0.518363 0.224088
0.570822 0.520003 0.225582
0.593263 0.521652 0.227083
0.615814 0.523308 0.228592
0.638471 0.524972 0.230108
0.661229 0.526644 0.231631
0.684085 0.528323 0.233160
0.707034 0.530009 0.234696
0.730073 0.531701 0.236237
0.753200 0.533400 0.237785
0.776412 0.535105 0.239338
0.799705 0.536816 0.240896
0.823078 0.538533 0.242460
0.846528 0.540255 0.244029
0.870052 0.541983 0.245603
0.893649 0.543716 0.247182
0.917317 0.545455 0.248766
0.926804 0.546152 0.249400
0.926804 0.546152 0.249400
0.258938 0.522025 0.209355
0.278449 0.523458 0.210661
0.298324 0.524918 0.211991
0.318513 0.526401 0.213341
0.338976 0.527904 0.214711
0.359684 0.529425 0.216096
0.380614 0.530962 0.217496
0.401746 0.532514 0.218910
0.423063 0.534080 0.220337
0.444553 0.535659 0.221775
0.466204 0.537249 0.223223
0.488006 0.538851 0.224682
0.509949 0.540463 0.226150
0.532027 0.542084 0.227627
0.554232 0.543715 0.229113
0.576558 0.545355 0.230607
0.598998 0.547004 0.232108
0.621550 0.548660 0.233617
0.644206 0.550324 0.235133
0.666964 0.551996 0.236656
0.689820 0.553675 0.238185
0.712769 0.555361 0.239721
0.735809 0.557053 0.241262
0.758936 0.558752 0.242810
0.782147 0.560457 0.244363
0.805441 0.562168 0.245921
0.828813 0.563885 0.247485
0.852263 0.565607 0.249054
0.875788 0.567335 0.250628
0.899385 0.569069 0.252207
0.923053 0.570807 0.253791
0.932539 0.571504 0.254426
0.932539 0.571504 0.254426
0.264703 0.547508 0.214406
0.284214 0.548941 0.215712
0.304089 0.550401 0.217042
0.324278 0.551884 0.218393
0.344741 0.553387 0.219762
0.365449 0.554908 0.221147
0.386379 0.556445 0.222548
0.407510 0.557998 0.223962
0.428828 0.559563 0.225388
0.450318 0.561142 0.226826
0.471969 0.562732 0.228274
0.493771 0.564334 0.229733
0.515714 0.565946 0.231201
0.537792 0.567567 0.232679
0.559997 0.569198 0.234164
0.582322 0.570838 0.235658
0.604763 0.572487 0.237160
0.627315 0.574143 0.238669
0.649971 0.575807 0.240185
0.672729 0.577479 0.241707
0.695585 0.579158 0.243237
0.718534 0.580844 0.244772
0.741574 0.582536 0.246314
0.764701 0.584235 0.247861
0.787912 0.585940 0.249414
0.811206 0.587651 0.250973
0.834578 0.589368 0.252537
0.858028 0.591090 0.254106
0.881553 0.592818 0.255680
0.905150 0.594552 0.257258
0.928817 0.596290 0.258842
0.938304 0.596987 0.259477
0.938304 0.596987 0.259477
0.270496 0.573116 0.219482
0.290007 0.574549 0.220788
0.309882 0.576009 0.222118
0.330071 0.577492 0.223469
0.350534 0.578995 0.224838
0.371243 0.580516 0.226223
0.392172 0.582053 0.227624
0.413304 0.583606 0.229038
0.434621 0.585172 0.230464
0.456111 0.586750 0.231902
0.477762 0.588340 0.233350
0.499564 0.589942 0.234809
0.521508 0.591554 0.236277
0.543585 0.593176 0.237755
0.565790 0.594807 0.239240
0.588116 0.596446 0.240734
0.610557 0.598095 0.242236
0.633108 0.599751 0.243745
0.655765 0.601416 0.245261
0.678523 0.603087 0.246783
0.701378 0.604766 0.248313
0.724327 0.606452 0.249848
0.747367 0.608144 0.251390
0.770494 0.609843 0.252937
0.793706 0.611548 0.254490
0.816999 0.613259 0.256049
0.840372 0.614976 0.257613
0.863821 0.616698 0.259182
0.887346 0.618426 0.260756
0.910943 0.620160 0.262334
0.934611 0.621898 0.263918
0.944097 0.622595 0.264553
0.944097 0.622595 0.264553
0.276317 0.598844 0.224582
0.295827 0.600277 0.225888
0.315703 0.601737 0.227217
0.335891 0.603220 0.228568
0.356355 0.604723 0.229937
0.377063 0.606244 0.231323
0.397993 0.607781 0.232723
0.419124 0.609334 0.234137
0.440442 0.610900 0.235564
0.461932 0.612478 0.237002
0.483583 0.614068 0.238450
0.505384 0.615670 0.239909
0.527328 0.617282 0.241377
0.549406 0.618904 0.242854
0.571610 0.620535 0.244340
0.593936 0.622175 0.245834
0.616377 0.623823 0.247335
0.638928 0.625479 0.248844
0.661585 0.627144 0.250360
0.684343 0.628815 0.251883
0.707198 0.630494 0.253412
0.730148 0.632180 0.254948
0.753187 0.633872 0.256489
0.776314 0.635571 0.258037
0.799526 0.637276 0.259590
0.822819 0.638987 0.261148
0.846192 0.640704 0.262712
0.869642 0.642426 0.264281
0.893166 0.644154 0.265855
0.916763 0.645888 0.267434
0.940431 0.647626 0.269018
0.949918 0.648323 0.269653
0.949918 0.648323 0.269653
0.282163 0.624687 0.229705
0.301674 0.626120 0.231010
0.321549 0.627580 0.232340
0.341738 0.629063 0.233691
0.362201 0.630566 0.235060
0.382909 0.632087 0.236446
0.403839 0.633625 0.237846
0.424971 0.635177 0.239260
0.446288 0.636743 0.240686
0.467778 0.638321 0.242124
0.489429 0.639912 0.243573
0.511231 0.641513 0.245032
0.533174 0.643125 0.246500
0.555252 0.644747 0.247977
0.577457 0.646378 0.249463
0.599782 0.648018 0.250956
0.622223 0.649666 0.252458
0.644775 0.651322 0.253967
0.667431 0.652987 0.255483
0.690189 0.654658 0.257006
0.713045 0.656337 0.258535
0.735994 0.658023 0.260070
0.759034 0.659715 0.261612
0.782161 0.661414 0.263159
0.805372 0.663119 0.264712
0.828666 0.664830 0.266271
0.852038 0.666547 0.267835
0.875488 0.668270 0.269404
0.899013 0.669998 0.270978
0.922610 0.671731 0.272557
0.946277 0.673469 0.274140
0.955764 0.674166 0.274775
0.955764 0.674166 0.274775
0.288034 0.650640 0.234849
0.307545 0.652074 0.236155
0.327421 0.653534 0.237485
0.347609 0.655017 0.238835
0.368073 0.656520 0.240205
0.388781 0.658041 0.241590
0.409710 0.659578 0.242990
0.430842 0.661130 0.244404
0.452160 0.662696 0.245831
0.473650 0.664275 0.247269
0.495301 0.665865 0.248717
0.517102 0.667467 0.250176
0.539046 0.669078 0.251644
0.561123 0.670700 0.253121
0.583328 0.672331 0.254607
0.605654 0.673971 0.256101
0.628095 0.675620 0.257602
0.650646 0.677276 0.259111
0.673303 0.678940 0.260627
0.696061 0.680612 0.262150
0.718916 0.682291 0.263679
0.741865 0.683977 0.265215
0.764905 0.685669 0.266756
0.788032 0.687368 0.268304
0.811244 0.689073 0.269857
0.834537 0.690784 0.271415
0.857910 0.692501 0.272979
0.881360 0.694223 0.274548
0.904884 0.695951 0.276122
0.928481 0.697684 0.277701
0.952149 0.699423 0.279285
0.961635 0.700120 0.279920
0.961635 0.700120 0.279920
0.293930 0.676701 0.240015
0.313440 0.678134 0.241320
0.333316 0.679594 0.242650
0.353505 0.681077 0.244001
0.373968 0.682580 0.245370
0.394676 0.684101 0.246756
0.415606 0.685638 0.248156
0.436737 0.687191 0.249570
0.458055 0.688756 0.250996
0.479545 0.690335 0.252434
0.501196 0.691925 0.253883
0.522998 0.693527 0.255342
0.544941 0.695139 0.256810
0.567019 0.696760 0.258287
0.589224 0.698391 0.259773
0.611549 0.700031 0.261267
0.633990 0.701680 0.262768
0.656542 0.703336 0.264277
0.679198 0.705000 0.265793
0.701956 0.706672 0.267316
0.724812 0.708351 0.268845
0.747761 0.710037 0.270380
0.770801 0.711729 0.271922
0.793928 0.713428 0.273469
0.817139 0.715133 0.275022
0.840433 0.716844 0.276581
0.863805 0.718561 0.278145
0.887255 0.720283 0.279714
0.910780 0.722011 0.281288
0.934377 0.723745 0.282867
0.958044 0.725483 0.284450
0.967531 0.726180 0.285085
0.967531 0.726180 0.285085
0.299849 0.702863 0.245201
0.319359 0.704297 0.246506
0.339235 0.705757 0.247836
0.359424 0.707240 0.249187
0.379887 0.708743 0.250556
0.400595 0.710264 0.251942
0.421525 0.711801 0.253342
0.442656 0.713353 0.254756
0.463974 0.714919 0.256182
0.485464 0.716498 0.257620
0.507115 0.718088 0.259069
0.528916 0.719690 0.260528
0.550860 0.721302 0.261996
0.572938 0.722923 0.263473
0.595142 0.724554 0.264959
0.617468 0.726194 0.266453
0.639909 0.727843 0.267954
0.662460 0.729499 0.269463
0.685117 0.731163 0.270979
0.707875 0.732835 0.272502
0.730731 0.734514 0.274031
0.753680 0.736200 0.275566
0.776719 0.737892 0.277108
0.799846 0.739591 0.278655
0.823058 0.741296 0.280208
0.846351 0.743007 0.281767
0.869724 0.744724 0.283331
0.893174 0.746446 0.284900
0.916698 0.748174 0.286474
0.940295 0.749908 0.288053
0.963963 0.751646 0.289636
0.973450 0.752343 0.290271
0.973450 0.752343 0.290271
0.305790 0.729126 0.250406
0.325300 0.730559 0.251712
0.345176 0.732019 0.253042
0.365365 0.733502 0.254393
0.385828 0.735005 0.255762
0.406536 0.736526 0.257147
0.427466 0.738063 0.258548
0.448597 0.739616 0.259962
0.469915 0.741181 0.261388
0.491405 0.742760 0.262826
0.513056 0.744350 0.264274
0.534858 0.745952 0.265733
0.556801 0.747564 0.267201
0.578879 0.749185 0.268679
0.601084 0.750816 0.270164
0.623409 0.752456 0.271658
0.645850 0.754105 0.273160
0.668402 0.755761 0.274669
0.691058 0.757425 0.276185
0.713816 0.759097 0.277707
0.736672 0.760776 0.279236
0.759621 0.762462 0.280772
0.782661 0.764154 0.282314
0.805788 0.765853 0.283861
0.828999 0.767558 0.285414
0.852293 0.769269 0.286973
0.875665 0.770986 0.288536
0.899115 0.772708 0.290105
0.922639 0.774436 0.291680
0.946237 0.776170 0.293258
0.969904 0.777908 0.294842
0.979391 0.778605 0.295477
0.979391 0.778605 0.295477
0.311753 0.755484 0.255631
0.331263 0.756917 0.256936
0.351139 0.758377 0.258266
0.371328 0.759860 0.259617
0.391791 0.761363 0.260986
0.412499 0.762884 0.262372
0.433429 0.764421 0.263772
0.454560 0.765974 0.265186
0.475878 0.767539 0.266613
0.497368 0.769118 0.268050
0.519019 0.770708 0.269499
0.540821 0.772310 0.270958
0.562764 0.773922 0.272426
0.584842 0.775543 0.273903
0.607047 0.777174 0.275389
0.629372 0.778814 0.276883
0.651813 0.780463 0.278384
0.674364 0.782119 0.279893
0.697021 0.783784 0.281409
0.719779 0.785455 0.282932
0.742635 0.787134 0.284461
0.765584 0.788820 0.285997
0.788624 0.790512 0.287538
0.811751 0.792211 0.289086
0.834962 0.793916 0.290639
0.858256 0.795627 0.292197
0.881628 0.797344 0.293761
0.905078 0.799066 0.295330
0.928602 0.800794 0.296904
0.952199 0.802528 0.298483
0.975867 0.804266 0.300067
0.985354 0.804963 0.300701
0.985354 0.804963 0.300701
0.317737 0.781935 0.260874
0.337247 0.783368 0.262180
0.357123 0.784828 0.263509
0.377312 0.786311 0.264860
0.397775 0.787814 0.266229
0.418483 0.789335 0.267615
0.439413 0.790872 0.269015
0.460544 0.792425 0.270429
0.481862 0.793990 0.271856
0.503352 0.795569 0.273294
0.525003 0.797159 0.274742
0.546805 0.798761 0.276201
0.568748 0.800373 0.277669
0.590826 0.801994 0.279146
0.613031 0.803625 0.280632
0.635356 0.805265 0.282126
0.657797 0.806914 0.283627
0.680348 0.808570 0.285136
0.703005 0.810235 0.286652
0.725763 0.811906 0.288175
0.748619 0.813585 0.289704
0.771568 0.815271 0.291240
0.794607 0.816963 0.292781
0.817735 0.818662 0.294329
0.840946 0.820367 0.295882
0.864240 0.822078 0.297440
0.887612 0.823795 0.299004
0.911062 0.825517 0.300573
0.934586 0.827245 0.302147
0.958183 0.828979 0.303726
0.981851 0.830717 0.305310
0.991338 0.831414 0.305944
0.991338 0.831414 0.305944
0.323741 0.808476 0.266135
0.343252 0.809909 0.267440
0.363127 0.811369 0.268770
0.383316 0.812852 0.270121
0.403779 0.814355 0.271490
0.424487 0.815876 0.272876
0.445417 0.817413 0.274276
0.466549 0.818966 0.275690
0.487866 0.820531 0.277117
0.509356 0.822110 0.278554
0.531007 0.823700 0.280003
0.552809 0.825302 0.281462
0.574752 0.826914 0.282930
0.596830 0.828535 0.284407
0.619035 0.830166 0.285893
0.641361 0.831806 0.287387
0.663802 0.833455 0.288888
0.686353 0.835111 0.290397
0.709009 0.836776 0.291913
0.731767 0.838447 0.293436
