library/cube/Retro_Chem_002.cube
# CINEGRADE LAB — Premium Cinematic LUT
# Title: Retro Chem
# Category: Vintage Film Lab
# Description: Faded, grainy, color-shifted retro film lab aesthetic
# Mood: Retro, faded, nostalgic
# Variant: 3
# Generated: 2026-05-21T16:12:32.578663
TITLE "Retro Chem"
LUT_3D_SIZE 5
0.185482 0.170102 0.160465
0.335092 0.183311 0.173924
0.499180 0.197875 0.188763
0.672436 0.213319 0.204514
0.793552 0.224125 0.215676
0.227674 0.349374 0.205883
0.376395 0.362541 0.219467
0.539631 0.377068 0.234441
0.712121 0.392481 0.250338
0.832911 0.403272 0.261650
0.274632 0.546374 0.256292
0.422710 0.559531 0.270034
0.585360 0.574055 0.285178
0.757366 0.589473 0.301256
0.876541 0.600280 0.312752
0.324897 0.754907 0.310229
0.472582 0.768093 0.324165
0.634920 0.782653 0.339515
0.806730 0.798115 0.355812
0.926414 0.808979 0.367524
0.360120 0.901637 0.349218
0.507681 0.914905 0.363366
0.669994 0.929553 0.378943
0.841863 0.945090 0.395478
0.962869 0.956063 0.407421
0.189738 0.174588 0.299400
0.339247 0.187798 0.312878
0.503237 0.202363 0.327746
0.676402 0.217808 0.343535
0.797476 0.228617 0.354746
0.231941 0.353844 0.344921
0.380587 0.367015 0.358557
0.543751 0.381546 0.373595
0.716180 0.396963 0.389564
0.836843 0.407758 0.400959
0.278928 0.550840 0.395547
0.426955 0.564004 0.409376
0.589562 0.578534 0.424618
0.761536 0.593958 0.440803
0.880701 0.604773 0.452414
0.329241 0.759382 0.449817
0.476902 0.772578 0.463874
0.639224 0.787147 0.479355
0.811031 0.802619 0.495793
0.930845 0.813493 0.507655
0.364538 0.906139 0.489249
0.512099 0.919418 0.503552
0.674424 0.934077 0.519293
0.846321 0.949627 0.536003
0.967420 0.960617 0.548129
0.194461 0.179533 0.452251
0.343870 0.192744 0.465755
0.507763 0.207310 0.480661
0.680841 0.222756 0.496499
0.801873 0.233567 0.507769
0.236673 0.358775 0.497904
0.385245 0.371949 0.511605
0.548341 0.386483 0.526717
0.720711 0.401904 0.542772
0.841077 0.412704 0.554263
0.283688 0.555767 0.548789
0.431668 0.568936 0.562718
0.594233 0.583473 0.578071
0.766177 0.598904 0.594380
0.885340 0.609726 0.606124
0.334050 0.764318 0.603442
0.481689 0.777522 0.617636
0.643998 0.792101 0.633267
0.815804 0.807583 0.649865
0.935748 0.818467 0.661897
0.369421 0.911102 0.643378
0.516986 0.924393 0.657855
0.679325 0.939053 0.673782
0.851255 0.954628 0.690689
0.972433 0.965632 0.703022
0.199486 0.184776 0.614142
0.348798 0.197988 0.627681
0.512596 0.212555 0.642633
0.685588 0.228002 0.658529
0.806580 0.238816 0.669869
0.241708 0.364003 0.659958
0.390208 0.377181 0.673732
0.553238 0.391719 0.688929
0.725551 0.407144 0.705081
0.845641 0.417949 0.716681
0.288752 0.560992 0.711137
0.436685 0.574168 0.725179
0.599213 0.588711 0.740657
0.771129 0.604149 0.757101
0.890302 0.614979 0.768992
0.339163 0.769553 0.766217
0.486782 0.782767 0.780563
0.649081 0.797356 0.796357
0.820889 0.812847 0.813132
0.940964 0.823742 0.825349
0.374610 0.916366 0.806707
0.522180 0.929668 0.821375
0.684536 0.944334 0.837505
0.856505 0.959931 0.854626
0.977748 0.970948 0.867183
0.202909 0.188442 0.728237
0.352129 0.201656 0.741812
0.515840 0.216224 0.756808
0.688751 0.231674 0.772757
0.809709 0.242490 0.784158
0.245154 0.367658 0.774207
0.393588 0.380839 0.788045
0.556556 0.395382 0.803315
0.728818 0.410812 0.819549
0.848749 0.421622 0.831237
0.292237 0.564646 0.825636
0.440129 0.577829 0.839771
0.602622 0.592379 0.855349
0.774516 0.607824 0.871903
0.893755 0.618662 0.883911
0.342706 0.773220 0.881062
0.490309 0.786443 0.895098
0.652602 0.801042 0.909952
0.824416 0.816544 0.925413
0.944634 0.827449 0.936370
0.378235 0.920062 0.919440
0.525813 0.933377 0.932647
0.688190 0.948055 0.946832
0.860204 0.963669 0.961500
0.981495 0.974695 0.971748
