library/cube/Retrograde_003.cube
# CINEGRADE LAB — Premium Cinematic LUT
# Title: Retrograde
# Category: Analog Film
# Description: Film grain, muted colors, and vintage feel emulating classic film stocks
# Mood: Nostalgic, warm, organic
# Variant: 4
# Generated: 2026-05-21T16:12:15.296726
TITLE "Retrograde"
LUT_3D_SIZE 9
0.177343 0.161349 0.137863
0.257382 0.167229 0.143218
0.341469 0.173405 0.148844
0.428355 0.179788 0.154658
0.517404 0.186329 0.160616
0.608225 0.193000 0.166693
0.700553 0.199782 0.172871
0.794193 0.206660 0.179136
0.850944 0.210829 0.182933
0.197905 0.252237 0.155879
0.277943 0.258117 0.161234
0.362030 0.264293 0.166860
0.448916 0.270675 0.172674
0.537965 0.277217 0.178632
0.628787 0.283888 0.184709
0.721114 0.290670 0.190886
0.814754 0.297548 0.197152
0.871506 0.301717 0.200949
0.219506 0.347723 0.174805
0.299544 0.353602 0.180161
0.383631 0.359779 0.185787
0.470518 0.366161 0.191601
0.559567 0.372702 0.197559
0.650388 0.379373 0.203636
0.742716 0.386155 0.209813
0.836356 0.393034 0.216079
0.893107 0.397202 0.219876
0.241827 0.446387 0.194363
0.321865 0.452266 0.199718
0.405952 0.458443 0.205344
0.492838 0.464825 0.211158
0.581887 0.471366 0.217116
0.672709 0.478038 0.223193
0.765036 0.484820 0.229370
0.858676 0.491698 0.235636
0.915428 0.495867 0.239433
0.264703 0.547508 0.214406
0.344741 0.553387 0.219762
0.428828 0.559563 0.225388
0.515714 0.565946 0.231201
0.604763 0.572487 0.237160
0.695585 0.579158 0.243237
0.787912 0.585940 0.249414
0.881553 0.592818 0.255680
0.938304 0.596987 0.259477
0.288034 0.650640 0.234849
0.368073 0.656520 0.240205
0.452160 0.662696 0.245831
0.539046 0.669078 0.251644
0.628095 0.675620 0.257602
0.718916 0.682291 0.263679
0.811244 0.689073 0.269857
0.904884 0.695951 0.276122
0.961635 0.700120 0.279920
0.311753 0.755484 0.255631
0.391791 0.761363 0.260986
0.475878 0.767539 0.266613
0.562764 0.773922 0.272426
0.651813 0.780463 0.278384
0.742635 0.787134 0.284461
0.834962 0.793916 0.290639
0.928602 0.800794 0.296904
0.985354 0.804963 0.300701
0.335808 0.861817 0.276708
0.415847 0.867697 0.282064
0.499934 0.873873 0.287690
0.586820 0.880255 0.293503
0.675869 0.886797 0.299462
0.766690 0.893468 0.305538
0.859018 0.900250 0.311716
0.952658 0.907128 0.317981
1.000000 0.911297 0.321779
0.350387 0.926262 0.289482
0.430426 0.932141 0.294838
0.514513 0.938318 0.300464
0.601399 0.944700 0.306277
0.690448 0.951241 0.312236
0.781269 0.957912 0.318312
0.873597 0.964694 0.324490
0.967237 0.971573 0.330755
1.000000 0.975741 0.334553
0.179419 0.163346 0.204455
0.259457 0.169225 0.209810
0.343544 0.175402 0.215436
0.430431 0.181784 0.221250
0.519480 0.188325 0.227208
0.610301 0.194997 0.233285
0.702629 0.201778 0.239463
0.796269 0.208657 0.245728
0.853020 0.212825 0.249525
0.199980 0.254234 0.222471
0.280019 0.260113 0.227826
0.364106 0.266290 0.233452
0.450992 0.272672 0.239266
0.540041 0.279213 0.245224
0.630862 0.285884 0.251301
0.723190 0.292666 0.257478
0.816830 0.299545 0.263744
0.873582 0.303713 0.267541
0.221582 0.349720 0.241398
0.301620 0.355599 0.246753
0.385707 0.361775 0.252379
0.472593 0.368158 0.258193
0.561642 0.374699 0.264151
0.652464 0.381370 0.270228
0.744791 0.388152 0.276405
0.838431 0.395030 0.282671
0.895183 0.399199 0.286468
0.243902 0.448384 0.260955
0.323941 0.454263 0.266310
0.408028 0.460440 0.271936
0.494914 0.466822 0.277750
0.583963 0.473363 0.283708
0.674784 0.480034 0.289785
0.767112 0.486816 0.295962
0.860752 0.493695 0.302228
0.917503 0.497863 0.306025
0.266779 0.549504 0.280998
0.346817 0.555383 0.286354
0.430904 0.561560 0.291980
0.517790 0.567942 0.297794
0.606839 0.574483 0.303752
0.697660 0.581155 0.309829
0.789988 0.587937 0.316006
0.883628 0.594815 0.322272
0.940380 0.598984 0.326069
0.290110 0.652637 0.301441
0.370148 0.658516 0.306797
0.454235 0.664693 0.312423
0.541121 0.671075 0.318236
0.630171 0.677616 0.324195
0.720992 0.684287 0.330271
0.813319 0.691069 0.336449
0.906960 0.697948 0.342714
0.963711 0.702116 0.346512
0.313828 0.757480 0.322223
0.393867 0.763359 0.327578
0.477954 0.769536 0.333205
0.564840 0.775918 0.339018
0.653889 0.782459 0.344976
0.744710 0.789131 0.351053
0.837038 0.795913 0.357231
0.930678 0.802791 0.363496
0.987429 0.806960 0.367293
0.337884 0.863814 0.343300
0.417922 0.869693 0.348656
0.502009 0.875870 0.354282
0.588895 0.882252 0.360095
0.677945 0.888793 0.366054
0.768766 0.895464 0.372130
0.861093 0.902246 0.378308
0.954734 0.909125 0.384574
1.000000 0.913293 0.388371
0.352463 0.928259 0.356074
0.432501 0.934138 0.361430
0.516588 0.940314 0.367056
0.603475 0.946697 0.372869
0.692524 0.953238 0.378828
0.783345 0.959909 0.384905
0.875673 0.966691 0.391082
0.969313 0.973569 0.397348
1.000000 0.977738 0.401145
0.181600 0.165444 0.274416
0.261638 0.171323 0.279771
0.345725 0.177499 0.285397
0.432611 0.183882 0.291211
0.521660 0.190423 0.297169
0.612482 0.197094 0.303246
0.704809 0.203876 0.309423
0.798449 0.210754 0.315689
0.855201 0.214923 0.319486
0.202161 0.256332 0.292431
0.282199 0.262211 0.297787
0.366286 0.268387 0.303413
0.453173 0.274770 0.309226
0.542222 0.281311 0.315185
0.633043 0.287982 0.321261
0.725371 0.294764 0.327439
0.819011 0.301642 0.333704
0.875762 0.305811 0.337502
0.223763 0.351817 0.311358
0.303801 0.357696 0.316714
0.387888 0.363873 0.322340
0.474774 0.370255 0.328153
0.563823 0.376796 0.334111
0.654644 0.383468 0.340188
0.746972 0.390250 0.346366
0.840612 0.397128 0.352631
0.897364 0.401297 0.356429
0.246083 0.450481 0.330915
0.326121 0.456361 0.336271
0.410208 0.462537 0.341897
0.497094 0.468919 0.347710
0.586144 0.475461 0.353669
0.676965 0.482132 0.359745
0.769293 0.488914 0.365923
0.862933 0.495792 0.372188
0.919684 0.499961 0.375986
0.268959 0.551602 0.350959
0.348998 0.557481 0.356314
0.433084 0.563658 0.361941
0.519971 0.570040 0.367754
0.609020 0.576581 0.373712
0.699841 0.583252 0.379789
0.792169 0.590034 0.385967
0.885809 0.596913 0.392232
0.942560 0.601081 0.396029
0.292291 0.654735 0.371402
0.372329 0.660614 0.376757
0.456416 0.666790 0.382383
0.543302 0.673173 0.388197
0.632351 0.679714 0.394155
0.723173 0.686385 0.400232
0.815500 0.693167 0.406410
0.909140 0.700045 0.412675
0.965892 0.704214 0.416472
0.316009 0.759578 0.392184
0.396047 0.765457 0.397539
0.480134 0.771634 0.403165
0.567020 0.778016 0.408979
0.656070 0.784557 0.414937
0.746891 0.791228 0.421014
0.839219 0.798010 0.427191
0.932859 0.804889 0.433457
0.989610 0.809057 0.437254
0.340065 0.865912 0.413261
0.420103 0.871791 0.418616
0.504190 0.877967 0.424243
0.591076 0.884350 0.430056
0.680125 0.890891 0.436014
0.770947 0.897562 0.442091
0.863274 0.904344 0.448269
0.956914 0.911222 0.454534
1.000000 0.915391 0.458331
0.354644 0.930356 0.426035
0.434682 0.936235 0.431390
0.518769 0.942412 0.437017
0.605655 0.948794 0.442830
0.694704 0.955335 0.448788
0.785526 0.962007 0.454865
0.877853 0.968789 0.461043
0.971493 0.975667 0.467308
1.000000 0.979836 0.471105
0.183853 0.167611 0.346705
0.263891 0.173490 0.352061
0.347978 0.179667 0.357687
0.434864 0.186049 0.363500
0.523914 0.192590 0.369459
0.614735 0.199262 0.375535
0.707063 0.206043 0.381713
0.800703 0.212922 0.387978
0.857454 0.217090 0.391776
0.204414 0.258499 0.364721
0.284453 0.264378 0.370076
0.368540 0.270555 0.375702
0.455426 0.276937 0.381516
0.544475 0.283478 0.387474
0.635296 0.290149 0.393551
0.727624 0.296931 0.399729
0.821264 0.303810 0.405994
0.878015 0.307978 0.409791
0.226016 0.353985 0.383648
0.306054 0.359864 0.389003
0.390141 0.366040 0.394629
0.477027 0.372423 0.400443
0.566076 0.378964 0.406401
0.656898 0.385635 0.412478
0.749225 0.392417 0.418656
0.842865 0.399295 0.424921
0.899617 0.403464 0.428718
0.248336 0.452649 0.403205
0.328375 0.458528 0.408560
0.412462 0.464705 0.414186
0.499348 0.471087 0.420000
0.588397 0.477628 0.425958
0.679218 0.484299 0.432035
0.771546 0.491081 0.438213
0.865186 0.497960 0.444478
0.921937 0.502128 0.448275
0.271213 0.553769 0.423249
0.351251 0.559648 0.428604
0.435338 0.565825 0.434230
0.522224 0.572207 0.440044
0.611273 0.578748 0.446002
0.702094 0.585420 0.452079
0.794422 0.592202 0.458256
0.888062 0.599080 0.464522
0.944814 0.603249 0.468319
0.294544 0.656902 0.443692
0.374582 0.662781 0.449047
0.458669 0.668958 0.454673
0.545555 0.675340 0.460487
0.634605 0.681881 0.466445
0.725426 0.688553 0.472522
0.817753 0.695334 0.478699
0.911394 0.702213 0.484965
0.968145 0.706381 0.488762
0.318262 0.761745 0.464473
0.398301 0.767624 0.469829
0.482388 0.773801 0.475455
0.569274 0.780183 0.481268
0.658323 0.786724 0.487227
0.749144 0.793396 0.493304
0.841472 0.800178 0.499481
0.935112 0.807056 0.505747
0.991863 0.811225 0.509544
0.342318 0.868079 0.485551
0.422356 0.873958 0.490906
0.506443 0.880135 0.496532
0.593329 0.886517 0.502346
0.682379 0.893058 0.508304
0.773200 0.899730 0.514381
0.865527 0.906511 0.520558
0.959168 0.913390 0.526824
1.000000 0.917558 0.530621
0.356897 0.932524 0.498325
0.436935 0.938403 0.503680
0.521022 0.944579 0.509306
0.607908 0.950962 0.515120
0.696958 0.957503 0.521078
0.787779 0.964174 0.527155
0.880107 0.970956 0.533332
0.973747 0.977834 0.539598
1.000000 0.982003 0.543395
0.186162 0.169832 0.420794
0.266201 0.175712 0.426150
0.350288 0.181888 0.431776
0.437174 0.188271 0.437590
0.526223 0.194812 0.443548
0.617044 0.201483 0.449625
0.709372 0.208265 0.455802
0.803012 0.215143 0.462068
0.859764 0.219312 0.465865
0.206724 0.260720 0.438810
0.286762 0.266600 0.444165
0.370849 0.272776 0.449792
0.457735 0.279158 0.455605
0.546784 0.285700 0.461563
0.637606 0.292371 0.467640
0.729933 0.299153 0.473818
0.823573 0.306031 0.480083
0.880325 0.310200 0.483880
0.228325 0.356206 0.457737
0.308363 0.362085 0.463092
0.392450 0.368262 0.468719
0.479337 0.374644 0.474532
0.568386 0.381185 0.480490
0.659207 0.387856 0.486567
0.751535 0.394638 0.492745
0.845175 0.401517 0.499010
0.901926 0.405685 0.502807
0.250646 0.454870 0.477294
0.330684 0.460749 0.482649
0.414771 0.466926 0.488276
0.501657 0.473308 0.494089
0.590706 0.479849 0.500047
0.681528 0.486521 0.506124
0.773855 0.493303 0.512302
0.867495 0.500181 0.518567
0.924247 0.504350 0.522364
0.273522 0.555991 0.497338
0.353560 0.561870 0.502693
0.437647 0.568046 0.508320
0.524533 0.574429 0.514133
0.613582 0.580970 0.520091
0.704404 0.587641 0.526168
0.796731 0.594423 0.532346
0.890372 0.601301 0.538611
0.947123 0.605470 0.542408
0.296853 0.659123 0.517781
0.376892 0.665003 0.523136
0.460979 0.671179 0.528762
0.547865 0.677562 0.534576
0.636914 0.684103 0.540534
0.727735 0.690774 0.546611
0.820063 0.697556 0.552789
0.913703 0.704434 0.559054
0.970454 0.708603 0.562851
0.320572 0.763967 0.538563
0.400610 0.769846 0.543918
0.484697 0.776022 0.549544
0.571583 0.782405 0.555358
0.660632 0.788946 0.561316
0.751454 0.795617 0.567393
0.843781 0.802399 0.573570
0.937421 0.809277 0.579836
0.994173 0.813446 0.583633
0.344627 0.870300 0.559640
0.424666 0.876180 0.564995
0.508753 0.882356 0.570621
0.595639 0.888739 0.576435
0.684688 0.895280 0.582393
0.775509 0.901951 0.588470
0.867837 0.908733 0.594648
0.961477 0.915611 0.600913
1.000000 0.919780 0.604710
0.359206 0.934745 0.572414
0.439245 0.940624 0.577769
0.523332 0.946801 0.583396
0.610218 0.953183 0.589209
0.699267 0.959724 0.595167
0.790088 0.966395 0.601244
0.882416 0.973177 0.607422
0.976056 0.980056 0.613687
1.000000 0.984224 0.617484
0.188518 0.172098 0.496358
0.268556 0.177977 0.501713
0.352643 0.184154 0.507340
0.439529 0.190536 0.513153
0.528578 0.197077 0.519111
0.619400 0.203749 0.525188
0.711727 0.210530 0.531366
0.805367 0.217409 0.537631
0.862119 0.221577 0.541429
0.209079 0.262986 0.514374
0.289117 0.268865 0.519729
0.373204 0.275042 0.525355
0.460090 0.281424 0.531169
0.549140 0.287965 0.537127
0.639961 0.294636 0.543204
0.732289 0.301418 0.549382
0.825929 0.308297 0.555647
0.882680 0.312465 0.559444
0.230681 0.358472 0.533301
0.310719 0.364351 0.538656
0.394806 0.370527 0.544282
0.481692 0.376910 0.550096
0.570741 0.383451 0.556054
0.661562 0.390122 0.562131
0.753890 0.396904 0.568308
0.847530 0.403782 0.574574
0.904282 0.407951 0.578371
0.253001 0.457136 0.552858
0.333039 0.463015 0.558213
0.417126 0.469192 0.563839
0.504012 0.475574 0.569653
0.593062 0.482115 0.575611
0.683883 0.488786 0.581688
0.776210 0.495568 0.587866
0.869851 0.502447 0.594131
0.926602 0.506615 0.597928
0.275877 0.558256 0.572902
0.355915 0.564135 0.578257
0.440002 0.570312 0.583883
0.526889 0.576694 0.589697
0.615938 0.583235 0.595655
0.706759 0.589907 0.601732
0.799087 0.596689 0.607909
0.892727 0.603567 0.614175
0.949478 0.607736 0.617972
0.299209 0.661389 0.593345
0.379247 0.667268 0.598700
0.463334 0.673445 0.604326
0.550220 0.679827 0.610140
0.639269 0.686368 0.616098
0.730091 0.693040 0.622175
0.822418 0.699821 0.628352
0.916058 0.706700 0.634618
0.972810 0.710868 0.638415
0.322927 0.766232 0.614126
0.402965 0.772111 0.619482
0.487052 0.778288 0.625108
0.573938 0.784670 0.630921
0.662988 0.791211 0.636880
0.753809 0.797883 0.642956
0.846137 0.804665 0.649134
0.939777 0.811543 0.655399
0.996528 0.815712 0.659197
0.346983 0.872566 0.635204
0.427021 0.878445 0.640559
0.511108 0.884622 0.646185
0.597994 0.891004 0.651999
0.687043 0.897545 0.657957
0.777865 0.904217 0.664034
0.870192 0.910998 0.670211
0.963832 0.917877 0.676477
1.000000 0.922045 0.680274
0.361562 0.937011 0.647978
0.441600 0.942890 0.653333
0.525687 0.949066 0.658959
0.612573 0.955449 0.664773
0.701622 0.961990 0.670731
0.792444 0.968661 0.676808
0.884771 0.975443 0.682985
0.978411 0.982321 0.689251
1.000000 0.986490 0.693048
0.190912 0.174401 0.573175
0.270950 0.180280 0.578530
0.355037 0.186457 0.584157
0.441924 0.192839 0.589970
0.530973 0.199380 0.595928
0.621794 0.206052 0.602005
0.714122 0.212834 0.608183
0.807762 0.219712 0.614448
0.864513 0.223881 0.618245
0.211474 0.265289 0.591191
0.291512 0.271168 0.596546
0.375599 0.277345 0.602172
0.462485 0.283727 0.607986
0.551534 0.290268 0.613944
0.642355 0.296940 0.620021
0.734683 0.303722 0.626198
0.828323 0.310600 0.632464
0.885075 0.314769 0.636261
0.233075 0.360775 0.610118
0.313113 0.366654 0.615473
0.397200 0.372831 0.621099
0.484086 0.379213 0.626913
0.573135 0.385754 0.632871
0.663957 0.392425 0.638948
0.756284 0.399207 0.645125
0.849925 0.406085 0.651391
0.906676 0.410254 0.655188
0.255395 0.459439 0.629675
0.335434 0.465318 0.635030
0.419521 0.471495 0.640656
0.506407 0.477877 0.646470
0.595456 0.484418 0.652428
0.686277 0.491089 0.658505
0.778605 0.497871 0.664682
0.872245 0.504750 0.670948
0.928997 0.508918 0.674745
0.278272 0.560559 0.649719
0.358310 0.566439 0.655074
0.442397 0.572615 0.660700
0.529283 0.578997 0.666514
0.618332 0.585539 0.672472
0.709154 0.592210 0.678549
0.801481 0.598992 0.684726
0.895121 0.605870 0.690992
0.951873 0.610039 0.694789
0.301603 0.663692 0.670161
0.381641 0.669571 0.675517
0.465728 0.675748 0.681143
0.552614 0.682130 0.686956
0.641664 0.688671 0.692915
0.732485 0.695343 0.698991
0.824813 0.702125 0.705169
0.918453 0.709003 0.711434
0.975204 0.713172 0.715232
0.325322 0.768535 0.690943
0.405360 0.774415 0.696299
0.489447 0.780591 0.701925
0.576333 0.786974 0.707738
0.665382 0.793515 0.713696
0.756203 0.800186 0.719773
0.848531 0.806968 0.725951
0.942171 0.813846 0.732216
0.998923 0.818015 0.736014
0.349377 0.874869 0.712020
0.429415 0.880748 0.717376
0.513502 0.886925 0.723002
0.600388 0.893307 0.728816
0.689438 0.899848 0.734774
0.780259 0.906520 0.740851
0.872586 0.913302 0.747028
0.966227 0.920180 0.753294
1.000000 0.924349 0.757091
0.363956 0.939314 0.724795
0.443994 0.945193 0.730150
0.528081 0.951370 0.735776
0.614968 0.957752 0.741590
0.704017 0.964293 0.747548
0.794838 0.970964 0.753625
0.887166 0.977746 0.759802
0.980806 0.984624 0.766068
1.000000 0.988793 0.769865
0.193341 0.176737 0.651084
0.273379 0.182616 0.656439
0.357466 0.188793 0.662066
0.444352 0.195175 0.667879
0.533401 0.201716 0.673837
0.624222 0.208388 0.679914
0.716550 0.215170 0.686092
0.810190 0.222048 0.692357
0.866942 0.226217 0.696154
0.213902 0.267625 0.669100
0.293940 0.273504 0.674455
0.378027 0.279681 0.680081
0.464913 0.286063 0.685895
0.553962 0.292604 0.691853
0.644784 0.299276 0.697930
0.737111 0.306058 0.704107
0.830752 0.312936 0.710373
0.887503 0.317105 0.714170
0.235503 0.363111 0.688027
0.315542 0.368990 0.693382
0.399629 0.375167 0.699008
0.486515 0.381549 0.704822
0.575564 0.388090 0.710780
0.666385 0.394761 0.716857
0.758713 0.401543 0.723034
0.852353 0.408421 0.729300
0.909104 0.412590 0.733097
0.257824 0.461775 0.707584
0.337862 0.467654 0.712939
0.421949 0.473831 0.718565
0.508835 0.480213 0.724379
0.597884 0.486754 0.730337
0.688706 0.493425 0.736414
0.781033 0.500207 0.742591
0.874674 0.507086 0.748857
0.931425 0.511254 0.752654
0.280700 0.562895 0.727628
0.360738 0.568775 0.732983
0.444825 0.574951 0.738609
0.531711 0.581333 0.744423
0.620761 0.587874 0.750381
0.711582 0.594546 0.756458
0.803909 0.601328 0.762635
0.897550 0.608206 0.768901
0.954301 0.612375 0.772698
0.304032 0.666028 0.748070
0.384070 0.671907 0.753426
0.468157 0.678084 0.759052
0.555043 0.684466 0.764865
0.644092 0.691007 0.770824
0.734913 0.697679 0.776900
0.827241 0.704461 0.783078
0.920881 0.711339 0.789343
0.977633 0.715508 0.793141
0.327750 0.770871 0.768852
0.407788 0.776751 0.774207
0.491875 0.782927 0.779834
0.578761 0.789309 0.785647
0.667810 0.795851 0.791605
0.758632 0.802522 0.797682
0.850959 0.809304 0.803860
0.944600 0.816182 0.810125
1.000000 0.820351 0.813923
0.351806 0.877205 0.789929
0.431844 0.883084 0.795285
0.515931 0.889261 0.800911
0.602817 0.895643 0.806725
0.691866 0.902184 0.812683
0.782687 0.908856 0.818760
0.875015 0.915638 0.824937
0.968655 0.922516 0.831203
1.000000 0.926685 0.835000
0.366385 0.941650 0.802704
0.446423 0.947529 0.808059
0.530510 0.953705 0.813685
0.617396 0.960088 0.819499
0.706445 0.966629 0.825457
0.797266 0.973300 0.831534
0.889594 0.980082 0.837711
0.983234 0.986960 0.843977
1.000000 0.991129 0.847774
0.194812 0.178153 0.698301
0.274851 0.184032 0.703657
0.358938 0.190209 0.709283
0.445824 0.196591 0.715096
0.534873 0.203132 0.721055
0.625694 0.209803 0.727132
0.718022 0.216585 0.733309
0.811662 0.223464 0.739575
0.868413 0.227632 0.743372
0.215374 0.269041 0.716317
0.295412 0.274920 0.721672
0.379499 0.281097 0.727299
0.466385 0.287479 0.733112
0.555434 0.294020 0.739070
0.646256 0.300691 0.745147
0.738583 0.307473 0.751325
0.832223 0.314352 0.757590
0.888975 0.318520 0.761387
0.236975 0.364526 0.735244
0.317013 0.370406 0.740599
0.401100 0.376582 0.746226
0.487987 0.382964 0.752039
0.577036 0.389506 0.757997
0.667857 0.396177 0.764074
0.760185 0.402959 0.770252
0.853825 0.409837 0.776517
0.910576 0.414006 0.780314
0.259296 0.463191 0.754801
0.339334 0.469070 0.760156
0.423421 0.475246 0.765783
0.510307 0.481629 0.771596
0.599356 0.488170 0.777554
0.690178 0.494841 0.783631
0.782505 0.501623 0.789809
0.876145 0.508501 0.796074
0.932897 0.512670 0.799871
0.282172 0.564311 0.774845
0.362210 0.570190 0.780200
0.446297 0.576367 0.785826
0.533183 0.582749 0.791640
0.622232 0.589290 0.797598
0.713054 0.595961 0.803675
0.805381 0.602743 0.809853
0.899021 0.609622 0.816118
0.955773 0.613790 0.819915
0.305503 0.667444 0.795288
0.385542 0.673323 0.800643
0.469628 0.679500 0.806269
0.556515 0.685882 0.812083
0.645564 0.692423 0.818041
0.736385 0.699094 0.824118
0.828713 0.705876 0.830295
0.922353 0.712755 0.836561
0.979104 0.716923 0.840358
0.329222 0.772287 0.816070
0.409260 0.778166 0.821425
0.493347 0.784343 0.827051
0.580233 0.790725 0.832865
0.669282 0.797266 0.838823
0.760104 0.803938 0.844900
0.852431 0.810719 0.851077
0.946071 0.817598 0.857343
1.000000 0.821766 0.861140
0.353277 0.878621 0.837147
0.433316 0.884500 0.842502
0.517402 0.890677 0.848128
0.604289 0.897059 0.853942
0.693338 0.903600 0.859900
0.784159 0.910271 0.865977
0.876487 0.917053 0.872155
0.970127 0.923932 0.878420
1.000000 0.928100 0.882217
0.367856 0.943065 0.849921
0.447895 0.948945 0.855276
0.531982 0.955121 0.860902
0.618868 0.961503 0.866716
0.707917 0.968045 0.872674
0.798738 0.974716 0.878751
0.891066 0.981498 0.884929
0.984706 0.988376 0.891194
1.000000 0.992545 0.894991
