library/cube/Retrograde_003.cube
# CINEGRADE LAB — Premium Cinematic LUT
# Title: Retrograde
# Category: Analog Film
# Description: Film grain, muted colors, and vintage feel emulating classic film stocks
# Mood: Nostalgic, warm, organic
# Variant: 4
# Generated: 2026-05-21T16:12:15.296726
TITLE "Retrograde"
LUT_3D_SIZE 5
0.177343 0.161349 0.137863
0.341469 0.173405 0.148844
0.517404 0.186329 0.160616
0.700553 0.199782 0.172871
0.850944 0.210829 0.182933
0.219506 0.347723 0.174805
0.383631 0.359779 0.185787
0.559567 0.372702 0.197559
0.742716 0.386155 0.209813
0.893107 0.397202 0.219876
0.264703 0.547508 0.214406
0.428828 0.559563 0.225388
0.604763 0.572487 0.237160
0.787912 0.585940 0.249414
0.938304 0.596987 0.259477
0.311753 0.755484 0.255631
0.475878 0.767539 0.266613
0.651813 0.780463 0.278384
0.834962 0.793916 0.290639
0.985354 0.804963 0.300701
0.350387 0.926262 0.289482
0.514513 0.938318 0.300464
0.690448 0.951241 0.312236
0.873597 0.964694 0.324490
1.000000 0.975741 0.334553
0.181600 0.165444 0.274416
0.345725 0.177499 0.285397
0.521660 0.190423 0.297169
0.704809 0.203876 0.309423
0.855201 0.214923 0.319486
0.223763 0.351817 0.311358
0.387888 0.363873 0.322340
0.563823 0.376796 0.334111
0.746972 0.390250 0.346366
0.897364 0.401297 0.356429
0.268959 0.551602 0.350959
0.433084 0.563658 0.361941
0.609020 0.576581 0.373712
0.792169 0.590034 0.385967
0.942560 0.601081 0.396029
0.316009 0.759578 0.392184
0.480134 0.771634 0.403165
0.656070 0.784557 0.414937
0.839219 0.798010 0.427191
0.989610 0.809057 0.437254
0.354644 0.930356 0.426035
0.518769 0.942412 0.437017
0.694704 0.955335 0.448788
0.877853 0.968789 0.461043
1.000000 0.979836 0.471105
0.186162 0.169832 0.420794
0.350288 0.181888 0.431776
0.526223 0.194812 0.443548
0.709372 0.208265 0.455802
0.859764 0.219312 0.465865
0.228325 0.356206 0.457737
0.392450 0.368262 0.468719
0.568386 0.381185 0.480490
0.751535 0.394638 0.492745
0.901926 0.405685 0.502807
0.273522 0.555991 0.497338
0.437647 0.568046 0.508320
0.613582 0.580970 0.520091
0.796731 0.594423 0.532346
0.947123 0.605470 0.542408
0.320572 0.763967 0.538563
0.484697 0.776022 0.549544
0.660632 0.788946 0.561316
0.843781 0.802399 0.573570
0.994173 0.813446 0.583633
0.359206 0.934745 0.572414
0.523332 0.946801 0.583396
0.699267 0.959724 0.595167
0.882416 0.973177 0.607422
1.000000 0.984224 0.617484
0.190912 0.174401 0.573175
0.355037 0.186457 0.584157
0.530973 0.199380 0.595928
0.714122 0.212834 0.608183
0.864513 0.223881 0.618245
0.233075 0.360775 0.610118
0.397200 0.372831 0.621099
0.573135 0.385754 0.632871
0.756284 0.399207 0.645125
0.906676 0.410254 0.655188
0.278272 0.560559 0.649719
0.442397 0.572615 0.660700
0.618332 0.585539 0.672472
0.801481 0.598992 0.684726
0.951873 0.610039 0.694789
0.325322 0.768535 0.690943
0.489447 0.780591 0.701925
0.665382 0.793515 0.713696
0.848531 0.806968 0.725951
0.998923 0.818015 0.736014
0.363956 0.939314 0.724795
0.528081 0.951370 0.735776
0.704017 0.964293 0.747548
0.887166 0.977746 0.759802
1.000000 0.988793 0.769865
0.194812 0.178153 0.698301
0.358938 0.190209 0.709283
0.534873 0.203132 0.721055
0.718022 0.216585 0.733309
0.868413 0.227632 0.743372
0.236975 0.364526 0.735244
0.401100 0.376582 0.746226
0.577036 0.389506 0.757997
0.760185 0.402959 0.770252
0.910576 0.414006 0.780314
0.282172 0.564311 0.774845
0.446297 0.576367 0.785826
0.622232 0.589290 0.797598
0.805381 0.602743 0.809853
0.955773 0.613790 0.819915
0.329222 0.772287 0.816070
0.493347 0.784343 0.827051
0.669282 0.797266 0.838823
0.852431 0.810719 0.851077
1.000000 0.821766 0.861140
0.367856 0.943065 0.849921
0.531982 0.955121 0.860902
0.707917 0.968045 0.872674
0.891066 0.981498 0.884929
1.000000 0.992545 0.894991
