library/cube/Rhythm_Light_002.cube
# CINEGRADE LAB — Premium Cinematic LUT
# Title: Rhythm Light
# Category: Music Video Looks
# Description: Stylized, dramatic, high-impact looks inspired by music video grading
# Mood: Dynamic, stylized, intense
# Variant: 3
# Generated: 2026-05-21T16:12:40.069558
TITLE "Rhythm Light"
LUT_3D_SIZE 5
0.000000 0.000000 0.000000
0.178682 0.000000 0.000000
0.517740 0.000000 0.000000
0.865712 0.000000 0.000000
1.000000 0.000000 0.000000
0.000000 0.180822 0.000000
0.163884 0.174787 0.000000
0.517050 0.162895 0.000000
0.877873 0.150719 0.000000
1.000000 0.144307 0.000000
0.000000 0.521087 0.000000
0.128025 0.515497 0.000000
0.493184 0.503827 0.000000
0.864154 0.491891 0.000000
1.000000 0.486157 0.000000
0.000000 0.865780 0.000000
0.091176 0.860351 0.000000
0.466294 0.848651 0.000000
0.843749 0.836760 0.000000
1.000000 0.831508 0.000000
0.000000 1.000000 0.000000
0.074505 1.000000 0.000000
0.457638 1.000000 0.000000
0.838693 1.000000 0.000000
1.000000 1.000000 0.000000
0.000000 0.000000 0.211802
0.177108 0.000000 0.204834
0.517701 0.000000 0.192206
0.867078 0.000000 0.179267
1.000000 0.000000 0.171722
0.000000 0.178558 0.186240
0.162263 0.172499 0.178918
0.516751 0.160563 0.165735
0.878771 0.148349 0.152291
1.000000 0.141946 0.144674
0.000000 0.519088 0.140089
0.126354 0.513461 0.132434
0.492627 0.501739 0.118755
0.864418 0.489761 0.104891
1.000000 0.484033 0.097348
0.000000 0.863936 0.093359
0.089470 0.858457 0.085455
0.465495 0.846697 0.071394
0.843442 0.834758 0.057280
1.000000 0.829510 0.049982
0.000000 1.000000 0.067152
0.072813 1.000000 0.059183
0.456642 1.000000 0.044963
0.837925 1.000000 0.030855
1.000000 1.000000 0.024083
0.000000 0.000000 0.604510
0.173426 0.000000 0.596289
0.515538 0.000000 0.582386
0.866306 0.000000 0.568176
1.000000 0.000000 0.559398
0.000000 0.174205 0.574811
0.158557 0.168128 0.566241
0.514352 0.156157 0.551792
0.877553 0.143911 0.537085
1.000000 0.137526 0.528256
0.000000 0.515016 0.524517
0.122621 0.509360 0.515622
0.489993 0.497593 0.500688
0.862577 0.485580 0.485581
1.000000 0.479866 0.476844
0.000000 0.860035 0.473667
0.085724 0.854514 0.464532
0.462641 0.842700 0.449228
0.841055 0.830722 0.433888
1.000000 0.825485 0.425414
0.000000 1.000000 0.443399
0.069104 1.000000 0.434208
0.453613 1.000000 0.418756
0.835111 1.000000 0.403432
1.000000 1.000000 0.395498
0.000000 0.000000 0.996389
0.169748 0.000000 0.986915
0.513357 0.000000 0.971736
0.865494 0.000000 0.956256
1.000000 0.000000 0.946247
0.000000 0.169859 0.962553
0.154856 0.163766 0.952734
0.511936 0.151759 0.937019
0.876299 0.139482 0.921052
1.000000 0.133117 0.911014
0.000000 0.510946 0.908116
0.118894 0.505261 0.897983
0.487344 0.493449 0.881796
0.860685 0.481404 0.865447
1.000000 0.475706 0.855519
0.000000 0.856131 0.853149
0.081985 0.850568 0.842784
0.459772 0.838700 0.826239
0.838623 0.826685 0.809674
1.000000 0.821461 0.800025
0.000000 1.000000 0.818823
0.065402 1.000000 0.808409
0.450569 1.000000 0.791727
0.832262 1.000000 0.775188
1.000000 1.000000 0.766091
0.000000 0.000000 1.000000
0.168178 0.000000 1.000000
0.513256 0.000000 1.000000
0.866735 0.000000 1.000000
1.000000 0.000000 1.000000
0.000000 0.167610 1.000000
0.153241 0.161494 1.000000
0.511580 0.149446 1.000000
0.877076 0.137132 1.000000
1.000000 0.130782 1.000000
0.000000 0.508944 1.000000
0.117232 0.503224 1.000000
0.486733 0.491363 1.000000
0.860791 0.479279 1.000000
1.000000 0.473591 1.000000
0.000000 0.854267 1.000000
0.080290 0.848657 1.000000
0.458920 0.836730 1.000000
0.838172 0.824671 1.000000
1.000000 0.819454 1.000000
0.000000 1.000000 1.000000
0.063723 1.000000 1.000000
0.449519 1.000000 0.991602
0.831382 1.000000 0.974409
1.000000 1.000000 0.964712
