library/cube/Rhythm_Light_002.cube
# CINEGRADE LAB — Premium Cinematic LUT
# Title: Rhythm Light
# Category: Music Video Looks
# Description: Stylized, dramatic, high-impact looks inspired by music video grading
# Mood: Dynamic, stylized, intense
# Variant: 3
# Generated: 2026-05-21T16:12:40.069558
TITLE "Rhythm Light"
LUT_3D_SIZE 9
0.000000 0.000000 0.000000
0.012675 0.000000 0.000000
0.178682 0.000000 0.000000
0.347061 0.000000 0.000000
0.517740 0.000000 0.000000
0.690648 0.000000 0.000000
0.865712 0.000000 0.000000
1.000000 0.000000 0.000000
1.000000 0.000000 0.000000
0.000000 0.012863 0.000000
0.011449 0.012436 0.000000
0.181369 0.006499 0.000000
0.353500 0.000486 0.000000
0.527771 0.000000 0.000000
0.704112 0.000000 0.000000
0.882453 0.000000 0.000000
1.000000 0.000000 0.000000
1.000000 0.000000 0.000000
0.000000 0.180822 0.000000
0.000000 0.180621 0.000000
0.163884 0.174787 0.000000
0.339475 0.168878 0.000000
0.517050 0.162895 0.000000
0.696539 0.156841 0.000000
0.877873 0.150719 0.000000
1.000000 0.144701 0.000000
1.000000 0.144307 0.000000
0.000000 0.350299 0.000000
0.000000 0.350284 0.000000
0.146092 0.344522 0.000000
0.324886 0.338684 0.000000
0.505509 0.332772 0.000000
0.687892 0.326789 0.000000
0.871967 0.320737 0.000000
1.000000 0.314905 0.000000
1.000000 0.314691 0.000000
0.000000 0.521087 0.000000
0.000000 0.521218 0.000000
0.128025 0.515497 0.000000
0.309767 0.509699 0.000000
0.493184 0.503827 0.000000
0.678208 0.497883 0.000000
0.864154 0.491891 0.000000
1.000000 0.486227 0.000000
1.000000 0.486157 0.000000
0.000000 0.692982 0.000000
0.000000 0.693220 0.000000
0.109710 0.687508 0.000000
0.294146 0.681719 0.000000
0.480103 0.675855 0.000000
0.667514 0.669918 0.000000
0.854725 0.663967 0.000000
1.000000 0.658464 0.000000
1.000000 0.658498 0.000000
0.000000 0.865780 0.000000
0.000000 0.866084 0.000000
0.091176 0.860351 0.000000
0.278050 0.854539 0.000000
0.466294 0.848651 0.000000
0.655837 0.842691 0.000000
0.843749 0.836760 0.000000
1.000000 0.831408 0.000000
1.000000 0.831508 0.000000
0.000000 1.000000 0.000000
0.000000 1.000000 0.000000
0.072782 1.000000 0.000000
0.261872 1.000000 0.000000
0.452176 1.000000 0.000000
0.643625 1.000000 0.000000
0.831774 1.000000 0.000000
0.998344 1.000000 0.000000
1.000000 1.000000 0.000000
0.000000 1.000000 0.000000
0.000000 1.000000 0.000000
0.074505 1.000000 0.000000
0.265543 1.000000 0.000000
0.457638 1.000000 0.000000
0.650720 1.000000 0.000000
0.838693 1.000000 0.000000
1.000000 1.000000 0.000000
1.000000 1.000000 0.000000
0.000000 0.000000 0.015137
0.012537 0.000000 0.014666
0.178951 0.000000 0.008795
0.347722 0.000000 0.002840
0.518776 0.000000 0.000000
0.692043 0.000000 0.000000
0.867450 0.000000 0.000000
1.000000 0.000000 0.000000
1.000000 0.000000 0.000000
0.000000 0.012697 0.013394
0.011324 0.012270 0.012908
0.181625 0.006320 0.006896
0.354120 0.000296 0.000806
0.528740 0.000000 0.000000
0.705414 0.000000 0.000000
0.884071 0.000000 0.000000
1.000000 0.000000 0.000000
1.000000 0.000000 0.000000
0.000000 0.180738 0.000000
0.000000 0.180535 0.000000
0.164118 0.174688 0.000000
0.340047 0.168765 0.000000
0.517944 0.162770 0.000000
0.697740 0.156705 0.000000
0.879365 0.150572 0.000000
1.000000 0.144553 0.000000
1.000000 0.144161 0.000000
0.000000 0.350282 0.000000
0.000000 0.350263 0.000000
0.146308 0.344487 0.000000
0.325413 0.338635 0.000000
0.506333 0.332710 0.000000
0.688997 0.326714 0.000000
0.873308 0.320651 0.000000
1.000000 0.314819 0.000000
1.000000 0.314606 0.000000
0.000000 0.521125 0.000000
0.000000 0.521250 0.000000
0.128223 0.515513 0.000000
0.310251 0.509700 0.000000
0.493938 0.503814 0.000000
0.679217 0.497856 0.000000
0.865320 0.491853 0.000000
1.000000 0.486191 0.000000
1.000000 0.486119 0.000000
0.000000 0.693060 0.000000
0.000000 0.693290 0.000000
0.109893 0.687562 0.000000
0.294589 0.681756 0.000000
0.480791 0.675877 0.000000
0.668431 0.669925 0.000000
0.855739 0.663964 0.000000
1.000000 0.658463 0.000000
1.000000 0.658493 0.000000
0.000000 0.865885 0.000000
0.000000 0.866179 0.000000
0.091345 0.860427 0.000000
0.278454 0.854598 0.000000
0.466916 0.848694 0.000000
0.656662 0.842717 0.000000
0.844618 0.836776 0.000000
1.000000 0.831428 0.000000
1.000000 0.831523 0.000000
0.000000 1.000000 0.000000
0.000000 1.000000 0.000000
0.072950 1.000000 0.000000
0.262248 1.000000 0.000000
0.452745 1.000000 0.000000
0.644371 1.000000 0.000000
0.832517 1.000000 0.000000
0.998625 1.000000 0.000000
1.000000 1.000000 0.000000
0.000000 1.000000 0.000000
0.000000 1.000000 0.000000
0.074670 1.000000 0.000000
0.265890 1.000000 0.000000
0.458151 1.000000 0.000000
0.651382 1.000000 0.000000
0.839319 1.000000 0.000000
1.000000 1.000000 0.000000
1.000000 1.000000 0.000000
0.000000 0.000000 0.211802
0.010285 0.000000 0.211025
0.177108 0.000000 0.204834
0.346271 0.000000 0.198560
0.517701 0.000000 0.192206
0.691327 0.000000 0.185774
0.867078 0.000000 0.179267
1.000000 0.000000 0.172730
1.000000 0.000000 0.171722
0.000000 0.010425 0.209031
0.009099 0.010001 0.208237
0.179780 0.004043 0.201906
0.352641 0.000000 0.195498
0.527609 0.000000 0.189016
0.704616 0.000000 0.182462
0.883591 0.000000 0.175838
1.000000 0.000000 0.169248
1.000000 0.000000 0.168257
0.000000 0.178558 0.186240
0.000000 0.178356 0.185404
0.162263 0.172499 0.178918
0.338531 0.166567 0.172361
0.516751 0.160563 0.165735
0.696854 0.154490 0.159045
0.878771 0.148349 0.152291
1.000000 0.142334 0.145666
1.000000 0.141946 0.144674
0.000000 0.348181 0.163250
0.000000 0.348161 0.162379
0.144445 0.342374 0.155752
0.323863 0.336511 0.149060
0.505079 0.330576 0.142306
0.688024 0.324571 0.135493
0.872549 0.318500 0.128626
1.000000 0.312673 0.122013
1.000000 0.312463 0.121028
0.000000 0.519088 0.140089
0.000000 0.519210 0.139188
0.126354 0.513461 0.132434
0.308668 0.507637 0.125623
0.492627 0.501739 0.118755
0.678162 0.495771 0.111835
0.864418 0.489761 0.104891
1.000000 0.484104 0.098318
1.000000 0.484033 0.097348
0.000000 0.691074 0.116783
0.000000 0.691299 0.115859
0.108020 0.685557 0.108993
0.292977 0.679739 0.102076
0.479424 0.673848 0.095109
0.667294 0.667884 0.088095
0.854697 0.661916 0.081101
1.000000 0.656421 0.074605
1.000000 0.656451 0.073658
0.000000 0.863936 0.093359
0.000000 0.864223 0.092418
0.089470 0.858457 0.085455
0.276814 0.852614 0.078446
0.465495 0.846697 0.071394
0.655444 0.840707 0.064301
0.843442 0.834758 0.057280
1.000000 0.829418 0.050899
1.000000 0.829510 0.049982
0.000000 1.000000 0.070142
0.000000 1.000000 0.069218
0.071084 1.000000 0.062201
0.260591 1.000000 0.055146
0.451281 1.000000 0.048055
0.643084 1.000000 0.040931
0.831228 1.000000 0.033942
0.996868 0.998823 0.027748
1.000000 0.998653 0.026903
0.000000 1.000000 0.067152
0.000000 1.000000 0.066246
0.072813 1.000000 0.059183
0.264215 1.000000 0.052088
0.456642 1.000000 0.044963
0.650023 1.000000 0.037810
0.837925 1.000000 0.030855
0.998434 1.000000 0.024868
1.000000 1.000000 0.024083
0.000000 0.000000 0.408259
0.008038 0.000000 0.407176
0.175267 0.000000 0.400665
0.344819 0.000000 0.394072
0.516622 0.000000 0.387399
0.690605 0.000000 0.380649
0.866697 0.000000 0.373825
1.000000 0.000000 0.366976
1.000000 0.000000 0.365663
0.000000 0.008156 0.404459
0.006876 0.007735 0.403359
0.177936 0.001768 0.396709
0.351159 0.000000 0.389983
0.526474 0.000000 0.383183
0.703811 0.000000 0.376311
0.883101 0.000000 0.369371
1.000000 0.000000 0.362473
1.000000 0.000000 0.361178
0.000000 0.176380 0.380629
0.000000 0.176180 0.379487
0.160409 0.170313 0.372683
0.337013 0.164372 0.365809
0.515553 0.158359 0.358867
0.695961 0.152277 0.351860
0.878167 0.146129 0.344791
1.000000 0.140117 0.337863
1.000000 0.139735 0.336568
0.000000 0.346081 0.356602
0.000000 0.346060 0.355425
0.142583 0.340262 0.348481
0.322311 0.334389 0.341474
0.503822 0.328444 0.334406
0.687046 0.322429 0.327278
0.871778 0.316352 0.320100
1.000000 0.310529 0.313186
1.000000 0.310322 0.311900
0.000000 0.517051 0.332406
0.000000 0.517171 0.331200
0.124487 0.511410 0.324132
0.307085 0.505574 0.317006
0.491312 0.499665 0.309825
0.677099 0.493686 0.302592
0.863503 0.487670 0.295339
1.000000 0.482019 0.288469
1.000000 0.481949 0.287199
0.000000 0.689088 0.308069
0.000000 0.689308 0.306840
0.106149 0.683553 0.299661
0.291363 0.677723 0.292431
0.478053 0.671819 0.285152
0.666150 0.665844 0.277827
0.853643 0.659868 0.270527
1.000000 0.654381 0.263738
1.000000 0.654410 0.262491
0.000000 0.861986 0.283616
0.000000 0.862266 0.282371
0.087596 0.856486 0.275096
0.275172 0.850629 0.267776
0.464070 0.844698 0.260414
0.654220 0.838696 0.253011
0.842254 0.832740 0.245687
1.000000 0.827408 0.239017
1.000000 0.827498 0.237800
0.000000 1.000000 0.259383
0.000000 1.000000 0.258156
0.069220 1.000000 0.250830
0.258933 1.000000 0.243466
0.449814 1.000000 0.236066
0.641792 1.000000 0.228634
0.829929 1.000000 0.221343
0.995092 0.996734 0.214864
1.000000 0.996557 0.213721
0.000000 1.000000 0.255379
0.000000 1.000000 0.254170
0.070957 1.000000 0.246798
0.262539 1.000000 0.239395
0.455129 1.000000 0.231962
0.648658 1.000000 0.224502
0.836522 1.000000 0.217246
0.996469 1.000000 0.210977
1.000000 1.000000 0.209894
0.000000 0.000000 0.604510
0.005794 0.000000 0.603120
0.173426 0.000000 0.596289
0.343364 0.000000 0.589377
0.515538 0.000000 0.582386
0.689875 0.000000 0.575318
0.866306 0.000000 0.568176
1.000000 0.000000 0.561014
1.000000 0.000000 0.559398
0.000000 0.005890 0.599680
0.004658 0.005472 0.598273
0.176094 0.000000 0.591305
0.349676 0.000000 0.584260
0.525335 0.000000 0.577142
0.703000 0.000000 0.569954
0.882602 0.000000 0.562697
1.000000 0.000000 0.555490
1.000000 0.000000 0.553892
0.000000 0.174205 0.574811
0.000000 0.174005 0.573363
0.158557 0.168128 0.566241
0.335494 0.162178 0.559050
0.514352 0.156157 0.551792
0.695061 0.150067 0.544469
0.877553 0.143911 0.537085
1.000000 0.137904 0.529854
1.000000 0.137526 0.528256
0.000000 0.343982 0.549747
0.000000 0.343961 0.548264
0.140723 0.338151 0.541004
0.320758 0.332268 0.533681
0.502560 0.326313 0.526298
0.686061 0.320289 0.518857
0.870994 0.314206 0.511366
1.000000 0.308387 0.504153
1.000000 0.308183 0.502565
0.000000 0.515016 0.524517
0.000000 0.515133 0.523006
0.122621 0.509360 0.515622
0.305500 0.503512 0.508183
0.489993 0.497593 0.500688
0.676031 0.491603 0.493143
0.862577 0.485580 0.485581
1.000000 0.479935 0.478415
1.000000 0.479866 0.476844
0.000000 0.687102 0.499148
0.000000 0.687317 0.497615
0.104279 0.681549 0.490123
0.289749 0.675706 0.482580
0.476679 0.669790 0.474990
0.665000 0.663803 0.467354
0.852576 0.657821 0.459747
1.000000 0.652341 0.452666
1.000000 0.652370 0.451120
0.000000 0.860035 0.473667
0.000000 0.860309 0.472118
0.085724 0.854514 0.464532
0.273529 0.848644 0.456901
0.462641 0.842700 0.449228
0.652989 0.836685 0.441516
0.841055 0.830722 0.433888
1.000000 0.825398 0.426930
1.000000 0.825485 0.425414
0.000000 1.000000 0.448418
0.000000 1.000000 0.446888
0.067358 1.000000 0.439252
0.257275 1.000000 0.431579
0.448343 1.000000 0.423872
0.640492 1.000000 0.416132
0.828619 1.000000 0.408539
0.993298 0.994643 0.401775
1.000000 0.994459 0.400333
0.000000 1.000000 0.443399
0.000000 1.000000 0.441888
0.069104 1.000000 0.434208
0.260862 1.000000 0.426496
0.453613 1.000000 0.418756
0.647285 1.000000 0.410989
0.835111 1.000000 0.403432
0.994487 1.000000 0.396881
1.000000 1.000000 0.395498
0.000000 0.000000 0.800553
0.003555 0.000000 0.798856
0.171586 0.000000 0.791706
0.341909 0.000000 0.784475
0.514450 0.000000 0.777165
0.689139 0.000000 0.769779
0.865905 0.000000 0.762319
1.000000 0.000000 0.754846
1.000000 0.000000 0.752926
0.000000 0.003626 0.794694
0.002444 0.003211 0.792980
0.174252 0.000000 0.785692
0.348191 0.000000 0.778330
0.524191 0.000000 0.770894
0.702182 0.000000 0.763388
0.882093 0.000000 0.755815
1.000000 0.000000 0.748301
1.000000 0.000000 0.746400
0.000000 0.172031 0.768786
0.000000 0.171833 0.767031
0.156706 0.165946 0.759591
0.333973 0.159987 0.752083
0.513146 0.153957 0.744509
0.694155 0.147859 0.736871
0.876931 0.141695 0.729172
1.000000 0.135693 0.721638
1.000000 0.135320 0.719738
0.000000 0.341884 0.742685
0.000000 0.341862 0.740896
0.138864 0.336042 0.733320
0.319204 0.330149 0.725682
0.501295 0.324184 0.717983
0.685069 0.318151 0.710228
0.870197 0.312061 0.702427
1.000000 0.306247 0.694913
1.000000 0.306047 0.693024
0.000000 0.512980 0.716420
0.000000 0.513095 0.714604
0.120757 0.507310 0.706906
0.303915 0.501451 0.699152
0.488671 0.495521 0.691345
0.674956 0.489521 0.683487
0.861637 0.483492 0.675617
1.000000 0.477852 0.668155
1.000000 0.477785 0.666284
0.000000 0.685115 0.690020
0.000000 0.685326 0.688182
0.102411 0.679545 0.680378
0.288133 0.673689 0.672523
0.475300 0.667761 0.664621
0.663843 0.661763 0.656674
0.851498 0.655775 0.648762
1.000000 0.650302 0.641389
1.000000 0.650330 0.639543
0.000000 0.858083 0.663511
0.000000 0.858351 0.661658
0.083854 0.852542 0.653761
0.271886 0.846657 0.645819
0.461208 0.840700 0.637837
0.651751 0.834673 0.629815
0.839844 0.828704 0.621884
1.000000 0.823388 0.614637
1.000000 0.823473 0.612822
0.000000 1.000000 0.637247
0.000000 1.000000 0.635415
0.065498 1.000000 0.627469
0.255616 1.000000 0.619487
0.446869 1.000000 0.611471
0.639187 1.000000 0.603424
0.827300 0.998002 0.595529
0.991484 0.992550 0.588481
1.000000 0.992360 0.586740
0.000000 1.000000 0.631214
0.000000 1.000000 0.629400
0.067252 1.000000 0.621411
0.259184 1.000000 0.613392
0.452093 1.000000 0.605344
0.645907 1.000000 0.597270
0.833690 1.000000 0.589413
0.992488 1.000000 0.582579
1.000000 1.000000 0.580897
0.000000 0.000000 0.996389
0.001319 0.000000 0.994385
0.169748 0.000000 0.986915
0.340451 0.000000 0.979365
0.513357 0.000000 0.971736
0.688395 0.000000 0.964032
0.865494 0.000000 0.956256
1.000000 0.000000 0.948471
1.000000 0.000000 0.946247
0.000000 0.001364 0.989500
0.000233 0.000953 0.987478
0.172412 0.000000 0.979872
0.346705 0.000000 0.972192
0.523044 0.000000 0.964439
0.701356 0.000000 0.956616
0.881575 0.000000 0.948726
1.000000 0.000000 0.940905
1.000000 0.000000 0.938701
0.000000 0.169859 0.962553
0.000000 0.169662 0.960491
0.154856 0.163766 0.952734
0.332451 0.157798 0.944909
0.511936 0.151759 0.937019
0.693242 0.145653 0.929066
0.876299 0.139482 0.921052
1.000000 0.133485 0.913216
1.000000 0.133117 0.911014
0.000000 0.339788 0.935415
0.000000 0.339765 0.933320
0.137007 0.333934 0.925428
0.317649 0.328031 0.917475
0.500026 0.322057 0.909462
0.684071 0.316015 0.901393
0.869388 0.309918 0.893281
1.000000 0.304110 0.885468
1.000000 0.303912 0.883278
0.000000 0.510946 0.908116
0.000000 0.511057 0.905995
0.118894 0.505261 0.897983
0.302328 0.499391 0.889916
0.487344 0.493449 0.881796
0.673875 0.487439 0.873625
0.860685 0.481404 0.865447
1.000000 0.475771 0.857690
1.000000 0.475706 0.855519
0.000000 0.683128 0.880686
0.000000 0.683334 0.878543
0.100544 0.677540 0.870426
0.286517 0.671672 0.862259
0.473918 0.665732 0.854046
0.662680 0.659723 0.845788
0.850407 0.653728 0.837570
1.000000 0.648263 0.829907
1.000000 0.648291 0.827760
0.000000 0.856131 0.853149
0.000000 0.856391 0.850993
0.081985 0.850568 0.842784
0.270241 0.844671 0.834532
0.459772 0.838700 0.826239
0.650508 0.832660 0.817909
0.838623 0.826685 0.809674
1.000000 0.821379 0.802139
1.000000 0.821461 0.800025
0.000000 1.000000 0.825871
0.000000 1.000000 0.823735
0.063640 1.000000 0.815480
0.253956 1.000000 0.807190
0.445391 1.000000 0.798866
0.637875 1.000000 0.790510
0.825971 0.995901 0.782315
0.989652 0.990456 0.774982
1.000000 0.990259 0.772942
0.000000 1.000000 0.818823
0.000000 1.000000 0.816706
0.065402 1.000000 0.808409
0.257505 1.000000 0.800082
0.450569 1.000000 0.791727
0.644522 1.000000 0.783345
0.832262 1.000000 0.775188
0.990472 1.000000 0.768072
1.000000 1.000000 0.766091
0.000000 0.000000 1.000000
0.000000 0.000000 1.000000
0.167910 0.000000 1.000000
0.338992 0.000000 1.000000
0.512260 0.000000 1.000000
0.687644 0.000000 1.000000
0.865074 0.000000 1.000000
1.000000 0.000000 1.000000
1.000000 0.000000 1.000000
0.000000 0.000000 1.000000
0.000000 0.000000 1.000000
0.170573 0.000000 1.000000
0.345218 0.000000 1.000000
0.521891 0.000000 1.000000
0.700524 0.000000 1.000000
0.881047 0.000000 1.000000
1.000000 0.000000 1.000000
1.000000 0.000000 1.000000
0.000000 0.167689 1.000000
0.000000 0.167493 1.000000
0.153007 0.161588 1.000000
0.330928 0.155610 1.000000
0.510723 0.149564 1.000000
0.692322 0.143450 1.000000
0.875658 0.137272 1.000000
1.000000 0.131280 1.000000
1.000000 0.130917 1.000000
0.000000 0.337693 1.000000
0.000000 0.337669 1.000000
0.135150 0.331828 1.000000
0.316092 0.325914 1.000000
0.498753 0.319931 1.000000
0.683066 0.313880 1.000000
0.868567 0.307777 1.000000
1.000000 0.301975 1.000000
1.000000 0.301780 1.000000
0.000000 0.508912 1.000000
0.000000 0.509021 1.000000
0.117032 0.503212 1.000000
0.300740 0.497331 1.000000
0.486014 0.491379 1.000000
0.672787 0.485359 1.000000
0.859721 0.479318 1.000000
1.000000 0.473692 1.000000
1.000000 0.473628 1.000000
0.000000 0.681141 1.000000
0.000000 0.681343 1.000000
0.098679 0.675536 1.000000
0.284899 0.669655 1.000000
0.472533 0.663704 1.000000
0.661510 0.657683 1.000000
0.849305 0.651683 1.000000
1.000000 0.646226 1.000000
1.000000 0.646253 1.000000
0.000000 0.854177 1.000000
0.000000 0.854431 1.000000
0.080118 0.848594 1.000000
0.268596 0.842683 1.000000
0.458332 0.836700 1.000000
0.649258 0.830648 1.000000
0.837391 0.824666 0.997258
1.000000 0.819369 0.989436
1.000000 0.819448 0.987023
0.000000 1.000000 1.000000
0.000000 1.000000 1.000000
0.061783 1.000000 1.000000
0.252295 1.000000 0.994687
0.443909 1.000000 0.986054
0.636557 1.000000 0.977391
0.824632 0.993797 0.968894
0.987802 0.988361 0.961278
1.000000 0.988156 0.958939
0.000000 1.000000 1.000000
0.000000 1.000000 1.000000
0.063554 1.000000 0.995202
0.255826 1.000000 0.986567
0.449042 1.000000 0.977904
0.643130 1.000000 0.969215
0.830825 1.000000 0.960757
0.988440 1.000000 0.953359
1.000000 1.000000 0.951079
0.000000 0.000000 1.000000
0.000000 0.000000 1.000000
0.168178 0.000000 1.000000
0.339632 0.000000 1.000000
0.513256 0.000000 1.000000
0.688981 0.000000 1.000000
0.866735 0.000000 1.000000
1.000000 0.000000 1.000000
1.000000 0.000000 1.000000
0.000000 0.000000 1.000000
0.000000 0.000000 1.000000
0.170827 0.000000 1.000000
0.345818 0.000000 1.000000
0.522822 0.000000 1.000000
0.701769 0.000000 1.000000
0.882589 0.000000 1.000000
1.000000 0.000000 1.000000
1.000000 0.000000 1.000000
0.000000 0.167610 1.000000
0.000000 0.167412 1.000000
0.153241 0.161494 1.000000
0.331482 0.155504 1.000000
0.511580 0.149446 1.000000
0.693468 0.143321 1.000000
0.877076 0.137132 1.000000
1.000000 0.131143 1.000000
1.000000 0.130782 1.000000
0.000000 0.337676 1.000000
0.000000 0.337649 1.000000
0.135367 0.331794 1.000000
0.316601 0.325867 1.000000
0.499541 0.319870 1.000000
0.684116 0.313807 1.000000
0.869790 0.307696 1.000000
1.000000 0.301896 1.000000
1.000000 0.301701 1.000000
0.000000 0.508944 1.000000
0.000000 0.509048 1.000000
0.117232 0.503224 1.000000
0.301207 0.497328 1.000000
0.486733 0.491363 1.000000
0.673742 0.485329 1.000000
0.860791 0.479279 1.000000
1.000000 0.473657 1.000000
1.000000 0.473591 1.000000
0.000000 0.681210 1.000000
0.000000 0.681403 1.000000
0.098864 0.675580 1.000000
0.285326 0.669684 1.000000
0.473185 0.663717 1.000000
0.662373 0.657683 1.000000
0.850227 0.651673 1.000000
1.000000 0.646221 1.000000
1.000000 0.646245 1.000000
0.000000 0.854267 1.000000
0.000000 0.854511 1.000000
0.080290 0.848657 1.000000
0.268983 0.842729 1.000000
0.458920 0.836730 1.000000
0.650029 0.830662 1.000000
0.838172 0.824671 1.000000
1.000000 0.819380 1.000000
1.000000 0.819454 1.000000
0.000000 1.000000 1.000000
0.000000 1.000000 1.000000
0.061955 1.000000 1.000000
0.252656 1.000000 1.000000
0.444444 1.000000 0.999821
0.637249 0.999989 0.991130
0.825297 0.993706 0.982613
0.987943 0.988274 0.974993
1.000000 0.988060 0.972636
0.000000 1.000000 1.000000
0.000000 1.000000 1.000000
0.063723 1.000000 1.000000
0.256157 1.000000 1.000000
0.449519 1.000000 0.991602
0.643737 1.000000 0.982887
0.831382 1.000000 0.974409
0.988390 1.000000 0.967011
1.000000 1.000000 0.964712
