library/cube/Rhythm_Light_002.cube
# CINEGRADE LAB — Premium Cinematic LUT
# Title: Rhythm Light
# Category: Music Video Looks
# Description: Stylized, dramatic, high-impact looks inspired by music video grading
# Mood: Dynamic, stylized, intense
# Variant: 3
# Generated: 2026-05-21T16:12:40.069558
TITLE "Rhythm Light"
LUT_3D_SIZE 33
0.000000 0.000000 0.000000
0.000000 0.000000 0.000000
0.000002 0.000000 0.000000
0.000004 0.000001 0.000000
0.012675 0.000000 0.000000
0.053951 0.000000 0.000000
0.095378 0.000000 0.000000
0.136955 0.000000 0.000000
0.178682 0.000000 0.000000
0.220557 0.000000 0.000000
0.262580 0.000000 0.000000
0.304748 0.000000 0.000000
0.347061 0.000000 0.000000
0.389518 0.000000 0.000000
0.432118 0.000000 0.000000
0.474859 0.000000 0.000000
0.517740 0.000000 0.000000
0.560761 0.000000 0.000000
0.603920 0.000000 0.000000
0.647216 0.000000 0.000000
0.690648 0.000000 0.000000
0.734214 0.000000 0.000000
0.777915 0.000000 0.000000
0.821747 0.000000 0.000000
0.865712 0.000000 0.000000
0.909807 0.000000 0.000000
0.953756 0.000000 0.000000
0.997780 0.000000 0.000000
1.000000 0.000000 0.000000
1.000000 0.000000 0.000000
1.000000 0.000000 0.000000
1.000000 0.000000 0.000000
1.000000 0.000000 0.000000
0.000005 0.000001 0.000000
0.000008 0.000001 0.000000
0.000013 0.000002 0.000000
0.000018 0.000003 0.000000
0.012770 0.000000 0.000000
0.054301 0.000000 0.000000
0.095980 0.000000 0.000000
0.137807 0.000000 0.000000
0.179782 0.000000 0.000000
0.221902 0.000000 0.000000
0.264166 0.000000 0.000000
0.306574 0.000000 0.000000
0.349125 0.000000 0.000000
0.391816 0.000000 0.000000
0.434648 0.000000 0.000000
0.477619 0.000000 0.000000
0.520727 0.000000 0.000000
0.563973 0.000000 0.000000
0.607354 0.000000 0.000000
0.650869 0.000000 0.000000
0.694518 0.000000 0.000000
0.738300 0.000000 0.000000
0.782212 0.000000 0.000000
0.826255 0.000000 0.000000
0.870426 0.000000 0.000000
0.914702 0.000000 0.000000
0.958763 0.000000 0.000000
1.000000 0.000000 0.000000
1.000000 0.000000 0.000000
1.000000 0.000000 0.000000
1.000000 0.000000 0.000000
1.000000 0.000000 0.000000
1.000000 0.000000 0.000000
0.000020 0.000003 0.000000
0.000027 0.000005 0.000000
0.000034 0.000006 0.000000
0.000042 0.000007 0.000000
0.012874 0.000000 0.000000
0.054655 0.000000 0.000000
0.096583 0.000000 0.000000
0.138656 0.000000 0.000000
0.180873 0.000000 0.000000
0.223233 0.000000 0.000000
0.265736 0.000000 0.000000
0.308379 0.000000 0.000000
0.351163 0.000000 0.000000
0.394085 0.000000 0.000000
0.437144 0.000000 0.000000
0.480341 0.000000 0.000000
0.523672 0.000000 0.000000
0.567138 0.000000 0.000000
0.610737 0.000000 0.000000
0.654468 0.000000 0.000000
0.698330 0.000000 0.000000
0.742322 0.000000 0.000000
0.786443 0.000000 0.000000
0.830691 0.000000 0.000000
0.875066 0.000000 0.000000
0.919494 0.000000 0.000000
0.963661 0.000000 0.000000
1.000000 0.000000 0.000000
1.000000 0.000000 0.000000
1.000000 0.000000 0.000000
1.000000 0.000000 0.000000
1.000000 0.000000 0.000000
1.000000 0.000000 0.000000
0.000045 0.000008 0.000000
0.000055 0.000009 0.000000
0.000065 0.000011 0.000000
0.000076 0.000013 0.000000
0.012987 0.000000 0.000000
0.055014 0.000000 0.000000
0.097185 0.000000 0.000000
0.139500 0.000000 0.000000
0.181956 0.000000 0.000000
0.224552 0.000000 0.000000
0.267289 0.000000 0.000000
0.310164 0.000000 0.000000
0.353176 0.000000 0.000000
0.396324 0.000000 0.000000
0.439608 0.000000 0.000000
0.483025 0.000000 0.000000
0.526575 0.000000 0.000000
0.570258 0.000000 0.000000
0.614071 0.000000 0.000000
0.658013 0.000000 0.000000
0.702084 0.000000 0.000000
0.746283 0.000000 0.000000
0.790608 0.000000 0.000000
0.835058 0.000000 0.000000
0.879632 0.000000 0.000000
0.924190 0.000000 0.000000
0.968447 0.000000 0.000000
1.000000 0.000000 0.000000
1.000000 0.000000 0.000000
1.000000 0.000000 0.000000
1.000000 0.000000 0.000000
1.000000 0.000000 0.000000
1.000000 0.000000 0.000000
0.000000 0.012863 0.000000
0.000000 0.012870 0.000000
0.000000 0.012877 0.000000
0.000000 0.012884 0.000000
0.011449 0.012436 0.000000
0.053718 0.010959 0.000000
0.096128 0.009477 0.000000
0.138679 0.007990 0.000000
0.181369 0.006499 0.000000
0.224197 0.005002 0.000000
0.267163 0.003501 0.000000
0.310264 0.001996 0.000000
0.353500 0.000486 0.000000
0.396870 0.000000 0.000000
0.440373 0.000000 0.000000
0.484007 0.000000 0.000000
0.527771 0.000000 0.000000
0.571665 0.000000 0.000000
0.615688 0.000000 0.000000
0.659837 0.000000 0.000000
0.704112 0.000000 0.000000
0.748513 0.000000 0.000000
0.793037 0.000000 0.000000
0.837684 0.000000 0.000000
0.882453 0.000000 0.000000
0.927116 0.000000 0.000000
0.971448 0.000000 0.000000
1.000000 0.000000 0.000000
1.000000 0.000000 0.000000
1.000000 0.000000 0.000000
1.000000 0.000000 0.000000
1.000000 0.000000 0.000000
1.000000 0.000000 0.000000
0.000000 0.054699 0.000000
0.000000 0.054722 0.000000
0.000000 0.054745 0.000000
0.000000 0.054768 0.000000
0.006179 0.054333 0.000000
0.048684 0.052863 0.000000
0.091328 0.051388 0.000000
0.134109 0.049908 0.000000
0.177028 0.048424 0.000000
0.220082 0.046935 0.000000
0.263271 0.045441 0.000000
0.306594 0.043943 0.000000
0.350048 0.042440 0.000000
0.393635 0.040933 0.000000
0.437351 0.039421 0.000000
0.481196 0.037904 0.000000
0.525170 0.036383 0.000000
0.569270 0.034858 0.000000
0.613496 0.033328 0.000000
0.657847 0.031794 0.000000
0.702322 0.030256 0.000000
0.746919 0.028714 0.000000
0.791637 0.027167 0.000000
0.836476 0.025616 0.000000
0.881434 0.024061 0.000000
0.926175 0.022514 0.000000
0.970567 0.020979 0.000000
1.000000 0.019443 0.000000
1.000000 0.017905 0.000000
1.000000 0.017416 0.000000
1.000000 0.017394 0.000000
1.000000 0.017372 0.000000
1.000000 0.017351 0.000000
0.000000 0.096640 0.000000
0.000000 0.096678 0.000000
0.000000 0.096716 0.000000
0.000000 0.096754 0.000000
0.000905 0.096331 0.000000
0.043642 0.094868 0.000000
0.086515 0.093400 0.000000
0.129523 0.091927 0.000000
0.172666 0.090449 0.000000
0.215943 0.088967 0.000000
0.259351 0.087480 0.000000
0.302891 0.085988 0.000000
0.346560 0.084492 0.000000
0.390358 0.082991 0.000000
0.434284 0.081486 0.000000
0.478337 0.079976 0.000000
0.522515 0.078462 0.000000
0.566818 0.076943 0.000000
0.611244 0.075420 0.000000
0.655792 0.073893 0.000000
0.700462 0.072361 0.000000
0.745252 0.070825 0.000000
0.790161 0.069285 0.000000
0.835187 0.067741 0.000000
0.880331 0.066193 0.000000
0.925121 0.064657 0.000000
0.969558 0.063133 0.000000
1.000000 0.061608 0.000000
1.000000 0.060082 0.000000
1.000000 0.059607 0.000000
1.000000 0.059599 0.000000
1.000000 0.059591 0.000000
1.000000 0.059584 0.000000
0.000000 0.138682 0.000000
0.000000 0.138735 0.000000
0.000000 0.138787 0.000000
0.000000 0.138840 0.000000
0.000000 0.138428 0.000000
0.038592 0.136971 0.000000
0.081690 0.135510 0.000000
0.124921 0.134043 0.000000
0.168285 0.132572 0.000000
0.211779 0.131095 0.000000
0.255403 0.129615 0.000000
0.299155 0.128129 0.000000
0.343035 0.126639 0.000000
0.387042 0.125144 0.000000
0.431173 0.123645 0.000000
0.475429 0.122142 0.000000
0.519808 0.120634 0.000000
0.564309 0.119121 0.000000
0.608932 0.117604 0.000000
0.653673 0.116083 0.000000
0.698534 0.114557 0.000000
0.743513 0.113028 0.000000
0.788608 0.111494 0.000000
0.833819 0.109955 0.000000
0.879144 0.108413 0.000000
0.923955 0.106889 0.000000
0.968421 0.105376 0.000000
1.000000 0.103863 0.000000
1.000000 0.102349 0.000000
1.000000 0.101886 0.000000
1.000000 0.101892 0.000000
1.000000 0.101898 0.000000
1.000000 0.101904 0.000000
0.000000 0.180822 0.000000
0.000000 0.180889 0.000000
0.000000 0.180955 0.000000
0.000000 0.181021 0.000000
0.000000 0.180621 0.000000
0.033534 0.179170 0.000000
0.076854 0.177714 0.000000
0.120304 0.176253 0.000000
0.163884 0.174787 0.000000
0.207592 0.173317 0.000000
0.251427 0.171842 0.000000
0.295388 0.170362 0.000000
0.339475 0.168878 0.000000
0.383685 0.167389 0.000000
0.428019 0.165895 0.000000
0.472474 0.164397 0.000000
0.517050 0.162895 0.000000
0.561745 0.161388 0.000000
0.606559 0.159877 0.000000
0.651491 0.158361 0.000000
0.696539 0.156841 0.000000
0.741702 0.155317 0.000000
0.786980 0.153789 0.000000
0.832370 0.152256 0.000000
0.877873 0.150719 0.000000
0.922674 0.149207 0.000000
0.967156 0.147706 0.000000
1.000000 0.146204 0.000000
1.000000 0.144701 0.000000
1.000000 0.144251 0.000000
1.000000 0.144270 0.000000
1.000000 0.144288 0.000000
1.000000 0.144307 0.000000
0.000000 0.223057 0.000000
0.000000 0.223137 0.000000
0.000000 0.223216 0.000000
0.000000 0.223296 0.000000
0.000000 0.222906 0.000000
0.028470 0.221460 0.000000
0.072006 0.220009 0.000000
0.115671 0.218554 0.000000
0.159463 0.217093 0.000000
0.203381 0.215628 0.000000
0.247424 0.214158 0.000000
0.291590 0.212684 0.000000
0.335879 0.211205 0.000000
0.380290 0.209721 0.000000
0.424821 0.208233 0.000000
0.469471 0.206740 0.000000
0.514240 0.205242 0.000000
0.559126 0.203741 0.000000
0.604128 0.202235 0.000000
0.649245 0.200724 0.000000
0.694476 0.199209 0.000000
0.739820 0.197690 0.000000
0.785276 0.196167 0.000000
0.830843 0.194640 0.000000
0.876519 0.193108 0.000000
0.921278 0.191608 0.000000
0.965761 0.190118 0.000000
1.000000 0.188627 0.000000
1.000000 0.187136 0.000000
1.000000 0.186698 0.000000
1.000000 0.186729 0.000000
1.000000 0.186760 0.000000
1.000000 0.186791 0.000000
0.000000 0.265384 0.000000
0.000000 0.265476 0.000000
0.000000 0.265568 0.000000
0.000000 0.265660 0.000000
0.000000 0.265281 0.000000
0.023399 0.263839 0.000000
0.067149 0.262393 0.000000
0.111024 0.260942 0.000000
0.155024 0.259487 0.000000
0.199148 0.258026 0.000000
0.243394 0.256561 0.000000
0.287761 0.255091 0.000000
0.332249 0.253617 0.000000
0.376855 0.252138 0.000000
0.421580 0.250654 0.000000
0.466422 0.249166 0.000000
0.511380 0.247673 0.000000
0.556452 0.246176 0.000000
0.601638 0.244675 0.000000
0.646937 0.243169 0.000000
0.692347 0.241659 0.000000
0.737868 0.240145 0.000000
0.783499 0.238626 0.000000
0.829237 0.237103 0.000000
0.875083 0.235576 0.000000
0.919767 0.234089 0.000000
0.964235 0.232610 0.000000
1.000000 0.231130 0.000000
1.000000 0.229650 0.000000
1.000000 0.229224 0.000000
1.000000 0.229266 0.000000
1.000000 0.229309 0.000000
1.000000 0.229351 0.000000
0.000000 0.307798 0.000000
0.000000 0.307903 0.000000
0.000000 0.308007 0.000000
0.000000 0.308111 0.000000
0.000000 0.307741 0.000000
0.018322 0.306304 0.000000
0.062281 0.304862 0.000000
0.106363 0.303415 0.000000
0.150567 0.301964 0.000000
0.194892 0.300508 0.000000
0.239338 0.299047 0.000000
0.283902 0.297581 0.000000
0.328584 0.296111 0.000000
0.373383 0.294636 0.000000
0.418298 0.293157 0.000000
0.463327 0.291673 0.000000
0.508469 0.290184 0.000000
0.553724 0.288691 0.000000
0.599090 0.287194 0.000000
0.644567 0.285693 0.000000
0.690152 0.284187 0.000000
0.735846 0.282676 0.000000
0.781647 0.281162 0.000000
0.827554 0.279643 0.000000
0.873566 0.278120 0.000000
0.918141 0.276647 0.000000
0.962580 0.275178 0.000000
1.000000 0.273709 0.000000
1.000000 0.272241 0.000000
1.000000 0.271826 0.000000
1.000000 0.271879 0.000000
1.000000 0.271933 0.000000
1.000000 0.271986 0.000000
0.000000 0.350299 0.000000
0.000000 0.350414 0.000000
0.000000 0.350530 0.000000
0.000000 0.350645 0.000000
0.000000 0.350284 0.000000
0.013239 0.348850 0.000000
0.057403 0.347412 0.000000
0.101688 0.345969 0.000000
0.146092 0.344522 0.000000
0.190615 0.343069 0.000000
0.235256 0.341612 0.000000
0.280013 0.340150 0.000000
0.324886 0.338684 0.000000
0.369873 0.337213 0.000000
0.414973 0.335737 0.000000
0.460186 0.334257 0.000000
0.505509 0.332772 0.000000
0.550943 0.331283 0.000000
0.596485 0.329789 0.000000
0.642135 0.328291 0.000000
0.687892 0.326789 0.000000
0.733755 0.325282 0.000000
0.779722 0.323771 0.000000
0.825793 0.322256 0.000000
0.871967 0.320737 0.000000
0.916400 0.319278 0.000000
0.960794 0.317820 0.000000
1.000000 0.316362 0.000000
1.000000 0.314905 0.000000
1.000000 0.314500 0.000000
1.000000 0.314564 0.000000
1.000000 0.314628 0.000000
1.000000 0.314691 0.000000
0.000000 0.392881 0.000000
0.000000 0.393007 0.000000
0.000000 0.393133 0.000000
0.000000 0.393259 0.000000
0.000000 0.392906 0.000000
0.008151 0.391476 0.000000
0.052516 0.390041 0.000000
0.096999 0.388602 0.000000
0.141600 0.387157 0.000000
0.186317 0.385708 0.000000
0.231149 0.384254 0.000000
0.276096 0.382796 0.000000
0.321155 0.381332 0.000000
0.366326 0.379864 0.000000
0.411608 0.378392 0.000000
0.457000 0.376915 0.000000
0.502500 0.375433 0.000000
0.548108 0.373947 0.000000
0.593823 0.372457 0.000000
0.639643 0.370962 0.000000
0.685567 0.369463 0.000000
0.731595 0.367959 0.000000
0.777725 0.366452 0.000000
0.823956 0.364940 0.000000
0.870180 0.363427 0.000000
0.914542 0.361979 0.000000
0.958878 0.360532 0.000000
1.000000 0.359085 0.000000
1.000000 0.357638 0.000000
1.000000 0.357244 0.000000
1.000000 0.357318 0.000000
1.000000 0.357391 0.000000
1.000000 0.357464 0.000000
0.000000 0.435541 0.000000
0.000000 0.435678 0.000000
0.000000 0.435814 0.000000
0.000000 0.435950 0.000000
0.000000 0.435605 0.000000
0.003058 0.434178 0.000000
0.047620 0.432746 0.000000
0.092298 0.431309 0.000000
0.137091 0.429867 0.000000
0.181998 0.428421 0.000000
0.227018 0.426970 0.000000
0.272149 0.425514 0.000000
0.317391 0.424053 0.000000
0.362742 0.422588 0.000000
0.408202 0.421118 0.000000
0.453769 0.419644 0.000000
0.499442 0.418165 0.000000
0.545221 0.416682 0.000000
0.591104 0.415194 0.000000
0.637090 0.413702 0.000000
0.683178 0.412205 0.000000
0.729367 0.410705 0.000000
0.775655 0.409199 0.000000
0.822043 0.407690 0.000000
0.868272 0.406185 0.000000
0.912569 0.404748 0.000000
0.956832 0.403311 0.000000
1.000000 0.401874 0.000000
1.000000 0.400439 0.000000
1.000000 0.400055 0.000000
1.000000 0.400137 0.000000
1.000000 0.400220 0.000000
1.000000 0.400302 0.000000
0.000000 0.478278 0.000000
0.000000 0.478424 0.000000
0.000000 0.478570 0.000000
0.000000 0.478714 0.000000
0.000000 0.478376 0.000000
0.000000 0.476952 0.000000
0.042716 0.475522 0.000000
0.087585 0.474087 0.000000
0.132566 0.472648 0.000000
0.177659 0.471204 0.000000
0.222862 0.469755 0.000000
0.268174 0.468302 0.000000
0.313595 0.466843 0.000000
0.359122 0.465380 0.000000
0.404756 0.463913 0.000000
0.450494 0.462441 0.000000
0.496337 0.460964 0.000000
0.542282 0.459483 0.000000
0.588329 0.457997 0.000000
0.634477 0.456508 0.000000
0.680724 0.455013 0.000000
0.727070 0.453515 0.000000
0.773514 0.452012 0.000000
0.820053 0.450504 0.000000
0.866263 0.449008 0.000000
0.910481 0.447580 0.000000
0.954655 0.446154 0.000000
0.998781 0.444728 0.000000
1.000000 0.443303 0.000000
1.000000 0.442928 0.000000
1.000000 0.443019 0.000000
1.000000 0.443110 0.000000
1.000000 0.443200 0.000000
0.000000 0.521087 0.000000
0.000000 0.521242 0.000000
0.000000 0.521396 0.000000
0.000000 0.521549 0.000000
0.000000 0.521218 0.000000
0.000000 0.519795 0.000000
0.037804 0.518367 0.000000
0.082860 0.516935 0.000000
0.128025 0.515497 0.000000
0.173300 0.514055 0.000000
0.218682 0.512608 0.000000
0.264171 0.511156 0.000000
0.309767 0.509699 0.000000
0.355466 0.508238 0.000000
0.401270 0.506772 0.000000
0.447176 0.505302 0.000000
0.493184 0.503827 0.000000
0.539292 0.502348 0.000000
0.585499 0.500864 0.000000
0.631805 0.499376 0.000000
0.678208 0.497883 0.000000
0.724707 0.496386 0.000000
0.771301 0.494885 0.000000
0.817989 0.493379 0.000000
0.864154 0.491891 0.000000
0.908278 0.490473 0.000000
0.952349 0.489057 0.000000
0.996364 0.487641 0.000000
1.000000 0.486227 0.000000
1.000000 0.485861 0.000000
1.000000 0.485960 0.000000
1.000000 0.486059 0.000000
1.000000 0.486157 0.000000
0.000000 0.563965 0.000000
0.000000 0.564128 0.000000
0.000000 0.564291 0.000000
0.000000 0.564452 0.000000
0.000000 0.564126 0.000000
0.000000 0.562705 0.000000
0.032885 0.561278 0.000000
0.078123 0.559847 0.000000
0.123469 0.558411 0.000000
0.168921 0.556970 0.000000
0.214479 0.555524 0.000000
0.260141 0.554073 0.000000
0.305907 0.552618 0.000000
0.351775 0.551158 0.000000
0.397745 0.549694 0.000000
0.443814 0.548225 0.000000
0.489983 0.546751 0.000000
0.536250 0.545273 0.000000
0.582614 0.543790 0.000000
0.629073 0.542303 0.000000
0.675628 0.540812 0.000000
0.722276 0.539316 0.000000
0.769017 0.537816 0.000000
0.815849 0.536311 0.000000
0.861945 0.534832 0.000000
0.905960 0.533424 0.000000
0.949914 0.532018 0.000000
0.993802 0.530612 0.000000
1.000000 0.529209 0.000000
1.000000 0.528851 0.000000
1.000000 0.528957 0.000000
1.000000 0.529063 0.000000
1.000000 0.529168 0.000000
0.000000 0.606909 0.000000
0.000000 0.607080 0.000000
0.000000 0.607250 0.000000
0.000000 0.607418 0.000000
0.000000 0.607098 0.000000
0.000000 0.605678 0.000000
0.027958 0.604252 0.000000
0.073375 0.602821 0.000000
0.118897 0.601386 0.000000
0.164523 0.599946 0.000000
0.210253 0.598501 0.000000
0.256084 0.597051 0.000000
0.302017 0.595596 0.000000
0.348050 0.594137 0.000000
0.394181 0.592674 0.000000
0.440410 0.591205 0.000000
0.486736 0.589732 0.000000
0.533158 0.588255 0.000000
0.579674 0.586773 0.000000
0.626283 0.585287 0.000000
0.672985 0.583796 0.000000
0.719779 0.582301 0.000000
0.766663 0.580801 0.000000
0.813635 0.579298 0.000000
0.859637 0.577827 0.000000
0.903528 0.576429 0.000000
0.947350 0.575032 0.000000
0.991097 0.573637 0.000000
1.000000 0.572244 0.000000
1.000000 0.571894 0.000000
1.000000 0.572007 0.000000
1.000000 0.572119 0.000000
1.000000 0.572231 0.000000
0.000000 0.649916 0.000000
0.000000 0.650094 0.000000
0.000000 0.650270 0.000000
0.000000 0.650446 0.000000
0.000000 0.650131 0.000000
0.000000 0.648710 0.000000
0.023025 0.647285 0.000000
0.068616 0.645855 0.000000
0.114311 0.644420 0.000000
0.160107 0.642980 0.000000
0.206004 0.641535 0.000000
0.252001 0.640085 0.000000
0.298096 0.638631 0.000000
0.344289 0.637172 0.000000
0.390579 0.635709 0.000000
0.436964 0.634241 0.000000
0.483443 0.632768 0.000000
0.530015 0.631291 0.000000
0.576680 0.629809 0.000000
0.623435 0.628323 0.000000
0.670281 0.626833 0.000000
0.717216 0.625338 0.000000
0.764238 0.623838 0.000000
0.811347 0.622335 0.000000
0.857230 0.620873 0.000000
0.900984 0.619485 0.000000
0.944659 0.618098 0.000000
0.988251 0.616713 0.000000
1.000000 0.615330 0.000000
1.000000 0.614988 0.000000
1.000000 0.615106 0.000000
1.000000 0.615225 0.000000
1.000000 0.615342 0.000000
0.000000 0.692982 0.000000
0.000000 0.693167 0.000000
0.000000 0.693349 0.000000
0.000000 0.693531 0.000000
0.000000 0.693220 0.000000
0.000000 0.691799 0.000000
0.018085 0.690374 0.000000
0.063848 0.688943 0.000000
0.109710 0.687508 0.000000
0.155673 0.686068 0.000000
0.201733 0.684623 0.000000
0.247891 0.683174 0.000000
0.294146 0.681719 0.000000
0.340495 0.680260 0.000000
0.386938 0.678796 0.000000
0.433475 0.677328 0.000000
0.480103 0.675855 0.000000
0.526822 0.674378 0.000000
0.573631 0.672896 0.000000
0.620529 0.671409 0.000000
0.667514 0.669918 0.000000
0.714586 0.668423 0.000000
0.761744 0.666924 0.000000
0.808985 0.665420 0.000000
0.854725 0.663967 0.000000
0.898326 0.662589 0.000000
0.941840 0.661212 0.000000
0.985263 0.659837 0.000000
1.000000 0.658464 0.000000
1.000000 0.658128 0.000000
1.000000 0.658252 0.000000
1.000000 0.658376 0.000000
1.000000 0.658498 0.000000
0.000000 0.736105 0.000000
0.000000 0.736295 0.000000
0.000000 0.736484 0.000000
0.000000 0.736671 0.000000
0.000000 0.736363 0.000000
0.000000 0.734942 0.000000
0.013140 0.733516 0.000000
0.059069 0.732085 0.000000
0.105096 0.730649 0.000000
0.151221 0.729208 0.000000
0.197441 0.727763 0.000000
0.243756 0.726312 0.000000
0.290165 0.724857 0.000000
0.336667 0.723397 0.000000
0.383261 0.721933 0.000000
0.429945 0.720464 0.000000
0.476718 0.718990 0.000000
0.523580 0.717512 0.000000
0.570530 0.716029 0.000000
0.617566 0.714542 0.000000
0.664687 0.713051 0.000000
0.711892 0.711555 0.000000
0.759180 0.710054 0.000000
0.806550 0.708549 0.000000
0.852123 0.707106 0.000000
0.895558 0.705737 0.000000
0.938897 0.704370 0.000000
0.982135 0.703005 0.000000
1.000000 0.701642 0.000000
1.000000 0.701312 0.000000
1.000000 0.701441 0.000000
1.000000 0.701569 0.000000
1.000000 0.701696 0.000000
0.000000 0.779281 0.000000
0.000000 0.779476 0.000000
0.000000 0.779670 0.000000
0.000000 0.779862 0.000000
0.000000 0.779557 0.000000
0.000000 0.778135 0.000000
0.008189 0.776708 0.000000
0.054281 0.775275 0.000000
0.100469 0.773838 0.000000
0.146751 0.772396 0.000000
0.193127 0.770950 0.000000
0.239596 0.769498 0.000000
0.286156 0.768042 0.000000
0.332806 0.766581 0.000000
0.379546 0.765115 0.000000
0.426373 0.763645 0.000000
0.473288 0.762170 0.000000
0.520289 0.760691 0.000000
0.567375 0.759207 0.000000
0.614545 0.757718 0.000000
0.661797 0.756225 0.000000
0.709132 0.754728 0.000000
0.756547 0.753226 0.000000
0.804041 0.751720 0.000000
0.849426 0.750287 0.000000
0.892680 0.748927 0.000000
0.935829 0.747569 0.000000
0.978869 0.746214 0.000000
1.000000 0.744860 0.000000
1.000000 0.744537 0.000000
1.000000 0.744670 0.000000
1.000000 0.744802 0.000000
1.000000 0.744932 0.000000
0.000000 0.822507 0.000000
0.000000 0.822707 0.000000
0.000000 0.822905 0.000000
0.000000 0.823101 0.000000
0.000000 0.822798 0.000000
0.000000 0.821375 0.000000
0.003233 0.819946 0.000000
0.049484 0.818512 0.000000
0.095828 0.817073 0.000000
0.142265 0.815630 0.000000
0.188793 0.814181 0.000000
0.235411 0.812728 0.000000
0.282117 0.811270 0.000000
0.328912 0.809807 0.000000
0.375794 0.808340 0.000000
0.422761 0.806868 0.000000
0.469813 0.805392 0.000000
0.516949 0.803910 0.000000
0.564168 0.802425 0.000000
0.611467 0.800934 0.000000
0.658848 0.799440 0.000000
0.706307 0.797941 0.000000
0.753845 0.796437 0.000000
0.801460 0.794930 0.000000
0.846634 0.793506 0.000000
0.889693 0.792155 0.000000
0.932637 0.790807 0.000000
0.975465 0.789460 0.000000
1.000000 0.788117 0.000000
1.000000 0.787799 0.000000
1.000000 0.787935 0.000000
1.000000 0.788070 0.000000
1.000000 0.788204 0.000000
0.000000 0.865780 0.000000
0.000000 0.865983 0.000000
0.000000 0.866185 0.000000
0.000000 0.866385 0.000000
0.000000 0.866084 0.000000
0.000000 0.864658 0.000000
0.000000 0.863227 0.000000
0.044679 0.861791 0.000000
0.091176 0.860351 0.000000
0.137762 0.858905 0.000000
0.184438 0.857454 0.000000
0.231201 0.855999 0.000000
0.278050 0.854539 0.000000
0.324986 0.853074 0.000000
0.372005 0.851604 0.000000
0.419109 0.850130 0.000000
0.466294 0.848651 0.000000
0.513561 0.847168 0.000000
0.560907 0.845680 0.000000
0.608333 0.844188 0.000000
0.655837 0.842691 0.000000
0.703418 0.841190 0.000000
0.751074 0.839684 0.000000
0.798805 0.838174 0.000000
0.843749 0.836760 0.000000
0.886598 0.835418 0.000000
0.929325 0.834079 0.000000
0.971926 0.832742 0.000000
1.000000 0.831408 0.000000
1.000000 0.831095 0.000000
1.000000 0.831234 0.000000
1.000000 0.831372 0.000000
1.000000 0.831508 0.000000
0.000000 0.909097 0.000000
0.000000 0.909303 0.000000
0.000000 0.909508 0.000000
0.000000 0.909710 0.000000
0.000000 0.909411 0.000000
0.000000 0.907983 0.000000
0.000000 0.906549 0.000000
0.039865 0.905110 0.000000
0.086510 0.903667 0.000000
0.133243 0.902219 0.000000
0.180062 0.900765 0.000000
0.226967 0.899307 0.000000
0.273955 0.897845 0.000000
0.321027 0.896377 0.000000
0.368181 0.894905 0.000000
0.415416 0.893428 0.000000
0.462730 0.891946 0.000000
0.510124 0.890460 0.000000
0.557595 0.888970 0.000000
0.605143 0.887475 0.000000
0.652766 0.885975 0.000000
0.700464 0.884471 0.000000
0.748235 0.882963 0.000000
0.796079 0.881450 0.000000
0.840773 0.880046 0.000000
0.883398 0.878713 0.000000
0.925893 0.877382 0.000000
0.968253 0.876055 0.000000
1.000000 0.874731 0.000000
1.000000 0.874422 0.000000
1.000000 0.874563 0.000000
1.000000 0.874703 0.000000
1.000000 0.874841 0.000000
0.000000 0.952454 0.000000
0.000000 0.952663 0.000000
0.000000 0.952870 0.000000
0.000000 0.953075 0.000000
0.000000 0.952776 0.000000
0.000000 0.951344 0.000000
0.000000 0.949908 0.000000
0.035044 0.948466 0.000000
0.081834 0.947019 0.000000
0.128708 0.945568 0.000000
0.175667 0.944112 0.000000
0.222709 0.942650 0.000000
0.269833 0.941184 0.000000
0.317037 0.939714 0.000000
0.364321 0.938238 0.000000
0.411683 0.936758 0.000000
0.459123 0.935274 0.000000
0.506639 0.933784 0.000000
0.554231 0.932290 0.000000
