library/cube/Romantic_Haze_004.cube
# CINEGRADE LAB — Premium Cinematic LUT
# Title: Romantic Haze
# Category: Dreamy Wedding
# Description: Soft, romantic, warm highlights with pastel tones for wedding photography
# Mood: Romantic, ethereal, tender
# Variant: 5
# Generated: 2026-05-21T16:12:19.885911
TITLE "Romantic Haze"
LUT_3D_SIZE 9
0.203471 0.195471 0.195471
0.276170 0.195655 0.195655
0.353620 0.196174 0.196172
0.434707 0.196973 0.196967
0.518791 0.198017 0.198007
0.605455 0.199288 0.199271
0.694409 0.200769 0.200745
0.785347 0.202446 0.202414
0.816290 0.201191 0.201148
0.203273 0.269416 0.196489
0.276481 0.269947 0.197015
0.354477 0.270815 0.197876
0.436146 0.271963 0.199017
0.520851 0.273361 0.200405
0.608176 0.274986 0.202020
0.697832 0.276824 0.203846
0.789541 0.278861 0.205870
0.821043 0.277955 0.204949
0.205413 0.349667 0.199432
0.279181 0.350547 0.200302
0.357776 0.351767 0.201511
0.440085 0.353270 0.203000
0.525470 0.355023 0.204739
0.613519 0.357006 0.206707
0.703941 0.359205 0.208889
0.796526 0.361608 0.211273
0.828506 0.361048 0.210694
0.209680 0.434958 0.204106
0.284060 0.436191 0.205324
0.363310 0.437766 0.206882
0.446316 0.439626 0.208724
0.532444 0.441738 0.210817
0.621280 0.444083 0.213141
0.712535 0.446646 0.215681
0.805998 0.449415 0.218427
0.838561 0.449207 0.218194
0.215948 0.524555 0.210400
0.290994 0.526144 0.211968
0.370956 0.528077 0.213879
0.454721 0.530297 0.216075
0.541654 0.532773 0.218526
0.631342 0.535483 0.221210
0.722606 0.538437 0.224077
0.815393 0.541600 0.227121
0.846990 0.541771 0.227171
0.224137 0.617973 0.218239
0.299903 0.619921 0.220160
0.380631 0.622216 0.222427
0.464246 0.624879 0.224951
0.550811 0.627785 0.227718
0.639904 0.630915 0.230707
0.731226 0.634251 0.233903
0.824558 0.637785 0.237294
0.856800 0.638331 0.237696
0.233375 0.715031 0.227560
0.309051 0.717446 0.229815
0.389491 0.720196 0.232405
0.473566 0.723225 0.235273
0.560627 0.726499 0.238385
0.650252 0.729999 0.241720
0.742145 0.733708 0.245265
0.836088 0.737616 0.249006
0.869057 0.738543 0.249765
0.243303 0.815646 0.238335
0.319430 0.818428 0.240933
0.400354 0.821546 0.243868
0.484949 0.824946 0.247081
0.572567 0.828593 0.250541
0.662788 0.832468 0.254227
0.755318 0.836554 0.258124
0.849940 0.840842 0.262220
0.883671 0.842152 0.263337
0.244648 0.850618 0.240121
0.321277 0.853755 0.243063
0.402741 0.857231 0.246342
0.487913 0.860989 0.249903
0.576148 0.864998 0.253712
0.667029 0.869237 0.257749
0.760260 0.873689 0.261999
0.855629 0.878346 0.266451
0.890097 0.880025 0.267923
0.203380 0.195522 0.268441
0.276127 0.195741 0.268658
0.353630 0.196295 0.269210
0.434774 0.197129 0.270040
0.518918 0.198209 0.271115
0.605646 0.199515 0.272415
0.694667 0.201032 0.273924
0.785676 0.202745 0.275628
0.816665 0.201524 0.274397
0.203340 0.269584 0.269574
0.276602 0.270150 0.270135
0.354656 0.271053 0.271031
0.436387 0.272237 0.272207
0.521158 0.273670 0.273630
0.608554 0.275332 0.275280
0.698284 0.277206 0.277142
0.790080 0.279280 0.279202
0.821653 0.278410 0.278317
0.205636 0.349952 0.272632
0.279463 0.350868 0.273538
0.358122 0.352123 0.274781
0.440498 0.353662 0.276306
0.525956 0.355451 0.278081
0.614081 0.357471 0.280084
0.704585 0.359706 0.282302
0.797255 0.362145 0.284723
0.829289 0.361621 0.284178
0.210057 0.435360 0.277422
0.284502 0.436629 0.278675
0.363821 0.438240 0.280268
0.446902 0.440136 0.282146
0.533108 0.442285 0.284275
0.622026 0.444666 0.286635
0.713369 0.447266 0.289212
0.806925 0.450072 0.291994
0.839553 0.449900 0.291796
0.216479 0.525074 0.283831
0.291595 0.526699 0.285434
0.371632 0.528668 0.287381
0.455478 0.530925 0.289614
0.542495 0.533437 0.292101
0.632273 0.536185 0.294821
0.723160 0.539188 0.297706
0.815999 0.542386 0.300785
0.847656 0.542592 0.300870
0.224820 0.618610 0.291785
0.300662 0.620594 0.293742
0.381186 0.622954 0.296037
0.464844 0.625651 0.298595
0.551456 0.628593 0.301397
0.640599 0.631757 0.304420
0.731976 0.635129 0.307651
0.825366 0.638697 0.311077
0.857679 0.639279 0.311514
0.234011 0.715825 0.301219
0.309729 0.718274 0.303508
0.390216 0.721059 0.306132
0.474340 0.724123 0.309034
0.561454 0.727433 0.312181
0.651136 0.730967 0.315551
0.743090 0.734712 0.319131
0.837098 0.738656 0.322908
0.870142 0.739618 0.323702
0.244097 0.816565 0.312111
0.320272 0.819381 0.314743
0.401248 0.822535 0.317712
0.485898 0.825970 0.320960
0.573575 0.829653 0.324456
0.663860 0.833563 0.328176
0.756457 0.837685 0.332108
0.851151 0.842009 0.336240
0.884960 0.843356 0.337393
0.245598 0.851657 0.314013
0.322281 0.854829 0.316989
0.403802 0.858340 0.320303
0.489036 0.862134 0.323899
0.577337 0.866179 0.327743
0.668288 0.870453 0.331816
0.761594 0.874943 0.336101
0.857041 0.879636 0.340589
0.891580 0.881351 0.342097
0.203384 0.195664 0.345866
0.276181 0.195918 0.346119
0.353737 0.196507 0.346705
0.434937 0.197375 0.347569
0.519142 0.198491 0.348680
0.605934 0.199833 0.350015
0.695025 0.201386 0.351559
0.786105 0.203135 0.353299
0.817143 0.201949 0.352102
0.203501 0.269842 0.347116
0.276819 0.270444 0.347711
0.354931 0.271382 0.348642
0.436725 0.272602 0.349853
0.521562 0.274071 0.351311
0.609028 0.275768 0.352997
0.698834 0.277679 0.354895
0.790720 0.279790 0.356991
0.822353 0.278955 0.356141
0.205953 0.350327 0.350289
0.279841 0.351279 0.351229
0.358563 0.352570 0.352508
0.441008 0.354144 0.354068
0.526539 0.355970 0.355879
0.614741 0.358026 0.357918
0.705326 0.360297 0.360172
0.798082 0.362774 0.362629
0.830172 0.362284 0.362119
0.210529 0.435853 0.355194
0.285039 0.437158 0.356482
0.364428 0.438804 0.358111
0.447583 0.440736 0.360024
0.533868 0.442922 0.362189
0.622870 0.445340 0.364586
0.714301 0.447976 0.367199
0.807950 0.450820 0.370018
0.840645 0.450683 0.369855
0.217104 0.525684 0.361718
0.292291 0.527345 0.363357
0.372403 0.529350 0.365339
0.456330 0.531644 0.367608
0.543433 0.534193 0.370131
0.632901 0.536991 0.372873
0.723812 0.540030 0.375792
0.816704 0.543263 0.378905
0.848422 0.543504 0.379025
0.225598 0.619337 0.369788
0.301516 0.621358 0.371781
0.381836 0.623783 0.374103
0.465538 0.626515 0.376696
0.552198 0.629491 0.379532
0.641393 0.632690 0.382590
0.732824 0.636097 0.385855
0.826274 0.639701 0.389316
0.858656 0.640318 0.389789
0.234742 0.716710 0.379334
0.310503 0.719194 0.381657
0.391036 0.722013 0.384316
0.475211 0.725112 0.387252
0.562378 0.728457 0.390434
0.652118 0.732026 0.393839
0.744133 0.735807 0.397453
0.838208 0.739786 0.401266
0.871328 0.740785 0.402096
0.244986 0.817575 0.390342
0.321209 0.820426 0.393009
0.402237 0.823614 0.396013
0.486943 0.827084 0.399296
0.574681 0.830803 0.402826
0.665029 0.834748 0.406582
0.757695 0.838907 0.410549
0.852462 0.843267 0.414717
0.886347 0.844650 0.415906
0.246643 0.852786 0.392360
0.323380 0.855993 0.395371
0.404959 0.859540 0.398720
0.490255 0.863370 0.402351
0.578623 0.867451 0.406231
0.669644 0.871761 0.410339
0.763026 0.876287 0.414660
0.858553 0.881016 0.419184
0.893161 0.882768 0.420728
0.203463 0.195877 0.426654
0.276310 0.196165 0.426941
0.353920 0.196790 0.427562
0.435177 0.197694 0.428461
0.519443 0.198845 0.429607
0.606301 0.200222 0.430977
0.695461 0.201811 0.432557
0.786615 0.203596 0.434332
0.817703 0.202445 0.433170
0.203738 0.270172 0.428019
0.277111 0.270809 0.428649
0.355282 0.271783 0.429615
0.437139 0.273038 0.430861
0.522043 0.274543 0.432355
0.609581 0.276276 0.434076
0.699462 0.278223 0.436009
0.791440 0.280371 0.438143
0.823108 0.279571 0.437327
0.206346 0.350774 0.431308
0.280294 0.351761 0.432283
0.359081 0.353088 0.433597
0.441595 0.354698 0.435193
0.527198 0.356560 0.437039
0.615479 0.358652 0.439114
0.706146 0.360960 0.441404
0.798989 0.363474 0.443898
0.831135 0.363019 0.443422
0.211075 0.436417 0.436328
0.285651 0.437757 0.437651
0.365111 0.439440 0.439316
0.448341 0.441408 0.441265
0.534706 0.443630 0.443466
0.623792 0.446085 0.445898
0.715313 0.448758 0.448548
0.809055 0.451639 0.451404
0.841347 0.451540 0.451256
0.217804 0.526365 0.442967
0.293062 0.528062 0.444642
0.373251 0.530104 0.446660
0.457259 0.532434 0.448965
0.544448 0.535020 0.451524
0.633583 0.537870 0.454287
0.724544 0.540943 0.457240
0.817488 0.544211 0.460388
0.849269 0.544488 0.460543
0.226450 0.620135 0.451152
0.302428 0.622194 0.453181
0.382563 0.624683 0.455531
0.466310 0.627450 0.458158
0.553018 0.630460 0.461029
0.642264 0.633694 0.464121
0.733751 0.637136 0.467421
0.827261 0.640776 0.470917
0.859715 0.641429 0.471425
0.235548 0.717666 0.460811
0.311353 0.720184 0.463169
0.391933 0.723038 0.465861
0.476158 0.726172 0.468832
0.563380 0.729552 0.472048
0.653178 0.733157 0.475489
0.745255 0.736973 0.479138
0.839396 0.740988 0.482986
0.872593 0.742023 0.483852
0.245950 0.818656 0.471936
0.322222 0.821541 0.474637
0.403303 0.824765 0.477675
0.488066 0.828270 0.480993
0.575864 0.832024 0.484559
0.666277 0.836006 0.488350
0.759012 0.840200 0.492353
0.853852 0.844596 0.496556
0.887813 0.846016 0.497781
0.247763 0.853987 0.474070
0.324555 0.857229 0.477115
0.406193 0.860811 0.480499
0.491552 0.864677 0.484165
0.579987 0.868794 0.488081
0.671079 0.873140 0.492224
0.764537 0.877702 0.496581
0.860144 0.882468 0.501141
0.894820 0.884256 0.502720
0.203606 0.196149 0.510169
0.276504 0.196473 0.510490
0.354168 0.197132 0.511146
0.435484 0.198072 0.512080
0.519811 0.199258 0.513260
0.606735 0.200672 0.514666
0.695964 0.202297 0.516282
0.787194 0.204118 0.518093
0.818334 0.203002 0.516965
0.204039 0.270562 0.511649
0.277467 0.271234 0.512313
0.355698 0.272243 0.513314
0.437619 0.273534 0.514596
0.522591 0.275075 0.516125
0.610201 0.276844 0.517882
0.700159 0.278827 0.519851
0.792230 0.281012 0.522021
0.823933 0.280246 0.521239
0.206802 0.351281 0.515053
0.280811 0.352303 0.516063
0.359663 0.353666 0.517413
0.442247 0.355312 0.519044
0.527925 0.357210 0.520926
0.616283 0.359339 0.523037
0.707034 0.361683 0.525363
0.799965 0.364234 0.527893
0.832167 0.363815 0.527452
0.211686 0.437041 0.520188
0.286328 0.438417 0.521548
0.365858 0.440135 0.523247
0.449164 0.442140 0.525232
0.535609 0.444399 0.527469
0.624781 0.446890 0.529938
0.716391 0.449601 0.532624
0.810229 0.452519 0.535517
0.842049 0.452457 0.535382
0.218567 0.527106 0.526943
0.293897 0.528839 0.528654
0.374163 0.530917 0.530708
0.458253 0.533284 0.533049
0.545529 0.535907 0.535644
0.634332 0.538808 0.538427
0.725343 0.541916 0.541415
0.818341 0.545220 0.544597
0.850186 0.545532 0.544787
0.227367 0.620994 0.535244
0.303178 0.623120 0.537302
0.383355 0.625643 0.539687
0.467148 0.628444 0.542348
0.553904 0.631490 0.545253
0.643203 0.634758 0.548380
0.734746 0.638236 0.551714
0.828316 0.641911 0.555245
0.860842 0.642600 0.555789
0.236418 0.718682 0.545015
0.312268 0.721235 0.547407
0.392895 0.724123 0.550134
0.477171 0.727292 0.553139
0.564448 0.730707 0.556390
0.654305 0.734348 0.559865
0.746445 0.738199 0.563550
0.840653 0.742250 0.567433
0.873927 0.743322 0.568335
0.246977 0.819796 0.556257
0.323300 0.822717 0.558992
0.404434 0.825976 0.562065
0.489254 0.829516 0.565418
0.577113 0.833306 0.569018
0.667592 0.837323 0.572845
0.760396 0.841553 0.576883
0.855311 0.845986 0.581122
0.889347 0.847442 0.582383
0.248947 0.855248 0.558506
0.325794 0.858525 0.561586
0.407492 0.862142 0.565005
0.492914 0.866044 0.568706
0.581417 0.870197 0.572657
0.672581 0.874579 0.576837
0.766116 0.879178 0.581230
0.861804 0.883981 0.585826
0.896546 0.885804 0.587440
0.203806 0.196475 0.595991
0.276755 0.196833 0.596346
0.354474 0.197528 0.597037
0.435848 0.198503 0.598006
0.520238 0.199725 0.599221
0.607228 0.201174 0.600662
0.696528 0.202835 0.602313
0.787834 0.204692 0.604160
0.819029 0.203611 0.603067
0.204396 0.271004 0.597586
0.277881 0.271711 0.598285
0.356172 0.272756 0.599321
0.438157 0.274083 0.600638
0.523197 0.275659 0.602203
0.610880 0.277464 0.603995
0.700915 0.279484 0.606000
0.793083 0.281706 0.608207
0.824819 0.280974 0.607458
0.207314 0.351840 0.601106
0.281385 0.352898 0.602151
0.360303 0.354296 0.603535
0.442957 0.355979 0.605202
0.528709 0.357913 0.607120
0.617147 0.360078 0.609267
0.707981 0.362459 0.611629
0.801000 0.365046 0.614196
0.833261 0.364663 0.613790
0.212352 0.437717 0.606356
0.287061 0.439129 0.607751
0.366663 0.440884 0.609486
0.450045 0.442925 0.611507
0.536572 0.445220 0.613780
0.625829 0.447748 0.616285
0.717530 0.450495 0.619008
0.811463 0.453451 0.621937
0.842814 0.453427 0.621814
0.219387 0.527900 0.613226
0.294789 0.529669 0.614973
0.375133 0.531783 0.617062
0.459305 0.534186 0.619439
0.546292 0.536863 0.622058
0.635142 0.539800 0.624875
0.726203 0.542942 0.627897
0.819255 0.546281 0.631114
0.851165 0.546628 0.631339
0.228339 0.621904 0.621642
0.303986 0.624098 0.623731
0.384205 0.626656 0.626149
0.468043 0.629491 0.628845
0.554850 0.632572 0.631784
0.644201 0.635875 0.634946
0.735802 0.639388 0.638315
0.829432 0.643098 0.641881
0.862031 0.643824 0.642461
0.237344 0.719750 0.631526
0.313239 0.722337 0.633952
0.393915 0.725261 0.636714
0.478243 0.728464 0.639754
0.565575 0.731915 0.643039
0.655491 0.735591 0.646549
0.747695 0.739478 0.650269
0.841971 0.743565 0.654187
0.875321 0.744673 0.655125
0.248061 0.820989 0.642884
0.324434 0.823945 0.645655
0.405623 0.827239 0.648762
0.490500 0.830815 0.652150
0.578421 0.834640 0.655785
0.668966 0.838693 0.659647
0.761841 0.842959 0.663721
0.856831 0.847428 0.667995
0.890941 0.848921 0.669292
0.250187 0.856561 0.645250
0.327091 0.859873 0.648365
0.408848 0.863526 0.651819
0.494334 0.867464 0.655555
0.582905 0.871652 0.659541
0.674143 0.876071 0.663756
0.767754 0.880706 0.668185
0.863525 0.885546 0.672817
0.898332 0.887405 0.674467
0.204057 0.196847 0.683820
0.277058 0.197241 0.684210
0.354832 0.197971 0.684935
0.436265 0.198981 0.685939
0.520718 0.200238 0.687190
0.607776 0.201723 0.688666
0.697147 0.203420 0.690353
0.788531 0.205314 0.692236
0.819784 0.204268 0.691178
0.204804 0.271494 0.685531
0.278346 0.272236 0.686265
0.356698 0.273316 0.687336
0.438747 0.274679 0.688688
0.523857 0.276291 0.690288
0.611613 0.278132 0.692116
0.701726 0.280188 0.694157
0.793982 0.282447 0.696400
0.825761 0.281750 0.695685
0.207878 0.352447 0.689165
0.282010 0.353540 0.690246
0.360995 0.354974 0.691666
0.443720 0.356692 0.693368
0.529547 0.358663 0.695321
0.618065 0.360864 0.697505
0.708983 0.363282 0.699903
0.802092 0.365906 0.702506
0.834412 0.365558 0.702135
0.213070 0.438441 0.694532
0.287846 0.439889 0.695961
0.367520 0.441679 0.697733
0.450979 0.443756 0.699789
0.537587 0.446088 0.702098
0.626931 0.448653 0.704640
0.718723 0.451438 0.707399
0.812267 0.454433 0.710344
0.843636 0.454444 0.710255
0.220257 0.528740 0.701517
0.295733 0.530546 0.703299
0.376154 0.532697 0.705424
0.460410 0.535136 0.707838
0.547108 0.537867 0.710479
0.636005 0.540838 0.713330
0.727118 0.544016 0.716387
0.820225 0.547389 0.719639
0.852200 0.547772 0.719899
0.229336 0.622866 0.710047
0.304845 0.625124 0.712166
0.385108 0.627716 0.714619
0.468992 0.630586 0.717349
0.555849 0.633701 0.720323
0.645254 0.637040 0.723519
0.736912 0.640587 0.726923
0.830604 0.644333 0.730524
0.863277 0.645095 0.731140
0.238322 0.720866 0.720044
0.314262 0.723488 0.722505
0.394987 0.726446 0.725301
0.479367 0.729684 0.728375
0.566756 0.733170 0.731696
0.656732 0.736881 0.735241
0.749000 0.740804 0.738996
0.843345 0.744927 0.742950
0.876772 0.746071 0.743923
0.249197 0.822230 0.731519
0.325620 0.825220 0.734324
0.406863 0.828550 0.737466
0.491800 0.832161 0.740889
0.579783 0.836021 0.744559
0.670395 0.840110 0.748457
0.763341 0.844413 0.752566
0.858406 0.848918 0.756876
0.892591 0.850447 0.758208
0.251479 0.857921 0.734001
0.328438 0.861269 0.737150
0.410256 0.864958 0.740639
0.495807 0.868931 0.744411
0.584448 0.873155 0.748433
0.675759 0.877611 0.752683
0.769448 0.882282 0.757148
0.865302 0.887159 0.761816
0.900172 0.889054 0.763501
0.204355 0.197263 0.773431
0.277409 0.197691 0.773855
0.355239 0.198456 0.774616
0.436732 0.199502 0.775655
0.521248 0.200795 0.776940
0.608373 0.202316 0.778452
0.697817 0.204049 0.780174
0.789281 0.205979 0.782093
0.820594 0.204969 0.781070
0.205260 0.272026 0.775257
0.278858 0.272804 0.776026
0.357272 0.273920 0.777132
0.439387 0.275318 0.778519
0.524566 0.276966 0.780155
0.612396 0.278844 0.782019
0.702587 0.280936 0.784095
0.794927 0.283232 0.786375
0.826756 0.282569 0.785695
0.208488 0.353096 0.779007
0.282684 0.354226 0.780123
0.361735 0.355695 0.781578
0.444531 0.357450 0.783316
0.530435 0.359456 0.785305
0.619032 0.361694 0.787524
0.710036 0.364149 0.789959
0.803234 0.366810 0.792598
0.835615 0.366497 0.792263
0.213834 0.439207 0.784489
0.288678 0.440691 0.785954
0.368425 0.442518 0.787761
0.451962 0.444631 0.789853
0.538652 0.447000 0.792198
0.628083 0.449602 0.794776
0.719967 0.452423 0.797572
0.813086 0.455458 0.800532
0.844510 0.455505 0.800477
0.221174 0.529624 0.791589
0.296723 0.531466 0.793407
0.377224 0.533653 0.795568
0.461545 0.536130 0.798017
0.547974 0.538914 0.800682
0.636919 0.541920 0.803567
0.728084 0.545132 0.806659
0.821247 0.548541 0.809945
0.853288 0.548960 0.810241
0.230202 0.623901 0.800231
0.305752 0.626192 0.802384
0.386059 0.628819 0.804871
0.469990 0.631724 0.807635
0.556897 0.634873 0.810643
0.646357 0.638247 0.813874
0.738073 0.641830 0.817313
0.831828 0.645612 0.820949
0.864574 0.646409 0.821601
0.239347 0.722024 0.810345
0.315333 0.724681 0.812839
0.396107 0.727674 0.815670
0.480540 0.730948 0.818779
0.567986 0.734468 0.822134
0.658023 0.738215 0.825714
0.750356 0.742174 0.829504
0.844770 0.746333 0.833494
0.878274 0.747513 0.834503
0.250379 0.823513 0.821936
0.326854 0.826539 0.824776
0.408152 0.829903 0.827952
0.493148 0.833550 0.831410
0.581195 0.837446 0.835116
0.671874 0.841571 0.839048
0.764891 0.845910 0.843193
0.860033 0.850452 0.847539
0.894291 0.852017 0.848907
0.252817 0.859324 0.824533
0.329834 0.862708 0.827718
0.411713 0.866432 0.831242
0.497329 0.870441 0.835049
0.586039 0.874702 0.839106
0.677425 0.879193 0.843392
0.771193 0.883901 0.847893
0.867130 0.888815 0.852598
0.902062 0.890746 0.854318
0.203647 0.196667 0.805335
0.276753 0.197130 0.805795
0.354639 0.197931 0.806590
0.436192 0.199012 0.807664
0.520773 0.200341 0.808985
0.607966 0.201897 0.810531
0.697482 0.203666 0.812290
0.789029 0.205633 0.814244
0.820404 0.204658 0.813256
0.204708 0.271547 0.807277
0.278364 0.272360 0.808081
0.356839 0.273512 0.809222
0.439021 0.274946 0.810644
0.524270 0.276630 0.812316
0.612175 0.278543 0.814215
0.702445 0.280672 0.816328
0.794868 0.283004 0.818644
0.826748 0.282377 0.817998
0.208091 0.352735 0.811143
0.282349 0.353899 0.812294
0.361469 0.355405 0.813784
0.444337 0.357195 0.815558
0.530316 0.359238 0.817582
0.618995 0.361512 0.819838
0.710085 0.364004 0.822308
0.803374 0.366702 0.824984
0.835816 0.366425 0.824684
0.213590 0.438962 0.816739
0.288503 0.440482 0.818240
0.368324 0.442345 0.820082
0.451938 0.444495 0.822211
0.538711 0.446900 0.824592
0.628230 0.449539 0.827206
0.720206 0.452397 0.830039
0.812901 0.455473 0.833014
0.844383 0.455554 0.832994
0.221084 0.529497 0.823955
0.296707 0.531374 0.825809
0.377287 0.533598 0.828006
0.461360 0.536132 0.830480
0.547835 0.538950 0.833178
0.636829 0.541990 0.836098
0.728046 0.545238 0.839224
0.821266 0.548681 0.842546
0.853374 0.549136 0.842877
0.230061 0.623923 0.832708
0.305652 0.626249 0.834895
0.386003 0.628910 0.837417
0.469982 0.631850 0.840215
0.556941 0.635035 0.843258
0.646455 0.638444 0.846523
0.738230 0.642062 0.849997
0.832048 0.645879 0.853669
0.864869 0.646713 0.854356
0.239364 0.722171 0.842939
0.315397 0.724863 0.845468
0.396221 0.727891 0.848332
0.480708 0.731199 0.851476
0.568211 0.734755 0.854866
0.658309 0.738538 0.858482
0.750708 0.742532 0.862307
0.845192 0.746727 0.866332
0.878773 0.747944 0.867377
0.250554 0.823785 0.854647
0.327081 0.826846 0.857521
0.408435 0.830246 0.860732
0.493490 0.833928 0.864225
0.581601 0.837860 0.867966
0.672348 0.842021 0.871934
0.765438 0.846396 0.876114
0.860656 0.850974 0.880496
0.894988 0.852575 0.881900
0.253148 0.859716 0.857360
0.330222 0.863135 0.860579
0.412163 0.866895 0.864138
0.497846 0.870940 0.867980
0.586626 0.875237 0.872073
0.678087 0.879765 0.876395
0.771935 0.884509 0.880932
0.867956 0.889460 0.885673
0.902947 0.891426 0.887428
