library/cube/Romantic_Haze_004.cube
# CINEGRADE LAB — Premium Cinematic LUT
# Title: Romantic Haze
# Category: Dreamy Wedding
# Description: Soft, romantic, warm highlights with pastel tones for wedding photography
# Mood: Romantic, ethereal, tender
# Variant: 5
# Generated: 2026-05-21T16:12:19.885911
TITLE "Romantic Haze"
LUT_3D_SIZE 5
0.203471 0.195471 0.195471
0.353620 0.196174 0.196172
0.518791 0.198017 0.198007
0.694409 0.200769 0.200745
0.816290 0.201191 0.201148
0.205413 0.349667 0.199432
0.357776 0.351767 0.201511
0.525470 0.355023 0.204739
0.703941 0.359205 0.208889
0.828506 0.361048 0.210694
0.215948 0.524555 0.210400
0.370956 0.528077 0.213879
0.541654 0.532773 0.218526
0.722606 0.538437 0.224077
0.846990 0.541771 0.227171
0.233375 0.715031 0.227560
0.389491 0.720196 0.232405
0.560627 0.726499 0.238385
0.742145 0.733708 0.245265
0.869057 0.738543 0.249765
0.244648 0.850618 0.240121
0.402741 0.857231 0.246342
0.576148 0.864998 0.253712
0.760260 0.873689 0.261999
0.890097 0.880025 0.267923
0.203384 0.195664 0.345866
0.353737 0.196507 0.346705
0.519142 0.198491 0.348680
0.695025 0.201386 0.351559
0.817143 0.201949 0.352102
0.205953 0.350327 0.350289
0.358563 0.352570 0.352508
0.526539 0.355970 0.355879
0.705326 0.360297 0.360172
0.830172 0.362284 0.362119
0.217104 0.525684 0.361718
0.372403 0.529350 0.365339
0.543433 0.534193 0.370131
0.723812 0.540030 0.375792
0.848422 0.543504 0.379025
0.234742 0.716710 0.379334
0.391036 0.722013 0.384316
0.562378 0.728457 0.390434
0.744133 0.735807 0.397453
0.871328 0.740785 0.402096
0.246643 0.852786 0.392360
0.404959 0.859540 0.398720
0.578623 0.867451 0.406231
0.763026 0.876287 0.414660
0.893161 0.882768 0.420728
0.203606 0.196149 0.510169
0.354168 0.197132 0.511146
0.519811 0.199258 0.513260
0.695964 0.202297 0.516282
0.818334 0.203002 0.516965
0.206802 0.351281 0.515053
0.359663 0.353666 0.517413
0.527925 0.357210 0.520926
0.707034 0.361683 0.525363
0.832167 0.363815 0.527452
0.218567 0.527106 0.526943
0.374163 0.530917 0.530708
0.545529 0.535907 0.535644
0.725343 0.541916 0.541415
0.850186 0.545532 0.544787
0.236418 0.718682 0.545015
0.392895 0.724123 0.550134
0.564448 0.730707 0.556390
0.746445 0.738199 0.563550
0.873927 0.743322 0.568335
0.248947 0.855248 0.558506
0.407492 0.862142 0.565005
0.581417 0.870197 0.572657
0.766116 0.879178 0.581230
0.896546 0.885804 0.587440
0.204057 0.196847 0.683820
0.354832 0.197971 0.684935
0.520718 0.200238 0.687190
0.697147 0.203420 0.690353
0.819784 0.204268 0.691178
0.207878 0.352447 0.689165
0.360995 0.354974 0.691666
0.529547 0.358663 0.695321
0.708983 0.363282 0.699903
0.834412 0.365558 0.702135
0.220257 0.528740 0.701517
0.376154 0.532697 0.705424
0.547108 0.537867 0.710479
0.727118 0.544016 0.716387
0.852200 0.547772 0.719899
0.238322 0.720866 0.720044
0.394987 0.726446 0.725301
0.566756 0.733170 0.731696
0.749000 0.740804 0.738996
0.876772 0.746071 0.743923
0.251479 0.857921 0.734001
0.410256 0.864958 0.740639
0.584448 0.873155 0.748433
0.769448 0.882282 0.757148
0.900172 0.889054 0.763501
0.203647 0.196667 0.805335
0.354639 0.197931 0.806590
0.520773 0.200341 0.808985
0.697482 0.203666 0.812290
0.820404 0.204658 0.813256
0.208091 0.352735 0.811143
0.361469 0.355405 0.813784
0.530316 0.359238 0.817582
0.710085 0.364004 0.822308
0.835816 0.366425 0.824684
0.221084 0.529497 0.823955
0.377287 0.533598 0.828006
0.547835 0.538950 0.833178
0.728046 0.545238 0.839224
0.853374 0.549136 0.842877
0.239364 0.722171 0.842939
0.396221 0.727891 0.848332
0.568211 0.734755 0.854866
0.750708 0.742532 0.862307
0.878773 0.747944 0.867377
0.253148 0.859716 0.857360
0.412163 0.866895 0.864138
0.586626 0.875237 0.872073
0.771935 0.884509 0.880932
0.902947 0.891426 0.887428
