library/cube/Romantic_Haze_004.cube
# CINEGRADE LAB — Premium Cinematic LUT
# Title: Romantic Haze
# Category: Dreamy Wedding
# Description: Soft, romantic, warm highlights with pastel tones for wedding photography
# Mood: Romantic, ethereal, tender
# Variant: 5
# Generated: 2026-05-21T16:12:19.885911
TITLE "Romantic Haze"
LUT_3D_SIZE 33
0.203471 0.195471 0.195471
0.221105 0.195481 0.195481
0.239124 0.195516 0.195516
0.257488 0.195575 0.195574
0.276170 0.195655 0.195655
0.295142 0.195756 0.195755
0.314387 0.195877 0.195876
0.333884 0.196017 0.196015
0.353620 0.196174 0.196172
0.373581 0.196349 0.196346
0.393756 0.196541 0.196537
0.414134 0.196749 0.196744
0.434707 0.196973 0.196967
0.455466 0.197212 0.197205
0.476404 0.197466 0.197457
0.497514 0.197734 0.197725
0.518791 0.198017 0.198007
0.540228 0.198314 0.198302
0.561821 0.198625 0.198612
0.583565 0.198950 0.198935
0.605455 0.199288 0.199271
0.627488 0.199639 0.199621
0.649660 0.200003 0.199983
0.671968 0.200380 0.200358
0.694409 0.200769 0.200745
0.716978 0.201171 0.201145
0.739675 0.201585 0.201558
0.762495 0.202012 0.201982
0.785347 0.202446 0.202414
0.808218 0.202887 0.202852
0.817716 0.202659 0.202622
0.816997 0.201922 0.201882
0.816290 0.201191 0.201148
0.203185 0.213259 0.195529
0.220849 0.213290 0.195560
0.238898 0.213347 0.195616
0.257293 0.213427 0.195696
0.276006 0.213529 0.195798
0.295011 0.213652 0.195920
0.314288 0.213795 0.196062
0.333818 0.213956 0.196222
0.353588 0.214135 0.196401
0.373583 0.214332 0.196596
0.393793 0.214546 0.196809
0.414207 0.214775 0.197037
0.434815 0.215021 0.197282
0.455611 0.215282 0.197541
0.476586 0.215558 0.197816
0.497734 0.215849 0.198105
0.519049 0.216154 0.198409
0.540525 0.216473 0.198726
0.562157 0.216806 0.199057
0.583941 0.217152 0.199402
0.605873 0.217512 0.199760
0.627947 0.217886 0.200131
0.650162 0.218272 0.200516
0.672512 0.218671 0.200913
0.694996 0.219083 0.201322
0.717610 0.219507 0.201744
0.740351 0.219944 0.202178
0.763216 0.220392 0.202625
0.786111 0.220849 0.203079
0.809014 0.221312 0.203539
0.818515 0.221104 0.203328
0.817838 0.220388 0.202610
0.817172 0.219680 0.201898
0.203061 0.231539 0.195722
0.220756 0.231592 0.195775
0.238835 0.231670 0.195852
0.257263 0.231772 0.195953
0.276008 0.231896 0.196076
0.295046 0.232041 0.196220
0.314356 0.232205 0.196383
0.333920 0.232388 0.196565
0.353724 0.232589 0.196765
0.373755 0.232808 0.196982
0.394000 0.233043 0.197216
0.414450 0.233295 0.197467
0.435096 0.233562 0.197733
0.455929 0.233845 0.198014
0.476942 0.234143 0.198310
0.498128 0.234456 0.198621
0.519482 0.234783 0.198946
0.540999 0.235124 0.199286
0.562671 0.235479 0.199639
0.584497 0.235848 0.200005
0.606470 0.236230 0.200385
0.628587 0.236626 0.200779
0.650844 0.237034 0.201185
0.673238 0.237456 0.201604
0.695767 0.237890 0.202035
0.718425 0.238336 0.202479
0.741212 0.238795 0.202936
0.764124 0.239267 0.203404
0.787069 0.239746 0.203880
0.809976 0.240229 0.204360
0.819519 0.240043 0.204172
0.818884 0.239350 0.203476
0.818261 0.238663 0.202786
0.203092 0.250269 0.196044
0.220818 0.250344 0.196118
0.238930 0.250444 0.196217
0.257390 0.250568 0.196339
0.276168 0.250713 0.196484
0.295240 0.250880 0.196649
0.314584 0.251066 0.196834
0.334183 0.251271 0.197037
0.354022 0.251494 0.197259
0.374089 0.251734 0.197498
0.394371 0.251991 0.197753
0.414858 0.252265 0.198025
0.435541 0.252554 0.198313
0.456412 0.252859 0.198616
0.477464 0.253179 0.198934
0.498691 0.253514 0.199267
0.520085 0.253863 0.199614
0.541642 0.254227 0.199975
0.563356 0.254604 0.200350
0.585224 0.254995 0.200738
0.607239 0.255400 0.201140
0.629400 0.255817 0.201555
0.651701 0.256248 0.201984
0.674140 0.256692 0.202425
0.696714 0.257148 0.202878
0.719419 0.257617 0.203344
0.742252 0.258099 0.203823
0.765212 0.258593 0.204314
0.788213 0.259094 0.204812
0.811122 0.259598 0.205312
0.820724 0.259435 0.205147
0.820132 0.258764 0.204472
0.819553 0.258100 0.203805
0.203273 0.269416 0.196489
0.221031 0.269512 0.196585
0.239176 0.269634 0.196705
0.257669 0.269779 0.196849
0.276481 0.269947 0.197015
0.295587 0.270135 0.197202
0.314966 0.270343 0.197408
0.334601 0.270570 0.197633
0.354477 0.270815 0.197876
0.374580 0.271077 0.198137
0.394899 0.271356 0.198414
0.415424 0.271652 0.198708
0.436146 0.271963 0.199017
0.457057 0.272290 0.199342
0.478149 0.272632 0.199682
0.499416 0.272989 0.200036
0.520851 0.273361 0.200405
0.542450 0.273746 0.200788
0.564207 0.274146 0.201185
0.586117 0.274559 0.201596
0.608176 0.274986 0.202020
0.630381 0.275426 0.202457
0.652728 0.275879 0.202907
0.675213 0.276345 0.203370
0.697832 0.276824 0.203846
0.720584 0.277316 0.204334
0.743466 0.277820 0.204835
0.766474 0.278336 0.205348
0.789541 0.278861 0.205870
0.812447 0.279384 0.206389
0.822127 0.279246 0.206247
0.821578 0.278597 0.205595
0.821043 0.277955 0.204949
0.203599 0.288950 0.197054
0.221390 0.289069 0.197171
0.239569 0.289212 0.197313
0.258096 0.289379 0.197478
0.276943 0.289568 0.197666
0.296084 0.289779 0.197874
0.315499 0.290008 0.198102
0.335170 0.290257 0.198349
0.355083 0.290524 0.198614
0.375224 0.290808 0.198896
0.395581 0.291110 0.199195
0.416145 0.291427 0.199510
0.436907 0.291761 0.199841
0.457858 0.292110 0.200188
0.478990 0.292474 0.200550
0.500299 0.292853 0.200926
0.521776 0.293247 0.201317
0.543418 0.293655 0.201722
0.565218 0.294077 0.202141
0.587172 0.294512 0.202573
0.609276 0.294961 0.203019
0.631527 0.295424 0.203479
0.653919 0.295899 0.203951
0.676451 0.296388 0.204436
0.699118 0.296889 0.204934
0.721918 0.297403 0.205445
0.744848 0.297930 0.205968
0.767905 0.298469 0.206503
0.791047 0.299018 0.207048
0.813949 0.299561 0.207588
0.823725 0.299448 0.207470
0.823218 0.298821 0.206840
0.822697 0.298200 0.206214
0.204067 0.308850 0.197735
0.221892 0.308990 0.197873
0.240104 0.309155 0.198036
0.258666 0.309344 0.198224
0.277548 0.309555 0.198433
0.296726 0.309787 0.198662
0.316178 0.310039 0.198912
0.335886 0.310310 0.199180
0.355837 0.310599 0.199467
0.376016 0.310905 0.199771
0.396413 0.311229 0.200092
0.417017 0.311568 0.200429
0.437819 0.311924 0.200782
0.458811 0.312295 0.201150
0.479985 0.312682 0.201534
0.501336 0.313083 0.201932
0.522856 0.313499 0.202345
0.544541 0.313929 0.202772
0.566386 0.314373 0.203213
0.588386 0.314831 0.203668
0.610536 0.315303 0.204136
0.632832 0.315788 0.204617
0.655272 0.316286 0.205112
0.677851 0.316797 0.205619
0.700567 0.317321 0.206139
0.723416 0.317857 0.206672
0.746396 0.318407 0.207217
0.769504 0.318968 0.207775
0.792730 0.319542 0.208344
0.815624 0.320105 0.208903
0.825441 0.320013 0.208808
0.824947 0.319408 0.208198
0.824465 0.318809 0.207594
0.204672 0.329094 0.198528
0.222532 0.329256 0.198688
0.240779 0.329443 0.198873
0.259377 0.329654 0.199082
0.278296 0.329887 0.199312
0.297510 0.330141 0.199564
0.316999 0.330415 0.199835
0.336746 0.330708 0.200125
0.356735 0.331019 0.200434
0.376954 0.331347 0.200759
0.397391 0.331693 0.201102
0.418036 0.332055 0.201461
0.438879 0.332433 0.201836
0.459913 0.332826 0.202226
0.481130 0.333235 0.202632
0.502524 0.333659 0.203052
0.524089 0.334097 0.203487
0.545818 0.334549 0.203936
0.567708 0.335016 0.204399
0.589754 0.335496 0.204876
0.611951 0.335990 0.205366
0.634295 0.336498 0.205869
0.656782 0.337018 0.206386
0.679410 0.337552 0.206916
0.702175 0.338098 0.207458
0.725075 0.338658 0.208013
0.748105 0.339229 0.208581
0.771265 0.339814 0.209161
0.794551 0.340410 0.209753
0.817469 0.340995 0.210333
0.827302 0.340924 0.210258
0.826846 0.340341 0.209670
0.826402 0.339764 0.209088
0.205413 0.349667 0.199432
0.223307 0.349850 0.199613
0.241591 0.350059 0.199820
0.260225 0.350292 0.200050
0.279181 0.350547 0.200302
0.298433 0.350823 0.200576
0.317961 0.351119 0.200869
0.337747 0.351434 0.201181
0.357776 0.351767 0.201511
0.378035 0.352118 0.201858
0.398513 0.352485 0.202223
0.419199 0.352869 0.202603
0.440085 0.353270 0.203000
0.461162 0.353685 0.203413
0.482422 0.354116 0.203840
0.503861 0.354562 0.204283
0.525470 0.355023 0.204739
0.547246 0.355498 0.205211
0.569182 0.355987 0.205696
0.591274 0.356490 0.206195
0.613519 0.357006 0.206707
0.635911 0.357536 0.207233
0.658448 0.358079 0.207772
0.681126 0.358636 0.208324
0.703941 0.359205 0.208889
0.726892 0.359787 0.209466
0.749974 0.360381 0.210056
0.773186 0.360988 0.210659
0.796526 0.361608 0.211273
0.819483 0.362214 0.211875
0.829330 0.362165 0.211820
0.828912 0.361603 0.211254
0.828506 0.361048 0.210694
0.206286 0.370552 0.200443
0.224217 0.370757 0.200646
0.242537 0.370988 0.200874
0.261209 0.371243 0.201126
0.280202 0.371520 0.201400
0.299493 0.371818 0.201695
0.319060 0.372136 0.202010
0.338886 0.372473 0.202344
0.358956 0.372828 0.202696
0.379256 0.373201 0.203065
0.399776 0.373591 0.203452
0.420504 0.373997 0.203854
0.441433 0.374420 0.204273
0.462554 0.374858 0.204708
0.483860 0.375311 0.205157
0.505343 0.375780 0.205622
0.526999 0.376263 0.206101
0.548821 0.376760 0.206594
0.570804 0.377272 0.207101
0.592945 0.377797 0.207622
0.615238 0.378336 0.208157
0.637680 0.378889 0.208705
0.660267 0.379454 0.209266
0.682995 0.380033 0.209841
0.705862 0.380625 0.210428
0.728865 0.381230 0.211028
0.752000 0.381847 0.211640
0.775266 0.382477 0.212265
0.798660 0.383120 0.212903
0.821663 0.383748 0.213526
0.831523 0.383720 0.213492
0.831144 0.383180 0.212947
0.830776 0.382647 0.212409
0.207289 0.391736 0.201561
0.225257 0.391963 0.201785
0.243615 0.392217 0.202035
0.262325 0.392493 0.202309
0.281357 0.392793 0.202605
0.300687 0.393113 0.202921
0.320294 0.393453 0.203258
0.340161 0.393812 0.203614
0.360272 0.394189 0.203987
0.380615 0.394584 0.204379
0.401177 0.394997 0.204787
0.421950 0.395425 0.205212
0.442923 0.395870 0.205653
0.464088 0.396331 0.206109
0.485439 0.396806 0.206581
0.506969 0.397297 0.207067
0.528672 0.397803 0.207568
0.550541 0.398323 0.208084
0.572573 0.398857 0.208614
0.594763 0.399405 0.209157
0.617106 0.399966 0.209714
0.639598 0.400542 0.210284
0.662236 0.401130 0.210868
0.685016 0.401732 0.211465
0.707936 0.402347 0.212074
0.730992 0.402974 0.212697
0.754181 0.403614 0.213332
0.777502 0.404267 0.213979
0.800951 0.404932 0.214639
0.824008 0.405584 0.215285
0.833879 0.405576 0.215272
0.833539 0.405058 0.214749
0.833209 0.404547 0.214232
0.208421 0.413208 0.202782
0.226426 0.413458 0.203028
0.244822 0.413733 0.203300
0.263571 0.414032 0.203595
0.282644 0.414353 0.203913
0.302014 0.414695 0.204252
0.321662 0.415058 0.204610
0.341571 0.415439 0.204987
0.361724 0.415839 0.205383
0.382110 0.416256 0.205797
0.402716 0.416691 0.206227
0.423533 0.417142 0.206674
0.444551 0.417609 0.207137
0.465763 0.418092 0.207615
0.487160 0.418590 0.208109
0.508737 0.419103 0.208618
0.530487 0.419631 0.209141
0.552406 0.420174 0.209679
0.574487 0.420731 0.210231
0.596726 0.421301 0.210796
0.619120 0.421886 0.211376
0.641664 0.422484 0.211969
0.664354 0.423095 0.212575
0.687187 0.423719 0.213194
0.710161 0.424357 0.213826
0.733271 0.425007 0.214471
0.756516 0.425670 0.215129
0.779892 0.426346 0.215799
0.803398 0.427034 0.216481
0.826517 0.427709 0.217150
0.836398 0.427722 0.217157
0.836096 0.427226 0.216656
0.835805 0.426738 0.216161
0.209680 0.434958 0.204106
0.227723 0.435230 0.204374
0.246158 0.435527 0.204667
0.264947 0.435848 0.204985
0.284060 0.436191 0.205324
0.303472 0.436556 0.205684
0.323162 0.436940 0.206065
0.343113 0.437344 0.206464
0.363310 0.437766 0.206882
0.383739 0.438206 0.207317
0.404390 0.438662 0.207770
0.425252 0.439136 0.208239
0.446316 0.439626 0.208724
0.467575 0.440131 0.209224
0.489020 0.440652 0.209740
0.510645 0.441188 0.210271
0.532444 0.441738 0.210817
0.554412 0.442303 0.211377
0.576544 0.442883 0.211951
0.598834 0.443476 0.212539
0.621280 0.444083 0.213141
0.643876 0.444704 0.213756
0.666619 0.445338 0.214385
0.689507 0.445985 0.215027
0.712535 0.446646 0.215681
0.735700 0.447319 0.216349
0.759001 0.448005 0.217029
0.782434 0.448704 0.217722
0.805998 0.449415 0.218427
0.829188 0.450114 0.219119
0.839077 0.450147 0.219146
0.838814 0.449674 0.218667
0.838561 0.449207 0.218194
0.211063 0.456976 0.205531
0.229146 0.457269 0.205821
0.247621 0.457589 0.206136
0.266450 0.457932 0.206475
0.285604 0.458298 0.206836
0.305058 0.458684 0.207219
0.324791 0.459091 0.207621
0.344786 0.459517 0.208042
0.365027 0.459961 0.208482
0.385501 0.460424 0.208940
0.406198 0.460903 0.209414
0.427106 0.461399 0.209905
0.448218 0.461911 0.210412
0.469524 0.462439 0.210935
0.491017 0.462982 0.211473
0.512691 0.463541 0.212027
0.534541 0.464114 0.212595
0.556559 0.464702 0.213177
0.578742 0.465304 0.213774
0.601085 0.465920 0.214384
0.623583 0.466550 0.215008
0.646233 0.467194 0.215646
0.669031 0.467851 0.216297
0.691973 0.468521 0.216961
0.715057 0.469204 0.217639
0.738279 0.469900 0.218329
0.761637 0.470610 0.219032
0.785128 0.471331 0.219747
0.808750 0.472066 0.220476
0.832020 0.472788 0.221192
0.841916 0.472842 0.221239
0.841691 0.472391 0.220781
0.841289 0.471948 0.220322
0.212570 0.479253 0.207056
0.230693 0.479569 0.207367
0.249208 0.479910 0.207704
0.268080 0.480276 0.208065
0.287276 0.480664 0.208448
0.306773 0.481073 0.208853
0.326549 0.481502 0.209277
0.346588 0.481950 0.209721
0.366874 0.482417 0.210182
0.387395 0.482901 0.210662
0.408138 0.483403 0.211159
0.429094 0.483922 0.211672
0.450253 0.484456 0.212201
0.471608 0.485007 0.212746
0.493151 0.485573 0.213307
0.514875 0.486154 0.213882
0.536775 0.486750 0.214473
0.558845 0.487361 0.215078
0.581081 0.487986 0.215697
0.603477 0.488624 0.216330
0.626029 0.489277 0.216976
0.648733 0.489944 0.217637
0.671586 0.490624 0.218310
0.694585 0.491317 0.218997
0.717725 0.492023 0.219697
0.741005 0.492743 0.220410
0.764421 0.493475 0.221136
0.787972 0.494220 0.221874
0.811654 0.494977 0.222625
0.834681 0.495728 0.223352
0.844183 0.495806 0.223402
0.843600 0.495381 0.222949
0.843029 0.494962 0.222503
0.214198 0.501782 0.208679
0.232362 0.502120 0.209012
0.250920 0.502483 0.209371
0.269833 0.502871 0.209754
0.289073 0.503281 0.210159
0.308613 0.503713 0.210586
0.328435 0.504164 0.211032
0.348519 0.504635 0.211498
0.368851 0.505124 0.211982
0.389418 0.505631 0.212483
0.410209 0.506156 0.213002
0.431213 0.506697 0.213538
0.452421 0.507254 0.214089
0.473826 0.507827 0.214657
0.495419 0.508416 0.215240
0.517195 0.509020 0.215838
0.539147 0.509639 0.216450
0.561270 0.510272 0.217077
0.583559 0.510920 0.217719
0.606009 0.511582 0.218375
0.628615 0.512257 0.219044
0.651376 0.512947 0.219727
0.674285 0.513650 0.220423
0.697341 0.514366 0.221133
0.720539 0.515095 0.221855
0.743805 0.515839 0.222588
0.766914 0.516601 0.223322
0.790139 0.517375 0.224067
0.813478 0.518161 0.224824
0.836511 0.518937 0.225572
0.846005 0.519036 0.225642
0.845461 0.518634 0.225211
0.844930 0.518239 0.224787
0.215948 0.524555 0.210400
0.234154 0.524915 0.210755
0.252754 0.525301 0.211136
0.271711 0.525712 0.211541
0.290994 0.526144 0.211968
0.310579 0.526598 0.212416
0.330446 0.527072 0.212885
0.350577 0.527565 0.213372
0.370956 0.528077 0.213879
0.391571 0.528606 0.214402
0.412410 0.529153 0.214944
0.433463 0.529717 0.215501
0.454721 0.530297 0.216075
0.476177 0.530893 0.216665
0.497822 0.531504 0.217270
0.519649 0.532131 0.217891
0.541654 0.532773 0.218526
0.563831 0.533429 0.219176
0.586174 0.534100 0.219840
0.608679 0.534784 0.220518
0.631342 0.535483 0.221210
0.654159 0.536195 0.221915
0.676939 0.536927 0.222627
0.699709 0.537676 0.223346
0.722606 0.538437 0.224077
0.745625 0.539210 0.224820
0.768764 0.539995 0.225576
0.792021 0.540792 0.226343
0.815393 0.541600 0.227121
0.838503 0.542402 0.227892
0.847986 0.542521 0.227982
0.847482 0.542143 0.227573
0.846990 0.541771 0.227171
0.217818 0.547567 0.212217
0.236066 0.547949 0.212594
0.254709 0.548358 0.212997
0.273710 0.548790 0.213424
0.293039 0.549245 0.213873
0.312670 0.549721 0.214344
0.332583 0.550218 0.214834
0.352760 0.550734 0.215344
0.373188 0.551268 0.215872
0.393851 0.551820 0.216419
0.414740 0.552390 0.216982
0.435843 0.552976 0.217562
0.457153 0.553579 0.218158
0.478660 0.554198 0.218771
0.500357 0.554832 0.219398
0.522238 0.555481 0.220041
0.544297 0.556146 0.220699
0.566528 0.556825 0.221371
0.588927 0.557519 0.222058
0.611206 0.558238 0.222748
0.633606 0.558972 0.223451
0.656143 0.559718 0.224166
0.678814 0.560477 0.224894
0.701615 0.561248 0.225634
0.724542 0.562032 0.226387
0.747593 0.562828 0.227152
0.770764 0.563636 0.227929
0.794054 0.564456 0.228717
0.817459 0.565288 0.229517
0.840654 0.566115 0.230313
0.850126 0.566255 0.230422
0.849662 0.565900 0.230035
0.849209 0.565552 0.229655
0.219807 0.570811 0.214130
0.238098 0.571216 0.214529
0.256786 0.571646 0.214954
0.275831 0.572101 0.215403
0.295205 0.572579 0.215874
0.314883 0.573077 0.216367
0.334844 0.573596 0.216880
0.355069 0.574135 0.217412
0.375545 0.574692 0.217962
0.396259 0.575267 0.218531
0.417198 0.575859 0.219117
0.438352 0.576468 0.219719
0.459714 0.577094 0.220338
0.481273 0.577735 0.220972
0.503024 0.578392 0.221623
0.524880 0.579069 0.222285
0.546715 0.579772 0.222956
0.568705 0.580488 0.223640
0.590847 0.581218 0.224338
0.613135 0.581961 0.225049
0.635564 0.582718 0.225773
0.658132 0.583487 0.226510
0.680833 0.584269 0.227259
0.703665 0.585063 0.228021
0.726625 0.585870 0.228795
0.749708 0.586689 0.229582
0.772913 0.587520 0.230380
0.796237 0.588363 0.231190
0.819676 0.589218 0.232012
0.842964 0.590071 0.232832
0.852424 0.590232 0.232961
0.851998 0.589901 0.232596
0.851584 0.589575 0.232238
0.221913 0.594281 0.216137
0.240249 0.594709 0.216558
0.258981 0.595162 0.217006
0.278073 0.595639 0.217477
0.297494 0.596139 0.217970
0.317219 0.596660 0.218485
0.337228 0.597202 0.219020
0.357503 0.597763 0.219574
0.378028 0.598343 0.220147
0.398792 0.598940 0.220738
0.419783 0.599555 0.221346
0.440990 0.600187 0.221971
0.462244 0.600848 0.222607
0.483600 0.601530 0.223256
0.505132 0.602226 0.223919
0.526832 0.602938 0.224597
0.548695 0.603663 0.225289
0.570714 0.604402 0.225995
0.592885 0.605155 0.226714
0.615203 0.605921 0.227446
0.637664 0.606700 0.228192
0.660263 0.607493 0.228950
0.682996 0.608297 0.229721
0.705861 0.609115 0.230505
0.728853 0.609945 0.231301
0.751970 0.610787 0.232109
0.775209 0.611641 0.232929
0.798568 0.612507 0.233761
0.822043 0.613385 0.234605
0.845431 0.614265 0.235450
0.854877 0.614447 0.235597
0.854490 0.614138 0.235255
0.854115 0.613837 0.234918
0.224137 0.617973 0.218239
0.242517 0.618423 0.218682
0.261296 0.618899 0.219151
0.280434 0.619399 0.219645
0.299903 0.619921 0.220160
0.319676 0.620465 0.220697
0.339734 0.621029 0.221255
0.360059 0.621613 0.221831
0.380631 0.622216 0.222427
0.401228 0.622857 0.223033
0.422036 0.623515 0.223657
0.443045 0.624189 0.224296
0.464246 0.624879 0.224951
0.485630 0.625583 0.225621
0.507190 0.626303 0.226306
0.528919 0.627037 0.227005
0.550811 0.627785 0.227718
0.572861 0.628547 0.228446
0.595063 0.629323 0.229186
0.617412 0.630112 0.229940
0.639904 0.630915 0.230707
0.662535 0.631730 0.231487
0.685301 0.632558 0.232280
0.708199 0.633398 0.233085
0.731226 0.634251 0.233903
0.754378 0.635117 0.234733
0.777652 0.635994 0.235575
0.801046 0.636884 0.236428
0.824558 0.637785 0.237294
0.848054 0.638691 0.238165
0.857484 0.638894 0.238331
0.857137 0.638609 0.238010
0.856800 0.638331 0.237696
0.226477 0.641883 0.220434
0.244903 0.642355 0.220899
0.263729 0.642853 0.221390
0.282915 0.643375 0.221906
0.302432 0.643921 0.222444
0.322182 0.644496 0.223002
0.342093 0.645107 0.223576
0.362256 0.645736 0.224169
0.382656 0.646382 0.224780
0.403279 0.647046 0.225408
0.424114 0.647727 0.226053
0.445151 0.648424 0.226714
0.466380 0.649136 0.227390
0.487793 0.649864 0.228082
0.509382 0.650606 0.228788
0.531141 0.651363 0.229508
0.553064 0.652134 0.230243
0.575144 0.652920 0.230992
0.597377 0.653718 0.231754
0.619759 0.654530 0.232530
0.642283 0.655356 0.233319
0.664948 0.656194 0.234120
0.687748 0.657045 0.234935
0.710680 0.657909 0.235762
0.733742 0.658785 0.236601
0.756930 0.659674 0.237453
0.780240 0.660575 0.238316
0.803672 0.661487 0.239192
0.827221 0.662412 0.240079
0.850833 0.663346 0.240976
0.860245 0.663569 0.241162
0.859936 0.663307 0.240863
0.859639 0.663052 0.240570
0.228932 0.666004 0.222721
0.247406 0.666499 0.223209
0.266156 0.667039 0.223720
0.285214 0.667610 0.224254
0.304588 0.668203 0.224809
0.324255 0.668816 0.225386
0.344191 0.669449 0.225981
0.364381 0.670101 0.226596
0.384808 0.670770 0.227228
0.405459 0.671457 0.227878
0.426322 0.672161 0.228544
0.447387 0.672880 0.229226
0.468645 0.673616 0.229924
0.490088 0.674366 0.230637
0.511707 0.675132 0.231364
0.533497 0.675912 0.232107
0.555451 0.676706 0.232863
0.577563 0.677514 0.233633
0.599829 0.678336 0.234417
0.622243 0.679171 0.235215
0.644802 0.680020 0.236025
0.667500 0.680881 0.236848
0.690335 0.681755 0.237685
0.713303 0.682642 0.238533
0.736401 0.683542 0.239394
0.759625 0.684454 0.240268
0.782974 0.685378 0.241153
0.806443 0.686314 0.242051
0.830031 0.687262 0.242960
0.853735 0.688222 0.243882
0.863157 0.688467 0.244088
0.862887 0.688229 0.243811
0.862628 0.687998 0.243540
0.231188 0.690394 0.225096
0.249538 0.690939 0.225602
0.268274 0.691509 0.226134
0.287358 0.692102 0.226689
0.306758 0.692717 0.227266
0.326451 0.693354 0.227863
0.346415 0.694009 0.228481
0.366632 0.694684 0.229116
0.387086 0.695376 0.229770
0.407766 0.696086 0.230441
0.428658 0.696812 0.231128
0.449753 0.697555 0.231832
0.471041 0.698313 0.232551
0.492514 0.699087 0.233286
0.514165 0.699875 0.234035
0.535986 0.700678 0.234799
0.557972 0.701495 0.235577
0.580118 0.702327 0.236369
0.602417 0.703172 0.237175
0.624865 0.704030 0.237994
0.647458 0.704902 0.238826
0.670192 0.705787 0.239671
0.693063 0.706684 0.240529
0.716068 0.707595 0.241399
0.739202 0.708518 0.242282
0.762464 0.709453 0.243178
0.785851 0.710400 0.244085
0.809359 0.711360 0.245005
0.832987 0.712332 0.245936
0.856731 0.713315 0.246879
0.866221 0.713585 0.247109
0.865989 0.713370 0.246854
0.865768 0.713162 0.246605
0.233375 0.715031 0.227560
0.251751 0.715598 0.228088
0.270513 0.716191 0.228640
0.289623 0.716808 0.229217
0.309051 0.717446 0.229815
0.328771 0.718105 0.230434
0.348762 0.718783 0.231073
0.369007 0.719481 0.231730
0.389491 0.720196 0.232405
0.410200 0.720929 0.233098
0.431122 0.721678 0.233807
0.452247 0.722443 0.234532
0.473566 0.723225 0.235273
0.495071 0.724021 0.236029
0.516753 0.724833 0.236800
0.538608 0.725659 0.237585
0.560627 0.726499 0.238385
0.582806 0.727354 0.239198
0.605140 0.728222 0.240026
0.627623 0.729104 0.240866
0.650252 0.729999 0.241720
0.673022 0.730907 0.242587
0.695930 0.731828 0.243467
0.718972 0.732762 0.244360
0.742145 0.733708 0.245265
0.765446 0.734667 0.246182
0.788872 0.735638 0.247111
0.812420 0.736621 0.248053
0.836088 0.737616 0.249006
0.859874 0.738623 0.249972
0.869433 0.738918 0.250225
0.869239 0.738727 0.249992
0.869057 0.738543 0.249765
0.235682 0.739878 0.230116
0.254084 0.740468 0.230665
0.272872 0.741084 0.231240
0.292009 0.741723 0.231838
0.311465 0.742384 0.232457
0.331213 0.743066 0.233098
0.351233 0.743767 0.233758
0.371507 0.744488 0.234436
0.392021 0.745226 0.235133
0.412760 0.745982 0.235847
0.433712 0.746754 0.236577
0.454869 0.747543 0.237324
0.476220 0.748347 0.238087
0.497757 0.749167 0.238864
0.519473 0.750002 0.239657
0.541361 0.750851 0.240464
0.563414 0.751715 0.241285
0.585628 0.752592 0.242121
0.607997 0.753484 0.242970
0.630517 0.754389 0.243833
0.653182 0.755307 0.244708
0.675990 0.756239 0.245597
0.698936 0.757183 0.246499
0.722016 0.758141 0.247413
0.745228 0.759110 0.248340
0.768569 0.760093 0.249280
0.792035 0.761087 0.250231
0.815625 0.762094 0.251195
0.839335 0.763113 0.252170
0.863164 0.764144 0.253158
0.872794 0.764464 0.253435
0.872638 0.764296 0.253223
0.872493 0.764135 0.253019
0.238105 0.764932 0.232765
0.256535 0.765545 0.233335
0.275351 0.766183 0.233931
0.294516 0.766845 0.234550
0.314000 0.767529 0.235191
0.333777 0.768234 0.235853
0.353826 0.768959 0.236535
0.374131 0.769702 0.237235
0.394675 0.770463 0.237953
0.415445 0.771242 0.238688
0.436430 0.772037 0.239441
0.457618 0.772849 0.240209
0.479002 0.773677 0.240993
0.500573 0.774520 0.241792
0.522323 0.775378 0.242607
0.544245 0.776250 0.243436
0.566334 0.777137 0.244279
0.588584 0.778038 0.245136
0.610989 0.778953 0.246007
