library/cube/Safari_Luxe_001.cube
# CINEGRADE LAB — Premium Cinematic LUT
# Title: Safari Luxe
# Category: Luxury Travel
# Description: Golden hour tones, rich landscapes, and vivid colors for travel content
# Mood: Wanderlust, golden, rich
# Variant: 2
# Generated: 2026-05-21T16:12:23.904026
TITLE "Safari Luxe"
LUT_3D_SIZE 9
0.000000 0.000000 0.000000
0.096897 0.000000 0.000000
0.243432 0.000000 0.000000
0.390000 0.000000 0.000000
0.536613 0.000000 0.000000
0.683282 0.000000 0.000000
0.830020 0.000000 0.000000
0.976484 0.000000 0.000000
1.000000 0.000000 0.000000
0.000000 0.113904 0.000000
0.090288 0.102499 0.000000
0.236915 0.099831 0.000000
0.383601 0.097166 0.000000
0.530359 0.094503 0.000000
0.677201 0.091844 0.000000
0.824138 0.089186 0.000000
0.970405 0.086545 0.000000
1.000000 0.084835 0.000000
0.000000 0.262927 0.000000
0.081749 0.238925 0.000000
0.228512 0.236278 0.000000
0.375361 0.233636 0.000000
0.522309 0.230996 0.000000
0.669368 0.228360 0.000000
0.816551 0.225727 0.000000
0.962502 0.223122 0.000000
1.000000 0.221460 0.000000
0.000000 0.412076 0.000000
0.071093 0.410370 0.000000
0.220287 0.372856 0.000000
0.367345 0.370243 0.000000
0.514529 0.367634 0.000000
0.661850 0.365029 0.000000
0.809322 0.362427 0.000000
0.954839 0.359868 0.000000
1.000000 0.358267 0.000000
0.000000 0.561395 0.000000
0.062003 0.559730 0.000000
0.212239 0.509605 0.000000
0.359550 0.507029 0.000000
0.507014 0.504458 0.000000
0.654644 0.501891 0.000000
0.802450 0.499329 0.000000
0.947414 0.496828 0.000000
1.000000 0.495300 0.000000
0.000000 0.710931 0.000000
0.053040 0.709315 0.000000
0.200482 0.706793 0.000000
0.351974 0.644036 0.000000
0.499764 0.641511 0.000000
0.647746 0.638991 0.000000
0.795932 0.636476 0.000000
0.940224 0.634041 0.000000
1.000000 0.632600 0.000000
0.000000 0.860731 0.000000
0.044201 0.859172 0.000000
0.191959 0.856707 0.000000
0.344613 0.781308 0.000000
0.492774 0.778835 0.000000
0.641154 0.776368 0.000000
0.789766 0.773908 0.000000
0.933266 0.771551 0.000000
1.000000 0.770210 0.000000
0.000000 1.000000 0.000000
0.035483 1.000000 0.000000
0.183602 1.000000 0.000000
0.331943 1.000000 0.000000
0.486042 0.916472 0.000000
0.634866 0.914067 0.000000
0.783947 0.911668 0.000000
0.926537 0.909400 0.000000
1.000000 0.908172 0.000000
0.000000 1.000000 0.000000
0.035611 1.000000 0.000000
0.184162 1.000000 0.000000
0.332963 1.000000 0.000000
0.482027 1.000000 0.000000
0.631364 1.000000 0.000000
0.780987 1.000000 0.000000
0.922576 1.000000 0.000000
1.000000 1.000000 0.000000
0.000000 0.000000 0.124530
0.096135 0.000000 0.122752
0.242678 0.000000 0.120062
0.389256 0.000000 0.117369
0.535881 0.000000 0.114673
0.682566 0.000000 0.111974
0.829322 0.000000 0.109272
0.975772 0.000000 0.106573
1.000000 0.000000 0.104792
0.000000 0.103499 0.117795
0.089541 0.101739 0.116009
0.236180 0.099072 0.113309
0.382880 0.096408 0.110607
0.529656 0.093747 0.107901
0.676517 0.091088 0.105191
0.823478 0.088432 0.102477
0.969719 0.085793 0.099775
1.000000 0.084086 0.097998
0.000000 0.262175 0.107529
0.079580 0.260440 0.105733
0.227795 0.235528 0.104459
0.374664 0.232887 0.101745
0.521634 0.230249 0.099027
0.668718 0.227614 0.096305
0.815927 0.224983 0.093578
0.961841 0.222380 0.090873
1.000000 0.220722 0.089105
0.000000 0.411335 0.097853
0.070374 0.409632 0.096046
0.219589 0.372117 0.095574
0.366671 0.369505 0.092848
0.513881 0.366898 0.090117
0.661232 0.364295 0.087381
0.808736 0.361696 0.084640
0.954203 0.359140 0.081934
1.000000 0.357544 0.080179
0.000000 0.560668 0.088142
0.061298 0.559006 0.086323
0.208494 0.556438 0.083588
0.358899 0.506306 0.083913
0.506395 0.503738 0.081168
0.654058 0.501173 0.078417
0.801901 0.498614 0.075660
0.946803 0.496116 0.072955
1.000000 0.494594 0.071216
0.000000 0.710223 0.078393
0.052349 0.708610 0.076561
0.199820 0.706091 0.073811
0.351346 0.643332 0.074938
0.499172 0.640809 0.072176
0.647193 0.638291 0.069409
0.795420 0.635779 0.066636
0.939638 0.633349 0.063933
1.000000 0.631915 0.062215
0.000000 0.860044 0.068604
0.043523 0.858489 0.066757
0.191316 0.856027 0.063990
0.339306 0.853572 0.061217
0.492210 0.778154 0.063141
0.640633 0.775690 0.060355
0.789290 0.773233 0.057564
0.932705 0.770882 0.054865
1.000000 0.769548 0.053172
0.000000 1.000000 0.058770
0.034819 1.000000 0.056909
0.182978 1.000000 0.054124
0.331361 1.000000 0.051332
0.485506 0.915815 0.054057
0.634377 0.913413 0.051253
0.783509 0.911018 0.048441
0.926001 0.908756 0.045749
1.000000 0.907536 0.044084
0.000000 1.000000 0.057602
0.034969 1.000000 0.055748
0.183565 1.000000 0.052970
0.332413 1.000000 0.050185
0.481526 1.000000 0.047393
0.630916 1.000000 0.044595
0.780595 1.000000 0.041789
0.922074 1.000000 0.039131
1.000000 1.000000 0.037528
0.000000 0.000000 0.263989
0.095284 0.000000 0.262208
0.241834 0.000000 0.259512
0.388423 0.000000 0.256812
0.535061 0.000000 0.254106
0.681762 0.000000 0.251395
0.828537 0.000000 0.248679
0.974971 0.000000 0.245964
1.000000 0.000000 0.244166
0.000000 0.102646 0.257235
0.088704 0.100887 0.255438
0.235355 0.098222 0.252726
0.382070 0.095559 0.250008
0.528863 0.092899 0.247285
0.675746 0.090242 0.244556
0.822729 0.087587 0.241821
0.968943 0.084950 0.239096
1.000000 0.083246 0.237295
0.000000 0.239067 0.248360
0.080193 0.237330 0.246546
0.226989 0.234687 0.243817
0.373877 0.232047 0.241081
0.520870 0.229411 0.238339
0.667979 0.226777 0.235590
0.815216 0.224147 0.232835
0.961090 0.221547 0.230100
1.000000 0.219893 0.228301
0.000000 0.410503 0.237181
0.069565 0.408802 0.235349
0.216551 0.406196 0.232599
0.365908 0.368677 0.232094
0.513145 0.366072 0.229331
0.660526 0.363471 0.226562
0.808062 0.360873 0.223785
0.953478 0.358321 0.221042
1.000000 0.356730 0.219249
0.000000 0.559852 0.227377
0.060503 0.558192 0.225526
0.207725 0.555627 0.222756
0.358159 0.505493 0.223045
0.505686 0.502927 0.220261
0.653384 0.500365 0.217469
0.801265 0.497808 0.214669
0.946103 0.495314 0.211920
1.000000 0.493798 0.210137
0.000000 0.709424 0.217512
0.051567 0.707815 0.215640
0.199070 0.705299 0.212848
0.346745 0.702789 0.210047
0.498491 0.640016 0.211124
0.646551 0.637501 0.208308
0.794821 0.634991 0.205484
0.938963 0.632566 0.202731
1.000000 0.631139 0.200962
0.000000 0.859266 0.207581
0.042756 0.857715 0.205688
0.190584 0.855257 0.202872
0.338612 0.852806 0.200047
0.491557 0.777383 0.201918
0.640024 0.774922 0.199077
0.788728 0.772467 0.196227
0.932055 0.770122 0.193472
1.000000 0.768796 0.191721
0.000000 1.000000 0.197582
0.034065 1.000000 0.195667
0.182264 1.000000 0.192825
0.330690 1.000000 0.189975
0.479356 1.000000 0.187115
0.633800 0.912670 0.189773
0.782983 0.910278 0.186897
0.925377 0.908022 0.184140
1.000000 0.906811 0.182411
0.000000 1.000000 0.196233
0.034238 1.000000 0.194318
0.182878 1.000000 0.191477
0.331774 1.000000 0.188626
0.480938 1.000000 0.185767
0.630381 1.000000 0.182898
0.780116 1.000000 0.180020
0.921485 1.000000 0.177292
1.000000 1.000000 0.175618
0.000000 0.000000 0.403447
0.094434 0.000000 0.401661
0.240993 0.000000 0.398959
0.387592 0.000000 0.396249
0.534244 0.000000 0.393532
0.680961 0.000000 0.390808
0.827755 0.000000 0.388075
0.974172 0.000000 0.385344
1.000000 0.000000 0.383527
0.000000 0.101794 0.396668
0.087868 0.100037 0.394859
0.234532 0.097372 0.392133
0.381263 0.094711 0.389399
0.528074 0.092052 0.386658
0.674977 0.089396 0.383908
0.821985 0.086742 0.381150
0.968170 0.084107 0.378400
1.000000 0.082406 0.376574
0.000000 0.238223 0.387745
0.079371 0.236488 0.385912
0.226184 0.233846 0.383161
0.373093 0.231208 0.380401
0.520108 0.228573 0.377633
0.667243 0.225941 0.374856
0.814509 0.223313 0.372071
0.960342 0.220715 0.369305
1.000000 0.219065 0.367474
0.000000 0.374775 0.378742
0.071007 0.373069 0.376884
0.218016 0.370458 0.374106
0.365147 0.367850 0.371319
0.512412 0.365247 0.368524
0.659823 0.362648 0.365719
0.807392 0.360052 0.362904
0.952755 0.357503 0.360124
1.000000 0.355917 0.358292
0.000000 0.511492 0.369656
0.059709 0.557379 0.364707
0.206957 0.554817 0.361900
0.354355 0.552260 0.359085
0.504981 0.502117 0.359327
0.652714 0.499557 0.356492
0.800632 0.497002 0.353648
0.945406 0.494513 0.350854
1.000000 0.493003 0.349026
0.000000 0.708627 0.356605
0.050787 0.707020 0.354692
0.198321 0.704507 0.351856
0.346031 0.702001 0.349010
0.497814 0.639225 0.350039
0.645913 0.636713 0.347174
0.794225 0.634205 0.344298
0.938291 0.631785 0.341493
1.000000 0.630365 0.339672
0.000000 0.858491 0.346528
0.041990 0.856943 0.344587
0.189854 0.854488 0.341720
0.337921 0.852041 0.338842
0.486203 0.849601 0.335954
0.639419 0.774155 0.337761
0.788169 0.771704 0.334852
0.931408 0.769363 0.332037
1.000000 0.768045 0.330228
0.000000 1.000000 0.336359
0.033313 1.000000 0.334388
0.181552 1.000000 0.331489
0.330021 1.000000 0.328578
0.478733 1.000000 0.325656
0.633227 0.911927 0.328251
0.782462 0.909539 0.325308
0.924755 0.907289 0.322485
1.000000 0.906087 0.320691
0.000000 1.000000 0.334823
0.033508 1.000000 0.332847
0.182194 1.000000 0.329940
0.331138 1.000000 0.327023
0.480353 1.000000 0.324094
0.629849 1.000000 0.321154
0.779641 1.000000 0.318203
0.920898 1.000000 0.315402
1.000000 1.000000 0.313656
0.000000 0.000000 0.542903
0.093586 0.000000 0.541110
0.240153 0.000000 0.538400
0.386763 0.000000 0.535679
0.533429 0.000000 0.532950
0.680163 0.000000 0.530210
0.826977 0.000000 0.527461
0.973376 0.000000 0.524711
1.000000 0.000000 0.522874
0.000000 0.100943 0.536094
0.087034 0.099186 0.534272
0.233710 0.096523 0.531530
0.380458 0.093863 0.528779
0.527288 0.091206 0.526017
0.674213 0.088550 0.523245
0.821244 0.085897 0.520462
0.967399 0.083264 0.517687
1.000000 0.081567 0.515835
0.000000 0.237379 0.527118
0.078551 0.235646 0.525264
0.225382 0.233006 0.522490
0.372311 0.230369 0.519705
0.519350 0.227736 0.516910
0.666511 0.225106 0.514104
0.813806 0.222478 0.511286
0.959597 0.219884 0.508488
1.000000 0.218238 0.506624
0.000000 0.373942 0.518037
0.070201 0.372239 0.516151
0.217232 0.369630 0.513343
0.364388 0.367024 0.510524
0.511681 0.364423 0.507694
0.659123 0.361825 0.504852
0.806726 0.359231 0.501999
0.952035 0.356686 0.499179
1.000000 0.355105 0.497307
0.000000 0.510674 0.508849
0.061982 0.509009 0.506930
0.209258 0.506437 0.504086
0.356687 0.503870 0.501232
0.504279 0.501308 0.498365
0.652047 0.498751 0.495487
0.800003 0.496198 0.492596
0.944711 0.493712 0.489756
1.000000 0.492208 0.487881
0.000000 0.647615 0.499552
0.053891 0.645997 0.497598
0.197574 0.703718 0.490835
0.345318 0.701214 0.487942
0.493254 0.698717 0.485037
0.645279 0.635925 0.486006
0.793633 0.633421 0.483076
0.937621 0.631005 0.480218
1.000000 0.629592 0.478343
0.000000 0.857716 0.485443
0.041225 0.856172 0.483452
0.189125 0.853721 0.480533
0.337231 0.851277 0.477602
0.485556 0.848840 0.474657
0.638817 0.773390 0.476406
0.787615 0.770941 0.473436
0.930764 0.768606 0.470561
1.000000 0.767296 0.468691
0.000000 1.000000 0.475099
0.032562 1.000000 0.473071
0.180842 1.000000 0.470113
0.329355 1.000000 0.467141
0.478114 0.999319 0.464155
0.627129 0.996958 0.461156
0.781944 0.908802 0.463673
0.924136 0.906558 0.460783
1.000000 0.905365 0.458922
0.000000 1.000000 0.473373
0.032780 1.000000 0.471333
0.181512 1.000000 0.468360
0.330505 1.000000 0.465374
0.479771 1.000000 0.462375
0.629322 1.000000 0.459362
0.779170 1.000000 0.456335
0.920314 1.000000 0.453460
1.000000 1.000000 0.451642
0.000000 0.000000 0.682355
0.092738 0.000000 0.680555
0.239315 0.000000 0.677835
0.385937 0.000000 0.675103
0.532618 0.000000 0.672359
0.679369 0.000000 0.669603
0.826203 0.000000 0.666835
0.972583 0.000000 0.664065
1.000000 0.000000 0.662206
0.000000 0.100092 0.675513
0.086201 0.098337 0.673676
0.232891 0.095675 0.670917
0.379655 0.093016 0.668146
0.526504 0.090359 0.665363
0.673451 0.087705 0.662567
0.820507 0.085053 0.659758
0.966632 0.082422 0.656957
1.000000 0.080728 0.655076
0.000000 0.236537 0.666478
0.077732 0.234805 0.664602
0.224582 0.232166 0.661803
0.371532 0.229531 0.658992
0.518595 0.226900 0.656168
0.665782 0.224271 0.653331
0.813106 0.221645 0.650481
0.958855 0.219054 0.647648
1.000000 0.217412 0.645750
0.000000 0.373111 0.657314
0.069396 0.371410 0.655399
0.216451 0.368802 0.652559
0.363632 0.366199 0.649706
0.510954 0.363599 0.646840
0.658427 0.361004 0.643960
0.806064 0.358412 0.641067
0.951318 0.355870 0.638206
1.000000 0.354293 0.636293
0.000000 0.509856 0.648019
0.061192 0.508194 0.646063
0.208495 0.505625 0.643181
0.355954 0.503060 0.640285
0.503579 0.500501 0.637376
0.651383 0.497946 0.634452
0.799378 0.495395 0.631513
0.944019 0.492913 0.628626
1.000000 0.491415 0.626702
0.000000 0.646815 0.638591
0.053115 0.645200 0.636593
0.200713 0.642676 0.633667
0.348494 0.640158 0.630727
0.496468 0.637646 0.627773
0.644647 0.635139 0.624803
0.793045 0.632637 0.621819
0.936955 0.630226 0.618906
1.000000 0.628820 0.616976
0.000000 0.784030 0.629026
0.045163 0.782468 0.626986
0.193102 0.779998 0.624015
0.336545 0.850515 0.616325
0.484911 0.848081 0.613322
0.633511 0.845655 0.610304
0.787064 0.770180 0.611980
0.930123 0.767851 0.609043
1.000000 0.766549 0.607112
0.000000 0.921542 0.619322
0.031813 1.000000 0.611716
0.180135 1.000000 0.608697
0.328692 1.000000 0.605662
0.477497 0.998587 0.602612
0.626562 0.996230 0.599545
0.781431 0.908066 0.601994
0.923520 0.905829 0.599035
1.000000 0.904644 0.597105
0.000000 1.000000 0.611881
0.032053 1.000000 0.609775
0.180832 1.000000 0.606734
0.329874 1.000000 0.603679
0.479192 1.000000 0.600607
0.628797 1.000000 0.597520
0.778703 1.000000 0.594418
0.919732 1.000000 0.591467
1.000000 1.000000 0.589574
0.000000 0.000000 0.821804
0.091893 0.000000 0.819995
0.238478 0.000000 0.817263
0.385113 0.000000 0.814518
0.531809 0.000000 0.811758
0.678578 0.000000 0.808984
0.825432 0.000000 0.806196
0.971793 0.000000 0.803405
1.000000 0.000000 0.801524
0.000000 0.099241 0.814923
0.085369 0.097487 0.813069
0.232074 0.094827 0.810292
0.378855 0.092169 0.807500
0.525724 0.089514 0.804694
0.672693 0.086861 0.801873
0.819775 0.084210 0.799037
0.965866 0.081581 0.796207
1.000000 0.079890 0.794297
0.000000 0.235695 0.805824
0.076915 0.233964 0.803925
0.223783 0.231327 0.801100
0.370755 0.228694 0.798261
0.517842 0.226064 0.795407
0.665056 0.223437 0.792537
0.812410 0.220812 0.789653
0.958115 0.218224 0.786785
1.000000 0.216586 0.784850
0.000000 0.372280 0.796573
0.068593 0.370581 0.794627
0.215671 0.367976 0.791754
0.362879 0.365374 0.788866
0.510229 0.362777 0.785962
0.657734 0.360183 0.783043
0.805405 0.357593 0.780107
0.950604 0.355054 0.777204
1.000000 0.353483 0.775248
0.000000 0.509040 0.787166
0.060403 0.507380 0.785172
0.207734 0.504813 0.782250
0.355224 0.502251 0.779312
0.502882 0.499694 0.776357
0.650723 0.497141 0.773386
0.798756 0.494593 0.770399
0.943330 0.492115 0.767462
1.000000 0.490623 0.765489
0.000000 0.646016 0.777602
0.052340 0.644404 0.775559
0.199971 0.641883 0.772585
0.347787 0.639368 0.769596
0.495799 0.636858 0.766589
0.644020 0.634354 0.763565
0.792461 0.631854 0.760525
0.936291 0.629449 0.757555
1.000000 0.628049 0.755570
0.000000 0.783251 0.767877
0.044402 0.781693 0.765784
0.192378 0.779226 0.762758
0.340565 0.776766 0.759715
0.488976 0.774311 0.756655
0.637623 0.771863 0.753577
0.786517 0.769420 0.750482
0.929484 0.767097 0.747481
1.000000 0.765802 0.745487
0.000000 0.920787 0.757988
0.036588 0.919292 0.755844
0.184953 0.916886 0.752764
0.333557 0.914487 0.749667
0.476884 0.997857 0.741024
0.625999 0.995504 0.737889
0.775389 0.993158 0.734735
0.922906 0.905101 0.737238
1.000000 0.903925 0.735239
0.000000 1.000000 0.750346
0.031329 1.000000 0.748173
0.180154 1.000000 0.745064
0.329246 1.000000 0.741937
0.478616 1.000000 0.738792
0.628277 1.000000 0.735629
0.778240 1.000000 0.732448
0.919154 1.000000 0.729421
1.000000 1.000000 0.727451
0.000000 0.000000 0.961249
0.091049 0.000000 0.959429
0.237644 0.000000 0.956684
0.384292 0.000000 0.953924
0.531003 0.000000 0.951147
0.677791 0.000000 0.948354
0.824666 0.000000 0.945545
0.971004 0.000000 0.942730
1.000000 0.000000 0.940825
0.000000 0.098391 0.954323
0.084539 0.096639 0.952452
0.231259 0.093979 0.949654
0.378057 0.091323 0.946841
0.524946 0.088669 0.944010
0.671938 0.086017 0.941163
0.819045 0.083367 0.938298
0.965104 0.080740 0.935438
1.000000 0.079052 0.933498
0.000000 0.234853 0.945156
0.076099 0.233125 0.943232
0.222987 0.230489 0.940380
0.369981 0.227858 0.937512
0.517092 0.225229 0.934626
0.664334 0.222603 0.931723
0.811719 0.219980 0.928802
0.957378 0.217395 0.925898
1.000000 0.215761 0.923925
0.000000 0.371450 0.935813
0.067792 0.369754 0.933834
0.214893 0.367150 0.930927
0.362128 0.364550 0.928002
0.509508 0.361955 0.925060
0.657045 0.359363 0.922099
0.804751 0.356775 0.919120
0.949892 0.354240 0.916174
1.000000 0.352674 0.914174
0.000000 0.508225 0.926290
0.059615 0.506568 0.924256
0.206976 0.504003 0.921292
0.354496 0.501443 0.918309
0.502189 0.498888 0.915309
0.650066 0.496338 0.912290
0.798139 0.493791 0.909252
0.942643 0.491318 0.906264
1.000000 0.489833 0.904240
0.000000 0.645219 0.916584
0.051566 0.643609 0.914494
0.199231 0.641091 0.911472
0.347083 0.638578 0.908431
0.495133 0.636071 0.905371
0.643396 0.633570 0.902291
0.791881 0.631073 0.899193
0.935630 0.628672 0.896166
1.000000 0.627280 0.894123
0.000000 0.782474 0.906694
0.043643 0.780920 0.904547
0.191657 0.778456 0.901465
0.339884 0.775998 0.898363
0.488339 0.773547 0.895242
0.637031 0.771101 0.892101
0.785974 0.768662 0.888941
0.928848 0.766344 0.885876
1.000000 0.765057 0.883818
0.000000 0.920034 0.896616
0.035842 0.918542 0.894410
0.184250 0.916140 0.891267
0.332899 0.913744 0.888104
0.481802 0.911356 0.884921
0.630970 0.908975 0.881717
0.780415 0.906600 0.878493
0.922296 0.904375 0.875393
1.000000 0.903208 0.873323
0.000000 1.000000 0.888768
0.030606 1.000000 0.886527
0.179478 1.000000 0.883347
0.328620 1.000000 0.880147
0.478043 1.000000 0.876927
0.627759 1.000000 0.873687
0.777781 1.000000 0.870427
0.918579 1.000000 0.867322
1.000000 1.000000 0.865274
0.000000 0.000000 1.000000
0.090298 0.000000 1.000000
0.236904 0.000000 1.000000
0.383565 0.000000 1.000000
0.530292 0.000000 1.000000
0.677098 0.000000 1.000000
0.823995 0.000000 1.000000
0.970311 0.000000 1.000000
1.000000 0.000000 1.000000
0.000000 0.097633 1.000000
0.083803 0.095882 1.000000
0.230537 0.093224 1.000000
0.377353 0.090569 1.000000
0.524263 0.087916 1.000000
0.671278 0.085265 1.000000
0.818412 0.082616 1.000000
0.964436 0.079992 1.000000
1.000000 0.078307 1.000000
0.000000 0.234104 1.000000
0.075376 0.232377 1.000000
0.222284 0.229744 1.000000
0.369300 0.227113 1.000000
0.516437 0.224486 1.000000
0.663707 0.221862 1.000000
0.811122 0.219241 1.000000
0.956735 0.216658 1.000000
1.000000 0.215029 1.000000
0.000000 0.370713 1.000000
0.067083 0.369019 1.000000
0.214209 0.366417 1.000000
0.361471 0.363819 1.000000
0.508881 0.361225 1.000000
0.656450 0.358635 1.000000
0.804192 0.356049 1.000000
0.949274 0.353518 1.000000
1.000000 0.351957 1.000000
0.000000 0.507502 1.000000
0.058921 0.505848 1.000000
0.206310 0.503285 1.000000
0.353863 0.500728 1.000000
0.501590 0.498175 1.000000
0.649504 0.495627 1.000000
0.797617 0.493083 1.000000
0.942051 0.490614 1.000000
1.000000 0.489134 1.000000
0.000000 0.644514 1.000000
0.050886 0.642907 1.000000
0.198584 0.640392 1.000000
0.346472 0.637882 1.000000
0.494562 0.635378 1.000000
0.642866 0.632879 1.000000
0.791397 0.630384 1.000000
0.935063 0.627989 1.000000
1.000000 0.626603 1.000000
0.000000 0.781790 1.000000
0.042977 0.780239 1.000000
0.191029 0.777778 1.000000
0.339297 0.775323 1.000000
0.487795 0.772875 1.000000
0.636534 0.770433 1.000000
0.785527 0.767996 1.000000
0.928306 0.765684 1.000000
1.000000 0.764405 1.000000
0.000000 0.919373 1.000000
0.035190 0.917885 1.000000
0.183641 0.915486 1.000000
0.332335 0.913094 1.000000
0.481286 0.910710 1.000000
0.630505 0.908331 1.000000
0.780005 0.905960 1.000000
0.921779 0.903741 0.998694
1.000000 0.902583 0.996559
0.000000 1.000000 1.000000
0.029976 1.000000 1.000000
0.178896 1.000000 1.000000
0.328088 1.000000 1.000000
0.477565 1.000000 1.000000
0.627337 1.000000 0.996901
0.777418 1.000000 0.993568
0.918097 1.000000 0.990391
1.000000 1.000000 0.988273
