library/cube/Safari_Luxe_001.cube
# CINEGRADE LAB — Premium Cinematic LUT
# Title: Safari Luxe
# Category: Luxury Travel
# Description: Golden hour tones, rich landscapes, and vivid colors for travel content
# Mood: Wanderlust, golden, rich
# Variant: 2
# Generated: 2026-05-21T16:12:23.904026
TITLE "Safari Luxe"
LUT_3D_SIZE 5
0.000000 0.000000 0.000000
0.243432 0.000000 0.000000
0.536613 0.000000 0.000000
0.830020 0.000000 0.000000
1.000000 0.000000 0.000000
0.000000 0.262927 0.000000
0.228512 0.236278 0.000000
0.522309 0.230996 0.000000
0.816551 0.225727 0.000000
1.000000 0.221460 0.000000
0.000000 0.561395 0.000000
0.212239 0.509605 0.000000
0.507014 0.504458 0.000000
0.802450 0.499329 0.000000
1.000000 0.495300 0.000000
0.000000 0.860731 0.000000
0.191959 0.856707 0.000000
0.492774 0.778835 0.000000
0.789766 0.773908 0.000000
1.000000 0.770210 0.000000
0.000000 1.000000 0.000000
0.184162 1.000000 0.000000
0.482027 1.000000 0.000000
0.780987 1.000000 0.000000
1.000000 1.000000 0.000000
0.000000 0.000000 0.263989
0.241834 0.000000 0.259512
0.535061 0.000000 0.254106
0.828537 0.000000 0.248679
1.000000 0.000000 0.244166
0.000000 0.239067 0.248360
0.226989 0.234687 0.243817
0.520870 0.229411 0.238339
0.815216 0.224147 0.232835
1.000000 0.219893 0.228301
0.000000 0.559852 0.227377
0.207725 0.555627 0.222756
0.505686 0.502927 0.220261
0.801265 0.497808 0.214669
1.000000 0.493798 0.210137
0.000000 0.859266 0.207581
0.190584 0.855257 0.202872
0.491557 0.777383 0.201918
0.788728 0.772467 0.196227
1.000000 0.768796 0.191721
0.000000 1.000000 0.196233
0.182878 1.000000 0.191477
0.480938 1.000000 0.185767
0.780116 1.000000 0.180020
1.000000 1.000000 0.175618
0.000000 0.000000 0.542903
0.240153 0.000000 0.538400
0.533429 0.000000 0.532950
0.826977 0.000000 0.527461
1.000000 0.000000 0.522874
0.000000 0.237379 0.527118
0.225382 0.233006 0.522490
0.519350 0.227736 0.516910
0.813806 0.222478 0.511286
1.000000 0.218238 0.506624
0.000000 0.510674 0.508849
0.209258 0.506437 0.504086
0.504279 0.501308 0.498365
0.800003 0.496198 0.492596
1.000000 0.492208 0.487881
0.000000 0.857716 0.485443
0.189125 0.853721 0.480533
0.485556 0.848840 0.474657
0.787615 0.770941 0.473436
1.000000 0.767296 0.468691
0.000000 1.000000 0.473373
0.181512 1.000000 0.468360
0.479771 1.000000 0.462375
0.779170 1.000000 0.456335
1.000000 1.000000 0.451642
0.000000 0.000000 0.821804
0.238478 0.000000 0.817263
0.531809 0.000000 0.811758
0.825432 0.000000 0.806196
1.000000 0.000000 0.801524
0.000000 0.235695 0.805824
0.223783 0.231327 0.801100
0.517842 0.226064 0.795407
0.812410 0.220812 0.789653
1.000000 0.216586 0.784850
0.000000 0.509040 0.787166
0.207734 0.504813 0.782250
0.502882 0.499694 0.776357
0.798756 0.494593 0.770399
1.000000 0.490623 0.765489
0.000000 0.783251 0.767877
0.192378 0.779226 0.762758
0.488976 0.774311 0.756655
0.786517 0.769420 0.750482
1.000000 0.765802 0.745487
0.000000 1.000000 0.750346
0.180154 1.000000 0.745064
0.478616 1.000000 0.738792
0.778240 1.000000 0.732448
1.000000 1.000000 0.727451
0.000000 0.000000 1.000000
0.236904 0.000000 1.000000
0.530292 0.000000 1.000000
0.823995 0.000000 1.000000
1.000000 0.000000 1.000000
0.000000 0.234104 1.000000
0.222284 0.229744 1.000000
0.516437 0.224486 1.000000
0.811122 0.219241 1.000000
1.000000 0.215029 1.000000
0.000000 0.507502 1.000000
0.206310 0.503285 1.000000
0.501590 0.498175 1.000000
0.797617 0.493083 1.000000
1.000000 0.489134 1.000000
0.000000 0.781790 1.000000
0.191029 0.777778 1.000000
0.487795 0.772875 1.000000
0.785527 0.767996 1.000000
1.000000 0.764405 1.000000
0.000000 1.000000 1.000000
0.178896 1.000000 1.000000
0.477565 1.000000 1.000000
0.777418 1.000000 0.993568
1.000000 1.000000 0.988273
