library/cube/Safari_Luxe_001.cube
# CINEGRADE LAB — Premium Cinematic LUT
# Title: Safari Luxe
# Category: Luxury Travel
# Description: Golden hour tones, rich landscapes, and vivid colors for travel content
# Mood: Wanderlust, golden, rich
# Variant: 2
# Generated: 2026-05-21T16:12:23.904026
TITLE "Safari Luxe"
LUT_3D_SIZE 33
0.000000 0.000000 0.000000
0.000000 0.000000 0.000000
0.023637 0.000000 0.000000
0.060266 0.000000 0.000000
0.096897 0.000000 0.000000
0.133528 0.000000 0.000000
0.170161 0.000000 0.000000
0.206796 0.000000 0.000000
0.243432 0.000000 0.000000
0.280071 0.000000 0.000000
0.316711 0.000000 0.000000
0.353354 0.000000 0.000000
0.390000 0.000000 0.000000
0.426649 0.000000 0.000000
0.463300 0.000000 0.000000
0.499955 0.000000 0.000000
0.536613 0.000000 0.000000
0.573274 0.000000 0.000000
0.609939 0.000000 0.000000
0.646609 0.000000 0.000000
0.683282 0.000000 0.000000
0.719960 0.000000 0.000000
0.756642 0.000000 0.000000
0.793328 0.000000 0.000000
0.830020 0.000000 0.000000
0.866717 0.000000 0.000000
0.903419 0.000000 0.000000
0.940010 0.000000 0.000000
0.976484 0.000000 0.000000
1.000000 0.000000 0.000000
1.000000 0.000000 0.000000
1.000000 0.000000 0.000000
1.000000 0.000000 0.000000
0.000000 0.002191 0.000000
0.000000 0.002006 0.000000
0.023516 0.001574 0.000000
0.060148 0.000904 0.000000
0.096782 0.000233 0.000000
0.133418 0.000000 0.000000
0.170055 0.000000 0.000000
0.206694 0.000000 0.000000
0.243336 0.000000 0.000000
0.279980 0.000000 0.000000
0.316627 0.000000 0.000000
0.353277 0.000000 0.000000
0.389929 0.000000 0.000000
0.426585 0.000000 0.000000
0.463245 0.000000 0.000000
0.499908 0.000000 0.000000
0.536574 0.000000 0.000000
0.573245 0.000000 0.000000
0.609920 0.000000 0.000000
0.646599 0.000000 0.000000
0.683282 0.000000 0.000000
0.719971 0.000000 0.000000
0.756664 0.000000 0.000000
0.793363 0.000000 0.000000
0.830066 0.000000 0.000000
0.866775 0.000000 0.000000
0.903490 0.000000 0.000000
0.940065 0.000000 0.000000
0.976492 0.000000 0.000000
1.000000 0.000000 0.000000
1.000000 0.000000 0.000000
1.000000 0.000000 0.000000
1.000000 0.000000 0.000000
0.000000 0.039425 0.000000
0.000000 0.036088 0.000000
0.021335 0.035657 0.000000
0.057971 0.034987 0.000000
0.094609 0.034318 0.000000
0.131249 0.033649 0.000000
0.167892 0.032980 0.000000
0.204537 0.032311 0.000000
0.241184 0.031642 0.000000
0.277835 0.030974 0.000000
0.314488 0.030305 0.000000
0.351145 0.029637 0.000000
0.387806 0.028969 0.000000
0.424470 0.028301 0.000000
0.461138 0.027633 0.000000
0.497809 0.026965 0.000000
0.534485 0.026298 0.000000
0.571166 0.025631 0.000000
0.607851 0.024963 0.000000
0.644541 0.024296 0.000000
0.681235 0.023629 0.000000
0.717935 0.022962 0.000000
0.754640 0.022296 0.000000
0.791351 0.021629 0.000000
0.828068 0.020962 0.000000
0.864790 0.020296 0.000000
0.901518 0.019630 0.000000
0.938073 0.018967 0.000000
0.974448 0.018307 0.000000
1.000000 0.017649 0.000000
1.000000 0.016991 0.000000
1.000000 0.016570 0.000000
1.000000 0.016578 0.000000
0.000000 0.076663 0.000000
0.000000 0.076665 0.000000
0.019160 0.069743 0.000000
0.055801 0.069075 0.000000
0.092444 0.068406 0.000000
0.129090 0.067738 0.000000
0.165738 0.067070 0.000000
0.202389 0.066402 0.000000
0.239044 0.065734 0.000000
0.275701 0.065066 0.000000
0.312363 0.064399 0.000000
0.349028 0.063732 0.000000
0.385696 0.063065 0.000000
0.422369 0.062398 0.000000
0.459046 0.061731 0.000000
0.495728 0.061064 0.000000
0.532414 0.060398 0.000000
0.569105 0.059731 0.000000
0.605800 0.059065 0.000000
0.642502 0.058399 0.000000
0.679208 0.057733 0.000000
0.715920 0.057068 0.000000
0.752638 0.056402 0.000000
0.789362 0.055736 0.000000
0.826092 0.055071 0.000000
0.862828 0.054406 0.000000
0.899570 0.053741 0.000000
0.936102 0.053080 0.000000
0.972419 0.052423 0.000000
1.000000 0.051767 0.000000
1.000000 0.051112 0.000000
1.000000 0.050693 0.000000
1.000000 0.050703 0.000000
0.000000 0.113904 0.000000
0.000000 0.113908 0.000000
0.016993 0.103834 0.000000
0.053639 0.103166 0.000000
0.090288 0.102499 0.000000
0.126940 0.101831 0.000000
0.163595 0.101164 0.000000
0.200253 0.100497 0.000000
0.236915 0.099831 0.000000
0.273580 0.099164 0.000000
0.310250 0.098498 0.000000
0.346923 0.097832 0.000000
0.383601 0.097166 0.000000
0.420283 0.096500 0.000000
0.456970 0.095834 0.000000
0.493662 0.095169 0.000000
0.530359 0.094503 0.000000
0.567061 0.093838 0.000000
0.603768 0.093173 0.000000
0.640482 0.092508 0.000000
0.677201 0.091844 0.000000
0.713925 0.091179 0.000000
0.750657 0.090515 0.000000
0.787394 0.089850 0.000000
0.824138 0.089186 0.000000
0.860889 0.088522 0.000000
0.897647 0.087858 0.000000
0.934152 0.087199 0.000000
0.970405 0.086545 0.000000
1.000000 0.085892 0.000000
1.000000 0.085240 0.000000
1.000000 0.084824 0.000000
1.000000 0.084835 0.000000
0.000000 0.151151 0.000000
0.000000 0.151156 0.000000
0.014008 0.150728 0.000000
0.051485 0.137262 0.000000
0.088141 0.136596 0.000000
0.124799 0.135930 0.000000
0.161461 0.135264 0.000000
0.198127 0.134598 0.000000
0.234797 0.133933 0.000000
0.271471 0.133267 0.000000
0.308149 0.132602 0.000000
0.344832 0.131937 0.000000
0.381520 0.131273 0.000000
0.418212 0.130608 0.000000
0.454910 0.129944 0.000000
0.491613 0.129279 0.000000
0.528321 0.128615 0.000000
0.565035 0.127951 0.000000
0.601755 0.127288 0.000000
0.638481 0.126624 0.000000
0.675213 0.125961 0.000000
0.711951 0.125298 0.000000
0.748697 0.124634 0.000000
0.785448 0.123971 0.000000
0.822207 0.123309 0.000000
0.858973 0.122646 0.000000
0.895747 0.121984 0.000000
0.932223 0.121327 0.000000
0.968407 0.120676 0.000000
1.000000 0.120026 0.000000
1.000000 0.119377 0.000000
1.000000 0.118963 0.000000
1.000000 0.118976 0.000000
0.000000 0.188403 0.000000
0.000000 0.188409 0.000000
0.011652 0.187983 0.000000
0.049339 0.171364 0.000000
0.086002 0.170699 0.000000
0.122668 0.170034 0.000000
0.159338 0.169370 0.000000
0.196012 0.168705 0.000000
0.232691 0.168041 0.000000
0.269374 0.167377 0.000000
0.306062 0.166713 0.000000
0.342755 0.166049 0.000000
0.379453 0.165386 0.000000
0.416156 0.164723 0.000000
0.452865 0.164060 0.000000
0.489580 0.163397 0.000000
0.526300 0.162734 0.000000
0.563027 0.162072 0.000000
0.599760 0.161410 0.000000
0.636499 0.160747 0.000000
0.673245 0.160085 0.000000
0.709998 0.159424 0.000000
0.746758 0.158762 0.000000
0.783525 0.158101 0.000000
0.820299 0.157439 0.000000
0.857081 0.156778 0.000000
0.893871 0.156117 0.000000
0.930316 0.155463 0.000000
0.966424 0.154815 0.000000
1.000000 0.154168 0.000000
1.000000 0.153523 0.000000
1.000000 0.153112 0.000000
1.000000 0.153127 0.000000
0.000000 0.225662 0.000000
0.000000 0.225670 0.000000
0.009303 0.225244 0.000000
0.045969 0.224581 0.000000
0.083871 0.204809 0.000000
0.120545 0.204145 0.000000
0.157224 0.203482 0.000000
0.193907 0.202819 0.000000
0.230595 0.202156 0.000000
0.267289 0.201493 0.000000
0.303987 0.200831 0.000000
0.340691 0.200169 0.000000
0.377400 0.199507 0.000000
0.414115 0.198845 0.000000
0.450836 0.198184 0.000000
0.487563 0.197522 0.000000
0.524296 0.196861 0.000000
0.561036 0.196200 0.000000
0.597783 0.195539 0.000000
0.634536 0.194879 0.000000
0.671297 0.194218 0.000000
0.708065 0.193558 0.000000
0.744840 0.192898 0.000000
0.781623 0.192238 0.000000
0.818414 0.191578 0.000000
0.855212 0.190919 0.000000
0.892019 0.190259 0.000000
0.928429 0.189608 0.000000
0.964455 0.188963 0.000000
1.000000 0.188320 0.000000
1.000000 0.187678 0.000000
1.000000 0.187271 0.000000
1.000000 0.187288 0.000000
0.000000 0.262927 0.000000
0.000000 0.262937 0.000000
0.006961 0.262513 0.000000
0.043635 0.261852 0.000000
0.081749 0.238925 0.000000
0.118432 0.238263 0.000000
0.155120 0.237601 0.000000
0.191813 0.236940 0.000000
0.228512 0.236278 0.000000
0.265215 0.235617 0.000000
0.301925 0.234957 0.000000
0.338640 0.234296 0.000000
0.375361 0.233636 0.000000
0.412088 0.232975 0.000000
0.448822 0.232315 0.000000
0.485562 0.231656 0.000000
0.522309 0.230996 0.000000
0.559063 0.230337 0.000000
0.595824 0.229678 0.000000
0.632593 0.229019 0.000000
0.669368 0.228360 0.000000
0.706152 0.227701 0.000000
0.742943 0.227043 0.000000
0.779743 0.226385 0.000000
0.816551 0.225727 0.000000
0.853367 0.225069 0.000000
0.890191 0.224411 0.000000
0.926564 0.223762 0.000000
0.962502 0.223122 0.000000
0.998384 0.222482 0.000000
1.000000 0.221844 0.000000
1.000000 0.221440 0.000000
1.000000 0.221460 0.000000
0.000000 0.300201 0.000000
0.000000 0.300212 0.000000
0.004626 0.299791 0.000000
0.041308 0.299131 0.000000
0.077996 0.298471 0.000000
0.116328 0.272389 0.000000
0.153026 0.271728 0.000000
0.189729 0.271069 0.000000
0.226439 0.270409 0.000000
0.263154 0.269750 0.000000
0.299875 0.269090 0.000000
0.336602 0.268431 0.000000
0.373336 0.267773 0.000000
0.410076 0.267114 0.000000
0.446824 0.266456 0.000000
0.483578 0.265798 0.000000
0.520339 0.265140 0.000000
0.557108 0.264483 0.000000
0.593884 0.263825 0.000000
0.630668 0.263168 0.000000
0.667460 0.262511 0.000000
0.704260 0.261854 0.000000
0.741068 0.261198 0.000000
0.777884 0.260542 0.000000
0.814710 0.259885 0.000000
0.851544 0.259229 0.000000
0.888387 0.258574 0.000000
0.924720 0.257928 0.000000
0.960564 0.257291 0.000000
0.996348 0.256655 0.000000
1.000000 0.256022 0.000000
1.000000 0.255621 0.000000
1.000000 0.255643 0.000000
0.000000 0.337483 0.000000
0.000000 0.337496 0.000000
0.002297 0.337076 0.000000
0.038989 0.336419 0.000000
0.075687 0.335761 0.000000
0.114232 0.306523 0.000000
0.150941 0.305864 0.000000
0.187656 0.305206 0.000000
0.224377 0.304548 0.000000
0.261104 0.303891 0.000000
0.297838 0.303233 0.000000
0.334578 0.302576 0.000000
0.371325 0.301919 0.000000
0.408079 0.301263 0.000000
0.444841 0.300606 0.000000
0.481609 0.299950 0.000000
0.518386 0.299294 0.000000
0.555170 0.298638 0.000000
0.591962 0.297983 0.000000
0.628762 0.297328 0.000000
0.665570 0.296673 0.000000
0.702387 0.296018 0.000000
0.739213 0.295363 0.000000
0.776048 0.294709 0.000000
0.812892 0.294055 0.000000
0.849745 0.293401 0.000000
0.886607 0.292747 0.000000
0.922896 0.292104 0.000000
0.958641 0.291471 0.000000
0.994322 0.290840 0.000000
1.000000 0.290211 0.000000
1.000000 0.289814 0.000000
1.000000 0.289838 0.000000
0.000000 0.374774 0.000000
0.000000 0.374790 0.000000
0.000000 0.374372 0.000000
0.036678 0.373716 0.000000
0.073386 0.373060 0.000000
0.110100 0.372405 0.000000
0.148867 0.340009 0.000000
0.185593 0.339353 0.000000
0.222327 0.338697 0.000000
0.259066 0.338041 0.000000
0.295813 0.337386 0.000000
0.332567 0.336731 0.000000
0.369328 0.336076 0.000000
0.406097 0.335421 0.000000
0.442873 0.334766 0.000000
0.479657 0.334112 0.000000
0.516449 0.333458 0.000000
0.553249 0.332805 0.000000
0.590058 0.332151 0.000000
0.626875 0.331498 0.000000
0.663701 0.330845 0.000000
0.700535 0.330192 0.000000
0.737379 0.329539 0.000000
0.774233 0.328887 0.000000
0.811096 0.328235 0.000000
0.847968 0.327583 0.000000
0.884851 0.326931 0.000000
0.921094 0.326292 0.000000
0.956733 0.325664 0.000000
0.992305 0.325037 0.000000
1.000000 0.324412 0.000000
1.000000 0.324019 0.000000
1.000000 0.324046 0.000000
0.000000 0.412076 0.000000
0.000000 0.412093 0.000000
0.000000 0.411678 0.000000
0.034374 0.411024 0.000000
0.071093 0.410370 0.000000
0.107819 0.409717 0.000000
0.146801 0.374164 0.000000
0.183541 0.373510 0.000000
0.220287 0.372856 0.000000
0.257040 0.372202 0.000000
0.293801 0.371549 0.000000
0.330569 0.370895 0.000000
0.367345 0.370243 0.000000
0.404129 0.369590 0.000000
0.440920 0.368938 0.000000
0.477720 0.368285 0.000000
0.514529 0.367634 0.000000
0.551346 0.366982 0.000000
0.588172 0.366331 0.000000
0.625006 0.365679 0.000000
0.661850 0.365029 0.000000
0.698704 0.364378 0.000000
0.735567 0.363727 0.000000
0.772439 0.363077 0.000000
0.809322 0.362427 0.000000
0.846215 0.361778 0.000000
0.883118 0.361128 0.000000
0.919312 0.360492 0.000000
0.954839 0.359868 0.000000
0.990296 0.359247 0.000000
1.000000 0.358627 0.000000
1.000000 0.358238 0.000000
1.000000 0.358267 0.000000
0.000000 0.449388 0.000000
0.000000 0.449408 0.000000
0.000000 0.448994 0.000000
0.032077 0.448343 0.000000
0.068809 0.447692 0.000000
0.105547 0.447041 0.000000
0.142293 0.446390 0.000000
0.181499 0.407677 0.000000
0.218259 0.407025 0.000000
0.255026 0.406374 0.000000
0.291801 0.405722 0.000000
0.328584 0.405071 0.000000
0.365376 0.404421 0.000000
0.402175 0.403770 0.000000
0.438983 0.403120 0.000000
0.475800 0.402470 0.000000
0.512625 0.401820 0.000000
0.549460 0.401171 0.000000
0.586304 0.400522 0.000000
0.623157 0.399873 0.000000
0.660020 0.399224 0.000000
0.696892 0.398576 0.000000
0.733775 0.397928 0.000000
0.770668 0.397280 0.000000
0.807571 0.396632 0.000000
0.844485 0.395985 0.000000
0.881409 0.395338 0.000000
0.917551 0.394705 0.000000
0.952961 0.394087 0.000000
0.988297 0.393470 0.000000
1.000000 0.392855 0.000000
1.000000 0.392470 0.000000
1.000000 0.392503 0.000000
0.000000 0.486711 0.000000
0.000000 0.486734 0.000000
0.000000 0.486323 0.000000
0.029788 0.485674 0.000000
0.066532 0.485025 0.000000
0.103284 0.484376 0.000000
0.140043 0.483728 0.000000
0.179467 0.441856 0.000000
0.216241 0.441206 0.000000
0.253023 0.440557 0.000000
0.289814 0.439908 0.000000
0.326613 0.439259 0.000000
0.363420 0.438611 0.000000
0.400236 0.437962 0.000000
0.437061 0.437315 0.000000
0.473895 0.436667 0.000000
0.510738 0.436020 0.000000
0.547591 0.435373 0.000000
0.584454 0.434726 0.000000
0.621326 0.434079 0.000000
0.658208 0.433433 0.000000
0.695101 0.432787 0.000000
0.732004 0.432141 0.000000
0.768917 0.431496 0.000000
0.805842 0.430851 0.000000
0.842777 0.430206 0.000000
0.879724 0.429561 0.000000
0.915811 0.428932 0.000000
0.951097 0.428319 0.000000
0.986306 0.427707 0.000000
1.000000 0.427098 0.000000
1.000000 0.426718 0.000000
1.000000 0.426753 0.000000
0.000000 0.524046 0.000000
0.000000 0.524072 0.000000
0.000000 0.523664 0.000000
0.027506 0.523017 0.000000
0.064264 0.522371 0.000000
0.101029 0.521725 0.000000
0.137802 0.521079 0.000000
0.174584 0.520434 0.000000
0.214234 0.475399 0.000000
0.251032 0.474752 0.000000
0.287839 0.474106 0.000000
0.324654 0.473459 0.000000
0.361478 0.472813 0.000000
0.398312 0.472167 0.000000
0.435154 0.471522 0.000000
0.472006 0.470877 0.000000
0.508868 0.470232 0.000000
0.545740 0.469587 0.000000
0.582622 0.468943 0.000000
0.619514 0.468299 0.000000
0.656416 0.467655 0.000000
0.693330 0.467012 0.000000
0.730254 0.466368 0.000000
0.767189 0.465725 0.000000
0.804135 0.465083 0.000000
0.841093 0.464440 0.000000
0.878062 0.463798 0.000000
0.914091 0.463174 0.000000
0.949248 0.462566 0.000000
0.984324 0.461959 0.000000
1.000000 0.461355 0.000000
1.000000 0.460980 0.000000
1.000000 0.461018 0.000000
0.000000 0.561395 0.000000
0.000000 0.561423 0.000000
0.000000 0.561017 0.000000
0.025231 0.560373 0.000000
0.062003 0.559730 0.000000
0.098783 0.559087 0.000000
0.135572 0.558444 0.000000
0.172368 0.557801 0.000000
0.212239 0.509605 0.000000
0.249053 0.508960 0.000000
0.285876 0.508316 0.000000
0.322708 0.507672 0.000000
0.359550 0.507029 0.000000
0.396401 0.506386 0.000000
0.433262 0.505743 0.000000
0.470133 0.505100 0.000000
0.507014 0.504458 0.000000
0.543906 0.503816 0.000000
0.580808 0.503174 0.000000
0.617720 0.502532 0.000000
0.654644 0.501891 0.000000
0.691578 0.501250 0.000000
0.728524 0.500610 0.000000
0.765481 0.499970 0.000000
0.802450 0.499329 0.000000
0.839431 0.498690 0.000000
0.876424 0.498050 0.000000
0.912393 0.497430 0.000000
0.947414 0.496828 0.000000
0.982351 0.496227 0.000000
1.000000 0.495629 0.000000
1.000000 0.495259 0.000000
1.000000 0.495300 0.000000
0.000000 0.598757 0.000000
0.000000 0.598788 0.000000
0.000000 0.598385 0.000000
0.022964 0.597744 0.000000
0.059751 0.597103 0.000000
0.096546 0.596463 0.000000
0.133350 0.595823 0.000000
0.170163 0.595183 0.000000
0.206984 0.594544 0.000000
0.247085 0.543182 0.000000
0.283925 0.542540 0.000000
0.320776 0.541899 0.000000
0.357636 0.541258 0.000000
0.394506 0.540618 0.000000
0.431386 0.539977 0.000000
0.468276 0.539337 0.000000
0.505177 0.538698 0.000000
0.542089 0.538058 0.000000
0.579012 0.537419 0.000000
0.615945 0.536781 0.000000
0.652891 0.536142 0.000000
0.689847 0.535504 0.000000
0.726815 0.534866 0.000000
0.763796 0.534229 0.000000
0.800788 0.533592 0.000000
0.837792 0.532955 0.000000
0.874809 0.532318 0.000000
0.910714 0.531702 0.000000
0.945595 0.531105 0.000000
0.980387 0.530511 0.000000
1.000000 0.529919 0.000000
1.000000 0.529554 0.000000
1.000000 0.529598 0.000000
0.000000 0.636133 0.000000
0.000000 0.636167 0.000000
0.000000 0.635768 0.000000
0.020704 0.635129 0.000000
0.057506 0.634491 0.000000
0.094317 0.633854 0.000000
0.131138 0.633217 0.000000
0.167967 0.632580 0.000000
0.204806 0.631944 0.000000
0.245128 0.577418 0.000000
0.281987 0.576779 0.000000
0.318856 0.576140 0.000000
0.355735 0.575502 0.000000
0.392624 0.574864 0.000000
0.429524 0.574227 0.000000
0.466435 0.573590 0.000000
0.503356 0.572953 0.000000
0.540289 0.572316 0.000000
0.577233 0.571680 0.000000
0.614189 0.571044 0.000000
0.651157 0.570409 0.000000
0.688136 0.569773 0.000000
0.725127 0.569138 0.000000
0.762131 0.568504 0.000000
0.799147 0.567869 0.000000
0.836176 0.567235 0.000000
0.873218 0.566602 0.000000
0.909057 0.565990 0.000000
0.943790 0.565400 0.000000
0.978431 0.564812 0.000000
1.000000 0.564226 0.000000
1.000000 0.563866 0.000000
1.000000 0.563914 0.000000
0.000000 0.673524 0.000000
0.000000 0.673562 0.000000
0.000000 0.673165 0.000000
0.018451 0.672530 0.000000
0.055269 0.671895 0.000000
0.092097 0.671261 0.000000
0.128935 0.670627 0.000000
0.165782 0.669993 0.000000
0.202639 0.669360 0.000000
0.239506 0.668727 0.000000
0.280061 0.611032 0.000000
0.316949 0.610397 0.000000
0.353847 0.609761 0.000000
0.390757 0.609127 0.000000
0.427677 0.608492 0.000000
0.464609 0.607858 0.000000
0.501552 0.607224 0.000000
0.538507 0.606590 0.000000
0.575473 0.605957 0.000000
0.612451 0.605324 0.000000
0.649442 0.604691 0.000000
0.686445 0.604059 0.000000
0.723460 0.603427 0.000000
0.760488 0.602795 0.000000
0.797529 0.602164 0.000000
0.834583 0.601533 0.000000
0.871650 0.600902 0.000000
0.907420 0.600296 0.000000
0.941999 0.599712 0.000000
0.976484 0.599130 0.000000
1.000000 0.598550 0.000000
1.000000 0.598196 0.000000
1.000000 0.598248 0.000000
0.000000 0.710931 0.000000
0.000000 0.710972 0.000000
0.000000 0.710579 0.000000
0.016205 0.709947 0.000000
0.053040 0.709315 0.000000
0.089886 0.708684 0.000000
0.126741 0.708053 0.000000
0.163606 0.707423 0.000000
0.200482 0.706793 0.000000
0.237368 0.706164 0.000000
0.278147 0.645301 0.000000
0.315055 0.644669 0.000000
0.351974 0.644036 0.000000
0.388904 0.643404 0.000000
0.425846 0.642773 0.000000
0.462799 0.642142 0.000000
0.499764 0.641511 0.000000
0.536741 0.640880 0.000000
0.573730 0.640250 0.000000
0.610732 0.639620 0.000000
0.647746 0.638991 0.000000
0.684773 0.638361 0.000000
0.721813 0.637732 0.000000
0.758866 0.637104 0.000000
0.795932 0.636476 0.000000
0.833012 0.635848 0.000000
0.870106 0.635220 0.000000
0.905804 0.634619 0.000000
0.940224 0.634041 0.000000
0.974545 0.633466 0.000000
1.000000 0.632893 0.000000
1.000000 0.632545 0.000000
1.000000 0.632600 0.000000
0.000000 0.748355 0.000000
0.000000 0.748399 0.000000
0.000000 0.748009 0.000000
0.013966 0.747380 0.000000
0.050819 0.746752 0.000000
0.087682 0.746124 0.000000
0.124556 0.745497 0.000000
0.161440 0.744870 0.000000
0.198335 0.744243 0.000000
0.235241 0.743617 0.000000
0.272158 0.742992 0.000000
0.313173 0.678957 0.000000
0.350113 0.678328 0.000000
0.387065 0.677699 0.000000
0.424029 0.677071 0.000000
0.461004 0.676442 0.000000
0.497992 0.675815 0.000000
0.534992 0.675187 0.000000
0.572005 0.674560 0.000000
0.609031 0.673934 0.000000
0.646069 0.673307 0.000000
0.683121 0.672681 0.000000
0.720187 0.672056 0.000000
0.757265 0.671430 0.000000
0.794358 0.670805 0.000000
0.831464 0.670181 0.000000
0.868585 0.669556 0.000000
0.904208 0.668960 0.000000
0.938463 0.668389 0.000000
0.972615 0.667821 0.000000
1.000000 0.667255 0.000000
1.000000 0.666913 0.000000
1.000000 0.666972 0.000000
0.000000 0.785795 0.000000
0.000000 0.785843 0.000000
0.000000 0.785457 0.000000
0.011734 0.784832 0.000000
0.048605 0.784207 0.000000
0.085487 0.783582 0.000000
0.122380 0.782959 0.000000
0.159284 0.782335 0.000000
0.196199 0.781712 0.000000
0.233126 0.781090 0.000000
0.270063 0.780467 0.000000
0.311305 0.713262 0.000000
0.348267 0.712636 0.000000
0.385240 0.712011 0.000000
0.422227 0.711386 0.000000
0.459225 0.710761 0.000000
0.496236 0.710136 0.000000
0.533261 0.709512 0.000000
0.570298 0.708888 0.000000
0.607348 0.708265 0.000000
0.644412 0.707642 0.000000
0.681489 0.707019 0.000000
0.718581 0.706397 0.000000
0.755686 0.705775 0.000000
0.792805 0.705153 0.000000
0.829939 0.704532 0.000000
0.867087 0.703911 0.000000
0.902632 0.703320 0.000000
0.936716 0.702757 0.000000
0.970694 0.702195 0.000000
1.000000 0.701637 0.000000
1.000000 0.701300 0.000000
1.000000 0.701364 0.000000
0.000000 0.823254 0.000000
0.000000 0.823306 0.000000
0.000000 0.822923 0.000000
0.009509 0.822301 0.000000
0.046399 0.821680 0.000000
0.083301 0.821059 0.000000
0.120214 0.820439 0.000000
0.157138 0.819819 0.000000
0.194074 0.819200 0.000000
0.231021 0.818581 0.000000
0.267981 0.817962 0.000000
0.304952 0.817344 0.000000
0.346433 0.746963 0.000000
0.383430 0.746341 0.000000
0.420439 0.745719 0.000000
0.457462 0.745097 0.000000
0.494497 0.744476 0.000000
0.531546 0.743855 0.000000
0.568608 0.743235 0.000000
0.605684 0.742615 0.000000
0.642774 0.741996 0.000000
0.679877 0.741376 0.000000
0.716995 0.740757 0.000000
0.754128 0.740139 0.000000
0.791275 0.739521 0.000000
0.828436 0.738903 0.000000
0.865613 0.738285 0.000000
0.901077 0.737700 0.000000
0.934984 0.737144 0.000000
0.968781 0.736590 0.000000
1.000000 0.736039 0.000000
1.000000 0.735709 0.000000
1.000000 0.735777 0.000000
0.000000 0.860731 0.000000
0.000000 0.860787 0.000000
0.000000 0.860408 0.000000
0.007291 0.859790 0.000000
0.044201 0.859172 0.000000
0.081123 0.858555 0.000000
0.118056 0.857939 0.000000
0.155002 0.857322 0.000000
0.191959 0.856707 0.000000
0.228928 0.856092 0.000000
0.265910 0.855477 0.000000
0.302904 0.854863 0.000000
0.344613 0.781308 0.000000
0.381633 0.780689 0.000000
0.418667 0.780071 0.000000
0.455714 0.779453 0.000000
0.492774 0.778835 0.000000
0.529848 0.778218 0.000000
0.566936 0.777601 0.000000
0.604038 0.776984 0.000000
0.641154 0.776368 0.000000
0.678285 0.775753 0.000000
0.715430 0.775137 0.000000
0.752590 0.774522 0.000000
0.789766 0.773908 0.000000
0.826956 0.773294 0.000000
0.864162 0.772680 0.000000
0.899542 0.772100 0.000000
0.933266 0.771551 0.000000
0.966877 0.771005 0.000000
1.000000 0.770462 0.000000
1.000000 0.770138 0.000000
1.000000 0.770210 0.000000
0.000000 0.898227 0.000000
0.000000 0.898287 0.000000
0.000000 0.897912 0.000000
0.005079 0.897298 0.000000
0.042010 0.896684 0.000000
0.078953 0.896071 0.000000
0.115908 0.895458 0.000000
0.152875 0.894846 0.000000
0.189854 0.894234 0.000000
0.226846 0.893623 0.000000
0.263851 0.893012 0.000000
0.300869 0.892402 0.000000
0.337900 0.891792 0.000000
0.379851 0.815056 0.000000
0.416909 0.814442 0.000000
0.453981 0.813827 0.000000
0.491067 0.813213 0.000000
0.528167 0.812600 0.000000
0.565281 0.811987 0.000000
0.602410 0.811374 0.000000
0.639554 0.810761 0.000000
0.676712 0.810149 0.000000
0.713886 0.809538 0.000000
0.751074 0.808926 0.000000
0.788278 0.808316 0.000000
0.825498 0.807705 0.000000
0.862734 0.807095 0.000000
0.898028 0.806521 0.000000
0.931562 0.805980 0.000000
0.964981 0.805442 0.000000
0.998281 0.804907 0.000000
1.000000 0.804590 0.000000
1.000000 0.804666 0.000000
0.000000 0.935744 0.000000
0.000000 0.935808 0.000000
0.000000 0.935437 0.000000
0.002875 0.934827 0.000000
0.039827 0.934217 0.000000
0.076791 0.933608 0.000000
0.113768 0.932999 0.000000
0.150758 0.932391 0.000000
0.187760 0.931783 0.000000
0.224775 0.931176 0.000000
0.261804 0.930569 0.000000
0.298846 0.929963 0.000000
0.335901 0.929357 0.000000
0.378082 0.849444 0.000000
0.415166 0.848833 0.000000
0.452264 0.848222 0.000000
0.489376 0.847612 0.000000
0.526503 0.847002 0.000000
0.563644 0.846393 0.000000
