library/cube/Sakura_Tone_004.cube
# CINEGRADE LAB — Premium Cinematic LUT
# Title: Sakura Tone
# Category: Fuji 400H Emulation
# Description: Pastel tones, green shadows, airy feel emulating Fuji Pro 400H
# Mood: Soft, pastel, delicate
# Variant: 5
# Generated: 2026-05-21T16:12:51.065611
TITLE "Sakura Tone"
LUT_3D_SIZE 9
0.165317 0.163437 0.185125
0.241126 0.169559 0.191481
0.321767 0.176092 0.198244
0.405735 0.182911 0.205289
0.492275 0.189951 0.212553
0.580928 0.197175 0.219999
0.671380 0.204555 0.227600
0.763405 0.212073 0.235338
0.801877 0.215097 0.238627
0.186631 0.254085 0.206531
0.262452 0.260197 0.212907
0.343109 0.266723 0.219690
0.427097 0.273537 0.226755
0.513659 0.280575 0.234040
0.602336 0.287799 0.241507
0.692816 0.295183 0.249129
0.784872 0.302708 0.256888
0.823370 0.305747 0.260192
0.209337 0.350439 0.229353
0.285177 0.356554 0.235749
0.365856 0.363086 0.242553
0.449867 0.369909 0.249639
0.536456 0.376958 0.256945
0.625164 0.384197 0.264433
0.715677 0.391598 0.272076
0.807769 0.399144 0.279856
0.846296 0.402210 0.283177
0.233019 0.450734 0.253175
0.308881 0.456867 0.259592
0.389585 0.463420 0.266416
0.473626 0.470266 0.273523
0.560247 0.477342 0.280850
0.648990 0.484611 0.288359
0.739542 0.492045 0.296024
0.831676 0.499627 0.303826
0.870234 0.502735 0.307163
0.257466 0.554122 0.277788
0.333356 0.560289 0.284224
0.414091 0.566878 0.291069
0.498165 0.573764 0.298197
0.584824 0.580883 0.305546
0.673608 0.588198 0.313076
0.764203 0.595682 0.320763
0.856385 0.603317 0.328586
0.894977 0.606483 0.331941
0.282553 0.660117 0.303062
0.358475 0.666334 0.309519
0.439246 0.672977 0.316385
0.523359 0.679920 0.323534
0.610061 0.687099 0.330904
0.698891 0.694477 0.338456
0.789536 0.702028 0.346164
0.881770 0.709733 0.354010
0.920399 0.712972 0.357381
0.308196 0.768418 0.328913
0.384155 0.774703 0.335390
0.464967 0.781416 0.342277
0.549125 0.788433 0.349448
0.635874 0.795690 0.356839
0.724755 0.803148 0.364412
0.815455 0.810784 0.372142
0.907748 0.818576 0.380009
0.946346 0.821906 0.383397
0.334336 0.878829 0.355276
0.410337 0.885198 0.361774
0.491194 0.892000 0.368682
0.575401 0.899109 0.375874
0.662204 0.906429 0.383286
0.751141 0.913937 0.390881
0.841902 0.921646 0.398633
0.934258 0.929533 0.406521
0.971369 0.932759 0.409926
0.347617 0.933722 0.368781
0.423662 0.939811 0.375296
0.504567 0.946267 0.382220
0.588828 0.952964 0.389428
0.675687 0.959834 0.396858
0.764685 0.966833 0.404470
0.855509 0.973927 0.412239
0.947806 0.981090 0.420145
0.983801 0.984110 0.423562
0.167467 0.165516 0.256323
0.243277 0.171639 0.262704
0.323919 0.178174 0.269493
0.407889 0.184995 0.276563
0.494431 0.192037 0.283853
0.583086 0.199263 0.291325
0.673541 0.206645 0.298951
0.765569 0.214166 0.306715
0.804044 0.217194 0.310028
0.188784 0.256160 0.277814
0.264608 0.262275 0.284215
0.345267 0.268804 0.291024
0.429256 0.275620 0.298115
0.515821 0.282662 0.305425
0.604501 0.289889 0.312917
0.694984 0.297276 0.320565
0.787044 0.304804 0.328349
0.825544 0.307848 0.331678
0.211495 0.352515 0.300722
0.287337 0.358634 0.307144
0.368018 0.365169 0.313972
0.452031 0.371996 0.321084
0.538624 0.379050 0.328415
0.627335 0.386293 0.335928
0.717851 0.393698 0.343597
0.809948 0.401248 0.351402
0.848478 0.404320 0.354748
0.235181 0.452815 0.324630
0.311046 0.458953 0.331071
0.391753 0.465511 0.337920
0.475796 0.472362 0.345053
0.562421 0.479444 0.352405
0.651168 0.486718 0.359939
0.741724 0.494157 0.367629
0.833863 0.501745 0.375456
0.872424 0.504859 0.378818
0.259632 0.556214 0.349327
0.335525 0.562387 0.355788
0.416264 0.568982 0.362658
0.500342 0.575875 0.369811
0.587005 0.583000 0.377185
0.675793 0.590322 0.384740
0.766393 0.597812 0.392452
0.858580 0.605454 0.400300
0.897175 0.608626 0.403679
0.284725 0.662226 0.374686
0.360650 0.668451 0.381168
0.441425 0.675101 0.388058
0.525543 0.682050 0.395233
0.612249 0.689237 0.402627
0.701083 0.696623 0.410204
0.791734 0.704181 0.417937
0.883974 0.711894 0.425807
0.922606 0.715142 0.429202
0.310374 0.770550 0.400620
0.386336 0.776842 0.407122
0.467152 0.783564 0.414034
0.551315 0.790589 0.421229
0.638069 0.797855 0.428645
0.726956 0.805322 0.436243
0.817661 0.812967 0.443998
0.909960 0.820768 0.451889
0.948458 0.824107 0.455301
0.336519 0.880989 0.427067
0.412524 0.887368 0.433590
0.493386 0.894179 0.440522
0.577598 0.901297 0.447739
0.664407 0.908611 0.455176
0.753350 0.916136 0.462795
0.844117 0.923862 0.470571
0.936480 0.931614 0.478484
0.973433 0.934836 0.481913
0.349805 0.935790 0.440654
0.425855 0.941877 0.447193
0.506766 0.948328 0.454141
0.591032 0.955018 0.461374
0.677897 0.961878 0.468828
0.766902 0.968864 0.476465
0.857733 0.975943 0.484258
0.949887 0.983090 0.492189
0.985823 0.986098 0.495630
0.169755 0.167733 0.332071
0.245565 0.173858 0.338480
0.326209 0.180395 0.345295
0.410181 0.187218 0.352393
0.496725 0.194262 0.359710
0.585382 0.201490 0.367208
0.675840 0.208874 0.374862
0.767871 0.216397 0.382652
0.806348 0.219429 0.385992
0.191075 0.258374 0.353654
0.266900 0.264491 0.360082
0.347561 0.271023 0.366917
0.431553 0.277843 0.374035
0.518120 0.284887 0.381372
0.606803 0.292118 0.388891
0.697289 0.299508 0.396566
0.789352 0.307040 0.404377
0.827856 0.310087 0.407732
0.213790 0.354729 0.376652
0.289634 0.360852 0.383100
0.370317 0.367392 0.389956
0.454334 0.374222 0.397094
0.540929 0.381280 0.404452
0.629643 0.388527 0.411992
0.720164 0.395938 0.419687
0.812264 0.403492 0.427520
0.850797 0.406569 0.430891
0.237480 0.455036 0.400650
0.313348 0.461178 0.407118
0.394058 0.467741 0.413994
0.478104 0.474598 0.421153
0.564733 0.481685 0.428532
0.653484 0.488964 0.436092
0.744044 0.496409 0.443809
0.836187 0.504002 0.451662
0.874752 0.507123 0.455051
0.261936 0.558446 0.425437
0.337833 0.564625 0.431925
0.418574 0.571226 0.438821
0.502656 0.578125 0.446001
0.589323 0.585257 0.453401
0.678116 0.592585 0.460983
0.768721 0.600082 0.468721
0.860913 0.607730 0.476595
0.899512 0.610910 0.480000
0.287034 0.664475 0.450885
0.362963 0.670706 0.457393
0.443741 0.677364 0.464310
0.527863 0.684321 0.471511
0.614574 0.691515 0.478932
0.703414 0.698909 0.486535
0.794069 0.706475 0.494294
0.886315 0.714196 0.502191
0.924952 0.717452 0.505612
0.312688 0.772821 0.476909
0.388655 0.779122 0.483437
0.469475 0.785853 0.490375
0.553643 0.792886 0.497596
0.640402 0.800160 0.505038
0.729294 0.807637 0.512663
0.820006 0.815290 0.520443
0.912311 0.823101 0.528361
0.950696 0.826449 0.531798
0.338840 0.883289 0.503444
0.414849 0.889678 0.509993
0.495716 0.896499 0.516951
0.579934 0.903620 0.524194
0.666748 0.910935 0.531657
0.755697 0.918478 0.539302
0.846470 0.926220 0.547104
0.938840 0.933819 0.555043
0.975620 0.937037 0.558497
0.352132 0.937987 0.517117
0.428186 0.944070 0.523682
0.509103 0.950515 0.530657
0.593374 0.957196 0.537916
0.680246 0.964045 0.545396
0.769257 0.971018 0.553058
0.860095 0.978081 0.560877
0.952090 0.985209 0.568833
0.987967 0.988203 0.572299
0.172137 0.170045 0.410957
0.247948 0.176172 0.417394
0.328594 0.182711 0.424238
0.412567 0.189536 0.431363
0.499114 0.196583 0.438708
0.587773 0.203812 0.446235
0.678233 0.211199 0.453917
0.770267 0.218725 0.461735
0.808747 0.221759 0.465102
0.193461 0.260683 0.432634
0.269287 0.266803 0.439090
0.349950 0.273338 0.445954
0.433944 0.280161 0.453099
0.520514 0.287208 0.460465
0.609200 0.294442 0.468011
0.699690 0.301836 0.475714
0.791756 0.309371 0.483552
0.830263 0.312423 0.486936
0.216179 0.357040 0.455727
0.292026 0.363166 0.462203
0.372711 0.369710 0.469086
0.456731 0.376545 0.476252
0.543329 0.383607 0.483638
0.632047 0.390858 0.491206
0.722571 0.398273 0.498929
0.814676 0.405832 0.506788
0.853212 0.408914 0.510187
0.239874 0.457352 0.479818
0.315744 0.463500 0.486314
0.396457 0.470068 0.493217
0.480507 0.476929 0.500404
0.567140 0.484022 0.507811
0.655894 0.491306 0.515399
0.746459 0.498758 0.523143
0.838607 0.506357 0.531024
0.877175 0.509483 0.534439
0.264335 0.560775 0.504698
0.340234 0.566959 0.511214
0.420980 0.573567 0.518138
0.505065 0.580472 0.525345
0.591737 0.587610 0.532772
0.680533 0.594945 0.540382
0.771144 0.602449 0.548147
0.863340 0.610104 0.556049
0.901943 0.613291 0.559481
0.289438 0.666821 0.530239
0.365371 0.673060 0.536775
0.446153 0.679724 0.543719
0.530279 0.686689 0.550947
0.616995 0.693891 0.558396
0.705839 0.701292 0.566026
0.796500 0.708866 0.573813
0.888752 0.716595 0.581736
0.927392 0.719859 0.585184
0.315098 0.775190 0.556355
0.391069 0.781500 0.562911
0.471893 0.788238 0.569876
0.556065 0.795281 0.577124
0.642830 0.802564 0.584594
0.731728 0.810049 0.592245
0.822445 0.817711 0.600053
0.914757 0.825532 0.607998
0.953020 0.828889 0.611462
0.341255 0.885688 0.582983
0.417269 0.892086 0.589558
0.498141 0.898916 0.596544
0.582364 0.906026 0.603813
0.669184 0.913359 0.611303
0.758139 0.920919 0.618976
0.848919 0.928677 0.626805
0.941296 0.936109 0.634771
0.977890 0.939322 0.638251
0.354553 0.940270 0.596746
0.430613 0.946349 0.603337
0.511535 0.952787 0.610339
0.595812 0.959458 0.617625
0.682690 0.966295 0.625131
0.771707 0.973253 0.632821
0.862552 0.980299 0.640666
0.954375 0.987408 0.648649
0.990192 0.990387 0.652142
0.174591 0.172432 0.492271
0.250405 0.178561 0.498737
0.331051 0.185102 0.505610
0.415027 0.191928 0.512765
0.501575 0.198977 0.520139
0.590237 0.206209 0.527694
0.680700 0.213599 0.535404
0.772737 0.221127 0.543252
0.811219 0.224164 0.546647
0.195919 0.263067 0.514046
0.271748 0.269190 0.520531
0.352413 0.275727 0.527423
0.436409 0.282553 0.534597
0.522982 0.289604 0.541991
0.611671 0.296841 0.549567
0.702163 0.304238 0.557298
0.794234 0.311777 0.565165
0.832743 0.314833 0.568576
0.218642 0.359425 0.537235
0.294491 0.365555 0.543740
0.375179 0.372103 0.550652
0.459201 0.378942 0.557846
0.545803 0.386008 0.565261
0.634524 0.393264 0.572857
0.725052 0.400683 0.580608
0.817161 0.408247 0.588497
0.855700 0.411334 0.591924
0.242341 0.459744 0.561423
0.318214 0.465897 0.567947
0.398930 0.472470 0.574879
0.482983 0.479336 0.582094
0.569620 0.486434 0.589529
0.658378 0.493724 0.597146
0.748947 0.501181 0.604918
0.841100 0.508786 0.612827
0.879671 0.511918 0.616270
0.266807 0.563178 0.586399
0.342710 0.569369 0.592942
0.423458 0.575983 0.599895
0.507548 0.582894 0.607130
0.594224 0.590039 0.614586
0.683025 0.597380 0.622224
0.773640 0.604891 0.630017
0.865842 0.612553 0.637947
0.904449 0.615747 0.641406
0.291915 0.669242 0.612035
0.367852 0.675488 0.618599
0.448638 0.682160 0.625572
0.532769 0.689132 0.632828
0.619489 0.696342 0.640304
0.708339 0.703751 0.647963
0.799005 0.711333 0.655777
0.891262 0.719070 0.663728
0.929907 0.722342 0.667204
0.317581 0.777635 0.638246
0.393556 0.783953 0.644830
0.474385 0.790700 0.651822
0.558562 0.797751 0.659099
0.645332 0.805043 0.666596
0.734235 0.812537 0.674276
0.824959 0.820209 0.682111
0.917276 0.828038 0.690084
0.955408 0.831405 0.693575
0.343744 0.888162 0.664968
0.419763 0.894570 0.671571
0.500639 0.901410 0.678585
0.584868 0.908510 0.685882
0.671694 0.915861 0.693400
0.760655 0.923438 0.701100
0.851441 0.931098 0.708957
0.943825 0.938463 0.716950
0.980223 0.941669 0.720458
0.357048 0.942621 0.678823
0.433113 0.948693 0.685443
0.514040 0.955124 0.692472
0.598323 0.961784 0.699785
0.685207 0.968608 0.707320
0.774232 0.975550 0.715036
0.865084 0.982579 0.722910
0.956722 0.989666 0.730920
0.992478 0.992630 0.734440
0.177106 0.174880 0.575581
0.252921 0.181010 0.582077
0.333569 0.187553 0.588979
0.417547 0.194382 0.596163
0.504097 0.201432 0.603567
0.592762 0.208667 0.611152
0.683227 0.216059 0.618892
0.775268 0.223589 0.626768
0.813753 0.226630 0.630193
0.198438 0.265511 0.597455
0.274268 0.271637 0.603969
0.354935 0.278178 0.610891
0.438934 0.285007 0.618095
0.525510 0.292060 0.625518
0.614201 0.299301 0.633123
0.704698 0.306702 0.640883
0.796771 0.314244 0.648780
0.835284 0.317304 0.652220
0.221165 0.361871 0.620744
0.297016 0.368005 0.627277
0.377707 0.374557 0.634218
0.461732 0.381400 0.641442
0.548337 0.388471 0.648886
0.637062 0.395731 0.656511
0.727593 0.403155 0.664292
0.819706 0.410724 0.672209
0.858248 0.413816 0.675665
0.244868 0.462197 0.645029
0.320744 0.468355 0.651583
0.401463 0.474933 0.658544
0.485520 0.481805 0.665788
0.572160 0.488908 0.673252
0.660923 0.496204 0.680898
0.751496 0.503666 0.688699
0.843653 0.511277 0.696637
0.882228 0.514416 0.700109
0.269340 0.565644 0.670103
0.345245 0.571841 0.676676
0.425997 0.578461 0.683657
0.510091 0.585378 0.690922
0.596771 0.592530 0.698406
0.685577 0.599878 0.706073
0.776197 0.607395 0.713895
0.868404 0.615064 0.721854
0.907014 0.618266 0.725341
0.294453 0.671726 0.695837
0.370393 0.677979 0.702430
0.451183 0.684658 0.709431
0.535318 0.691638 0.716716
0.622044 0.698855 0.724221
0.710898 0.706272 0.731908
0.801570 0.713862 0.739751
0.893833 0.721607 0.747731
0.932482 0.724888 0.751235
0.320124 0.780143 0.722145
0.396103 0.786469 0.728757
0.476937 0.793225 0.735779
0.561119 0.800284 0.743084
0.647895 0.807585 0.750610
0.736803 0.815089 0.758318
0.827533 0.822769 0.766182
0.919857 0.830608 0.774183
0.957848 0.833984 0.777702
0.346294 0.890700 0.748963
0.422317 0.897117 0.755595
0.503199 0.903957 0.762637
0.587433 0.911060 0.769963
0.674264 0.918428 0.777509
0.763232 0.926022 0.785238
0.854025 0.933515 0.793123
0.946372 0.940868 0.801145
0.982607 0.944068 0.804680
0.359603 0.945025 0.762914
0.435673 0.951091 0.769561
0.516606 0.957512 0.776618
0.600895 0.964161 0.783960
0.687786 0.970971 0.791523
0.776817 0.977897 0.799268
0.867676 0.984906 0.807169
0.959119 0.991972 0.815208
0.994813 0.994919 0.818755
0.179673 0.177379 0.660593
0.255489 0.183511 0.667119
0.336139 0.190056 0.674051
0.420118 0.196887 0.681265
0.506671 0.203940 0.688699
0.595338 0.211176 0.696314
0.685806 0.218571 0.704084
0.777850 0.226104 0.711990
0.816337 0.229148 0.715444
0.201008 0.268008 0.682568
0.276840 0.274137 0.689112
0.357509 0.280680 0.696064
0.441511 0.287512 0.703297
0.528089 0.294569 0.710751
0.616784 0.301813 0.718385
0.707283 0.309217 0.726175
0.799361 0.316764 0.734102
0.837876 0.319828 0.737571
0.223739 0.364370 0.705957
0.299592 0.370508 0.712520
0.380286 0.377064 0.719492
0.464314 0.383911 0.726745
0.550922 0.390986 0.734218
0.639650 0.398251 0.741873
0.730186 0.405679 0.749684
0.822304 0.413253 0.757631
0.860849 0.416350 0.761115
0.247447 0.464703 0.730343
0.323326 0.470866 0.736926
0.404048 0.477449 0.743917
0.488108 0.484326 0.751190
0.574752 0.491435 0.758684
0.663519 0.498736 0.766359
0.754097 0.506204 0.774190
0.846259 0.513821 0.782158
0.884837 0.516966 0.785658
0.271923 0.568162 0.755517
0.347832 0.574365 0.762119
0.428588 0.580992 0.769130
0.512685 0.587916 0.776423
0.599370 0.595074 0.783937
0.688180 0.602428 0.791633
0.778805 0.609953 0.799485
0.871018 0.617629 0.807473
0.909632 0.620838 0.810989
0.297042 0.674263 0.781350
0.372986 0.680523 0.787972
0.453780 0.687210 0.795002
0.537920 0.694197 0.802317
0.624650 0.701422 0.809851
0.713510 0.708847 0.817567
0.804187 0.716445 0.825440
0.896456 0.724199 0.833449
0.935109 0.727487 0.836981
0.322719 0.782705 0.807757
0.398702 0.789039 0.814398
0.479540 0.795803 0.821449
0.563728 0.802872 0.828783
0.650509 0.810181 0.836338
0.739423 0.817694 0.844075
0.830159 0.825384 0.851968
0.922489 0.833232 0.859998
0.960332 0.836618 0.863545
0.348895 0.893292 0.834673
0.424922 0.899719 0.841334
0.505809 0.906546 0.848405
0.590049 0.913667 0.855759
0.676886 0.921052 0.863335
0.765860 0.928662 0.871092
0.856660 0.935974 0.879006
0.948853 0.943316 0.887057
0.985031 0.946508 0.890620
0.362210 0.947474 0.848720
0.438285 0.953533 0.855396
0.519224 0.959944 0.862482
0.603519 0.966581 0.869852
0.690416 0.973375 0.877444
0.779454 0.980284 0.885218
0.870320 0.987272 0.893148
0.961556 0.994316 0.900955
0.997187 0.997246 0.904311
0.182283 0.179923 0.747093
0.258101 0.186057 0.753649
0.338753 0.192604 0.760612
0.422734 0.199437 0.767857
0.509289 0.206492 0.775321
0.597959 0.213731 0.782966
0.688430 0.221128 0.790767
0.780477 0.228664 0.798704
0.818967 0.231711 0.802188
0.203623 0.270550 0.769170
0.279457 0.276682 0.775745
0.360128 0.283228 0.782727
0.444132 0.290063 0.789991
0.530713 0.297124 0.797475
0.619411 0.304371 0.805140
0.709914 0.311779 0.812960
0.801995 0.319329 0.820917
0.840513 0.322397 0.824416
0.226358 0.366915 0.792662
0.302214 0.373057 0.799255
0.382910 0.379617 0.806257
0.466941 0.386468 0.813540
0.553553 0.393547 0.821044
0.642284 0.400817 0.828729
0.732824 0.408250 0.836570
0.824946 0.415828 0.844547
0.863494 0.418930 0.848061
0.250071 0.467255 0.817150
0.325952 0.473423 0.823762
0.406678 0.480011 0.830783
0.490741 0.486894 0.838087
0.577389 0.494008 0.845611
0.666160 0.501315 0.853316
0.756742 0.508789 0.861177
0.848909 0.516411 0.869174
0.887491 0.519563 0.872704
0.274552 0.570728 0.842424
0.350464 0.576937 0.849057
0.431224 0.583570 0.856097
0.515325 0.590500 0.863421
0.602014 0.597665 0.870965
0.690829 0.605026 0.878690
0.781459 0.612558 0.886572
0.873677 0.620241 0.894559
0.912295 0.623457 0.898014
0.299676 0.676847 0.868359
0.375623 0.683115 0.875010
0.456422 0.689809 0.882071
0.540566 0.696804 0.889414
0.627301 0.704037 0.896889
0.716166 0.711469 0.904422
0.806850 0.719076 0.912072
0.899124 0.726837 0.919817
0.937781 0.730134 0.923198
0.325359 0.785313 0.894827
0.401346 0.791656 0.901328
0.482189 0.798429 0.908198
0.566381 0.805506 0.915311
0.653168 0.812825 0.922601
0.742088 0.820347 0.930028
0.832830 0.828046 0.937565
0.925167 0.835904 0.945188
0.962851 0.839299 0.948476
0.351541 0.895932 0.921011
0.427573 0.902368 0.927416
0.508465 0.909184 0.934181
0.592710 0.916324 0.941180
0.679553 0.923726 0.948348
0.768534 0.931229 0.955645
0.859340 0.938472 0.963043
0.951370 0.945801 0.970519
0.987491 0.948984 0.973694
0.364862 0.949962 0.934386
0.440942 0.956013 0.940705
0.521886 0.962413 0.947374
0.606188 0.969036 0.954270
0.693091 0.975815 0.961328
0.782136 0.982704 0.968508
0.873009 0.989672 0.975781
0.964028 0.996691 0.983126
0.999595 0.999603 0.986208
0.182726 0.180282 0.761756
0.258545 0.186419 0.768318
0.339198 0.192968 0.775287
0.423181 0.199804 0.782538
0.509739 0.206862 0.790008
0.598411 0.214105 0.797660
0.688886 0.221505 0.805466
0.780935 0.229044 0.813409
0.819428 0.232095 0.816899
0.204069 0.270910 0.783853
0.279905 0.277045 0.790434
0.360579 0.283595 0.797422
0.444585 0.290434 0.804692
0.531169 0.297499 0.812182
0.619870 0.304750 0.819853
0.710376 0.312162 0.827680
0.802461 0.319716 0.835643
0.840982 0.322789 0.839147
0.226808 0.367279 0.807365
0.302666 0.373426 0.813965
0.383365 0.379991 0.820972
0.467399 0.386847 0.828262
0.554014 0.393931 0.835772
0.642750 0.401205 0.843463
0.733293 0.408644 0.851310
0.825419 0.416227 0.859293
0.863971 0.419335 0.862813
0.250525 0.467630 0.831874
0.326410 0.473803 0.838493
0.407138 0.480397 0.845520
0.491205 0.487286 0.852829
0.577857 0.494405 0.860359
0.666632 0.501718 0.868070
0.757218 0.509199 0.875937
0.849390 0.516827 0.883941
0.887975 0.519985 0.887476
0.275011 0.571117 0.857169
0.350926 0.577333 0.863807
0.431689 0.583972 0.870854
0.515795 0.590909 0.878184
0.602488 0.598081 0.885733
0.691308 0.605449 0.893455
0.781943 0.612988 0.901166
0.874166 0.620678 0.908978
0.912787 0.623902 0.912403
0.300140 0.677257 0.883124
0.376091 0.683532 0.889781
0.456894 0.690233 0.896766
0.541042 0.697236 0.903939
0.627782 0.704477 0.911296
0.716652 0.711917 0.918797
0.807341 0.719532 0.926412
0.899622 0.727302 0.934120
0.938282 0.730607 0.937467
0.325828 0.785748 0.909253
0.401819 0.792100 0.915723
0.482667 0.798881 0.922560
0.566864 0.805967 0.929637
0.653656 0.813295 0.936890
0.742581 0.820826 0.944279
0.833329 0.828534 0.951774
0.925673 0.836401 0.959355
0.963313 0.839805 0.962602
0.352015 0.896398 0.935322
0.428052 0.902844 0.941690
0.508949 0.909670 0.948416
0.593200 0.916823 0.955373
0.680049 0.924239 0.962498
0.769035 0.931721 0.969750
0.859848 0.938961 0.977101
0.951848 0.946285 0.984528
0.987919 0.949467 0.987656
0.365342 0.950424 0.948572
0.441427 0.956473 0.954848
0.522377 0.962868 0.961472
0.606684 0.969485 0.968321
0.693593 0.976255 0.975330
0.782644 0.983135 0.982459
0.873525 0.990090 0.989679
0.964489 0.997096 0.996970
1.000000 1.000000 1.000000
