library/cube/Sakura_Tone_004.cube
# CINEGRADE LAB — Premium Cinematic LUT
# Title: Sakura Tone
# Category: Fuji 400H Emulation
# Description: Pastel tones, green shadows, airy feel emulating Fuji Pro 400H
# Mood: Soft, pastel, delicate
# Variant: 5
# Generated: 2026-05-21T16:12:51.065611
TITLE "Sakura Tone"
LUT_3D_SIZE 5
0.165317 0.163437 0.185125
0.321767 0.176092 0.198244
0.492275 0.189951 0.212553
0.671380 0.204555 0.227600
0.801877 0.215097 0.238627
0.209337 0.350439 0.229353
0.365856 0.363086 0.242553
0.536456 0.376958 0.256945
0.715677 0.391598 0.272076
0.846296 0.402210 0.283177
0.257466 0.554122 0.277788
0.414091 0.566878 0.291069
0.584824 0.580883 0.305546
0.764203 0.595682 0.320763
0.894977 0.606483 0.331941
0.308196 0.768418 0.328913
0.464967 0.781416 0.342277
0.635874 0.795690 0.356839
0.815455 0.810784 0.372142
0.946346 0.821906 0.383397
0.347617 0.933722 0.368781
0.504567 0.946267 0.382220
0.675687 0.959834 0.396858
0.855509 0.973927 0.412239
0.983801 0.984110 0.423562
0.169755 0.167733 0.332071
0.326209 0.180395 0.345295
0.496725 0.194262 0.359710
0.675840 0.208874 0.374862
0.806348 0.219429 0.385992
0.213790 0.354729 0.376652
0.370317 0.367392 0.389956
0.540929 0.381280 0.404452
0.720164 0.395938 0.419687
0.850797 0.406569 0.430891
0.261936 0.558446 0.425437
0.418574 0.571226 0.438821
0.589323 0.585257 0.453401
0.768721 0.600082 0.468721
0.899512 0.610910 0.480000
0.312688 0.772821 0.476909
0.469475 0.785853 0.490375
0.640402 0.800160 0.505038
0.820006 0.815290 0.520443
0.950696 0.826449 0.531798
0.352132 0.937987 0.517117
0.509103 0.950515 0.530657
0.680246 0.964045 0.545396
0.860095 0.978081 0.560877
0.987967 0.988203 0.572299
0.174591 0.172432 0.492271
0.331051 0.185102 0.505610
0.501575 0.198977 0.520139
0.680700 0.213599 0.535404
0.811219 0.224164 0.546647
0.218642 0.359425 0.537235
0.375179 0.372103 0.550652
0.545803 0.386008 0.565261
0.725052 0.400683 0.580608
0.855700 0.411334 0.591924
0.266807 0.563178 0.586399
0.423458 0.575983 0.599895
0.594224 0.590039 0.614586
0.773640 0.604891 0.630017
0.904449 0.615747 0.641406
0.317581 0.777635 0.638246
0.474385 0.790700 0.651822
0.645332 0.805043 0.666596
0.824959 0.820209 0.682111
0.955408 0.831405 0.693575
0.357048 0.942621 0.678823
0.514040 0.955124 0.692472
0.685207 0.968608 0.707320
0.865084 0.982579 0.722910
0.992478 0.992630 0.734440
0.179673 0.177379 0.660593
0.336139 0.190056 0.674051
0.506671 0.203940 0.688699
0.685806 0.218571 0.704084
0.816337 0.229148 0.715444
0.223739 0.364370 0.705957
0.380286 0.377064 0.719492
0.550922 0.390986 0.734218
0.730186 0.405679 0.749684
0.860849 0.416350 0.761115
0.271923 0.568162 0.755517
0.428588 0.580992 0.769130
0.599370 0.595074 0.783937
0.778805 0.609953 0.799485
0.909632 0.620838 0.810989
0.322719 0.782705 0.807757
0.479540 0.795803 0.821449
0.650509 0.810181 0.836338
0.830159 0.825384 0.851968
0.960332 0.836618 0.863545
0.362210 0.947474 0.848720
0.519224 0.959944 0.862482
0.690416 0.973375 0.877444
0.870320 0.987272 0.893148
0.997187 0.997246 0.904311
0.182726 0.180282 0.761756
0.339198 0.192968 0.775287
0.509739 0.206862 0.790008
0.688886 0.221505 0.805466
0.819428 0.232095 0.816899
0.226808 0.367279 0.807365
0.383365 0.379991 0.820972
0.554014 0.393931 0.835772
0.733293 0.408644 0.851310
0.863971 0.419335 0.862813
0.275011 0.571117 0.857169
0.431689 0.583972 0.870854
0.602488 0.598081 0.885733
0.781943 0.612988 0.901166
0.912787 0.623902 0.912403
0.325828 0.785748 0.909253
0.482667 0.798881 0.922560
0.653656 0.813295 0.936890
0.833329 0.828534 0.951774
0.963313 0.839805 0.962602
0.365342 0.950424 0.948572
0.522377 0.962868 0.961472
0.693593 0.976255 0.975330
0.873525 0.990090 0.989679
1.000000 1.000000 1.000000
