library/cube/Sakura_Tone_004.cube
# CINEGRADE LAB — Premium Cinematic LUT
# Title: Sakura Tone
# Category: Fuji 400H Emulation
# Description: Pastel tones, green shadows, airy feel emulating Fuji Pro 400H
# Mood: Soft, pastel, delicate
# Variant: 5
# Generated: 2026-05-21T16:12:51.065611
TITLE "Sakura Tone"
LUT_3D_SIZE 33
0.165317 0.163437 0.185125
0.183670 0.164917 0.186664
0.202463 0.166434 0.188239
0.221630 0.167982 0.189847
0.241126 0.169559 0.191481
0.260913 0.171160 0.193140
0.280964 0.172784 0.194822
0.301255 0.174429 0.196524
0.321767 0.176092 0.198244
0.342483 0.177773 0.199982
0.363392 0.179471 0.201736
0.384479 0.181184 0.203505
0.405735 0.182911 0.205289
0.427150 0.184652 0.207086
0.448717 0.186406 0.208896
0.470427 0.188173 0.210719
0.492275 0.189951 0.212553
0.514254 0.191741 0.214399
0.536359 0.193542 0.216255
0.558585 0.195353 0.218122
0.580928 0.197175 0.219999
0.603382 0.199006 0.221886
0.625944 0.200846 0.223782
0.648612 0.202696 0.225687
0.671380 0.204555 0.227600
0.694246 0.206422 0.229523
0.717208 0.208297 0.231453
0.740261 0.210181 0.233392
0.763405 0.212073 0.235338
0.786636 0.213972 0.237292
0.801854 0.215198 0.238580
0.801866 0.215147 0.238603
0.801877 0.215097 0.238627
0.170474 0.185390 0.190303
0.188828 0.186868 0.191843
0.207621 0.188384 0.193420
0.226789 0.189932 0.195028
0.246285 0.191508 0.196664
0.266074 0.193109 0.198324
0.286125 0.194732 0.200007
0.306417 0.196376 0.201710
0.326930 0.198039 0.203432
0.347648 0.199719 0.205171
0.368557 0.201416 0.206926
0.389645 0.203128 0.208697
0.410902 0.204855 0.210482
0.432319 0.206596 0.212280
0.453887 0.208349 0.214092
0.475598 0.210116 0.215916
0.497448 0.211894 0.217751
0.519428 0.213683 0.219598
0.541535 0.215484 0.221456
0.563762 0.217295 0.223324
0.586106 0.219116 0.225202
0.608562 0.220947 0.227090
0.631126 0.222787 0.228987
0.653795 0.224637 0.230894
0.676565 0.226496 0.232809
0.699433 0.228363 0.234732
0.722396 0.230239 0.236664
0.745451 0.232122 0.238604
0.768597 0.234014 0.240552
0.791830 0.235914 0.242507
0.807050 0.237141 0.243796
0.807062 0.237091 0.243820
0.807075 0.237041 0.243844
0.175756 0.207864 0.195608
0.194111 0.209341 0.197149
0.212905 0.210857 0.198727
0.232074 0.212404 0.200337
0.251571 0.213979 0.201974
0.271360 0.215579 0.203635
0.291412 0.217202 0.205319
0.311705 0.218845 0.207024
0.332219 0.220507 0.208747
0.352938 0.222187 0.210487
0.373849 0.223884 0.212244
0.394938 0.225596 0.214015
0.416196 0.227322 0.215802
0.437614 0.229062 0.217601
0.459183 0.230816 0.219414
0.480897 0.232582 0.221239
0.502747 0.234360 0.223076
0.524729 0.236149 0.224924
0.546837 0.237950 0.226784
0.569066 0.239761 0.228653
0.591411 0.241582 0.230532
0.613869 0.243413 0.232422
0.636435 0.245253 0.234320
0.659105 0.247103 0.236228
0.681877 0.248962 0.238144
0.704747 0.250830 0.240069
0.727712 0.252706 0.242002
0.750769 0.254590 0.243943
0.773917 0.256482 0.245892
0.797152 0.258382 0.247849
0.812374 0.259609 0.249139
0.812387 0.259560 0.249164
0.812401 0.259512 0.249189
0.181146 0.230781 0.201021
0.199501 0.232258 0.202564
0.218296 0.233773 0.204143
0.237466 0.235319 0.205754
0.256964 0.236894 0.207392
0.276754 0.238494 0.209055
0.296808 0.240116 0.210740
0.317102 0.241759 0.212446
0.337617 0.243421 0.214170
0.358337 0.245101 0.215912
0.379249 0.246797 0.217670
0.400339 0.248509 0.219443
0.421599 0.250235 0.221230
0.443018 0.251975 0.223031
0.464589 0.253729 0.224846
0.486303 0.255495 0.226672
0.508155 0.257272 0.228510
0.530139 0.259062 0.230360
0.552248 0.260862 0.232220
0.574479 0.262674 0.234091
0.596826 0.264495 0.235972
0.619285 0.266326 0.237862
0.641853 0.268167 0.239762
0.664525 0.270017 0.241671
0.687298 0.271877 0.243588
0.710170 0.273745 0.245515
0.733137 0.275621 0.247449
0.756197 0.277506 0.249392
0.779346 0.279398 0.251342
0.802583 0.281299 0.253300
0.817807 0.282527 0.254591
0.817822 0.282480 0.254617
0.817838 0.282433 0.254643
0.186631 0.254085 0.206531
0.204986 0.255562 0.208074
0.223782 0.257076 0.209655
0.242953 0.258623 0.211267
0.262452 0.260197 0.212907
0.282243 0.261797 0.214571
0.302298 0.263419 0.216257
0.322593 0.265061 0.217964
0.343109 0.266723 0.219690
0.363831 0.268403 0.221432
0.384744 0.270099 0.223192
0.405836 0.271811 0.224966
0.427097 0.273537 0.226755
0.448517 0.275278 0.228557
0.470089 0.277031 0.230373
0.491805 0.278797 0.232200
0.513659 0.280575 0.234040
0.535644 0.282365 0.235891
0.557755 0.284166 0.237752
0.579988 0.285978 0.239624
0.602336 0.287799 0.241507
0.624797 0.289631 0.243398
0.647367 0.291473 0.245299
0.670041 0.293323 0.247210
0.692816 0.295183 0.249129
0.715690 0.297052 0.251056
0.738659 0.298929 0.252992
0.761721 0.300814 0.254936
0.784872 0.302708 0.256888
0.808112 0.304609 0.258847
0.823337 0.305839 0.260139
0.823354 0.305792 0.260166
0.823370 0.305747 0.260192
0.192199 0.277734 0.212126
0.210556 0.279210 0.213671
0.229353 0.280725 0.215252
0.248525 0.282271 0.216866
0.268025 0.283845 0.218507
0.287817 0.285445 0.220172
0.307873 0.287067 0.221860
0.328169 0.288709 0.223568
0.348687 0.290371 0.225295
0.369410 0.292051 0.227039
0.390324 0.293748 0.228799
0.411417 0.295459 0.230575
0.432679 0.297186 0.232365
0.454102 0.298927 0.234169
0.475675 0.300681 0.235986
0.497393 0.302447 0.237815
0.519248 0.304226 0.239655
0.541235 0.306016 0.241508
0.563348 0.307818 0.243371
0.585582 0.309630 0.245244
0.607933 0.311452 0.247127
0.630395 0.313285 0.249020
0.652967 0.315127 0.250923
0.675643 0.316978 0.252834
0.698420 0.318839 0.254755
0.721296 0.320708 0.256684
0.744267 0.322586 0.258621
0.767331 0.324473 0.260566
0.790485 0.326367 0.262519
0.813726 0.328270 0.264480
0.828954 0.329501 0.265773
0.828972 0.329456 0.265800
0.828990 0.329412 0.265828
0.197844 0.301693 0.217799
0.216202 0.303170 0.219345
0.235000 0.304684 0.220928
0.254173 0.306230 0.222542
0.273674 0.307805 0.224184
0.293467 0.309404 0.225851
0.313525 0.311026 0.227540
0.333822 0.312670 0.229250
0.354341 0.314332 0.230978
0.375065 0.316012 0.232723
0.395981 0.317709 0.234485
0.417076 0.319421 0.236262
0.438340 0.321148 0.238053
0.459763 0.322889 0.239858
0.481338 0.324644 0.241676
0.503058 0.326411 0.243507
0.524915 0.328190 0.245349
0.546903 0.329981 0.247202
0.569018 0.331784 0.249067
0.591254 0.333597 0.250941
0.613607 0.335420 0.252826
0.636071 0.337253 0.254720
0.658645 0.339096 0.256624
0.681323 0.340949 0.258537
0.704102 0.342811 0.260459
0.726980 0.344681 0.262389
0.749954 0.346560 0.264327
0.773020 0.348448 0.266274
0.796176 0.350344 0.268228
0.819420 0.352248 0.270190
0.834649 0.353480 0.271485
0.834669 0.353437 0.271513
0.834688 0.353395 0.271541
0.203558 0.325936 0.223543
0.221917 0.327412 0.225090
0.240716 0.328927 0.226675
0.259891 0.330474 0.228290
0.279393 0.332048 0.229934
0.299188 0.333648 0.231602
0.319246 0.335271 0.233292
0.339545 0.336915 0.235003
0.360066 0.338578 0.236732
0.380791 0.340258 0.238479
0.401708 0.341956 0.240242
0.422805 0.343669 0.242020
0.444070 0.345397 0.243813
0.465496 0.347138 0.245619
0.487073 0.348894 0.247439
0.508794 0.350662 0.249270
0.530653 0.352442 0.251114
0.552643 0.354234 0.252969
0.574760 0.356037 0.254834
0.596998 0.357851 0.256710
0.619352 0.359676 0.258596
0.641819 0.361510 0.260492
0.664394 0.363354 0.262397
0.687075 0.365208 0.264311
0.709856 0.367071 0.266234
0.732737 0.368943 0.268166
0.755712 0.370824 0.270106
0.778781 0.372713 0.272054
0.801939 0.374610 0.274009
0.825186 0.376515 0.275973
0.840417 0.377749 0.277268
0.840438 0.377708 0.277297
0.840458 0.377668 0.277326
0.209337 0.350439 0.229353
0.227698 0.351917 0.230902
0.246498 0.353432 0.232488
0.265674 0.354979 0.234105
0.285177 0.356554 0.235749
0.304973 0.358155 0.237419
0.325033 0.359778 0.239110
0.345334 0.361423 0.240822
0.365856 0.363086 0.242553
0.386583 0.364768 0.244301
0.407501 0.366466 0.246065
0.428599 0.368180 0.247845
0.449867 0.369909 0.249639
0.471294 0.371652 0.251447
0.492872 0.373408 0.253267
0.514595 0.375177 0.255100
0.536456 0.376958 0.256945
0.558449 0.378752 0.258801
0.580567 0.380556 0.260668
0.602807 0.382371 0.262545
0.625164 0.384197 0.264433
0.647633 0.386033 0.266330
0.670210 0.387879 0.268236
0.692893 0.389734 0.270152
0.715677 0.391598 0.272076
0.738559 0.393472 0.274009
0.761537 0.395354 0.275950
0.784608 0.397245 0.277899
0.807769 0.399144 0.279856
0.831018 0.401051 0.281821
0.846252 0.402287 0.283118
0.846274 0.402248 0.283148
0.846296 0.402210 0.283177
0.215177 0.375186 0.235225
0.233538 0.376664 0.236775
0.252340 0.378179 0.238362
0.271517 0.379727 0.239980
0.291022 0.381304 0.241626
0.310819 0.382905 0.243297
0.330881 0.384530 0.244990
0.351183 0.386175 0.246703
0.371706 0.387839 0.248435
0.392435 0.389522 0.250184
0.413355 0.391221 0.251950
0.434455 0.392936 0.253731
0.455724 0.394666 0.255526
0.477153 0.396411 0.257335
0.498733 0.398168 0.259157
0.520458 0.399939 0.260992
0.542321 0.401721 0.262838
0.564315 0.403516 0.264695
0.586436 0.405322 0.266563
0.608678 0.407138 0.268442
0.631037 0.408966 0.270331
0.653508 0.410803 0.272229
0.676088 0.412651 0.274137
0.698773 0.414508 0.276054
0.721559 0.416374 0.277979
0.744444 0.418249 0.279914
0.767425 0.420133 0.281856
0.790498 0.422026 0.283807
0.813661 0.423927 0.285765
0.836913 0.425836 0.287731
0.852149 0.427074 0.289029
0.852172 0.427038 0.289060
0.852196 0.427002 0.289090
0.221072 0.400159 0.241155
0.239435 0.401638 0.242706
0.258238 0.403155 0.244294
0.277416 0.404704 0.245914
0.296923 0.406281 0.247561
0.316722 0.407884 0.249233
0.336785 0.409509 0.250927
0.357088 0.411155 0.252642
0.377613 0.412821 0.254375
0.398344 0.414505 0.256126
0.419266 0.416206 0.257893
0.440367 0.417922 0.259675
0.461638 0.419654 0.261472
0.483069 0.421399 0.263282
0.504652 0.423158 0.265105
0.526379 0.424930 0.266941
0.548243 0.426715 0.268788
0.570240 0.428511 0.270647
0.592363 0.430319 0.272517
0.614607 0.432137 0.274397
0.636968 0.433966 0.276287
0.659441 0.435806 0.278186
0.682023 0.437655 0.280096
0.704711 0.439514 0.282014
0.727500 0.441382 0.283941
0.750387 0.443260 0.285876
0.773370 0.445146 0.287820
0.796446 0.447041 0.289772
0.819612 0.448944 0.291732
0.842866 0.450855 0.293699
0.858105 0.452096 0.294999
0.858129 0.452062 0.295030
0.858154 0.452029 0.295061
0.227020 0.425346 0.247140
0.245384 0.426826 0.248692
0.264189 0.428344 0.250281
0.283369 0.429894 0.251902
0.302877 0.431473 0.253551
0.322678 0.433076 0.255224
0.342742 0.434703 0.256919
0.363047 0.436351 0.258635
0.383574 0.438019 0.260370
0.404306 0.439704 0.262122
0.425230 0.441406 0.263890
0.446334 0.443124 0.265673
0.467607 0.444857 0.267471
0.489039 0.446605 0.269283
0.510624 0.448366 0.271108
0.532353 0.450139 0.272945
0.554220 0.451926 0.274793
0.576218 0.453724 0.276653
0.598343 0.455533 0.278524
0.620590 0.457354 0.280406
0.642953 0.459185 0.282297
0.665429 0.461027 0.284198
0.688014 0.462878 0.286109
0.710703 0.464739 0.288028
0.733495 0.466610 0.289957
0.756385 0.468489 0.291893
0.779370 0.470378 0.293839
0.802449 0.472275 0.295792
0.825618 0.474181 0.297753
0.848875 0.476095 0.299722
0.864116 0.477338 0.301022
0.864142 0.477307 0.301054
0.864168 0.477277 0.301086
0.233019 0.450734 0.253175
0.251384 0.452216 0.254729
0.270190 0.453735 0.256320
0.289372 0.455287 0.257942
0.308881 0.456867 0.259592
0.328684 0.458473 0.261266
0.348750 0.460101 0.262963
0.369057 0.461751 0.264680
0.389585 0.463420 0.266416
0.410320 0.465107 0.268169
0.431245 0.466811 0.269939
0.452351 0.468531 0.271724
0.473626 0.470266 0.273523
0.495060 0.472015 0.275336
0.516647 0.473778 0.277162
0.538378 0.475554 0.279000
0.560247 0.477342 0.280850
0.582248 0.479143 0.282711
0.604376 0.480954 0.284584
0.626624 0.482777 0.286466
0.648990 0.484611 0.288359
0.671469 0.486455 0.290262
0.694056 0.488308 0.292173
0.716748 0.490172 0.294094
0.739542 0.492045 0.296024
0.762435 0.493927 0.297962
0.785423 0.495819 0.299909
0.808504 0.497718 0.301863
0.831676 0.499627 0.303826
0.854936 0.501544 0.305796
0.870179 0.502790 0.307098
0.870206 0.502762 0.307130
0.870234 0.502735 0.307163
0.239064 0.476314 0.259260
0.257432 0.477797 0.260815
0.276239 0.479319 0.262407
0.295422 0.480872 0.264030
0.314934 0.482454 0.265682
0.334738 0.484061 0.267357
0.354806 0.485692 0.269055
0.375114 0.487343 0.270774
0.395645 0.489014 0.272511
0.416381 0.490704 0.274266
0.437309 0.492410 0.276036
0.458416 0.494132 0.277823
0.479693 0.495869 0.279623
0.501130 0.497621 0.281438
0.522719 0.499386 0.283265
0.544452 0.501164 0.285104
0.566324 0.502955 0.286956
0.588327 0.504757 0.288819
0.610457 0.506572 0.290692
0.632708 0.508397 0.292576
0.655076 0.510233 0.294470
0.677557 0.512080 0.296374
0.700147 0.513936 0.298287
0.722842 0.515802 0.300209
0.745639 0.517678 0.302140
0.768534 0.519563 0.304080
0.791525 0.521457 0.306028
0.814609 0.523360 0.307984
0.837784 0.525272 0.309948
0.861047 0.527191 0.311919
0.876292 0.528441 0.313222
0.876321 0.528416 0.313256
0.876350 0.528393 0.313290
0.245156 0.502077 0.265392
0.263524 0.503562 0.266948
0.282333 0.505086 0.268541
0.301518 0.506641 0.270166
0.321031 0.508225 0.271818
0.340837 0.509835 0.273495
0.360907 0.511467 0.275195
0.381218 0.513121 0.276914
0.401750 0.514794 0.278653
0.422488 0.516486 0.280409
0.443418 0.518194 0.282181
0.464528 0.519918 0.283969
0.485807 0.521658 0.285771
0.507246 0.523412 0.287586
0.528837 0.525180 0.289415
0.550573 0.526961 0.291256
0.572447 0.528754 0.293108
0.594452 0.530559 0.294972
0.616585 0.532376 0.296847
0.638838 0.534205 0.298733
0.661209 0.536043 0.300628
0.683693 0.537893 0.302533
0.706285 0.539752 0.304448
0.728983 0.541622 0.306371
0.751782 0.543501 0.308304
0.774681 0.545389 0.310245
0.797675 0.547286 0.312194
0.820762 0.549192 0.314151
0.843939 0.551107 0.316116
0.867205 0.553030 0.318089
0.882453 0.554282 0.319393
0.882484 0.554261 0.319428
0.882514 0.554242 0.319462
0.251290 0.528015 0.271568
0.269660 0.529503 0.273126
0.288471 0.531028 0.274720
0.307658 0.532586 0.276346
0.327173 0.534172 0.278000
0.346980 0.535784 0.279678
0.367052 0.537419 0.281379
0.387365 0.539075 0.283100
0.407900 0.540751 0.284840
0.428640 0.542445 0.286597
0.449572 0.544156 0.288370
0.470684 0.545883 0.290159
0.491965 0.547625 0.291962
0.513406 0.549382 0.293779
0.535000 0.551153 0.295609
0.556738 0.552936 0.297452
0.578614 0.554733 0.299306
0.600622 0.556541 0.301171
0.622757 0.558361 0.303047
0.645014 0.560192 0.304934
0.667387 0.562034 0.306831
0.689873 0.563887 0.308737
0.712468 0.565749 0.310653
0.735169 0.567622 0.312578
0.757971 0.569504 0.314512
0.780872 0.571396 0.316454
0.803869 0.573296 0.318405
0.826960 0.575206 0.320363
0.850140 0.577124 0.322330
0.873409 0.579050 0.324304
0.888660 0.580307 0.325609
0.888692 0.580290 0.325645
0.888724 0.580274 0.325680
0.257466 0.554122 0.277788
0.275838 0.555612 0.279346
0.294650 0.557139 0.280942
0.313839 0.558700 0.282569
0.333356 0.560289 0.284224
0.353166 0.561903 0.285904
0.373239 0.563541 0.287606
0.393554 0.565200 0.289328
0.414091 0.566878 0.291069
0.434833 0.568575 0.292828
0.455767 0.570289 0.294603
0.476881 0.572019 0.296393
0.498165 0.573764 0.298197
0.519609 0.575524 0.300016
0.541205 0.577297 0.301847
0.562946 0.579084 0.303690
0.584824 0.580883 0.305546
0.606835 0.582695 0.307413
0.628972 0.584518 0.309290
0.651232 0.586353 0.311178
0.673608 0.588198 0.313076
0.696097 0.590054 0.314984
0.718695 0.591920 0.316901
0.741398 0.593796 0.318828
0.764203 0.595682 0.320763
0.787108 0.597577 0.322706
0.810108 0.599482 0.324658
0.833201 0.601395 0.326618
0.856385 0.603317 0.328586
0.879657 0.605247 0.330562
0.894910 0.606507 0.331868
0.894943 0.606494 0.331904
0.894977 0.606483 0.331941
0.263681 0.580391 0.284048
0.282055 0.581883 0.285608
0.300870 0.583413 0.287205
0.320060 0.584977 0.288833
0.339579 0.586568 0.290490
0.359391 0.588186 0.292171
0.379467 0.589826 0.293874
0.399784 0.591488 0.295597
0.420322 0.593169 0.297340
0.441067 0.594869 0.299100
0.462004 0.596586 0.300876
0.483120 0.598319 0.302667
0.504406 0.600068 0.304473
0.525852 0.601831 0.306293
0.547451 0.603608 0.308126
0.569194 0.605398 0.309970
0.591075 0.607201 0.311827
0.613089 0.609016 0.313695
0.635229 0.610842 0.315574
0.657491 0.612681 0.317464
0.679870 0.614530 0.319363
0.702362 0.616389 0.321272
0.724963 0.618259 0.323191
0.747669 0.620139 0.325118
0.770477 0.622029 0.327055
0.793385 0.623928 0.329000
0.816388 0.625836 0.330953
0.839485 0.627753 0.332915
0.862672 0.629679 0.334884
0.885947 0.631614 0.336861
0.901203 0.632878 0.338168
0.901238 0.632869 0.338205
0.901273 0.632862 0.338242
0.269935 0.606816 0.290348
0.288311 0.608311 0.291909
0.307127 0.609845 0.293508
0.326320 0.611411 0.295137
0.345841 0.613006 0.296795
0.365655 0.614626 0.298477
0.385733 0.616270 0.300182
0.406052 0.617935 0.301907
0.426593 0.619619 0.303650
0.447340 0.621323 0.305412
0.468279 0.623043 0.307189
0.489398 0.624780 0.308982
0.510686 0.626532 0.310789
0.532135 0.628298 0.312610
0.553736 0.630079 0.314444
0.575482 0.631872 0.316290
0.597366 0.633679 0.318148
0.619382 0.635498 0.320018
0.641525 0.637328 0.321898
0.663790 0.639170 0.323789
0.686172 0.641023 0.325690
0.708667 0.642887 0.327600
0.731271 0.644760 0.329520
0.753980 0.646644 0.331449
0.776792 0.648538 0.333387
0.799702 0.650441 0.335333
0.822709 0.652354 0.337288
0.845808 0.654275 0.339251
0.868999 0.656206 0.341221
0.892278 0.658145 0.343199
0.907536 0.659413 0.344508
0.907573 0.659409 0.344546
0.907609 0.659406 0.344584
0.276226 0.633393 0.296687
0.294604 0.634891 0.298249
0.313422 0.636428 0.299849
0.332617 0.637998 0.301480
0.352140 0.639596 0.303139
0.371956 0.641220 0.304822
0.392036 0.642867 0.306528
0.412358 0.644535 0.308254
0.432901 0.646224 0.309999
0.453651 0.647930 0.311762
0.474592 0.649654 0.313541
0.495713 0.651395 0.315335
0.517005 0.653150 0.317143
0.538456 0.654921 0.318966
0.560060 0.656705 0.320801
0.581808 0.658503 0.322648
0.603695 0.660313 0.324508
0.625714 0.662136 0.326379
0.647860 0.663970 0.328260
0.670128 0.665817 0.330152
0.692513 0.667674 0.332054
0.715011 0.669541 0.333966
0.737618 0.671420 0.335888
0.760330 0.673308 0.337818
0.783145 0.675206 0.339757
0.806059 0.677114 0.341705
0.829068 0.679031 0.343661
0.852172 0.680957 0.345625
0.875366 0.682892 0.347597
0.898648 0.684835 0.349576
0.913909 0.686109 0.350886
0.913947 0.686109 0.350925
0.913985 0.686111 0.350964
0.282553 0.660117 0.303062
0.300933 0.661619 0.304626
0.319753 0.663160 0.306227
0.338950 0.664733 0.307859
0.358475 0.666334 0.309519
0.378293 0.667962 0.311204
0.398376 0.669613 0.312911
0.418700 0.671285 0.314639
0.439246 0.672977 0.316385
0.459998 0.674688 0.318149
0.480942 0.676416 0.319929
0.502066 0.678160 0.321725
0.523359 0.679920 0.323534
0.544814 0.681694 0.325358
0.566420 0.683483 0.327195
0.588171 0.685284 0.329044
0.610061 0.687099 0.330904
0.632083 0.688926 0.332776
0.654232 0.690765 0.334659
0.676503 0.692616 0.336553
0.698891 0.694477 0.338456
0.721392 0.696349 0.340370
0.744002 0.698232 0.342292
0.766718 0.700125 0.344224
0.789536 0.702028 0.346164
0.812453 0.703940 0.348113
0.835466 0.705862 0.350071
0.858573 0.707793 0.352036
0.881770 0.709733 0.354010
0.905056 0.711681 0.355991
0.920320 0.712960 0.357302
0.920359 0.712965 0.357341
0.920399 0.712972 0.357381
0.288914 0.686986 0.309474
0.307296 0.688491 0.311039
0.326119 0.690035 0.312641
0.345318 0.691612 0.314274
0.364845 0.693218 0.315936
0.384666 0.694849 0.317622
0.404751 0.696504 0.319330
0.425077 0.698180 0.321059
0.445626 0.699877 0.322807
0.466380 0.701591 0.324572
0.487327 0.703323 0.326354
0.508453 0.705072 0.328150
0.529750 0.706836 0.329962
0.551207 0.708615 0.331786
0.572816 0.710408 0.333624
0.594570 0.712214 0.335475
0.616463 0.714033 0.337337
0.638488 0.715865 0.339210
0.660640 0.717708 0.341094
0.682914 0.719563 0.342989
0.705305 0.721430 0.344894
0.727809 0.723307 0.346809
0.750423 0.725194 0.348733
0.773142 0.727092 0.350666
0.795963 0.729000 0.352608
0.818884 0.730917 0.354558
0.841900 0.732844 0.356517
0.865011 0.734780 0.358484
0.888212 0.736725 0.360458
0.911501 0.738679 0.362441
0.926768 0.739962 0.363753
0.926809 0.739973 0.363793
0.926850 0.739985 0.363834
0.295309 0.713994 0.315920
0.313693 0.715504 0.317486
0.332518 0.717052 0.319089
0.351719 0.718633 0.320724
0.371249 0.720242 0.322387
0.391072 0.721878 0.324075
0.411160 0.723537 0.325784
0.431489 0.725218 0.327514
0.452040 0.726918 0.329263
0.472797 0.728637 0.331030
0.493746 0.730374 0.332813
0.514876 0.732127 0.334611
0.536175 0.733896 0.336423
0.557635 0.735679 0.338250
0.579247 0.737477 0.340089
0.601004 0.739288 0.341940
0.622900 0.741112 0.343804
0.644928 0.742948 0.345679
0.667083 0.744796 0.347564
0.689360 0.746656 0.349461
0.711754 0.748528 0.351367
0.734262 0.750410 0.353283
0.756879 0.752303 0.355208
0.779601 0.754205 0.357142
0.802426 0.756118 0.359086
0.825350 0.758041 0.361037
0.848371 0.759973 0.362997
0.871484 0.761914 0.364966
0.894689 0.763865 0.366942
0.917982 0.765824 0.368925
0.933253 0.767113 0.370239
0.933295 0.767130 0.370280
0.933337 0.767147 0.370321
0.301737 0.741139 0.322400
0.320123 0.742653 0.323967
0.338950 0.744205 0.325572
0.358154 0.745791 0.327208
0.377686 0.747405 0.328872
0.397512 0.749045 0.330561
0.417602 0.750709 0.332272
0.437933 0.752394 0.334004
0.458487 0.754099 0.335754
0.479247 0.755823 0.337522
0.500199 0.757564 0.339306
0.521331 0.759322 0.341105
0.542633 0.761095 0.342919
0.564096 0.762884 0.344747
0.585711 0.764686 0.346587
0.607472 0.766502 0.348440
0.629371 0.768331 0.350305
0.651402 0.770173 0.352181
0.673560 0.772026 0.354068
0.695840 0.773892 0.355966
0.718238 0.775768 0.357873
0.740749 0.777656 0.359790
0.763369 0.779554 0.361717
0.786095 0.781462 0.363653
0.808924 0.783381 0.365597
0.831851 0.785309 0.367551
0.854875 0.787246 0.369512
0.877993 0.789193 0.371482
0.901201 0.791150 0.373459
0.924498 0.793115 0.375444
0.939772 0.794410 0.376759
0.939816 0.794432 0.376801
0.939860 0.794455 0.376843
0.308196 0.768418 0.328913
0.326585 0.769937 0.330482
0.345415 0.771494 0.332087
0.364620 0.773084 0.333725
0.384155 0.774703 0.335390
0.403983 0.776347 0.337080
0.424076 0.778016 0.338793
0.444410 0.779706 0.340525
0.464967 0.781416 0.342277
0.485729 0.783145 0.344046
0.506684 0.784891 0.345832
0.527819 0.786654 0.347632
0.549125 0.788433 0.349448
0.570590 0.790226 0.351277
0.592209 0.792034 0.353118
0.613972 0.793855 0.354973
0.635874 0.795690 0.356839
0.657909 0.797536 0.358716
0.680070 0.799396 0.360605
0.702354 0.801266 0.362503
0.724755 0.803148 0.364412
0.747270 0.805041 0.366331
0.769893 0.806945 0.368259
0.792623 0.808859 0.370196
0.815455 0.810784 0.372142
0.838386 0.812718 0.374097
0.861414 0.814661 0.376059
0.884535 0.816614 0.378030
0.907748 0.818576 0.380009
0.931049 0.820547 0.381995
0.946257 0.821848 0.383311
0.946301 0.821877 0.383354
0.946346 0.821906 0.383397
0.314687 0.795829 0.335458
0.333078 0.797352 0.337028
0.351910 0.798914 0.338635
0.371118 0.800509 0.340274
0.390656 0.802133 0.341940
0.410486 0.803783 0.343632
0.430582 0.805456 0.345345
0.450919 0.807152 0.347079
0.471478 0.808867 0.348832
0.492243 0.810601 0.350603
0.513201 0.812353 0.352389
0.534340 0.814121 0.354192
0.555648 0.815905 0.356008
0.577117 0.817704 0.357838
0.598738 0.819517 0.359682
0.620505 0.821344 0.361537
0.642410 0.823184 0.363405
0.664448 0.825036 0.365284
0.686613 0.826901 0.367173
0.708900 0.828778 0.369073
0.731305 0.830666 0.370984
0.753823 0.832565 0.372904
0.776450 0.834474 0.374833
0.799184 0.836395 0.376771
0.822019 0.838325 0.378719
0.844954 0.840265 0.380675
0.867986 0.842215 0.382639
0.891111 0.844174 0.384611
0.914327 0.846142 0.386591
0.937632 0.848120 0.388579
0.952532 0.849427 0.389896
0.952573 0.849462 0.389940
0.952613 0.849498 0.389983
0.321207 0.823369 0.342034
0.339601 0.824897 0.343605
0.358435 0.826464 0.345213
0.377646 0.828065 0.346854
0.397187 0.829694 0.348521
0.417020 0.831349 0.350214
0.437118 0.833028 0.351929
0.457458 0.834728 0.353664
0.478020 0.836449 0.355419
0.498788 0.838189 0.357190
0.519749 0.839946 0.358979
0.540891 0.841720 0.360782
0.562202 0.843510 0.362600
0.583674 0.845314 0.364431
0.605299 0.847133 0.366276
0.627069 0.848966 0.368133
0.648978 0.850812 0.370002
0.671019 0.852670 0.371882
0.693187 0.854541 0.373773
0.715478 0.856424 0.375674
