library/cube/Series_Glow_003.cube
# CINEGRADE LAB — Premium Cinematic LUT
# Title: Series Glow
# Category: Netflix Inspired
# Description: Cinematic teal/orange with filmic qualities inspired by streaming content
# Mood: Cinematic, binge-worthy, polished
# Variant: 4
# Generated: 2026-05-21T16:12:43.951060
TITLE "Series Glow"
LUT_3D_SIZE 9
0.001379 0.014617 0.013734
0.027713 0.014394 0.013567
0.146588 0.016760 0.015983
0.268531 0.019252 0.018518
0.393368 0.021864 0.021168
0.520931 0.024590 0.023927
0.651055 0.027426 0.026791
0.783110 0.030354 0.029741
0.819113 0.030677 0.030081
0.005122 0.057177 0.014832
0.032659 0.057064 0.014811
0.156465 0.059644 0.017474
0.282961 0.062341 0.020245
0.411983 0.065149 0.023120
0.543374 0.068064 0.026093
0.676982 0.071079 0.029160
0.811235 0.074153 0.032276
0.846593 0.074543 0.032702
0.017966 0.202883 0.025254
0.046554 0.202780 0.025362
0.174663 0.205468 0.028244
0.305108 0.208271 0.031223
0.437737 0.211184 0.034296
0.572406 0.214202 0.037456
0.708972 0.217321 0.040701
0.844232 0.220451 0.043941
0.878754 0.220855 0.044438
0.030898 0.348059 0.035971
0.060408 0.348025 0.036206
0.192246 0.350867 0.039291
0.326092 0.353821 0.042463
0.461806 0.356884 0.045718
0.599254 0.360051 0.049052
0.738306 0.363316 0.052461
0.873372 0.366526 0.055790
0.906903 0.366993 0.056353
0.043944 0.493028 0.046995
0.074257 0.493117 0.047353
0.209293 0.496153 0.050625
0.346034 0.499301 0.053974
0.484354 0.502554 0.057398
0.624128 0.505908 0.060891
0.765239 0.509360 0.064450
0.898949 0.512666 0.067833
0.931366 0.513242 0.068456
0.057131 0.638088 0.058333
0.088136 0.638348 0.058808
0.225882 0.641616 0.062252
0.365058 0.644991 0.065764
0.505547 0.648470 0.069341
0.647241 0.652047 0.072979
0.789733 0.655710 0.076665
0.921322 0.659134 0.080078
0.952534 0.659856 0.080753
0.070483 0.783510 0.069986
0.102079 0.783982 0.070573
0.242091 0.787513 0.074172
0.383286 0.791146 0.077832
0.525560 0.794879 0.081547
0.668817 0.798706 0.085315
0.811932 0.802595 0.089104
0.940912 0.806158 0.092527
0.970858 0.807056 0.093247
0.083620 0.924945 0.081552
0.115733 0.925853 0.082260
0.257630 0.929808 0.086012
0.400487 0.933814 0.089811
0.544217 0.937868 0.093654
0.688740 0.941967 0.097538
0.832141 0.946057 0.101408
0.957825 0.949680 0.104808
0.986470 0.950652 0.105553
0.088219 0.966656 0.084681
0.120727 0.967550 0.085460
0.264128 0.971496 0.089308
0.408304 0.975464 0.093194
0.553187 0.979452 0.097114
0.698714 0.983457 0.101066
0.842204 0.987407 0.104974
0.963986 0.990759 0.108296
0.991323 0.991511 0.109028
0.001907 0.014847 0.071979
0.028368 0.014640 0.071673
0.147769 0.017034 0.073964
0.270199 0.019551 0.076377
0.395484 0.022187 0.078905
0.523459 0.024937 0.081545
0.653959 0.027796 0.084291
0.786287 0.030743 0.087123
0.822233 0.031075 0.087338
0.005660 0.057429 0.072608
0.033310 0.057332 0.072458
0.157578 0.059938 0.075004
0.284498 0.062660 0.077660
0.413909 0.065491 0.080421
0.545656 0.068428 0.083281
0.679585 0.071465 0.086237
0.813994 0.074555 0.089240
0.849275 0.074955 0.089549
0.018513 0.203123 0.082591
0.047200 0.203039 0.082578
0.175710 0.205754 0.085350
0.306522 0.208583 0.088221
0.439486 0.211521 0.091186
0.574457 0.214563 0.094241
0.711294 0.217704 0.097381
0.846590 0.220850 0.100511
0.881017 0.221265 0.100897
0.031455 0.348309 0.092899
0.061051 0.348297 0.093021
0.193235 0.351166 0.096002
0.327395 0.354148 0.099071
0.463393 0.357236 0.102225
0.601096 0.360428 0.105458
0.740373 0.363717 0.108767
0.875353 0.366941 0.111989
0.908776 0.367422 0.112446
0.044514 0.493308 0.103541
0.074900 0.493420 0.103792
0.210231 0.496485 0.106965
0.347238 0.499660 0.110217
0.485795 0.502940 0.113543
0.625780 0.506320 0.116940
0.767076 0.509796 0.120403
0.900587 0.513115 0.123681
0.932885 0.513705 0.124201
0.057715 0.638416 0.114519
0.088783 0.638700 0.114893
0.226777 0.641998 0.118241
0.366173 0.645401 0.121659
0.506859 0.648906 0.125142
0.648725 0.652509 0.128686
0.791298 0.656194 0.132278
0.922657 0.659632 0.135587
0.953742 0.660369 0.136162
0.071082 0.783901 0.125830
0.102732 0.784399 0.126319
0.242950 0.787958 0.129827
0.384326 0.791620 0.133394
0.526760 0.795379 0.137017
0.670156 0.799232 0.140693
0.813312 0.803142 0.144387
0.941987 0.806717 0.147706
0.971802 0.807630 0.148326
0.084242 0.925482 0.137073
0.116398 0.926399 0.137685
0.258462 0.930366 0.141344
0.401466 0.934383 0.145050
0.545324 0.938448 0.148799
0.689958 0.942556 0.152589
0.833374 0.946653 0.156363
0.958689 0.950272 0.159655
0.987202 0.951246 0.160297
0.088850 0.967184 0.139872
0.121394 0.968078 0.140554
0.264929 0.972028 0.144309
0.409224 0.975998 0.148100
0.554211 0.979988 0.151924
0.699829 0.983995 0.155778
0.843326 0.987943 0.159586
0.964687 0.991283 0.162794
0.991897 0.992031 0.163419
0.003163 0.015809 0.206577
0.029748 0.015617 0.205935
0.149667 0.018035 0.207906
0.272575 0.020576 0.210005
0.398301 0.023235 0.212226
0.526680 0.026006 0.214563
0.657548 0.028885 0.217011
0.790135 0.031850 0.219549
0.826021 0.032190 0.219466
0.006921 0.058406 0.206087
0.034680 0.058324 0.205622
0.159402 0.060954 0.207869
0.286739 0.063699 0.210232
0.416532 0.066552 0.212703
0.548626 0.069509 0.215280
0.682870 0.072565 0.217956
0.817421 0.075670 0.220681
0.852622 0.076078 0.220709
0.019776 0.204084 0.215021
0.048559 0.204018 0.214714
0.177464 0.206758 0.217206
0.308636 0.209611 0.219801
0.441928 0.212572 0.222494
0.577194 0.215635 0.225282
0.714296 0.218797 0.228158
0.849612 0.221957 0.231023
0.883943 0.222383 0.231145
0.032723 0.349276 0.224349
0.062403 0.349283 0.224195
0.194926 0.352179 0.226912
0.329394 0.355185 0.229721
0.465669 0.358298 0.232618
0.603620 0.361512 0.235599
0.743118 0.364823 0.238658
0.877998 0.368060 0.241625
0.911311 0.368553 0.241830
0.045789 0.494300 0.234072
0.076248 0.494434 0.234062
0.211867 0.497526 0.236985
0.349133 0.500727 0.239990
0.487922 0.504032 0.243072
0.628112 0.507435 0.246227
0.769588 0.510933 0.249451
0.902888 0.514264 0.252481
0.935065 0.514868 0.252759
0.059000 0.639452 0.244181
0.090129 0.639759 0.244308
0.228365 0.643084 0.247417
0.367977 0.646514 0.250598
0.508853 0.650044 0.253846
0.650886 0.653670 0.257157
0.793535 0.657376 0.260515
0.924654 0.660826 0.263583
0.955610 0.661577 0.263921
0.072378 0.784996 0.254666
0.104079 0.785518 0.254918
0.244497 0.789104 0.258194
0.386050 0.792792 0.261531
0.528639 0.796576 0.264925
0.672170 0.800453 0.268372
0.815362 0.804384 0.271835
0.943726 0.807968 0.274915
0.973408 0.808896 0.275300
0.085556 0.926712 0.265119
0.117754 0.927637 0.265497
0.259979 0.931614 0.268928
0.403125 0.935642 0.272405
0.547108 0.939715 0.275926
0.691849 0.943832 0.279486
0.835277 0.947934 0.283028
0.960216 0.951547 0.286076
0.988596 0.952522 0.286479
0.090169 0.968399 0.267130
0.122746 0.969292 0.267581
0.266412 0.973242 0.271106
0.410821 0.977214 0.274666
0.555909 0.981204 0.278258
0.701617 0.985211 0.281879
0.845119 0.989158 0.285448
0.966054 0.992484 0.288403
0.993135 0.993226 0.288780
0.004418 0.016774 0.340938
0.031126 0.016595 0.339963
0.151556 0.019038 0.341620
0.274936 0.021603 0.343410
0.401097 0.024284 0.345327
0.529874 0.027077 0.347366
0.661104 0.029976 0.349520
0.793940 0.032957 0.351768
0.829763 0.033306 0.351391
0.008182 0.059387 0.339344
0.036048 0.059319 0.338569
0.161218 0.061973 0.340521
0.288966 0.064740 0.342594
0.419136 0.067614 0.344781
0.551572 0.070592 0.347077
0.686124 0.073667 0.349478
0.820806 0.076786 0.351927
0.855925 0.077203 0.351679
0.021040 0.205049 0.347244
0.049917 0.205000 0.346647
0.179210 0.207765 0.348862
0.310737 0.210642 0.351185
0.444351 0.213626 0.353610
0.579908 0.216711 0.356134
0.717271 0.219893 0.358750
0.852595 0.223067 0.361352
0.886827 0.223503 0.361212
0.033992 0.350248 0.355605
0.063753 0.350274 0.355178
0.196610 0.353196 0.357634
0.331381 0.356228 0.360187
0.467928 0.359364 0.362830
0.606123 0.362601 0.365560
0.745837 0.365934 0.368372
0.880606 0.369183 0.371086
0.913807 0.369688 0.371042
0.047065 0.495299 0.364419
0.077595 0.495453 0.364153
0.213497 0.498573 0.366828
0.351018 0.501799 0.369588
0.490033 0.505128 0.372428
0.630425 0.508555 0.375344
0.772078 0.512076 0.378330
0.905156 0.515417 0.381115
0.937211 0.516034 0.381152
0.060286 0.640494 0.373671
0.091475 0.640824 0.373552
0.229947 0.644176 0.376424
0.369771 0.647632 0.379370
0.510834 0.651187 0.382384
0.653031 0.654837 0.385463
0.795751 0.658564 0.388588
0.926622 0.662024 0.391417
0.957449 0.662789 0.391519
0.073675 0.786098 0.383336
0.105426 0.786644 0.383352
0.246040 0.790257 0.386398
0.387766 0.793971 0.389506
0.530507 0.797779 0.392671
0.674170 0.801679 0.395890
0.817395 0.805630 0.399124
0.945440 0.809224 0.401963
0.974990 0.810165 0.402114
0.086870 0.927944 0.393003
0.119108 0.928876 0.393149
0.261492 0.932864 0.396351
0.404777 0.936901 0.399600
0.548881 0.940983 0.402892
0.693728 0.945108 0.406223
0.837166 0.949215 0.409532
0.961724 0.952822 0.412335
0.989970 0.953797 0.412499
0.091488 0.969612 0.394228
0.124098 0.970504 0.394447
0.267891 0.974456 0.397743
0.412413 0.978428 0.401072
0.557599 0.982419 0.404431
0.703396 0.986426 0.407816
0.846904 0.990371 0.411146
0.967408 0.993682 0.413846
0.994361 0.994419 0.413972
0.005673 0.017741 0.475065
0.032501 0.017577 0.473762
0.153436 0.020044 0.475109
0.277283 0.022632 0.476594
0.403872 0.025336 0.478211
0.533041 0.028149 0.479955
0.664628 0.031068 0.481821
0.797701 0.034066 0.483781
0.833459 0.034423 0.483115
0.009442 0.060370 0.472382
0.037415 0.060317 0.471301
0.163026 0.062994 0.472962
0.291180 0.065783 0.474749
0.421720 0.068679 0.476655
0.554492 0.071677 0.478674
0.689349 0.074771 0.480803
0.824148 0.077904 0.482980
0.859183 0.078328 0.482459
0.022303 0.206018 0.479262
0.051273 0.205986 0.478378
0.180949 0.208776 0.480320
0.312826 0.211677 0.482374
0.446756 0.214683 0.484535
0.582599 0.217790 0.486798
0.720218 0.220993 0.489157
0.855537 0.224179 0.491499
0.889669 0.224625 0.491101
0.035260 0.351224 0.486669
0.065103 0.351270 0.485973
0.198288 0.354218 0.488171
0.333356 0.357274 0.490469
0.470172 0.360434 0.492862
0.608605 0.363694 0.495344
0.748531 0.367048 0.497911
0.883178 0.370309 0.500375
0.916265 0.370825 0.500083
0.048342 0.496302 0.494586
0.078940 0.496478 0.494064
0.215121 0.499624 0.496495
0.352892 0.502876 0.499012
0.492131 0.506230 0.501613
0.632719 0.509680 0.504291
0.774545 0.513222 0.507042
0.907391 0.516574 0.509582
0.939323 0.517204 0.509380
0.061572 0.641543 0.502987
0.092820 0.641896 0.502626
0.231525 0.645274 0.505263
0.371556 0.648756 0.507975
0.512803 0.652336 0.510758
0.655160 0.656009 0.513606
0.797946 0.659756 0.516499
0.928561 0.663227 0.519089
0.959259 0.664006 0.518956
0.074972 0.787207 0.511841
0.106773 0.787776 0.511622
0.247579 0.791416 0.514439
0.389475 0.795155 0.517319
0.532364 0.798988 0.520257
0.676156 0.802911 0.523248
0.819411 0.806881 0.526252
0.947130 0.810484 0.528852
0.976547 0.811439 0.528767
0.088185 0.929178 0.520725
0.120462 0.930117 0.520639
0.263001 0.934115 0.523614
0.406423 0.938161 0.526635
0.550645 0.942252 0.529699
0.695595 0.946385 0.532800
0.839043 0.950497 0.535875
0.963214 0.954098 0.538432
0.991327 0.955073 0.538355
0.092807 0.970824 0.521166
0.125448 0.971714 0.521154
0.269366 0.975667 0.524219
0.413998 0.979640 0.527316
0.559282 0.983632 0.530442
0.705166 0.987639 0.533590
0.848681 0.991582 0.536678
0.968749 0.994879 0.539121
0.995577 0.995610 0.538993
0.006928 0.018710 0.608959
0.033875 0.018560 0.607333
0.155308 0.021052 0.608374
0.279614 0.023664 0.609558
0.406626 0.026389 0.610880
0.536181 0.029224 0.612334
0.668120 0.032162 0.613914
0.801417 0.035176 0.615591
0.837109 0.035541 0.614639
0.010701 0.061356 0.605203
0.038780 0.061317 0.603819
0.164826 0.064018 0.605194
0.293380 0.066829 0.606699
0.424284 0.069746 0.608327
0.557388 0.072763 0.610074
0.692544 0.075877 0.611934
0.827449 0.079023 0.613842
0.862398 0.079455 0.613051
0.023566 0.206991 0.611077
0.052628 0.206976 0.609911
0.182682 0.209791 0.611583
0.314902 0.212715 0.613371
0.449144 0.215743 0.615271
0.585268 0.218871 0.617276
0.723137 0.222095 0.619381
0.858441 0.225293 0.621465
0.892471 0.225749 0.620811
0.036529 0.352206 0.617541
0.066451 0.352271 0.616580
0.199960 0.355244 0.618523
0.335320 0.358325 0.620570
0.472399 0.361509 0.622715
0.611067 0.364790 0.624952
0.751200 0.368165 0.627276
0.885713 0.371438 0.629491
0.918686 0.371966 0.628954
0.049618 0.497312 0.624572
0.080285 0.497509 0.623799
0.216739 0.500681 0.625987
0.354756 0.503958 0.628265
0.494213 0.507336 0.630627
0.634995 0.510809 0.633070
0.776990 0.514373 0.635587
0.909593 0.517735 0.637884
0.941402 0.518378 0.637444
0.062858 0.642598 0.632133
0.094164 0.642973 0.631531
0.233098 0.646378 0.633934
0.373332 0.649885 0.636415
0.514758 0.653489 0.638967
0.657272 0.657186 0.641586
0.800120 0.660953 0.644249
0.930472 0.664435 0.646599
0.961040 0.665227 0.646232
0.076270 0.788322 0.640181
0.108119 0.788914 0.639729
0.249113 0.792581 0.642318
0.391175 0.796345 0.644970
0.534210 0.800203 0.647682
0.678128 0.804148 0.650446
0.821410 0.808138 0.653220
0.948797 0.811749 0.655580
0.978081 0.812718 0.655261
0.089499 0.930412 0.648286
0.121816 0.931358 0.647970
0.264506 0.935367 0.650717
0.408061 0.939423 0.653510
0.552400 0.943522 0.656345
0.697451 0.947662 0.659216
0.840907 0.951779 0.662057
0.964686 0.955373 0.664367
0.992666 0.956349 0.664047
0.094126 0.972034 0.647945
0.126798 0.972923 0.647700
0.270838 0.976877 0.650534
0.415578 0.980851 0.653399
0.560958 0.984843 0.656289
0.706928 0.988851 0.659200
0.850451 0.992791 0.662044
0.970080 0.996074 0.664227
0.996783 0.996799 0.663842
0.008182 0.019683 0.742623
0.035247 0.019547 0.740679
0.157172 0.022063 0.741418
0.281931 0.024697 0.742306
0.409359 0.027444 0.743336
0.539295 0.030299 0.744504
0.671580 0.033258 0.745802
0.805091 0.036288 0.747199
0.840714 0.036660 0.745965
0.011961 0.062345 0.737809
0.040143 0.062321 0.736128
0.166618 0.065044 0.737220
0.295566 0.067877 0.738446
0.426830 0.070815 0.739801
0.560259 0.073852 0.741278
0.695709 0.076985 0.742873
0.830707 0.080143 0.744514
0.865569 0.080584 0.743457
0.024829 0.207968 0.742690
0.053982 0.207970 0.741245
0.184407 0.210809 0.742651
0.316965 0.213756 0.744178
0.451514 0.216807 0.745819
0.587914 0.219956 0.747569
0.726029 0.223199 0.749423
0.861305 0.226410 0.751253
0.895232 0.226876 0.750345
0.037798 0.353192 0.748225
0.067799 0.353276 0.747001
0.201625 0.356275 0.748693
0.337273 0.359380 0.750491
0.474610 0.362587 0.752390
0.613508 0.365891 0.754385
0.753844 0.369287 0.756469
0.888212 0.372570 0.758438
0.921070 0.373110 0.757657
0.050895 0.498327 0.754380
0.081630 0.498545 0.753357
0.218352 0.501744 0.755305
0.356610 0.505046 0.757345
0.496282 0.508447 0.759473
0.637253 0.511943 0.761681
0.779363 0.515527 0.763965
0.911764 0.518900 0.766022
0.943447 0.519556 0.765345
0.064145 0.643659 0.761109
0.095508 0.644057 0.760268
0.234666 0.647488 0.762439
0.375099 0.651021 0.764690
0.516701 0.654649 0.767013
0.659368 0.658368 0.769404
0.802273 0.662154 0.771836
0.932356 0.665646 0.773949
0.962792 0.666452 0.773348
0.077568 0.789444 0.768357
0.109465 0.790060 0.767673
0.250644 0.793753 0.770035
0.392868 0.797542 0.772462
0.536045 0.801422 0.774946
0.680087 0.805390 0.777485
0.823393 0.809399 0.780029
0.950442 0.813019 0.782149
0.979593 0.814000 0.781593
0.090813 0.931648 0.775686
0.123168 0.932602 0.775140
0.266008 0.936620 0.777660
0.409692 0.940685 0.780226
0.554145 0.944792 0.782831
0.699296 0.948940 0.785471
0.842759 0.953062 0.788077
0.966141 0.956649 0.790139
0.993989 0.957625 0.789574
0.095444 0.973243 0.774563
0.128147 0.974130 0.774085
0.272307 0.978086 0.776689
0.417153 0.982060 0.779320
0.562628 0.986052 0.781973
0.708682 0.990060 0.784644
0.852214 0.993999 0.787242
0.971401 0.997267 0.789162
0.997980 0.997986 0.788517
0.009178 0.020400 0.849063
0.036378 0.020296 0.848683
0.158805 0.022853 0.850923
0.284028 0.025527 0.853238
0.411882 0.028311 0.855623
0.542208 0.031202 0.858073
0.674848 0.034194 0.860583
0.808573 0.037252 0.863119
0.844138 0.037645 0.862948
0.013020 0.063137 0.849208
0.041320 0.063142 0.848847
0.168233 0.065904 0.851198
0.297582 0.068772 0.853612
0.429213 0.071744 0.856085
0.562976 0.074813 0.858612
0.698727 0.077976 0.861188
0.833817 0.081158 0.863740
0.868601 0.081617 0.863524
0.025941 0.208798 0.858239
0.055196 0.208830 0.857880
0.185999 0.211705 0.860313
0.318902 0.214687 0.862798
0.453764 0.217771 0.865333
0.590445 0.220951 0.867910
0.728812 0.224224 0.870528
0.864055 0.227455 0.873051
0.897887 0.227939 0.872775
0.038957 0.354073 0.867151
0.069045 0.354187 0.866790
0.203195 0.357221 0.869288
0.339134 0.360360 0.871828
0.476734 0.363599 0.874407
0.615866 0.366932 0.877021
0.756409 0.370357 0.879664
0.890627 0.373658 0.882123
0.923375 0.374215 0.881778
0.052095 0.499272 0.875948
0.082905 0.499519 0.875579
0.219899 0.502751 0.878125
0.358401 0.506085 0.880704
0.498290 0.509517 0.883312
0.639453 0.513041 0.885944
0.781669 0.516651 0.888595
0.913873 0.520040 0.890957
0.945436 0.520713 0.890536
0.065381 0.644677 0.884630
0.096807 0.645103 0.884245
0.236191 0.648567 0.886822
0.376825 0.652129 0.889422
0.518604 0.655786 0.892042
0.661426 0.659532 0.894678
0.804389 0.663342 0.897303
0.934197 0.666847 0.899551
0.964506 0.667669 0.899043
0.078836 0.790543 0.893188
0.110785 0.791186 0.892779
0.252148 0.794909 0.895369
0.394536 0.798727 0.897973
0.537855 0.802634 0.900588
0.682021 0.806627 0.903210
0.825352 0.810657 0.905791
0.952058 0.814286 0.907896
0.981078 0.815282 0.907291
0.092112 0.932870 0.901243
0.124507 0.933833 0.900805
0.267495 0.937864 0.903393
0.411310 0.941940 0.905981
0.555876 0.946058 0.908568
0.701126 0.950215 0.911151
0.844597 0.954342 0.913659
0.967577 0.957923 0.915576
0.995294 0.958900 0.914842
0.096755 0.974443 0.900303
0.129490 0.975331 0.899790
0.273769 0.979289 0.902321
0.418721 0.983266 0.904843
0.564289 0.987259 0.907354
0.710429 0.991268 0.909850
0.853970 0.995205 0.912242
0.972711 0.998458 0.913918
0.999171 0.999172 0.913016
0.009571 0.020517 0.891857
0.036897 0.020438 0.892387
0.159813 0.023030 0.895505
0.285488 0.025737 0.898654
0.413757 0.028553 0.901832
0.544462 0.031474 0.905032
0.677446 0.034494 0.908251
0.811370 0.037577 0.911452
0.846871 0.037986 0.911899
0.013455 0.063308 0.894884
0.041866 0.063338 0.895292
0.169206 0.066131 0.898379
0.298947 0.069031 0.901489
0.430935 0.072031 0.904617
0.565022 0.075128 0.907759
0.701064 0.078317 0.910911
0.836231 0.081520 0.913995
0.870931 0.081993 0.914269
0.026412 0.208992 0.906326
0.055764 0.209048 0.906602
0.186935 0.211956 0.909637
0.320175 0.214969 0.912686
0.455340 0.218081 0.915745
0.592294 0.221289 0.918810
0.730905 0.224588 0.921877
0.866102 0.227837 0.924807
0.899834 0.228337 0.924901
0.039462 0.354305 0.917207
0.069634 0.354445 0.917351
0.204097 0.357511 0.920324
0.340321 0.360680 0.923303
0.478176 0.363948 0.926284
0.617535 0.367309 0.929264
0.758280 0.370759 0.932239
0.892334 0.374075 0.934988
0.924969 0.374649 0.934901
0.052632 0.499557 0.927551
0.083512 0.499831 0.927566
0.220771 0.503094 0.930468
0.359510 0.506458 0.933368
0.499611 0.509918 0.936264
0.640960 0.513469 0.939151
0.783275 0.517103 0.942023
0.915274 0.520506 0.944568
0.946715 0.521195 0.944302
0.065946 0.645028 0.937384
0.097432 0.645481 0.937271
0.237036 0.648975 0.940093
0.377866 0.652567 0.942906
0.519816 0.656251 0.945709
0.662789 0.660023 0.948498
0.805805 0.663855 0.951245
0.935331 0.667372 0.953579
0.965511 0.668209 0.953136
0.079428 0.790971 0.946728
0.111426 0.791640 0.946488
0.252970 0.795392 0.949221
0.395517 0.799237 0.951941
0.538975 0.803171 0.954644
0.683262 0.807188 0.957328
0.826615 0.811239 0.959944
0.952972 0.814878 0.962050
0.981861 0.815888 0.961430
0.092730 0.933413 0.955237
0.125165 0.934386 0.954875
0.268298 0.938429 0.957515
0.412240 0.942516 0.960132
0.556919 0.946644 0.962723
0.702266 0.950810 0.965288
0.845745 0.954943 0.967756
0.968319 0.958519 0.969602
0.995906 0.959497 0.968788
0.097386 0.974962 0.954444
0.130152 0.975850 0.953924
0.274549 0.979812 0.956430
0.419604 0.983791 0.958907
0.565266 0.987786 0.961354
0.711491 0.991796 0.963769
0.855046 0.995732 0.966063
0.973339 0.998973 0.967615
0.999682 0.999682 0.966588
