library/cube/Series_Glow_003.cube
# CINEGRADE LAB — Premium Cinematic LUT
# Title: Series Glow
# Category: Netflix Inspired
# Description: Cinematic teal/orange with filmic qualities inspired by streaming content
# Mood: Cinematic, binge-worthy, polished
# Variant: 4
# Generated: 2026-05-21T16:12:43.951060
TITLE "Series Glow"
LUT_3D_SIZE 5
0.001379 0.014617 0.013734
0.146588 0.016760 0.015983
0.393368 0.021864 0.021168
0.651055 0.027426 0.026791
0.819113 0.030677 0.030081
0.017966 0.202883 0.025254
0.174663 0.205468 0.028244
0.437737 0.211184 0.034296
0.708972 0.217321 0.040701
0.878754 0.220855 0.044438
0.043944 0.493028 0.046995
0.209293 0.496153 0.050625
0.484354 0.502554 0.057398
0.765239 0.509360 0.064450
0.931366 0.513242 0.068456
0.070483 0.783510 0.069986
0.242091 0.787513 0.074172
0.525560 0.794879 0.081547
0.811932 0.802595 0.089104
0.970858 0.807056 0.093247
0.088219 0.966656 0.084681
0.264128 0.971496 0.089308
0.553187 0.979452 0.097114
0.842204 0.987407 0.104974
0.991323 0.991511 0.109028
0.003163 0.015809 0.206577
0.149667 0.018035 0.207906
0.398301 0.023235 0.212226
0.657548 0.028885 0.217011
0.826021 0.032190 0.219466
0.019776 0.204084 0.215021
0.177464 0.206758 0.217206
0.441928 0.212572 0.222494
0.714296 0.218797 0.228158
0.883943 0.222383 0.231145
0.045789 0.494300 0.234072
0.211867 0.497526 0.236985
0.487922 0.504032 0.243072
0.769588 0.510933 0.249451
0.935065 0.514868 0.252759
0.072378 0.784996 0.254666
0.244497 0.789104 0.258194
0.528639 0.796576 0.264925
0.815362 0.804384 0.271835
0.973408 0.808896 0.275300
0.090169 0.968399 0.267130
0.266412 0.973242 0.271106
0.555909 0.981204 0.278258
0.845119 0.989158 0.285448
0.993135 0.993226 0.288780
0.005673 0.017741 0.475065
0.153436 0.020044 0.475109
0.403872 0.025336 0.478211
0.664628 0.031068 0.481821
0.833459 0.034423 0.483115
0.022303 0.206018 0.479262
0.180949 0.208776 0.480320
0.446756 0.214683 0.484535
0.720218 0.220993 0.489157
0.889669 0.224625 0.491101
0.048342 0.496302 0.494586
0.215121 0.499624 0.496495
0.492131 0.506230 0.501613
0.774545 0.513222 0.507042
0.939323 0.517204 0.509380
0.074972 0.787207 0.511841
0.247579 0.791416 0.514439
0.532364 0.798988 0.520257
0.819411 0.806881 0.526252
0.976547 0.811439 0.528767
0.092807 0.970824 0.521166
0.269366 0.975667 0.524219
0.559282 0.983632 0.530442
0.848681 0.991582 0.536678
0.995577 0.995610 0.538993
0.008182 0.019683 0.742623
0.157172 0.022063 0.741418
0.409359 0.027444 0.743336
0.671580 0.033258 0.745802
0.840714 0.036660 0.745965
0.024829 0.207968 0.742690
0.184407 0.210809 0.742651
0.451514 0.216807 0.745819
0.726029 0.223199 0.749423
0.895232 0.226876 0.750345
0.050895 0.498327 0.754380
0.218352 0.501744 0.755305
0.496282 0.508447 0.759473
0.779363 0.515527 0.763965
0.943447 0.519556 0.765345
0.077568 0.789444 0.768357
0.250644 0.793753 0.770035
0.536045 0.801422 0.774946
0.823393 0.809399 0.780029
0.979593 0.814000 0.781593
0.095444 0.973243 0.774563
0.272307 0.978086 0.776689
0.562628 0.986052 0.781973
0.852214 0.993999 0.787242
0.997980 0.997986 0.788517
0.009571 0.020517 0.891857
0.159813 0.023030 0.895505
0.413757 0.028553 0.901832
0.677446 0.034494 0.908251
0.846871 0.037986 0.911899
0.026412 0.208992 0.906326
0.186935 0.211956 0.909637
0.455340 0.218081 0.915745
0.730905 0.224588 0.921877
0.899834 0.228337 0.924901
0.052632 0.499557 0.927551
0.220771 0.503094 0.930468
0.499611 0.509918 0.936264
0.783275 0.517103 0.942023
0.946715 0.521195 0.944302
0.079428 0.790971 0.946728
0.252970 0.795392 0.949221
0.538975 0.803171 0.954644
0.826615 0.811239 0.959944
0.981861 0.815888 0.961430
0.097386 0.974962 0.954444
0.274549 0.979812 0.956430
0.565266 0.987786 0.961354
0.855046 0.995732 0.966063
0.999682 0.999682 0.966588
