library/cube/Series_Glow_003.cube
# CINEGRADE LAB — Premium Cinematic LUT
# Title: Series Glow
# Category: Netflix Inspired
# Description: Cinematic teal/orange with filmic qualities inspired by streaming content
# Mood: Cinematic, binge-worthy, polished
# Variant: 4
# Generated: 2026-05-21T16:12:43.951060
TITLE "Series Glow"
LUT_3D_SIZE 33
0.001379 0.014617 0.013734
0.001357 0.014375 0.013507
0.001335 0.014137 0.013283
0.001315 0.013900 0.013060
0.027713 0.014394 0.013567
0.057135 0.014974 0.014160
0.086756 0.015561 0.014760
0.116575 0.016157 0.015368
0.146588 0.016760 0.015983
0.176793 0.017372 0.016606
0.207187 0.017991 0.017236
0.237767 0.018617 0.017874
0.268531 0.019252 0.018518
0.299475 0.019894 0.019170
0.330598 0.020543 0.019829
0.361897 0.021200 0.020495
0.393368 0.021864 0.021168
0.425010 0.022535 0.021848
0.456819 0.023213 0.022534
0.488794 0.023898 0.023228
0.520931 0.024590 0.023927
0.553228 0.025289 0.024634
0.585683 0.025995 0.025347
0.618293 0.026707 0.026066
0.651055 0.027426 0.026791
0.683968 0.028152 0.027523
0.717028 0.028884 0.028261
0.750026 0.029617 0.028999
0.783110 0.030354 0.029741
0.813273 0.031014 0.030406
0.815244 0.030900 0.030296
0.817191 0.030787 0.030188
0.819113 0.030677 0.030081
0.001308 0.013815 0.012980
0.001289 0.013582 0.012760
0.001270 0.013353 0.012543
0.001253 0.013125 0.012328
0.027958 0.013636 0.012851
0.057712 0.014233 0.013460
0.087660 0.014839 0.014077
0.117800 0.015452 0.014701
0.148127 0.016072 0.015332
0.178641 0.016701 0.015971
0.209337 0.017337 0.016617
0.240213 0.017980 0.017270
0.271268 0.018631 0.017930
0.302497 0.019289 0.018597
0.333898 0.019954 0.019271
0.365469 0.020627 0.019952
0.397208 0.021306 0.020639
0.429111 0.021993 0.021333
0.461176 0.022686 0.022034
0.493401 0.023387 0.022741
0.525782 0.024094 0.023455
0.558319 0.024808 0.024175
0.591007 0.025528 0.024901
0.623845 0.026255 0.025633
0.656830 0.026988 0.026372
0.689960 0.027728 0.027117
0.723210 0.028473 0.027867
0.756328 0.029217 0.028615
0.789543 0.029966 0.029368
0.819807 0.030637 0.030042
0.821697 0.030528 0.029937
0.823563 0.030421 0.029833
0.825404 0.030316 0.029731
0.001247 0.013043 0.012251
0.001231 0.012819 0.012039
0.001216 0.012598 0.011829
0.001202 0.012379 0.011622
0.028204 0.012907 0.012160
0.058281 0.013522 0.012785
0.088545 0.014144 0.013418
0.118995 0.014774 0.014058
0.149627 0.015412 0.014705
0.180439 0.016057 0.015359
0.211428 0.016709 0.016020
0.242591 0.017369 0.016689
0.273926 0.018036 0.017364
0.305430 0.018710 0.018045
0.337100 0.019391 0.018734
0.368935 0.020079 0.019429
0.400932 0.020774 0.020131
0.433087 0.021476 0.020839
0.465399 0.022184 0.021553
0.497864 0.022899 0.022274
0.530482 0.023621 0.023001
0.563248 0.024349 0.023735
0.596161 0.025084 0.024474
0.629218 0.025825 0.025220
0.662418 0.026572 0.025971
0.695756 0.027325 0.026728
0.729146 0.028082 0.027489
0.762388 0.028838 0.028248
0.795717 0.029598 0.029011
0.826069 0.030278 0.029694
0.827878 0.030176 0.029593
0.829663 0.030074 0.029494
0.831425 0.029975 0.029396
0.001921 0.020627 0.012271
0.001908 0.020409 0.012066
0.001896 0.020194 0.011864
0.001885 0.019981 0.011663
0.029174 0.020522 0.012217
0.059563 0.021151 0.012858
0.090134 0.021788 0.013506
0.120884 0.022432 0.014161
0.151810 0.023083 0.014823
0.182911 0.023742 0.015492
0.214182 0.024408 0.016168
0.245622 0.025081 0.016851
0.277228 0.025761 0.017540
0.308997 0.026448 0.018236
0.340928 0.027142 0.018939
0.373016 0.027843 0.019648
0.405261 0.028550 0.020363
0.437659 0.029264 0.021085
0.470209 0.029985 0.021813
0.502907 0.030712 0.022547
0.535751 0.031446 0.023287
0.568738 0.032186 0.024033
0.601868 0.032932 0.024785
0.635136 0.033685 0.025543
0.668540 0.034444 0.026307
0.702079 0.035208 0.027076
0.735578 0.035974 0.027847
0.768927 0.036738 0.028615
0.802354 0.037507 0.029387
0.832778 0.038195 0.030079
0.834507 0.038096 0.029983
0.836213 0.037999 0.029888
0.837894 0.037903 0.029794
0.005122 0.057177 0.014832
0.005111 0.056955 0.014633
0.005101 0.056736 0.014437
0.005093 0.056519 0.014243
0.032659 0.057064 0.014811
0.063350 0.057698 0.015466
0.094216 0.058339 0.016129
0.125255 0.058988 0.016798
0.156465 0.059644 0.017474
0.187844 0.060308 0.018157
0.219387 0.060979 0.018847
0.251094 0.061656 0.019543
0.282961 0.062341 0.020245
0.314985 0.063033 0.020955
0.347166 0.063732 0.021670
0.379499 0.064437 0.022392
0.411983 0.065149 0.023120
0.444614 0.065868 0.023854
0.477392 0.066593 0.024595
0.510313 0.067325 0.025341
0.543374 0.068064 0.026093
0.576574 0.068808 0.026851
0.609910 0.069559 0.027615
0.643381 0.070316 0.028384
0.676982 0.071079 0.029160
0.710713 0.071849 0.029940
0.744286 0.072616 0.030719
0.777727 0.073382 0.031496
0.811235 0.074153 0.032276
0.841716 0.074843 0.032975
0.843365 0.074741 0.032883
0.844991 0.074641 0.032792
0.846593 0.074543 0.032702
0.008327 0.093672 0.017410
0.008318 0.093447 0.017218
0.008310 0.093225 0.017029
0.008304 0.093006 0.016841
0.036139 0.093556 0.017422
0.067121 0.094195 0.018092
0.098273 0.094842 0.018768
0.129593 0.095497 0.019451
0.161077 0.096158 0.020141
0.192724 0.096827 0.020838
0.224530 0.097503 0.021541
0.256494 0.098187 0.022250
0.288613 0.098877 0.022966
0.320884 0.099574 0.023688
0.353306 0.100278 0.024417
0.385874 0.100989 0.025151
0.418588 0.101707 0.025892
0.451445 0.102431 0.026638
0.484442 0.103162 0.027390
0.517577 0.103899 0.028149
0.550848 0.104643 0.028913
0.584252 0.105393 0.029683
0.617788 0.106149 0.030458
0.651452 0.106911 0.031239
0.685242 0.107680 0.032025
0.719157 0.108454 0.032817
0.752771 0.109223 0.033603
0.786286 0.109992 0.034387
0.819860 0.110765 0.035176
0.850383 0.111457 0.035882
0.851953 0.111354 0.035793
0.853500 0.111253 0.035706
0.855025 0.111154 0.035620
0.011535 0.130118 0.020007
0.011529 0.129891 0.019821
0.011524 0.129667 0.019638
0.011519 0.129446 0.019456
0.039614 0.130002 0.020051
0.070878 0.130648 0.020734
0.102307 0.131301 0.021425
0.133897 0.131962 0.022122
0.165646 0.132630 0.022825
0.197552 0.133305 0.023535
0.229613 0.133988 0.024251
0.261825 0.134677 0.024974
0.294187 0.135374 0.025702
0.326696 0.136077 0.026437
0.359350 0.136788 0.027178
0.392145 0.137505 0.027925
0.425081 0.138228 0.028678
0.458154 0.138959 0.029436
0.491363 0.139696 0.030201
0.524704 0.140439 0.030971
0.558176 0.141189 0.031746
0.591776 0.141945 0.032528
0.625503 0.142707 0.033314
0.659353 0.143476 0.034106
0.693325 0.144250 0.034904
0.727416 0.145031 0.035706
0.761035 0.145801 0.036498
0.794609 0.146573 0.037290
0.828232 0.147349 0.038086
0.858784 0.148043 0.038799
0.860276 0.147940 0.038714
0.861746 0.147838 0.038631
0.863193 0.147739 0.038548
0.014748 0.166520 0.022621
0.014744 0.166292 0.022442
0.014742 0.166067 0.022265
0.014740 0.165846 0.022090
0.043086 0.166408 0.022697
0.074622 0.167061 0.023395
0.106318 0.167722 0.024099
0.138169 0.168390 0.024809
0.170174 0.169065 0.025526
0.202331 0.169747 0.026249
0.234637 0.170437 0.026978
0.267089 0.171133 0.027713
0.299685 0.171837 0.028455
0.332423 0.172547 0.029202
0.365300 0.173264 0.029955
0.398314 0.173988 0.030714
0.431463 0.174719 0.031479
0.464745 0.175456 0.032249
0.498156 0.176200 0.033026
0.531696 0.176950 0.033807
0.565361 0.177707 0.034594
0.599149 0.178470 0.035387
0.633059 0.179239 0.036184
0.667088 0.180014 0.036987
0.701233 0.180796 0.037796
0.735493 0.181583 0.038609
0.769081 0.182355 0.039406
0.802698 0.183130 0.040205
0.836355 0.183909 0.041008
0.866922 0.184606 0.041727
0.868337 0.184504 0.041646
0.869730 0.184403 0.041566
0.871101 0.184305 0.041488
0.017966 0.202883 0.025254
0.017965 0.202656 0.025081
0.017965 0.202432 0.024910
0.017965 0.202211 0.024742
0.046554 0.202780 0.025362
0.078354 0.203441 0.026073
0.110307 0.204109 0.026791
0.142411 0.204785 0.027514
0.174663 0.205468 0.028244
0.207061 0.206158 0.028980
0.239603 0.206855 0.029722
0.272286 0.207560 0.030470
0.305108 0.208271 0.031223
0.338066 0.208989 0.031983
0.371159 0.209714 0.032748
0.404383 0.210446 0.033519
0.437737 0.211184 0.034296
0.471219 0.211929 0.035078
0.504826 0.212680 0.035865
0.538555 0.213438 0.036658
0.572406 0.214202 0.037456
0.606375 0.214973 0.038260
0.640460 0.215749 0.039068
0.674660 0.216532 0.039882
0.708972 0.217321 0.040701
0.743300 0.218113 0.041522
0.776912 0.218889 0.042325
0.810558 0.219668 0.043132
0.844232 0.220451 0.043941
0.874801 0.221151 0.044666
0.876141 0.221050 0.044589
0.877458 0.220951 0.044513
0.878754 0.220855 0.044438
0.021190 0.239214 0.027905
0.021191 0.238988 0.027739
0.021193 0.238765 0.027574
0.021197 0.238545 0.027412
0.050020 0.239123 0.028045
0.082074 0.239792 0.028770
0.114276 0.240469 0.029500
0.146623 0.241153 0.030237
0.179113 0.241845 0.030979
0.211744 0.242544 0.031728
0.244514 0.243249 0.032482
0.277419 0.243962 0.033242
0.310458 0.244682 0.034008
0.343629 0.245408 0.034780
0.376928 0.246141 0.035557
0.410355 0.246881 0.036339
0.443906 0.247628 0.037128
0.477580 0.248381 0.037921
0.511374 0.249141 0.038720
0.545286 0.249907 0.039524
0.579315 0.250679 0.040333
0.613457 0.251458 0.041147
0.647710 0.252243 0.041967
0.682074 0.253034 0.042791
0.716544 0.253831 0.043620
0.750898 0.254628 0.044448
0.784532 0.255408 0.045258
0.818190 0.256191 0.046070
0.851869 0.256979 0.046885
0.882425 0.257683 0.047616
0.883690 0.257584 0.047543
0.884934 0.257488 0.047470
0.886155 0.257394 0.047399
0.024419 0.275517 0.030575
0.024423 0.275293 0.030415
0.024428 0.275072 0.030257
0.024434 0.274855 0.030101
0.053484 0.275441 0.030747
0.085783 0.276120 0.031484
0.118225 0.276806 0.032228
0.150807 0.277500 0.032977
0.183526 0.278200 0.033732
0.216382 0.278908 0.034493
0.249370 0.279623 0.035259
0.282489 0.280345 0.036032
0.315737 0.281074 0.036810
0.349112 0.281809 0.037593
0.382611 0.282552 0.038382
0.416232 0.283301 0.039176
0.449972 0.284056 0.039975
0.483830 0.284818 0.040780
0.517804 0.285587 0.041590
0.551892 0.286362 0.042405
0.586090 0.287143 0.043224
0.620398 0.287931 0.044049
0.654812 0.288725 0.044879
0.689332 0.289524 0.045714
0.723955 0.290330 0.046553
0.758304 0.291132 0.047386
0.791945 0.291917 0.048203
0.825601 0.292705 0.049021
0.859267 0.293498 0.049841
0.889798 0.294206 0.050578
0.890991 0.294111 0.050508
0.892161 0.294018 0.050439
0.893311 0.293927 0.050372
0.027655 0.311797 0.033264
0.027662 0.311576 0.033110
0.027669 0.311359 0.032958
0.027678 0.311145 0.032809
0.056946 0.311740 0.033467
0.089482 0.312429 0.034217
0.122155 0.313125 0.034973
0.154963 0.313829 0.035735
0.187903 0.314539 0.036502
0.220975 0.315257 0.037275
0.254174 0.315982 0.038054
0.287499 0.316713 0.038838
0.320948 0.317452 0.039628
0.354519 0.318197 0.040423
0.388209 0.318949 0.041223
0.422016 0.319708 0.042028
0.455938 0.320473 0.042839
0.489973 0.321245 0.043654
0.524119 0.322023 0.044475
0.558374 0.322808 0.045300
0.592735 0.323599 0.046131
0.627202 0.324396 0.046966
0.661770 0.325199 0.047806
0.696440 0.326009 0.048651
0.731208 0.326824 0.049500
0.765521 0.327630 0.050338
0.799154 0.328420 0.051160
0.832793 0.329214 0.051984
0.866434 0.330012 0.052810
0.896926 0.330725 0.053550
0.898047 0.330634 0.053485
0.899146 0.330545 0.053420
0.900225 0.330459 0.053357
0.030898 0.348059 0.035971
0.030907 0.347842 0.035824
0.030918 0.347629 0.035679
0.030929 0.347420 0.035536
0.060408 0.348025 0.036206
0.093171 0.348725 0.036969
0.126067 0.349431 0.037737
0.159092 0.350145 0.038511
0.192246 0.350867 0.039291
0.225525 0.351595 0.040076
0.258927 0.352330 0.040866
0.292450 0.353072 0.041662
0.326092 0.353821 0.042463
0.359850 0.354577 0.043269
0.393724 0.355339 0.044080
0.427710 0.356109 0.044897
0.461806 0.356884 0.045718
0.496011 0.357666 0.046544
0.530322 0.358455 0.047376
0.564737 0.359250 0.048211
0.599254 0.360051 0.049052
0.633872 0.360858 0.049898
0.668588 0.361671 0.050747
0.703400 0.362491 0.051602
0.738306 0.363316 0.052461
0.772554 0.364127 0.053304
0.806164 0.364923 0.054131
0.839772 0.365723 0.054959
0.873372 0.366526 0.055790
0.903813 0.367245 0.056535
0.904864 0.367158 0.056473
0.905893 0.367074 0.056412
0.906903 0.366993 0.056353
0.034148 0.384309 0.038698
0.034160 0.384097 0.038557
0.034173 0.383889 0.038419
0.034188 0.383684 0.038282
0.063869 0.384300 0.038964
0.096852 0.385011 0.039739
0.129962 0.385729 0.040520
0.163197 0.386455 0.041306
0.196555 0.387187 0.042097
0.230033 0.387926 0.042894
0.263630 0.388673 0.043696
0.297343 0.389426 0.044503
0.331170 0.390186 0.045315
0.365109 0.390953 0.046132
0.399159 0.391726 0.046954
0.433316 0.392507 0.047782
0.467579 0.393293 0.048614
0.501946 0.394086 0.049450
0.536415 0.394886 0.050292
0.570983 0.395691 0.051138
0.605649 0.396503 0.051989
0.640412 0.397321 0.052844
0.675268 0.398145 0.053704
0.710216 0.398976 0.054568
0.745254 0.399812 0.055436
0.779406 0.400627 0.056282
0.812980 0.401429 0.057114
0.846541 0.402235 0.057947
0.880087 0.403044 0.058782
0.910465 0.403769 0.059531
0.911447 0.403688 0.059473
0.912408 0.403610 0.059416
0.913350 0.403534 0.059360
0.037405 0.420550 0.041445
0.037420 0.420344 0.041310
0.037437 0.420142 0.041178
0.037454 0.419944 0.041047
0.067331 0.420571 0.041741
0.100525 0.421294 0.042528
0.133841 0.422024 0.043321
0.167277 0.422761 0.044118
0.200831 0.423505 0.044921
0.234501 0.424257 0.045729
0.268285 0.425015 0.046543
0.302181 0.425780 0.047361
0.336185 0.426551 0.048184
0.370298 0.427330 0.049012
0.404516 0.428115 0.049845
0.438837 0.428907 0.050683
0.473260 0.429705 0.051525
0.507782 0.430509 0.052372
0.542401 0.431320 0.053224
0.577116 0.432137 0.054080
0.611925 0.432961 0.054941
0.646825 0.433790 0.055806
0.681815 0.434626 0.056675
0.716893 0.435467 0.057549
0.752056 0.436315 0.058426
0.786083 0.437134 0.059275
0.819606 0.437944 0.060111
0.853107 0.438756 0.060948
0.886584 0.439571 0.061787
0.916887 0.440302 0.062539
0.917801 0.440227 0.062485
0.918696 0.440156 0.062432
0.919572 0.440087 0.062380
0.040670 0.456789 0.044210
0.040689 0.456589 0.044082
0.040708 0.456394 0.043956
0.040729 0.456202 0.043832
0.070793 0.456842 0.044537
0.104190 0.457577 0.045336
0.137704 0.458320 0.046140
0.171334 0.459069 0.046950
0.205077 0.459826 0.047764
0.238931 0.460590 0.048583
0.272894 0.461360 0.049407
0.306964 0.462137 0.050237
0.341140 0.462921 0.051071
0.375418 0.463712 0.051909
0.409797 0.464510 0.052753
0.444275 0.465313 0.053601
0.478850 0.466124 0.054453
0.513520 0.466940 0.055311
0.548284 0.467763 0.056172
0.583139 0.468592 0.057038
0.618083 0.469428 0.057908
0.653115 0.470269 0.058783
0.688232 0.471117 0.059661
0.723433 0.471970 0.060544
0.758717 0.472829 0.061431
0.792589 0.473653 0.062281
0.826047 0.474470 0.063121
0.859475 0.475289 0.063962
0.892870 0.476110 0.064804
0.923084 0.476848 0.065560
0.923933 0.476780 0.065509
0.924764 0.476716 0.065460
0.925575 0.476655 0.065412
0.043944 0.493028 0.046995
0.043966 0.492836 0.046874
0.043988 0.492648 0.046754
0.044012 0.492465 0.046637
0.074257 0.493117 0.047353
0.107849 0.493865 0.048163
0.141553 0.494621 0.048979
0.175369 0.495384 0.049799
0.209293 0.496153 0.050625
0.243323 0.496930 0.051455
0.277458 0.497713 0.052290
0.311696 0.498504 0.053130
0.346034 0.499301 0.053974
0.380471 0.500104 0.054823
0.415004 0.500914 0.055677
0.449633 0.501731 0.056535
0.484354 0.502554 0.057398
0.519165 0.503383 0.058265
0.554066 0.504219 0.059136
0.589054 0.505061 0.060011
0.624128 0.505908 0.060891
0.659285 0.506762 0.061775
0.694523 0.507622 0.062663
0.729842 0.508488 0.063554
0.765239 0.509360 0.064450
0.798929 0.510188 0.065300
0.832308 0.511012 0.066144
0.865649 0.511838 0.066988
0.898949 0.512666 0.067833
0.929064 0.513411 0.068592
0.929849 0.513351 0.068545
0.930617 0.513295 0.068500
0.931366 0.513242 0.068456
0.047227 0.529273 0.049800
0.047252 0.529090 0.049685
0.047277 0.528910 0.049572
0.047304 0.528735 0.049460
0.077722 0.529401 0.050188
0.111502 0.530163 0.051009
0.145389 0.530932 0.051836
0.179382 0.531709 0.052667
0.213480 0.532492 0.053504
0.247680 0.533282 0.054345
0.281979 0.534079 0.055190
0.316377 0.534883 0.056041
0.350871 0.535693 0.056896
0.385460 0.536510 0.057755
0.420141 0.537333 0.058618
0.454912 0.538163 0.059487
0.489772 0.539000 0.060359
0.524719 0.539842 0.061235
0.559751 0.540691 0.062116
0.594866 0.541546 0.063001
0.630063 0.542407 0.063890
0.665339 0.543274 0.064782
0.700693 0.544147 0.065679
0.736123 0.545026 0.066579
0.771627 0.545910 0.067484
0.805108 0.546743 0.068334
0.838395 0.547574 0.069181
0.871636 0.548407 0.070028
0.904827 0.549243 0.070875
0.934831 0.549995 0.071637
0.935555 0.549944 0.071594
0.936261 0.549896 0.071552
0.936950 0.549852 0.071512
0.050519 0.565529 0.052625
0.050547 0.565355 0.052516
0.050576 0.565184 0.052409
0.050606 0.565018 0.052304
0.081190 0.565698 0.053042
0.115149 0.566474 0.053875
0.149212 0.567258 0.054712
0.183376 0.568048 0.055554
0.217640 0.568846 0.056401
0.252001 0.569650 0.057253
0.286459 0.570461 0.058109
0.321010 0.571279 0.058969
0.355653 0.572103 0.059834
0.390386 0.572934 0.060703
0.425208 0.573771 0.061577
0.460116 0.574615 0.062454
0.495109 0.575465 0.063336
0.530185 0.576321 0.064222
0.565341 0.577184 0.065112
0.600577 0.578052 0.066006
0.635891 0.578927 0.066904
0.671280 0.579807 0.067805
0.706744 0.580694 0.068710
0.742280 0.581586 0.069620
0.777886 0.582484 0.070532
0.811131 0.583321 0.071382
0.844313 0.584160 0.072231
0.877441 0.585001 0.073081
0.910511 0.585844 0.073930
0.940393 0.586603 0.074694
0.941057 0.586562 0.074655
0.941705 0.586523 0.074617
0.942335 0.586488 0.074580
0.053820 0.601799 0.055469
0.053851 0.601635 0.055366
0.053884 0.601474 0.055266
0.053917 0.601318 0.055167
0.084662 0.602012 0.055915
0.118793 0.602803 0.056759
0.153023 0.603602 0.057607
0.187350 0.604407 0.058460
0.221773 0.605219 0.059317
0.256290 0.606038 0.060179
0.290898 0.606864 0.061045
0.325595 0.607696 0.061916
0.360381 0.608535 0.062790
0.395253 0.609380 0.063669
0.430209 0.610231 0.064552
0.465247 0.611089 0.065439
0.500366 0.611954 0.066330
0.535565 0.612824 0.067225
0.570840 0.613701 0.068124
0.606191 0.614584 0.069027
0.641616 0.615472 0.069933
0.677113 0.616367 0.070843
0.712680 0.617267 0.071757
0.748316 0.618174 0.072675
0.783882 0.619082 0.073592
0.817005 0.619926 0.074443
0.850069 0.620773 0.075295
0.883071 0.621622 0.076146
0.916007 0.622473 0.076998
0.945756 0.623240 0.077763
0.946363 0.623209 0.077728
0.946953 0.623180 0.077693
0.947527 0.623155 0.077660
0.057131 0.638088 0.058333
0.057166 0.637934 0.058237
0.057202 0.637784 0.058142
0.057239 0.637639 0.058049
0.088136 0.638348 0.058808
0.122432 0.639154 0.059662
0.156823 0.639968 0.060521
0.191307 0.640789 0.061384
0.225882 0.641616 0.062252
0.260546 0.642450 0.063123
0.295298 0.643290 0.063999
0.330136 0.644138 0.064879
0.365058 0.644991 0.065764
0.400061 0.645852 0.066652
0.435145 0.646718 0.067544
0.470308 0.647591 0.068441
0.505547 0.648470 0.069341
0.540862 0.649355 0.070245
0.576250 0.650246 0.071152
0.611710 0.651144 0.072064
0.647241 0.652047 0.072979
0.682840 0.652956 0.073897
0.718506 0.653871 0.074819
0.754237 0.654792 0.075745
0.789733 0.655710 0.076665
0.822733 0.656563 0.077519
0.855667 0.657418 0.078372
0.888531 0.658275 0.079226
0.921322 0.659134 0.080078
0.950928 0.659909 0.080845
0.951479 0.659888 0.080813
0.952014 0.659870 0.080783
0.952534 0.659856 0.080753
0.060453 0.674400 0.061217
0.060491 0.674257 0.061126
0.060530 0.674119 0.061038
0.060571 0.673985 0.060952
0.091615 0.674709 0.061720
0.126068 0.675531 0.062585
0.160613 0.676361 0.063454
0.195246 0.677197 0.064327
0.229967 0.678040 0.065204
0.264773 0.678889 0.066086
0.299662 0.679746 0.066971
0.334633 0.680608 0.067861
0.369684 0.681477 0.068755
0.404814 0.682353 0.069652
0.440019 0.683235 0.070554
0.475300 0.684123 0.071459
0.510654 0.685017 0.072368
0.546080 0.685917 0.073280
0.581575 0.686824 0.074196
0.617139 0.687736 0.075116
0.652770 0.688654 0.076040
0.688466 0.689578 0.076966
0.724225 0.690508 0.077896
0.760047 0.691443 0.078830
0.795457 0.692371 0.079753
0.828323 0.693233 0.080609
0.861115 0.694097 0.081464
0.893830 0.694963 0.082318
0.926463 0.695830 0.083171
0.955915 0.696613 0.083939
0.956413 0.696603 0.083911
0.956895 0.696596 0.083884
0.957362 0.696593 0.083858
0.063785 0.710738 0.064120
0.063827 0.710607 0.064036
0.063869 0.710481 0.063954
0.063913 0.710359 0.063873
0.095097 0.711099 0.064652
0.129702 0.711938 0.065527
0.164394 0.712784 0.066405
0.199170 0.713636 0.067288
0.234029 0.714495 0.068175
0.268970 0.715361 0.069066
0.303990 0.716233 0.069961
0.339089 0.717111 0.070860
0.374263 0.717996 0.071763
0.409512 0.718888 0.072670
0.444834 0.719785 0.073580
0.480227 0.720689 0.074494
0.515690 0.721599 0.075411
0.551221 0.722515 0.076332
0.586818 0.723437 0.077257
0.622481 0.724364 0.078185
0.658206 0.725298 0.079116
0.693994 0.726237 0.080051
0.729842 0.727182 0.080989
0.765749 0.728133 0.081930
0.801061 0.729071 0.082856
0.833781 0.729942 0.083712
0.866419 0.730814 0.084568
0.898972 0.731688 0.085423
0.931437 0.732564 0.086277
0.960725 0.733355 0.087045
0.961172 0.733357 0.087021
0.961603 0.733362 0.086998
0.962021 0.733370 0.086976
0.067128 0.747107 0.067043
0.067173 0.746989 0.066965
0.067220 0.746875 0.066889
0.067267 0.746766 0.066815
0.098585 0.747523 0.067603
0.133334 0.748378 0.068487
0.168166 0.749240 0.069376
0.203079 0.750109 0.070268
0.238070 0.750985 0.071165
0.273140 0.751867 0.072065
0.308285 0.752755 0.072969
0.343505 0.753650 0.073877
0.378796 0.754551 0.074789
0.414159 0.755459 0.075704
0.449592 0.756373 0.076623
0.485092 0.757292 0.077545
0.520658 0.758218 0.078471
0.556289 0.759150 0.079400
0.591983 0.760088 0.080333
0.627738 0.761031 0.081269
0.663554 0.761981 0.082208
0.699429 0.762936 0.083150
0.735361 0.763896 0.084096
0.771349 0.764863 0.085044
0.806551 0.765811 0.085973
0.839112 0.766691 0.086830
0.871585 0.767572 0.087687
0.903965 0.768455 0.088542
0.936250 0.769339 0.089396
0.965365 0.770139 0.090164
0.965763 0.770153 0.090144
0.966147 0.770170 0.090124
0.966516 0.770190 0.090105
0.070483 0.783510 0.069986
0.070531 0.783405 0.069914
0.070581 0.783305 0.069844
0.070632 0.783209 0.069775
0.102079 0.783982 0.070573
0.136965 0.784855 0.071467
0.171931 0.785734 0.072365
0.206973 0.786620 0.073267
0.242091 0.787513 0.074172
0.277283 0.788411 0.075082
0.312548 0.789317 0.075995
0.347882 0.790228 0.076911
0.383286 0.791146 0.077832
0.418757 0.792070 0.078755
0.454294 0.793001 0.079683
0.489896 0.793937 0.080613
0.525560 0.794879 0.081547
0.561286 0.795827 0.082484
0.597072 0.796781 0.083425
0.632916 0.797741 0.084369
0.668817 0.798706 0.085315
0.704774 0.799677 0.086265
0.740786 0.800654 0.087218
0.776850 0.801636 0.088174
0.811932 0.802595 0.089104
0.844324 0.803484 0.089962
0.876621 0.804374 0.090818
0.908817 0.805266 0.091674
0.940912 0.806158 0.092527
0.969844 0.806967 0.093296
0.970196 0.806993 0.093278
0.970533 0.807023 0.093262
0.970858 0.807056 0.093247
0.073849 0.819951 0.072948
0.073901 0.819860 0.072882
0.073955 0.819773 0.072818
0.074009 0.819692 0.072755
0.105578 0.820482 0.073562
0.140596 0.821372 0.074465
0.175689 0.822269 0.075373
0.210855 0.823172 0.076283
0.246094 0.824082 0.077198
0.281402 0.824998 0.078116
0.316780 0.825920 0.079038
0.352224 0.826849 0.079963
0.387734 0.827784 0.080892
0.423308 0.828725 0.081824
0.458945 0.829672 0.082759
0.494643 0.830625 0.083698
0.530400 0.831584 0.084640
0.566216 0.832549 0.085585
0.602089 0.833519 0.086533
0.638017 0.834496 0.087484
0.673999 0.835477 0.088438
0.710034 0.836465 0.089395
0.746121 0.837458 0.090355
0.782258 0.838456 0.091318
0.817211 0.839426 0.092250
0.849423 0.840324 0.093107
0.881532 0.841223 0.093964
0.913535 0.842123 0.094818
0.945429 0.843024 0.095671
0.974170 0.843842 0.096439
0.974477 0.843881 0.096425
0.974771 0.843924 0.096413
0.975053 0.843970 0.096401
0.077164 0.855719 0.075868
0.077223 0.855670 0.075810
0.077283 0.855625 0.075754
0.077343 0.855585 0.075700
0.109031 0.856419 0.076517
0.144176 0.857352 0.077432
0.179393 0.858291 0.078350
0.214679 0.859236 0.079272
0.250034 0.860187 0.080197
0.285456 0.861143 0.081126
0.320943 0.862105 0.082058
0.356493 0.863073 0.082994
0.392106 0.864046 0.083932
0.427779 0.865025 0.084874
0.463512 0.866009 0.085819
0.499303 0.866998 0.086767
0.535151 0.867992 0.087718
0.571054 0.868992 0.088672
0.607010 0.869997 0.089629
