library/cube/Shadow_King_003.cube
# CINEGRADE LAB — Premium Cinematic LUT
# Title: Shadow King
# Category: High Dynamic Luxury
# Description: HDR-like with detailed shadows and highlights for luxury imagery
# Mood: Premium, detailed, luminous
# Variant: 4
# Generated: 2026-05-21T16:12:34.936334
TITLE "Shadow King"
LUT_3D_SIZE 5
0.077787 0.077787 0.077787
0.328220 0.067588 0.067573
0.579242 0.058047 0.057985
0.830734 0.049167 0.049025
1.000000 0.040951 0.040696
0.046415 0.306574 0.045920
0.298892 0.298498 0.037821
0.551692 0.291061 0.030354
0.804694 0.284266 0.023520
1.000000 0.278113 0.017320
0.023223 0.541976 0.021190
0.277309 0.535866 0.015221
0.531446 0.530373 0.009887
0.785511 0.525497 0.005188
1.000000 0.521238 0.001124
0.008300 0.783150 0.003635
0.263540 0.778836 0.000000
0.518552 0.775112 0.000000
0.773211 0.771978 0.000000
1.000000 0.769433 0.000000
0.001665 1.000000 0.000000
0.257583 1.000000 0.000000
0.512989 1.000000 0.000000
0.767755 1.000000 0.000000
1.000000 1.000000 0.000000
0.074253 0.074250 0.334872
0.324911 0.064274 0.324855
0.576132 0.054957 0.315447
0.827796 0.046303 0.306650
1.000000 0.038312 0.298467
0.043701 0.303760 0.303600
0.296360 0.295901 0.295640
0.549316 0.288681 0.288294
0.802445 0.282104 0.281563
1.000000 0.276169 0.275449
0.021340 0.539832 0.279266
0.275564 0.533931 0.273376
0.529811 0.528647 0.268103
0.783957 0.523981 0.263448
1.000000 0.519933 0.259409
0.007254 0.781619 0.261906
0.262585 0.777505 0.258092
0.517659 0.773982 0.254894
0.772351 0.771048 0.252312
1.000000 0.768703 0.250346
0.001455 1.000000 0.251525
0.257414 1.000000 0.249783
0.512832 1.000000 0.248654
0.767581 1.000000 0.248137
1.000000 1.000000 0.248231
0.070801 0.070788 0.592023
0.321680 0.061036 0.582191
0.573096 0.051944 0.572951
0.824927 0.043515 0.564305
1.000000 0.035750 0.556254
0.041070 0.301019 0.561305
0.293907 0.293377 0.553472
0.547014 0.286376 0.546235
0.800266 0.280017 0.539595
1.000000 0.274300 0.533554
0.019542 0.537759 0.537327
0.273899 0.532068 0.531504
0.528250 0.526994 0.526280
0.782473 0.522537 0.521655
1.000000 0.518698 0.517629
0.006293 0.780156 0.520120
0.261709 0.776242 0.516312
0.516840 0.772919 0.513102
0.771561 0.770186 0.510490
1.000000 0.768040 0.508475
0.001328 1.000000 0.509687
0.257324 1.000000 0.507889
0.512749 1.000000 0.506686
0.767476 1.000000 0.506077
1.000000 1.000000 0.506060
0.067431 0.067402 0.849233
0.318527 0.057874 0.839575
0.570133 0.049007 0.830491
0.822128 0.040803 0.821984
1.000000 0.033265 0.814054
0.038522 0.298352 0.819030
0.291534 0.290927 0.811310
0.544786 0.284144 0.804170
0.798158 0.278003 0.797610
1.000000 0.272506 0.791630
0.017828 0.535757 0.795366
0.272313 0.530275 0.789598
0.526765 0.525411 0.784410
0.781059 0.521164 0.779804
1.000000 0.517535 0.775778
0.005416 0.778760 0.778271
0.260913 0.775048 0.774457
0.516096 0.771925 0.771223
0.770840 0.769391 0.768568
1.000000 0.767444 0.766492
0.001286 1.000000 0.767745
0.257312 1.000000 0.765879
0.512739 1.000000 0.764590
0.767438 1.000000 0.763876
1.000000 1.000000 0.763735
0.064143 0.064093 1.000000
0.315452 0.054788 1.000000
0.567244 0.046146 1.000000
0.819398 0.038168 1.000000
1.000000 0.030857 1.000000
0.036059 0.295759 1.000000
0.289239 0.288552 1.000000
0.542633 0.281986 1.000000
0.796119 0.276064 1.000000
1.000000 0.270785 1.000000
0.016199 0.533826 1.000000
0.270807 0.528554 1.000000
0.525354 0.523899 1.000000
0.779716 0.519862 1.000000
1.000000 0.516443 1.000000
0.004624 0.777433 1.000000
0.260196 0.773921 1.000000
0.515427 0.770999 1.000000
0.770189 0.768664 1.000000
1.000000 0.766916 1.000000
0.001327 1.000000 1.000000
0.257380 1.000000 1.000000
0.512803 1.000000 1.000000
0.767469 1.000000 1.000000
1.000000 1.000000 1.000000
