library/cube/Shadow_Play_000.cube
# CINEGRADE LAB — Premium Cinematic LUT
# Title: Shadow Play
# Category: Neo Noir
# Description: Dramatic shadows, high contrast, moody lighting inspired by noir cinema
# Mood: Mysterious, dramatic, dark
# Variant: 1
# Generated: 2026-05-21T16:12:29.532789
TITLE "Shadow Play"
LUT_3D_SIZE 5
0.000000 0.000000 0.000000
0.066678 0.007843 0.008410
0.276142 0.031662 0.033540
0.493539 0.055401 0.058061
0.626039 0.069046 0.071686
0.025703 0.099716 0.028962
0.103087 0.109775 0.037867
0.337639 0.136393 0.063854
0.572911 0.162339 0.089007
0.709387 0.177253 0.102858
0.111214 0.412130 0.116841
0.196155 0.424869 0.126227
0.446685 0.454208 0.152861
0.692486 0.482203 0.178458
0.830515 0.498349 0.192468
0.201019 0.725559 0.202898
0.289451 0.738097 0.212302
0.547825 0.767344 0.239042
0.797908 0.794973 0.264634
0.928947 0.810454 0.278505
0.253167 0.899854 0.249886
0.342522 0.910695 0.259060
0.603753 0.938470 0.285635
0.853581 0.963203 0.311042
0.976811 0.976419 0.324721
0.002243 0.002618 0.075725
0.070224 0.010595 0.085058
0.282753 0.034638 0.111061
0.502396 0.058549 0.136344
0.635477 0.072270 0.150598
0.028652 0.103126 0.107389
0.106866 0.113202 0.116893
0.343349 0.139895 0.143432
0.579934 0.165884 0.169047
0.716618 0.180779 0.183265
0.114877 0.416512 0.197061
0.200232 0.429084 0.206776
0.451788 0.458304 0.233699
0.698185 0.486172 0.259522
0.836001 0.502171 0.273694
0.204808 0.729897 0.284043
0.293384 0.742199 0.293585
0.552188 0.771252 0.320435
0.802450 0.798704 0.346098
0.932790 0.814024 0.360008
0.256745 0.903596 0.331361
0.346131 0.914262 0.340567
0.607512 0.941709 0.367157
0.857052 0.966257 0.392565
0.979729 0.979349 0.406239
0.009023 0.010420 0.299988
0.078487 0.018649 0.311841
0.294162 0.043016 0.340135
0.516129 0.067189 0.367427
0.649910 0.081065 0.383403
0.036783 0.112047 0.339036
0.115940 0.122218 0.350176
0.354391 0.149052 0.378158
0.592324 0.175137 0.404994
0.729286 0.190063 0.420217
0.124117 0.426575 0.433431
0.209950 0.439032 0.444072
0.462541 0.468174 0.471771
0.709548 0.495949 0.498210
0.846879 0.511832 0.512851
0.214405 0.740024 0.522932
0.303157 0.752121 0.532891
0.562390 0.781008 0.560055
0.812836 0.808306 0.585934
0.942062 0.823485 0.599977
0.266258 0.913208 0.571248
0.355692 0.923721 0.580564
0.617226 0.950477 0.607213
0.865909 0.974809 0.632642
0.987982 0.987742 0.646316
0.015763 0.018022 0.516467
0.086626 0.026478 0.530545
0.305293 0.051143 0.560855
0.529454 0.075553 0.589902
0.663867 0.089566 0.607370
0.044735 0.120676 0.561993
0.124772 0.130925 0.574546
0.365074 0.157881 0.603767
0.604260 0.184048 0.631642
0.741455 0.198994 0.647705
0.133061 0.436247 0.660438
0.219329 0.448582 0.671849
0.472874 0.477638 0.700185
0.720429 0.505316 0.727119
0.857222 0.521081 0.742125
0.223636 0.749710 0.752000
0.312540 0.761606 0.762279
0.572154 0.790329 0.789675
0.822759 0.817478 0.815702
0.950835 0.832523 0.829826
0.275383 0.922385 0.801048
0.364855 0.932756 0.810428
0.626530 0.958810 0.837101
0.874330 0.982936 0.862530
0.995812 0.995724 0.876195
0.019647 0.022251 0.634822
0.091698 0.030841 0.649914
0.313093 0.055716 0.681156
0.539220 0.080287 0.710997
0.674112 0.094370 0.729111
0.049320 0.125640 0.683254
0.130090 0.135907 0.696414
0.372056 0.162929 0.726171
0.612340 0.189129 0.754478
0.749675 0.204055 0.770869
0.138285 0.442031 0.783435
0.224897 0.454213 0.795134
0.479277 0.483156 0.823704
0.727290 0.510714 0.850804
0.863636 0.526347 0.865911
0.228946 0.755394 0.875740
0.317955 0.767080 0.886099
0.577890 0.795634 0.913542
0.828614 0.822633 0.939583
0.955777 0.837548 0.953697
0.280505 0.927540 0.924923
0.369999 0.937734 0.934288
0.631797 0.963355 0.960940
0.879060 0.987315 0.986346
1.000000 1.000000 1.000000
