library/cube/Shadow_Scroll_002.cube
# CINEGRADE LAB — Premium Cinematic LUT
# Title: Shadow Scroll
# Category: Dark Instagram Mood
# Description: Desaturated, crushed blacks, cool tones for social media aesthetics
# Mood: Moody, cool, modern
# Variant: 3
# Generated: 2026-05-21T16:12:36.364385
TITLE "Shadow Scroll"
LUT_3D_SIZE 33
0.035000 0.035000 0.045000
0.035000 0.035000 0.045000
0.035000 0.035000 0.045000
0.035000 0.035000 0.045000
0.035000 0.035000 0.045000
0.047785 0.035000 0.045000
0.074283 0.035000 0.045000
0.100801 0.035000 0.045000
0.127340 0.035000 0.045000
0.153898 0.035000 0.045000
0.180477 0.035000 0.045000
0.207076 0.035000 0.045000
0.233694 0.035000 0.045000
0.260332 0.035000 0.045000
0.286988 0.035000 0.045000
0.313664 0.035000 0.045000
0.340358 0.035000 0.045000
0.367071 0.036759 0.045000
0.393802 0.039428 0.045000
0.420551 0.042097 0.045000
0.447318 0.044766 0.045378
0.474102 0.047437 0.048075
0.500904 0.050108 0.050771
0.527723 0.052780 0.053467
0.554559 0.055452 0.056163
0.581412 0.058125 0.058859
0.608281 0.060799 0.061554
0.635167 0.063473 0.064249
0.662069 0.066148 0.066943
0.688986 0.068824 0.069638
0.715920 0.071500 0.072332
0.718433 0.071737 0.072557
0.718664 0.071746 0.072553
0.035000 0.035000 0.045000
0.035000 0.035000 0.045000
0.035000 0.035000 0.045000
0.035000 0.035000 0.045000
0.035000 0.035000 0.045000
0.047848 0.035000 0.045000
0.074380 0.035000 0.045000
0.100932 0.035000 0.045000
0.127504 0.035000 0.045000
0.154095 0.035000 0.045000
0.180707 0.035000 0.045000
0.207337 0.035000 0.045000
0.233986 0.035000 0.045000
0.260655 0.035000 0.045000
0.287342 0.035000 0.045000
0.314047 0.035000 0.045000
0.340771 0.035000 0.045000
0.367512 0.036777 0.045000
0.394272 0.039446 0.045000
0.421049 0.042116 0.045000
0.447843 0.044787 0.045367
0.474655 0.047458 0.048064
0.501483 0.050131 0.050760
0.528328 0.052803 0.053455
0.555189 0.055477 0.056151
0.582067 0.058151 0.058846
0.608961 0.060826 0.061541
0.635871 0.063501 0.064235
0.662796 0.066177 0.066929
0.689737 0.068854 0.069623
0.716693 0.071531 0.072316
0.719201 0.071767 0.072542
0.719426 0.071776 0.072538
0.035000 0.035000 0.045000
0.035000 0.035000 0.045000
0.035000 0.035000 0.045000
0.035000 0.035000 0.045000
0.035000 0.035000 0.045000
0.047910 0.035000 0.045000
0.074475 0.035000 0.045000
0.101060 0.035000 0.045000
0.127664 0.035000 0.045000
0.154288 0.035000 0.045000
0.180930 0.035000 0.045000
0.207592 0.035000 0.045000
0.234272 0.035000 0.045000
0.260970 0.035000 0.045000
0.287686 0.035000 0.045000
0.314421 0.035000 0.045000
0.341173 0.035000 0.045000
0.367943 0.036794 0.045000
0.394730 0.039464 0.045000
0.421534 0.042135 0.045000
0.448355 0.044807 0.045357
0.475192 0.047480 0.048053
0.502046 0.050153 0.050749
0.528916 0.052827 0.053444
0.555803 0.055501 0.056139
0.582705 0.058176 0.058833
0.609622 0.060852 0.061528
0.636555 0.063528 0.064221
0.663503 0.066205 0.066915
0.690466 0.068882 0.069609
0.717443 0.071560 0.072302
0.719948 0.071797 0.072528
0.720166 0.071806 0.072523
0.035000 0.035000 0.045000
0.035000 0.035000 0.045000
0.035000 0.035000 0.045000
0.035000 0.035000 0.045000
0.035000 0.035000 0.045000
0.047970 0.035000 0.045000
0.074568 0.035000 0.045000
0.101184 0.035000 0.045000
0.127820 0.035000 0.045000
0.154475 0.035000 0.045000
0.181148 0.035000 0.045000
0.207840 0.035000 0.045000
0.234550 0.035000 0.045000
0.261277 0.035000 0.045000
0.288022 0.035000 0.045000
0.314785 0.035000 0.045000
0.341565 0.035000 0.045000
0.368362 0.036810 0.045000
0.395176 0.039482 0.045000
0.422006 0.042154 0.045000
0.448853 0.044827 0.045347
0.475715 0.047500 0.048043
0.502594 0.050175 0.050738
0.529489 0.052849 0.053432
0.556399 0.055525 0.056127
0.583324 0.058201 0.058821
0.610264 0.060877 0.061515
0.637220 0.063554 0.064208
0.664190 0.066232 0.066902
0.691174 0.068910 0.069595
0.718173 0.071589 0.072287
0.720673 0.071826 0.072513
0.720884 0.071834 0.072509
0.035000 0.035000 0.045000
0.035000 0.035000 0.045000
0.035000 0.035000 0.045000
0.035000 0.035000 0.045000
0.035000 0.035000 0.045000
0.055143 0.035000 0.045000
0.081775 0.035000 0.045000
0.108426 0.036945 0.045000
0.135095 0.039614 0.045000
0.161783 0.042285 0.045000
0.188488 0.044955 0.045000
0.215211 0.047627 0.045000
0.241952 0.050299 0.045000
0.268711 0.052972 0.045000
0.295486 0.055645 0.045000
0.322279 0.058320 0.045000
0.349088 0.060994 0.045000
0.375913 0.063670 0.045000
0.402755 0.066346 0.047257
0.429613 0.069022 0.049952
0.456487 0.071700 0.052647
0.483377 0.074377 0.055342
0.510282 0.077056 0.058036
0.537202 0.079735 0.060729
0.564138 0.082414 0.063423
0.591088 0.085094 0.066116
0.618052 0.087775 0.068809
0.645031 0.090456 0.071502
0.672024 0.093138 0.074194
0.699031 0.095820 0.076886
0.726052 0.098503 0.079578
0.728551 0.098742 0.079804
0.728757 0.098753 0.079799
0.035000 0.060062 0.045000
0.035000 0.060071 0.045000
0.035000 0.060079 0.045000
0.035000 0.060088 0.045000
0.037405 0.062242 0.045000
0.064053 0.064915 0.045000
0.090719 0.067589 0.045000
0.117403 0.070263 0.045000
0.144105 0.072938 0.045000
0.170825 0.075614 0.045000
0.197563 0.078290 0.045000
0.224318 0.080967 0.045000
0.251089 0.083644 0.045000
0.277878 0.086323 0.045000
0.304683 0.089001 0.045543
0.331505 0.091681 0.048239
0.358343 0.094361 0.050934
0.385197 0.097041 0.053628
0.412067 0.099722 0.056322
0.438953 0.102404 0.059016
0.465853 0.105086 0.061710
0.492769 0.107769 0.064404
0.519700 0.110452 0.067097
0.546646 0.113135 0.069790
0.573606 0.115820 0.072482
0.600580 0.118504 0.075174
0.627568 0.121190 0.077866
0.654571 0.123875 0.080558
0.681587 0.126561 0.083250
0.708616 0.129248 0.085941
0.735658 0.131935 0.088632
0.738155 0.132178 0.088857
0.738357 0.132192 0.088852
0.035000 0.093375 0.045000
0.035000 0.093388 0.045000
0.035000 0.093401 0.045000
0.035000 0.093414 0.045000
0.046301 0.095573 0.045000
0.072982 0.098252 0.045000
0.099681 0.100931 0.045000
0.126398 0.103611 0.045000
0.153132 0.106291 0.045000
0.179883 0.108972 0.045000
0.206651 0.111653 0.045000
0.233437 0.114335 0.046525
0.260238 0.117018 0.049220
0.287056 0.119701 0.051915
0.313891 0.122385 0.054609
0.340741 0.125069 0.057303
0.367607 0.127754 0.059997
0.394488 0.130439 0.062691
0.421385 0.133125 0.065384
0.448297 0.135811 0.068077
0.475223 0.138498 0.070770
0.502165 0.141185 0.073462
0.529120 0.143873 0.076154
0.556090 0.146561 0.078846
0.583074 0.149250 0.081538
0.610072 0.151939 0.084229
0.637083 0.154629 0.086921
0.664107 0.157319 0.089612
0.691145 0.160009 0.092302
0.718196 0.162700 0.094993
0.745259 0.165391 0.097683
0.747753 0.165637 0.097908
0.747951 0.165654 0.097903
0.035000 0.126718 0.045000
0.035000 0.126735 0.045000
0.035000 0.126752 0.045000
0.035000 0.126769 0.045000
0.055215 0.128933 0.045000
0.081929 0.131617 0.045000
0.108660 0.134301 0.045000
0.135408 0.136986 0.045000
0.162173 0.139672 0.047506
0.188955 0.142358 0.050201
0.215753 0.145044 0.052896
0.242568 0.147731 0.055590
0.269398 0.150418 0.058284
0.296245 0.153106 0.060978
0.323107 0.155795 0.063671
0.349985 0.158484 0.066365
0.376878 0.161173 0.069057
0.403785 0.163863 0.071750
0.430708 0.166553 0.074442
0.457645 0.169244 0.077135
0.484597 0.171935 0.079826
0.511562 0.174627 0.082518
0.538542 0.177319 0.085209
0.565535 0.180011 0.087900
0.592542 0.182704 0.090591
0.619562 0.185397 0.093282
0.646595 0.188091 0.095972
0.673641 0.190785 0.098662
0.700699 0.193479 0.101352
0.727770 0.196174 0.104042
0.754853 0.198869 0.106731
0.757345 0.199117 0.106956
0.757539 0.199138 0.106950
0.042575 0.160090 0.045000
0.042589 0.160111 0.045000
0.042603 0.160132 0.045000
0.042617 0.160153 0.045000
0.064147 0.162322 0.045792
0.090893 0.165010 0.048487
0.117655 0.167700 0.051182
0.144433 0.170389 0.053877
0.171228 0.173079 0.056571
0.198040 0.175770 0.059265
0.224867 0.178461 0.061958
0.251710 0.181153 0.064652
0.278569 0.183845 0.067345
0.305443 0.186537 0.070038
0.332332 0.189230 0.072730
0.359236 0.191923 0.075423
0.386155 0.194617 0.078115
0.413088 0.197311 0.080806
0.440036 0.200005 0.083498
0.466997 0.202700 0.086189
0.493973 0.205396 0.088880
0.520962 0.208091 0.091571
0.547964 0.210787 0.094261
0.574980 0.213484 0.096951
0.602008 0.216180 0.099641
0.629049 0.218877 0.102331
0.656103 0.221575 0.105021
0.683169 0.224272 0.107710
0.710248 0.226970 0.110399
0.737338 0.229669 0.113088
0.764440 0.232367 0.115777
0.766929 0.232619 0.116001
0.767118 0.232641 0.115995
0.051492 0.193490 0.052698
0.051509 0.193514 0.052695
0.051525 0.193539 0.052691
0.051541 0.193563 0.052688
0.073097 0.195737 0.054857
0.099873 0.198430 0.057552
0.126665 0.201124 0.060245
0.153473 0.203818 0.062939
0.180297 0.206513 0.065632
0.207137 0.209208 0.068325
0.233993 0.211903 0.071018
0.260863 0.214599 0.073710
0.287749 0.217295 0.076403
0.314649 0.219992 0.079095
0.341564 0.222689 0.081786
0.368494 0.225386 0.084478
0.395438 0.228084 0.087169
0.422395 0.230782 0.089860
0.449367 0.233481 0.092550
0.476352 0.236179 0.095241
0.503350 0.238878 0.097931
0.530362 0.241578 0.100621
0.557386 0.244278 0.103310
0.584423 0.246978 0.106000
0.611472 0.249678 0.108689
0.638534 0.252378 0.111378
0.665608 0.255079 0.114067
0.692693 0.257780 0.116755
0.719790 0.260482 0.119444
0.746899 0.263183 0.122132
0.774018 0.265885 0.124820
0.776505 0.266139 0.125044
0.776689 0.266164 0.125038
0.060427 0.226915 0.061762
0.060446 0.226944 0.061759
0.060464 0.226972 0.061755
0.060483 0.226999 0.061751
0.082063 0.229177 0.063920
0.108869 0.231875 0.066613
0.135690 0.234573 0.069306
0.162527 0.237271 0.071998
0.189379 0.239970 0.074691
0.216246 0.242669 0.077383
0.243129 0.245369 0.080075
0.270026 0.248069 0.082766
0.296937 0.250769 0.085457
0.323863 0.253470 0.088148
0.350803 0.256171 0.090839
0.377758 0.258872 0.093530
0.404725 0.261573 0.096220
0.431706 0.264275 0.098910
0.458701 0.266977 0.101600
0.485708 0.269680 0.104289
0.512728 0.272382 0.106979
0.539761 0.275085 0.109668
0.566807 0.277788 0.112357
0.593864 0.280492 0.115046
0.620933 0.283196 0.117734
0.648014 0.285899 0.120423
0.675107 0.288603 0.123111
0.702211 0.291308 0.125799
0.729326 0.294012 0.128486
0.756452 0.296717 0.131174
0.783588 0.299422 0.133861
0.786072 0.299678 0.134085
0.786251 0.299705 0.134079
0.069378 0.260367 0.070823
0.069399 0.260398 0.070819
0.069420 0.260429 0.070815
0.069441 0.260460 0.070811
0.091045 0.262642 0.072979
0.117879 0.265343 0.075671
0.144728 0.268046 0.078363
0.171593 0.270748 0.081054
0.198472 0.273451 0.083746
0.225366 0.276154 0.086437
0.252274 0.278857 0.089128
0.279197 0.281561 0.091819
0.306134 0.284265 0.094509
0.333084 0.286969 0.097199
0.360048 0.289674 0.099889
0.387026 0.292379 0.102579
0.414017 0.295084 0.105269
0.441020 0.297789 0.107958
0.468037 0.300495 0.110647
0.495066 0.303200 0.113336
0.522107 0.305906 0.116025
0.549160 0.308612 0.118713
0.576225 0.311319 0.121401
0.603302 0.314025 0.124089
0.630390 0.316732 0.126777
0.657490 0.319439 0.129465
0.684600 0.322146 0.132152
0.711722 0.324853 0.134840
0.738854 0.327561 0.137527
0.765996 0.330268 0.140214
0.793148 0.332976 0.142901
0.795628 0.333234 0.143124
0.795803 0.333263 0.143118
0.078346 0.293842 0.079881
0.078369 0.293876 0.079877
0.078392 0.293910 0.079872
0.078415 0.293944 0.079867
0.100042 0.296129 0.082034
0.126904 0.298835 0.084726
0.153780 0.301541 0.087417
0.180671 0.304247 0.090108
0.207576 0.306954 0.092798
0.234496 0.309660 0.095489
0.261429 0.312367 0.098179
0.288377 0.315075 0.100869
0.315337 0.317782 0.103558
0.342311 0.320490 0.106248
0.369299 0.323198 0.108937
0.396299 0.325906 0.111626
0.423311 0.328614 0.114315
0.450337 0.331322 0.117003
0.477374 0.334031 0.119692
0.504423 0.336740 0.122380
0.531485 0.339449 0.125068
0.558557 0.342158 0.127756
0.585641 0.344867 0.130443
0.612737 0.347577 0.133131
0.639843 0.350286 0.135818
0.666960 0.352996 0.138505
0.694087 0.355705 0.141192
0.721225 0.358415 0.143879
0.748373 0.361125 0.146565
0.775531 0.363835 0.149252
0.802698 0.366545 0.151938
0.805174 0.366805 0.152161
0.805343 0.366836 0.152155
0.087329 0.327340 0.088936
0.087354 0.327377 0.088931
0.087379 0.327414 0.088926
0.087403 0.327450 0.088921
0.109053 0.329639 0.091087
0.135941 0.332348 0.093778
0.162844 0.335058 0.096468
0.189760 0.337767 0.099158
0.216691 0.340477 0.101848
0.243635 0.343187 0.104537
0.270592 0.345897 0.107227
0.297563 0.348608 0.109916
0.324547 0.351319 0.112605
0.351544 0.354029 0.115294
0.378553 0.356740 0.117982
0.405575 0.359451 0.120670
0.432608 0.362163 0.123358
0.459654 0.364874 0.126046
0.486711 0.367585 0.128734
0.513780 0.370297 0.131422
0.540861 0.373009 0.134109
0.567952 0.375721 0.136796
0.595054 0.378433 0.139483
0.622167 0.381145 0.142170
0.649290 0.383857 0.144857
0.676423 0.386569 0.147543
0.703567 0.389281 0.150230
0.730720 0.391993 0.152916
0.757883 0.394705 0.155602
0.785055 0.397418 0.158288
0.812236 0.400130 0.160974
0.814709 0.400391 0.161197
0.814872 0.400423 0.161191
0.096327 0.360859 0.097988
0.096354 0.360899 0.097982
0.096380 0.360938 0.097977
0.096406 0.360977 0.097972
0.118077 0.363169 0.100137
0.144991 0.365882 0.102827
0.171918 0.368594 0.105517
0.198860 0.371307 0.108206
0.225814 0.374020 0.110895
0.252782 0.376733 0.113584
0.279763 0.379447 0.116272
0.306756 0.382160 0.118961
0.333762 0.384874 0.121649
0.360781 0.387587 0.124337
0.387811 0.390301 0.127025
0.414853 0.393015 0.129713
0.441907 0.395729 0.132400
0.468972 0.398443 0.135087
0.496049 0.401157 0.137774
0.523136 0.403871 0.140461
0.550234 0.406585 0.143148
0.577343 0.409299 0.145835
0.604462 0.412014 0.148521
0.631592 0.414728 0.151208
0.658731 0.417442 0.153894
0.685880 0.420157 0.156580
0.713038 0.422871 0.159266
0.740206 0.425585 0.161951
0.767382 0.428300 0.164637
0.794568 0.431014 0.167322
0.821762 0.433728 0.170008
0.824231 0.433991 0.170231
0.824389 0.434024 0.170225
0.105339 0.394400 0.107037
0.105367 0.394441 0.107031
0.105395 0.394483 0.107026
0.105422 0.394524 0.107020
0.127113 0.396719 0.109185
0.154052 0.399434 0.111874
0.181004 0.402150 0.114563
0.207969 0.404866 0.117251
0.234947 0.407581 0.119940
0.261937 0.410297 0.122628
0.288940 0.413013 0.125316
0.315955 0.415730 0.128003
0.342982 0.418446 0.130691
0.370021 0.421162 0.133378
0.397071 0.423878 0.136066
0.424133 0.426595 0.138753
0.451206 0.429311 0.141440
0.478290 0.432027 0.144126
0.505384 0.434744 0.146813
0.532490 0.437460 0.149499
0.559605 0.440177 0.152186
0.586730 0.442893 0.154872
0.613865 0.445609 0.157558
0.641010 0.448326 0.160243
0.668164 0.451042 0.162929
0.695328 0.453758 0.165615
0.722500 0.456474 0.168300
0.749681 0.459191 0.170985
0.776871 0.461907 0.173671
0.804069 0.464623 0.176356
0.831275 0.467338 0.179041
0.833739 0.467602 0.179264
0.833892 0.467636 0.179257
0.114363 0.427959 0.116083
0.114393 0.428003 0.116077
0.114422 0.428046 0.116072
0.114451 0.428089 0.116066
0.136162 0.430286 0.118230
0.163124 0.433005 0.120918
0.190099 0.435723 0.123606
0.217086 0.438441 0.126294
0.244086 0.441160 0.128982
0.271099 0.443878 0.131669
0.298123 0.446597 0.134357
0.325158 0.449316 0.137044
0.352206 0.452034 0.139731
0.379264 0.454753 0.142418
0.406334 0.457471 0.145104
0.433414 0.460190 0.147791
0.460505 0.462908 0.150477
0.487607 0.465627 0.153163
0.514718 0.468345 0.155850
0.541840 0.471064 0.158535
0.568971 0.473782 0.161221
0.596112 0.476500 0.163907
0.623262 0.479218 0.166592
0.650422 0.481936 0.169278
0.677590 0.484654 0.171963
0.704767 0.487372 0.174648
0.731952 0.490090 0.177333
0.759146 0.492808 0.180018
0.786348 0.495525 0.182703
0.813557 0.498243 0.185388
0.840774 0.500960 0.188072
0.843234 0.501224 0.188296
0.843381 0.501259 0.188289
0.123400 0.461536 0.125127
0.123430 0.461582 0.125121
0.123461 0.461627 0.125115
0.123491 0.461671 0.125109
0.145220 0.463871 0.127273
0.172205 0.466592 0.129960
0.199203 0.469313 0.132648
0.226212 0.472034 0.135335
0.253233 0.474754 0.138022
0.280266 0.477475 0.140709
0.307310 0.480196 0.143396
0.334366 0.482917 0.146083
0.361432 0.485637 0.148769
0.388509 0.488358 0.151455
0.415597 0.491078 0.154141
0.442695 0.493799 0.156827
0.469803 0.496519 0.159513
0.496921 0.499240 0.162199
0.524049 0.501960 0.164885
0.551186 0.504680 0.167570
0.578333 0.507400 0.170255
0.605488 0.510120 0.172941
0.632653 0.512839 0.175626
0.659826 0.515559 0.178311
0.687007 0.518278 0.180996
0.714197 0.520998 0.183680
0.741394 0.523717 0.186365
0.768599 0.526436 0.189050
0.795812 0.529155 0.191734
0.823032 0.531873 0.194419
0.850259 0.534592 0.197103
0.852714 0.534856 0.197326
0.852855 0.534891 0.197320
0.132447 0.495130 0.134169
0.132479 0.495177 0.134163
0.132510 0.495224 0.134157
0.132541 0.495270 0.134150
0.154289 0.497472 0.136313
0.181296 0.500195 0.139000
0.208315 0.502918 0.141687
0.235345 0.505641 0.144374
0.262386 0.508363 0.147061
0.289439 0.511086 0.149747
0.316502 0.513809 0.152433
0.343576 0.516531 0.155119
0.370661 0.519254 0.157805
0.397756 0.521976 0.160491
0.424861 0.524699 0.163177
0.451975 0.527421 0.165862
0.479100 0.530143 0.168548
0.506234 0.532865 0.171233
0.533376 0.535586 0.173918
0.560528 0.538308 0.176603
0.587689 0.541029 0.179288
0.614858 0.543750 0.181973
0.642035 0.546471 0.184658
0.669221 0.549192 0.187343
0.696414 0.551913 0.190027
0.723615 0.554633 0.192712
0.750824 0.557354 0.195396
0.778040 0.560073 0.198080
0.805262 0.562793 0.200765
0.832492 0.565513 0.203449
0.859728 0.568232 0.206133
0.862178 0.568497 0.206356
0.862313 0.568532 0.206350
0.141506 0.528740 0.143209
0.141538 0.528788 0.143202
0.141570 0.528836 0.143196
0.141602 0.528883 0.143190
0.163368 0.531087 0.145352
0.190395 0.533812 0.148039
0.217434 0.536537 0.150725
0.244484 0.539261 0.153411
0.271544 0.541986 0.156097
0.298616 0.544711 0.158783
0.325697 0.547435 0.161469
0.352789 0.550159 0.164154
0.379891 0.552883 0.166840
0.407003 0.555607 0.169525
0.434124 0.558331 0.172211
0.461254 0.561054 0.174896
0.488394 0.563778 0.177581
0.515542 0.566501 0.180266
0.542699 0.569224 0.182951
0.569865 0.571946 0.185635
0.597038 0.574669 0.188320
0.624220 0.577391 0.191004
0.651410 0.580113 0.193689
0.678607 0.582835 0.196373
0.705811 0.585556 0.199058
0.733023 0.588278 0.201742
0.760242 0.590999 0.204426
0.787467 0.593719 0.207110
0.814699 0.596440 0.209794
0.841937 0.599160 0.212478
0.869181 0.601880 0.215162
0.871626 0.602145 0.215385
0.871754 0.602180 0.215379
0.150574 0.562364 0.152247
0.150607 0.562413 0.152240
0.150640 0.562462 0.152233
0.150672 0.562510 0.152227
0.172454 0.564716 0.154389
0.199501 0.567442 0.157075
0.226559 0.570169 0.159761
0.253628 0.572895 0.162447
0.280707 0.575621 0.165132
0.307796 0.578347 0.167818
0.334895 0.581073 0.170503
0.362004 0.583798 0.173188
0.389122 0.586523 0.175873
0.416249 0.589249 0.178558
0.443385 0.591973 0.181243
0.470531 0.594698 0.183928
0.497684 0.597423 0.186613
0.524846 0.600147 0.189297
0.552017 0.602871 0.191982
0.579195 0.605594 0.194666
0.606381 0.608318 0.197351
0.633574 0.611041 0.200035
0.660775 0.613763 0.202719
0.687983 0.616486 0.205403
0.715197 0.619208 0.208087
0.742419 0.621930 0.210771
0.769646 0.624651 0.213455
0.796880 0.627372 0.216139
0.824120 0.630093 0.218823
0.851366 0.632814 0.221507
0.878617 0.635534 0.224190
0.881057 0.635799 0.224414
0.881178 0.635834 0.224408
0.159650 0.596001 0.161283
0.159684 0.596051 0.161276
0.159718 0.596101 0.161269
0.159751 0.596150 0.161263
0.181548 0.598356 0.163424
0.208614 0.601084 0.166110
0.235691 0.603812 0.168795
0.262777 0.606540 0.171481
0.289873 0.609267 0.174166
0.316979 0.611994 0.176851
0.344094 0.614721 0.179536
0.371219 0.617448 0.182221
0.398352 0.620174 0.184905
0.425494 0.622900 0.187590
0.452645 0.625626 0.190275
0.479804 0.628351 0.192959
0.506971 0.631076 0.195643
0.534145 0.633801 0.198328
0.561328 0.636526 0.201012
0.588518 0.639250 0.203696
0.615715 0.641974 0.206380
0.642919 0.644698 0.209064
0.670130 0.647421 0.211748
0.697347 0.650144 0.214432
0.724571 0.652866 0.217116
0.751801 0.655588 0.219800
0.779037 0.658310 0.222484
0.806279 0.661031 0.225168
0.833526 0.663752 0.227851
0.860778 0.666473 0.230535
0.888035 0.669193 0.233219
0.890469 0.669457 0.233442
0.890584 0.669492 0.233436
0.168735 0.629650 0.170317
0.168770 0.629701 0.170310
0.168803 0.629751 0.170303
0.168837 0.629800 0.170297
0.190649 0.632008 0.172458
0.217733 0.634737 0.175143
0.244827 0.637466 0.177828
0.271930 0.640195 0.180513
0.299042 0.642923 0.183198
0.326164 0.645651 0.185883
0.353295 0.648379 0.188567
0.380434 0.651106 0.191252
0.407582 0.653833 0.193936
0.434737 0.656560 0.196621
0.461901 0.659286 0.199305
0.489073 0.662012 0.201989
0.516252 0.664738 0.204673
0.543439 0.667463 0.207357
0.570632 0.670188 0.210041
0.597833 0.672913 0.212725
0.625040 0.675637 0.215409
0.652254 0.678361 0.218093
0.679474 0.681084 0.220777
0.706700 0.683807 0.223461
0.733932 0.686530 0.226145
0.761170 0.689252 0.228828
0.788413 0.691974 0.231512
0.815661 0.694695 0.234196
0.842914 0.697416 0.236879
0.870172 0.700136 0.239563
0.897435 0.702856 0.242247
0.899863 0.703120 0.242470
0.899970 0.703153 0.242465
0.177827 0.663310 0.179350
0.177862 0.663361 0.179343
0.177896 0.663411 0.179336
0.177929 0.663461 0.179330
0.199756 0.665669 0.181491
0.226856 0.668399 0.184175
0.253967 0.671129 0.186860
0.281086 0.673858 0.189545
0.308214 0.676587 0.192229
0.335350 0.679316 0.194914
0.362495 0.682044 0.197598
0.389648 0.684772 0.200282
0.416809 0.687500 0.202966
0.443978 0.690227 0.205651
0.471154 0.692954 0.208335
0.498337 0.695680 0.211019
0.525528 0.698406 0.213703
0.552725 0.701132 0.216386
0.579929 0.703857 0.219070
0.607139 0.706581 0.221754
0.634356 0.709306 0.224438
0.661578 0.712030 0.227122
0.688807 0.714753 0.229805
0.716041 0.717476 0.232489
0.743280 0.720198 0.235173
0.770524 0.722920 0.237856
0.797773 0.725642 0.240540
0.825027 0.728362 0.243224
0.852285 0.731083 0.245907
0.879548 0.733803 0.248591
0.906815 0.736522 0.251275
0.909237 0.736785 0.251499
0.909337 0.736817 0.251493
0.186926 0.696979 0.188382
0.186961 0.697030 0.188375
0.186995 0.697081 0.188368
0.187028 0.697130 0.188361
0.208867 0.699339 0.190522
0.235984 0.702070 0.193207
0.263110 0.704800 0.195891
0.290244 0.707530 0.198575
0.317386 0.710259 0.201259
0.344536 0.712988 0.203944
0.371695 0.715717 0.206628
0.398860 0.718445 0.209312
0.426034 0.721173 0.211996
0.453214 0.723900 0.214680
0.480402 0.726627 0.217364
0.507596 0.729354 0.220047
0.534797 0.732079 0.222731
0.562004 0.734805 0.225415
0.589217 0.737530 0.228099
0.616436 0.740254 0.230782
0.643661 0.742978 0.233466
0.670891 0.745702 0.236150
0.698127 0.748425 0.238833
0.725367 0.751147 0.241517
0.752613 0.753869 0.244201
0.779863 0.756591 0.246884
0.807117 0.759312 0.249568
0.834376 0.762032 0.252252
0.861638 0.764752 0.254935
0.888904 0.767471 0.257619
0.916174 0.770189 0.260303
0.918590 0.770451 0.260527
0.918683 0.770482 0.260522
0.196030 0.730657 0.197412
0.196065 0.730708 0.197405
0.196098 0.730758 0.197399
0.196132 0.730808 0.197392
0.217983 0.733017 0.199552
0.245115 0.735748 0.202237
0.272255 0.738478 0.204921
0.299403 0.741208 0.207605
0.326559 0.743938 0.210289
0.353722 0.746667 0.212973
0.380893 0.749395 0.215657
0.408070 0.752124 0.218341
0.435255 0.754851 0.221024
0.462446 0.757578 0.223708
0.489644 0.760305 0.226392
0.516848 0.763031 0.229076
0.544058 0.765757 0.231759
0.571274 0.768482 0.234443
0.598496 0.771207 0.237127
0.625723 0.773931 0.239810
0.652955 0.776654 0.242494
0.680192 0.779377 0.245178
0.707434 0.782100 0.247861
0.734680 0.784821 0.250545
0.761931 0.787543 0.253229
0.789185 0.790263 0.255912
0.816444 0.792983 0.258596
0.843706 0.795703 0.261280
0.870972 0.798421 0.263963
0.898241 0.801140 0.266647
0.925513 0.803857 0.269331
0.927922 0.804117 0.269555
0.928008 0.804147 0.269550
0.205139 0.764341 0.206442
0.205173 0.764392 0.206435
0.205207 0.764442 0.206428
0.205240 0.764491 0.206422
0.227103 0.766700 0.208582
0.254249 0.769431 0.211266
0.281402 0.772162 0.213950
0.308563 0.774892 0.216634
0.335731 0.777621 0.219318
0.362906 0.780350 0.222002
0.390088 0.783078 0.224685
0.417277 0.785806 0.227369
0.444472 0.788534 0.230053
0.471673 0.791260 0.232736
0.498880 0.793987 0.235420
0.526093 0.796712 0.238104
0.553312 0.799437 0.240787
0.580535 0.802162 0.243471
0.607764 0.804886 0.246155
