library/cube/Shadow_Play_000.cube
# CINEGRADE LAB — Premium Cinematic LUT
# Title: Shadow Play
# Category: Neo Noir
# Description: Dramatic shadows, high contrast, moody lighting inspired by noir cinema
# Mood: Mysterious, dramatic, dark
# Variant: 1
# Generated: 2026-05-21T16:12:29.532789
TITLE "Shadow Play"
LUT_3D_SIZE 9
0.000000 0.000000 0.000000
0.000004 0.000001 0.000000
0.066678 0.007843 0.008410
0.170759 0.019818 0.021119
0.276142 0.031662 0.033540
0.383698 0.043509 0.045834
0.493539 0.055401 0.058061
0.605571 0.067350 0.070247
0.626039 0.069046 0.071686
0.000040 0.000013 0.000000
0.000067 0.000022 0.000000
0.072133 0.008166 0.008558
0.183515 0.020548 0.021465
0.295091 0.032737 0.034054
0.407911 0.044878 0.046491
0.522186 0.057018 0.058836
0.637896 0.069173 0.071119
0.656785 0.070786 0.072512
0.025703 0.099716 0.028962
0.026199 0.100585 0.029080
0.103087 0.109775 0.037867
0.220762 0.123233 0.051037
0.337639 0.136393 0.063854
0.454920 0.149410 0.076490
0.572911 0.162339 0.089007
0.691658 0.175202 0.101437
0.709387 0.177253 0.102858
0.067608 0.255625 0.073238
0.068569 0.257340 0.073471
0.149391 0.267503 0.082459
0.272107 0.281930 0.095850
0.393161 0.295954 0.108857
0.513890 0.309738 0.121654
0.634681 0.323345 0.134308
0.755645 0.336802 0.146851
0.772341 0.339223 0.148293
0.111214 0.412130 0.116841
0.112400 0.414225 0.117123
0.196155 0.424869 0.126227
0.322614 0.439780 0.139749
0.446685 0.454208 0.152861
0.569823 0.468327 0.165741
0.692486 0.482203 0.178458
0.814843 0.495873 0.191047
0.830515 0.498349 0.192468
0.155903 0.569066 0.160061
0.157140 0.571194 0.160343
0.242990 0.581956 0.169497
0.372111 0.596990 0.183080
0.498252 0.611487 0.196233
0.622966 0.625630 0.209138
0.746776 0.639491 0.221866
0.868219 0.653111 0.234453
0.882099 0.655437 0.235827
0.201019 0.725559 0.202898
0.202182 0.727477 0.203146
0.289451 0.738097 0.212302
0.420361 0.753003 0.225894
0.547825 0.767344 0.239042
0.673480 0.781307 0.251932
0.797908 0.794973 0.264634
0.916251 0.808386 0.277189
0.928947 0.810454 0.278505
0.246046 0.880815 0.245308
0.247061 0.882372 0.245500
0.335220 0.892694 0.254624
0.467251 0.907323 0.268191
0.595490 0.921380 0.281306
0.721648 0.935062 0.294156
0.845689 0.947842 0.306815
0.960013 0.960236 0.319324
0.971680 0.961849 0.320584
0.253167 0.899854 0.249886
0.253920 0.900851 0.249997
0.342522 0.910695 0.259060
0.475144 0.924897 0.272574
0.603753 0.938470 0.285635
0.730121 0.951003 0.298432
0.853581 0.963203 0.311042
0.965790 0.975116 0.323504
0.976811 0.976419 0.324721
0.000000 0.000000 0.000000
0.000006 0.000002 0.000000
0.067273 0.007877 0.008427
0.172159 0.019897 0.021157
0.278229 0.031779 0.033597
0.386372 0.043659 0.045907
0.496711 0.055579 0.058147
0.609161 0.067552 0.070344
0.629464 0.069238 0.071778
0.000048 0.000015 0.000000
0.000078 0.000025 0.000000
0.072632 0.008197 0.008571
0.184670 0.020616 0.021496
0.296799 0.032836 0.034100
0.410084 0.045003 0.046549
0.524747 0.057164 0.058905
0.640775 0.069336 0.071196
0.659512 0.070942 0.072585
0.025874 0.100017 0.029003
0.026362 0.100868 0.029118
0.103636 0.110063 0.037913
0.221826 0.123532 0.051095
0.339129 0.136699 0.063922
0.456761 0.149721 0.076564
0.575035 0.162651 0.089087
0.694005 0.175512 0.101520
0.711591 0.177541 0.102935
0.067940 0.256221 0.073319
0.068882 0.257896 0.073546
0.149996 0.268036 0.082537
0.273101 0.282448 0.095934
0.394467 0.296454 0.108944
0.515446 0.310218 0.121743
0.636429 0.323803 0.134397
0.757536 0.337237 0.146939
0.774098 0.339622 0.148373
0.111625 0.412860 0.116940
0.112786 0.414899 0.117214
0.196751 0.425502 0.126316
0.323492 0.440378 0.139839
0.447781 0.454770 0.152950
0.571086 0.468852 0.165828
0.693869 0.482692 0.178542
0.816306 0.496325 0.191127
0.831858 0.498756 0.192540
0.156333 0.569811 0.160160
0.157539 0.571873 0.160433
0.243535 0.582582 0.169582
0.372849 0.597569 0.183162
0.499133 0.612020 0.196312
0.623947 0.626117 0.209212
0.747823 0.639933 0.221934
0.869212 0.653510 0.234515
0.882971 0.655789 0.235882
0.201425 0.726233 0.202986
0.202556 0.728082 0.203224
0.289917 0.738645 0.212373
0.420951 0.753499 0.225960
0.548500 0.767788 0.239103
0.674209 0.781704 0.251986
0.798667 0.795324 0.264682
0.916858 0.808695 0.277231
0.929452 0.810720 0.278540
0.246401 0.881366 0.245376
0.247384 0.882857 0.245559
0.335598 0.893122 0.254676
0.467702 0.907700 0.268237
0.595988 0.921711 0.281346
0.722171 0.935349 0.294190
0.846186 0.948065 0.306843
0.960305 0.960410 0.319346
0.971895 0.961989 0.320600
0.253430 0.900210 0.249926
0.254161 0.901157 0.250029
0.342796 0.910959 0.259088
0.475461 0.925124 0.272596
0.604099 0.938656 0.285652
0.730484 0.951146 0.298446
0.853918 0.963306 0.311051
0.965911 0.975184 0.323510
0.976885 0.976470 0.324724
0.002243 0.002618 0.075725
0.002316 0.002655 0.076183
0.070224 0.010595 0.085058
0.175956 0.022690 0.098218
0.282753 0.034638 0.111061
0.391521 0.046577 0.123750
0.502396 0.058549 0.136344
0.615298 0.070569 0.148870
0.635477 0.072270 0.150598
0.002501 0.002744 0.077167
0.002586 0.002782 0.077543
0.075668 0.011008 0.086482
0.188395 0.023487 0.099757
0.301109 0.035761 0.112687
0.414889 0.047975 0.125440
0.529967 0.060178 0.138077
0.646339 0.072387 0.150629
0.664960 0.074002 0.152247
0.028652 0.103126 0.107389
0.029176 0.103982 0.107806
0.106866 0.113202 0.116893
0.225597 0.126702 0.130351
0.343349 0.139895 0.143432
0.461355 0.152938 0.156309
0.579934 0.165884 0.169047
0.699147 0.178757 0.181678
0.716618 0.180779 0.183265
0.071010 0.259688 0.152689
0.071967 0.261341 0.153149
0.153396 0.271476 0.162364
0.276908 0.285888 0.175970
0.398605 0.299890 0.189172
0.519850 0.313647 0.202144
0.641042 0.327222 0.214956
0.762306 0.340644 0.227640
0.778756 0.343003 0.229195
0.114877 0.416512 0.197061
0.116037 0.418509 0.197509
0.200232 0.429084 0.206776
0.327267 0.443937 0.220451
0.451788 0.458304 0.233699
0.575271 0.472360 0.246700
0.698185 0.486172 0.259522
0.820714 0.499777 0.272203
0.836001 0.502171 0.273694
0.159682 0.573515 0.240834
0.160877 0.575524 0.241230
0.247031 0.586190 0.250494
0.376547 0.601139 0.264178
0.502982 0.615551 0.277419
0.627907 0.629610 0.290399
0.751856 0.643389 0.303190
0.873051 0.656929 0.315829
0.886688 0.659167 0.317242
0.204808 0.729897 0.284043
0.205921 0.731686 0.284362
0.293384 0.742199 0.293585
0.424548 0.757007 0.307237
0.552188 0.771252 0.320435
0.677958 0.785125 0.333365
0.802450 0.798704 0.346098
0.920302 0.812037 0.358677
0.932790 0.814024 0.360008
0.249776 0.884928 0.326679
0.250738 0.886360 0.326909
0.339012 0.896575 0.336069
0.471193 0.911107 0.349664
0.599529 0.925074 0.362801
0.725742 0.938566 0.375666
0.849511 0.951166 0.388335
0.963412 0.963452 0.400849
0.974915 0.964989 0.402110
0.256745 0.903596 0.331361
0.257460 0.904499 0.331489
0.346131 0.914262 0.340567
0.478843 0.928395 0.354090
0.607512 0.941709 0.367157
0.733917 0.954146 0.379956
0.857052 0.966257 0.392565
0.968813 0.978090 0.405025
0.979729 0.979349 0.406239
0.005657 0.006566 0.189492
0.005824 0.006654 0.190613
0.074391 0.014673 0.200131
0.180980 0.026855 0.213904
0.288513 0.038882 0.227322
0.397916 0.050892 0.240550
0.509335 0.062927 0.253648
0.622699 0.075004 0.266645
0.642776 0.076729 0.268798
0.006215 0.006851 0.193022
0.006379 0.006932 0.193944
0.080001 0.015222 0.203407
0.193425 0.027772 0.217180
0.306729 0.040109 0.230573
0.421011 0.052380 0.243756
0.536513 0.064632 0.256794
0.653234 0.076886 0.269716
0.671755 0.078519 0.271666
0.032761 0.107647 0.224988
0.033341 0.108519 0.225840
0.111456 0.117773 0.235344
0.230732 0.131313 0.249192
0.348939 0.144540 0.262635
0.467322 0.157610 0.275845
0.586211 0.170579 0.288889
0.705672 0.183471 0.301799
0.723040 0.185492 0.303633
0.075466 0.264592 0.271684
0.076455 0.266231 0.272481
0.158204 0.276368 0.282015
0.282127 0.290787 0.295918
0.404157 0.304791 0.309390
0.525670 0.318547 0.322609
0.647074 0.332117 0.335644
0.768499 0.345532 0.348529
0.784845 0.347870 0.350258
0.119558 0.421618 0.317123
0.120731 0.423581 0.317823
0.205158 0.434134 0.327325
0.332489 0.448970 0.341215
0.457243 0.463316 0.354656
0.580905 0.477350 0.367830
0.703953 0.491139 0.380805
0.826575 0.504719 0.393621
0.841533 0.507080 0.395227
0.164494 0.578690 0.361679
0.165686 0.580650 0.362254
0.252001 0.591278 0.371682
0.381720 0.606193 0.385513
0.508306 0.620571 0.398883
0.633341 0.634594 0.411975
0.757365 0.648339 0.424862
0.878283 0.661845 0.437584
0.891798 0.664045 0.439064
0.209679 0.735043 0.405433
0.210780 0.736776 0.405870
0.298346 0.747242 0.415198
0.429639 0.762007 0.428941
0.557370 0.776211 0.442217
0.683200 0.790044 0.455211
0.807729 0.803586 0.467998
0.925135 0.816884 0.480618
0.937514 0.818835 0.481981
0.254655 0.889981 0.448416
0.255602 0.891357 0.448716
0.343937 0.901524 0.457935
0.476194 0.916014 0.471580
0.604580 0.929941 0.484756
0.730823 0.943147 0.497651
0.854223 0.955682 0.510342
0.967897 0.967907 0.522871
0.979311 0.969398 0.524142
0.261577 0.908483 0.453289
0.262280 0.909344 0.453451
0.350988 0.919072 0.462557
0.483748 0.933174 0.476100
0.612448 0.946173 0.489181
0.738876 0.958554 0.501989
0.861560 0.970612 0.514603
0.973081 0.982394 0.527065
0.983934 0.983622 0.528278
0.009023 0.010420 0.299988
0.009280 0.010554 0.301725
0.078487 0.018649 0.311841
0.185912 0.030914 0.326183
0.294162 0.043016 0.340135
0.404182 0.055093 0.353862
0.516129 0.067189 0.367427
0.629938 0.079319 0.380859
0.649910 0.081065 0.383403
0.009862 0.010853 0.305458
0.010099 0.010972 0.306884
0.084246 0.019323 0.316833
0.198347 0.031942 0.331065
0.312226 0.044339 0.344886
0.426994 0.056662 0.358466
0.542904 0.068962 0.371871
0.659962 0.081256 0.385133
0.678380 0.082905 0.387385
0.036783 0.112047 0.339036
0.037412 0.112932 0.340289
0.115940 0.122218 0.350176
0.235745 0.135795 0.364384
0.354391 0.149052 0.378158
0.473139 0.162148 0.391672
0.592324 0.175137 0.404994
0.712022 0.188046 0.418159
0.729286 0.190063 0.420217
0.079815 0.269357 0.387017
0.080830 0.270982 0.388123
0.162890 0.281119 0.397947
0.287209 0.295542 0.412121
0.409560 0.309546 0.425839
0.531331 0.323300 0.439281
0.652936 0.336864 0.452516
0.774513 0.350271 0.465582
0.790756 0.352586 0.467467
0.124117 0.426575 0.433431
0.125298 0.428502 0.434358
0.209950 0.439032 0.444072
0.337565 0.453849 0.458157
0.462541 0.468174 0.471771
0.586374 0.482185 0.485099
0.709548 0.495949 0.498210
0.832244 0.509505 0.511145
0.846879 0.511832 0.512851
0.169170 0.583706 0.478695
0.170358 0.585617 0.479429
0.256826 0.596207 0.489002
0.386738 0.611087 0.502963
0.513469 0.625430 0.516447
0.638607 0.639419 0.529637
0.762701 0.653128 0.542608
0.883331 0.666601 0.555400
0.896725 0.668763 0.556936
0.214405 0.740024 0.522932
0.215493 0.741702 0.523472
0.303157 0.752121 0.532891
0.434573 0.766845 0.546714
0.562390 0.781008 0.560055
0.688276 0.794801 0.573103
0.812836 0.808306 0.585934
0.929789 0.821569 0.598589
0.942062 0.823485 0.599977
0.259384 0.894868 0.566217
0.260314 0.896190 0.566576
0.348707 0.906309 0.575845
0.481036 0.920756 0.589530
0.609469 0.934644 0.602737
0.735741 0.947563 0.615655
0.858766 0.960036 0.628362
0.972212 0.972200 0.640902
0.983539 0.973647 0.642178
0.266258 0.913208 0.571248
0.266949 0.914027 0.571438
0.355692 0.923721 0.580564
0.488495 0.937748 0.594123
0.617226 0.950477 0.607213
0.743676 0.962803 0.620026
0.865909 0.974809 0.632642
0.977190 0.986543 0.645104
0.987982 0.987742 0.646316
0.012387 0.014232 0.408775
0.012727 0.014411 0.411093
0.082559 0.022577 0.421771
0.190800 0.034922 0.436649
0.299749 0.047096 0.451102
0.410370 0.059237 0.465298
0.522828 0.071390 0.479299
0.637069 0.083570 0.493137
0.656933 0.085336 0.496045
0.013489 0.014804 0.416068
0.013796 0.014960 0.417967
0.088453 0.023370 0.428371
0.203215 0.036053 0.443034
0.317651 0.048507 0.457254
0.432891 0.060881 0.471205
0.549195 0.073225 0.484952
0.666578 0.085559 0.498529
0.684892 0.087221 0.501061
0.040767 0.116382 0.451158
0.041443 0.117278 0.452785
0.120371 0.126594 0.463028
0.240690 0.140205 0.477570
0.359762 0.153491 0.491651
0.478861 0.166610 0.505447
0.598333 0.179619 0.519026
0.718258 0.192543 0.532425
0.735417 0.194556 0.534687
0.084111 0.274045 0.500335
0.085151 0.275653 0.501726
0.167511 0.285789 0.511820
0.292213 0.300215 0.526242
0.414873 0.314218 0.540186
0.536891 0.327967 0.553832
0.658689 0.341524 0.567251
0.780409 0.354921 0.580480
0.796549 0.357215 0.582505
0.128610 0.431443 0.547649
0.129798 0.433334 0.548785
0.214666 0.443840 0.558692
0.342554 0.458637 0.572953
0.467743 0.472940 0.586725
0.591739 0.486927 0.600191
0.715031 0.500667 0.613425
0.837594 0.514196 0.626466
0.852101 0.516491 0.628259
0.173772 0.588627 0.593559
0.174954 0.590489 0.594436
0.261569 0.601039 0.604141
0.391665 0.615885 0.618218
0.518533 0.630192 0.631802
0.643769 0.644146 0.645078
0.767927 0.657821 0.658122
0.888256 0.671260 0.670975
0.901531 0.673385 0.672558
0.219049 0.744905 0.638231
0.220124 0.746528 0.638861
0.307880 0.756901 0.648360
0.439412 0.771582 0.662251
0.567309 0.785705 0.675649
0.693248 0.799460 0.688743
0.817838 0.812928 0.701610
0.934326 0.826157 0.714292
0.946494 0.828039 0.715699
0.264027 0.899653 0.681780
0.264940 0.900920 0.682188
0.353386 0.910994 0.691498
0.485783 0.925400 0.705216
0.614260 0.939113 0.718448
0.740558 0.951877 0.731384
0.863201 0.964287 0.744102
0.976417 0.976392 0.756649
0.987660 0.977797 0.757927
0.270852 0.917833 0.686942
0.271530 0.918613 0.687153
0.360305 0.928274 0.696295
0.493151 0.942009 0.709864
0.621911 0.954681 0.722960
0.748384 0.966953 0.735775
0.870157 0.978909 0.748390
0.981199 0.990596 0.760851
0.991934 0.991767 0.762061
0.015763 0.018022 0.516467
0.016182 0.018243 0.519335
0.086626 0.026478 0.530545
0.195662 0.038901 0.545929
0.305293 0.051143 0.560855
0.416498 0.063345 0.575491
0.529454 0.075553 0.589902
0.644112 0.087782 0.604121
0.663867 0.089566 0.607370
0.017115 0.018727 0.525483
0.017487 0.018916 0.527827
0.092642 0.027382 0.538659
0.208047 0.040128 0.553726
0.323025 0.052636 0.568321
0.438723 0.065059 0.582618
0.555409 0.077445 0.596685
0.673105 0.089816 0.610555
0.691313 0.091491 0.613347
0.044735 0.120676 0.561993
0.045455 0.121582 0.563970
0.124772 0.130925 0.574546
0.245589 0.144569 0.589400
0.365074 0.157881 0.603767
0.484513 0.171022 0.617824
0.604260 0.184048 0.631642
0.724401 0.196985 0.645256
0.741455 0.198994 0.647705
0.088376 0.278678 0.612290
0.089438 0.280269 0.613944
0.172088 0.290402 0.624288
0.297161 0.304829 0.638940
0.420119 0.318830 0.653093
0.542374 0.332574 0.666926
0.664356 0.346123 0.680512
0.786213 0.359509 0.693890
0.802250 0.361780 0.696041
0.133061 0.436247 0.660438
0.134253 0.438100 0.661764
0.219329 0.448582 0.671849
0.347481 0.463358 0.686271
0.472874 0.477638 0.700185
0.597024 0.491601 0.713776
0.720429 0.505316 0.727119
0.842844 0.518820 0.740254
0.857222 0.521081 0.742125
0.178322 0.593475 0.706939
0.179497 0.595288 0.707945
0.266252 0.605800 0.717767
0.396525 0.620610 0.731948
0.523522 0.634883 0.745621
0.648850 0.648801 0.758973
0.773069 0.662442 0.772080
0.893083 0.675848 0.784984
0.906239 0.677936 0.786606
0.223636 0.749710 0.752000
0.224696 0.751279 0.752710
0.312540 0.761606 0.762279
0.444181 0.776246 0.776229
0.572154 0.790329 0.789675
0.698142 0.804046 0.802806
0.822759 0.817478 0.815702
0.938770 0.830674 0.828406
0.950835 0.832523 0.829826
0.268608 0.904361 0.795780
0.269504 0.905576 0.796229
0.358000 0.915604 0.805573
0.490461 0.929970 0.819317
0.618979 0.943412 0.832567
0.745302 0.956112 0.845516
0.867552 0.968461 0.858242
0.980536 0.980509 0.870791
0.991697 0.981872 0.872070
0.275383 0.922385 0.801048
0.276048 0.923127 0.801274
0.364855 0.932756 0.810428
0.497741 0.946194 0.824003
0.626530 0.958810 0.837101
0.753025 0.971030 0.849917
0.874330 0.982936 0.862530
0.985132 0.994579 0.874987
0.995812 0.995724 0.876195
0.019159 0.021802 0.623392
0.019654 0.022063 0.626781
0.090694 0.030364 0.638494
0.200509 0.042861 0.654357
0.310803 0.055169 0.669729
0.422577 0.067430 0.684781
0.536016 0.079690 0.699579
0.651079 0.091966 0.714156
0.670723 0.093766 0.717723
0.020749 0.022632 0.634037
0.021182 0.022853 0.636801
0.096823 0.031373 0.648037
0.212854 0.044178 0.663484
0.328360 0.056739 0.678431
0.444502 0.069208 0.693053
0.561557 0.081634 0.707418
0.679554 0.094040 0.721562
0.697656 0.095726 0.724594
0.048696 0.124940 0.671887
0.049457 0.125854 0.674190
0.129151 0.135223 0.685079
0.250454 0.148897 0.700224
0.370338 0.162235 0.714857
0.490105 0.175396 0.729157
0.610117 0.188437 0.743195
0.730466 0.201386 0.757007
0.747414 0.203389 0.759628
0.092622 0.283269 0.723230
0.093702 0.284841 0.725130
0.176634 0.294970 0.735704
0.302065 0.309398 0.750570
0.425311 0.323396 0.764914
0.547794 0.337133 0.778918
0.669951 0.350673 0.792657
0.791937 0.364048 0.806170
0.807871 0.366295 0.808434
0.137481 0.440999 0.772151
0.138677 0.442815 0.773652
0.223952 0.453272 0.783899
0.352357 0.468026 0.798467
0.477946 0.482283 0.812511
0.602243 0.496221 0.826215
0.725754 0.509910 0.839655
0.848006 0.523388 0.852873
0.862256 0.525616 0.854810
0.182833 0.598266 0.819192
0.184000 0.600030 0.820315
0.270889 0.610503 0.830242
0.401330 0.625278 0.844516
0.528451 0.639515 0.858267
0.653866 0.653399 0.871684
0.778140 0.667006 0.884845
0.897826 0.680378 0.897793
0.910865 0.682431 0.899447
0.228177 0.754453 0.864602
0.229222 0.755969 0.865381
0.317150 0.766251 0.875011
0.448895 0.780850 0.889011
0.576939 0.794893 0.902497
0.702972 0.808573 0.915660
0.827614 0.821970 0.928578
0.943135 0.835134 0.941297
0.955099 0.836952 0.942727
0.273141 0.909006 0.908580
0.274019 0.910169 0.909063
0.362563 0.920154 0.918435
0.495084 0.934480 0.932199
0.623641 0.947645 0.945463
0.749988 0.960282 0.958420
0.871833 0.972572 0.971149
0.984583 0.984562 0.983699
0.995665 0.985886 0.984975
0.279866 0.926879 0.913933
0.280519 0.927584 0.914171
0.369355 0.937173 0.923331
0.502280 0.950315 0.936909
0.631096 0.962877 0.950007
0.757614 0.975046 0.962820
0.878442 0.986905 0.975430
0.989003 0.998503 0.987884
0.999632 0.999624 0.989090
0.019647 0.022251 0.634822
0.020143 0.022512 0.638199
0.091698 0.030841 0.649914
0.202209 0.043377 0.665782
0.313093 0.055716 0.681156
0.425364 0.068004 0.696205
0.539220 0.080287 0.710997
0.654626 0.092580 0.725566
0.674112 0.094370 0.729111
0.021239 0.023080 0.645424
0.021673 0.023302 0.648173
0.097732 0.031844 0.659404
0.214323 0.044679 0.674849
0.330294 0.057265 0.689791
0.446822 0.069754 0.704406
0.564193 0.082197 0.718760
0.682443 0.094615 0.732892
0.700402 0.096293 0.735900
0.049320 0.125640 0.683254
0.050072 0.126537 0.685537
0.130090 0.135907 0.696414
0.251822 0.149588 0.711550
0.372056 0.162929 0.726171
0.492106 0.176090 0.740457
0.612340 0.189129 0.754478
0.732859 0.202073 0.768274
0.749675 0.204055 0.770869
0.093373 0.284207 0.734568
0.094434 0.285741 0.736443
0.177604 0.295848 0.747000
0.303350 0.310258 0.761849
0.426845 0.324236 0.776175
0.549521 0.337952 0.790161
0.671822 0.351470 0.803879
0.793907 0.364822 0.817370
0.809720 0.367036 0.819609
0.138285 0.442031 0.783435
0.139455 0.443796 0.784908
0.224897 0.454213 0.795134
0.353522 0.468933 0.809682
0.479277 0.483156 0.823704
0.603696 0.497059 0.837386
0.727290 0.510714 0.850804
0.849510 0.524158 0.863999
0.863636 0.526347 0.865911
0.183638 0.599287 0.830407
0.184775 0.600992 0.831501
0.271773 0.611417 0.841405
0.402359 0.626149 0.855657
0.529583 0.640343 0.869386
0.655066 0.654186 0.882781
0.779380 0.667753 0.895919
0.898928 0.681089 0.908846
0.911859 0.683102 0.910478
0.228946 0.755394 0.875740
0.229962 0.756849 0.876492
0.317955 0.767080 0.886099
0.449788 0.781634 0.900078
0.577890 0.795634 0.913542
0.703956 0.809273 0.926685
0.828614 0.822633 0.939583
0.943897 0.835762 0.952285
0.955777 0.837548 0.953697
0.273857 0.909827 0.919642
0.274708 0.910936 0.920102
0.363288 0.920874 0.929452
0.495859 0.935158 0.943198
0.624446 0.948241 0.956444
0.750811 0.960828 0.969385
0.872555 0.973072 0.982100
0.985086 0.985020 0.994637
0.996108 0.986320 0.995902
0.280505 0.927540 0.924923
0.281140 0.928207 0.925143
0.369999 0.937734 0.934288
0.502957 0.950833 0.947853
0.631797 0.963355 0.960940
0.758335 0.975488 0.973744
0.879060 0.987315 0.986346
0.989400 0.998886 0.998796
1.000000 1.000000 1.000000
