library/cube/Shadow_Journal_002.cube
# CINEGRADE LAB — Premium Cinematic LUT
# Title: Shadow Journal
# Category: Moody Documentary
# Description: Desaturated, contrasty, journalistic style for documentary storytelling
# Mood: Raw, honest, gritty
# Variant: 3
# Generated: 2026-05-21T16:12:16.742186
TITLE "Shadow Journal"
LUT_3D_SIZE 5
0.000000 0.000000 0.003600
0.122932 0.009931 0.013212
0.360309 0.029065 0.032137
0.598821 0.048238 0.051073
0.762102 0.061315 0.063838
0.033240 0.148168 0.036027
0.157247 0.158275 0.045719
0.396348 0.177594 0.064708
0.636240 0.196927 0.083715
0.800122 0.210124 0.096563
0.097786 0.434327 0.099905
0.222570 0.444599 0.109671
0.462853 0.464076 0.128723
0.703621 0.483536 0.147798
0.867802 0.496820 0.160725
0.162796 0.721402 0.164004
0.288026 0.731687 0.173853
0.528960 0.751171 0.192982
0.770126 0.770618 0.212135
0.934324 0.783865 0.225144
0.207206 0.917011 0.207618
0.332608 0.927187 0.217553
0.573770 0.946566 0.236761
0.814984 0.965907 0.255989
0.979031 0.979048 0.269069
0.003329 0.003370 0.122898
0.126387 0.013310 0.132432
0.363966 0.032454 0.151284
0.602644 0.051636 0.170155
0.766003 0.064719 0.182862
0.036624 0.151600 0.155091
0.160719 0.161708 0.164729
0.399960 0.181030 0.183668
0.639961 0.200365 0.202632
0.803883 0.213561 0.215444
0.101215 0.437819 0.218807
0.226054 0.448082 0.228539
0.466421 0.467552 0.247563
0.707246 0.487005 0.266614
0.871437 0.500280 0.279524
0.166239 0.724899 0.282813
0.291496 0.735170 0.292646
0.532468 0.754641 0.311763
0.773651 0.774075 0.330908
0.937837 0.787309 0.343914
0.210636 0.920472 0.326390
0.336045 0.930633 0.336323
0.577212 0.949998 0.355530
0.818418 0.969326 0.374760
0.982449 0.982458 0.387843
0.009741 0.009855 0.352380
0.132929 0.019806 0.361761
0.370712 0.038964 0.380472
0.609557 0.058159 0.399216
0.772996 0.071249 0.411811
0.043113 0.158156 0.384114
0.167300 0.168268 0.393643
0.406681 0.187595 0.412486
0.646789 0.206934 0.431364
0.810754 0.220131 0.444105
0.107766 0.444439 0.447510
0.232661 0.454696 0.457175
0.473111 0.474160 0.476140
0.713991 0.493607 0.495143
0.878192 0.506875 0.508015
0.172813 0.731529 0.511326
0.298097 0.741787 0.521125
0.539105 0.761245 0.540215
0.780303 0.780666 0.559341
0.944478 0.793888 0.572334
0.217203 0.927068 0.554817
0.342617 0.937214 0.564740
0.583789 0.956566 0.583944
0.824987 0.975883 0.603173
0.989002 0.989005 0.616259
0.016166 0.016345 0.581751
0.139479 0.026308 0.590989
0.377459 0.045479 0.609568
0.616464 0.064685 0.628194
0.779978 0.077783 0.640685
0.049611 0.164714 0.613056
0.173885 0.174830 0.622487
0.413401 0.194162 0.641241
0.653610 0.213504 0.660042
0.817614 0.226701 0.672717
0.114321 0.451057 0.676161
0.239268 0.461308 0.685765
0.479796 0.480767 0.704679
0.720727 0.500207 0.723641
0.884936 0.513467 0.736480
0.179388 0.738155 0.739809
0.304696 0.748399 0.749580
0.545736 0.767844 0.768649
0.786946 0.787254 0.787760
0.951108 0.800464 0.800746
0.223768 0.933658 0.783234
0.349186 0.943790 0.793151
0.590360 0.963130 0.812354
0.831549 0.982436 0.831586
0.995550 0.995550 0.844676
0.020547 0.020764 0.737559
0.143976 0.030735 0.746713
0.382141 0.049916 0.765216
0.621296 0.069131 0.783774
0.784878 0.082235 0.796206
0.054045 0.169191 0.768617
0.178399 0.179308 0.777992
0.418039 0.198642 0.796697
0.658342 0.217986 0.815457
0.822378 0.231183 0.828099
0.118797 0.455586 0.831562
0.243792 0.465828 0.841136
0.484390 0.485280 0.860025
0.725365 0.504713 0.878968
0.889578 0.517964 0.891795
0.183874 0.742684 0.895131
0.309202 0.752914 0.904891
0.550270 0.772347 0.923954
0.791488 0.791744 0.943002
0.955635 0.804942 0.955997
0.228239 0.938150 0.938500
0.353659 0.948268 0.948428
0.594832 0.967596 0.967646
0.836011 0.986892 0.986900
1.000000 1.000000 1.000000
