library/cube/Shadow_Scroll_002.cube
# CINEGRADE LAB — Premium Cinematic LUT
# Title: Shadow Scroll
# Category: Dark Instagram Mood
# Description: Desaturated, crushed blacks, cool tones for social media aesthetics
# Mood: Moody, cool, modern
# Variant: 3
# Generated: 2026-05-21T16:12:36.364385
TITLE "Shadow Scroll"
LUT_3D_SIZE 5
0.035000 0.035000 0.045000
0.127340 0.035000 0.045000
0.340358 0.035000 0.045000
0.554559 0.055452 0.056163
0.718664 0.071746 0.072553
0.042575 0.160090 0.045000
0.171228 0.173079 0.056571
0.386155 0.194617 0.078115
0.602008 0.216180 0.099641
0.767118 0.232641 0.115995
0.114363 0.427959 0.116083
0.244086 0.441160 0.128982
0.460505 0.462908 0.150477
0.677590 0.484654 0.171963
0.843381 0.501259 0.188289
0.186926 0.696979 0.188382
0.317386 0.710259 0.201259
0.534797 0.732079 0.222731
0.752613 0.753869 0.244201
0.918683 0.770482 0.260522
0.242576 0.902289 0.243286
0.373425 0.915495 0.256168
0.591316 0.937231 0.277643
0.809354 0.958913 0.299122
0.975299 0.975391 0.315462
0.035000 0.035000 0.123036
0.131746 0.035000 0.135946
0.344978 0.038451 0.157472
0.559367 0.059823 0.178978
0.723590 0.076126 0.195304
0.046915 0.164500 0.166424
0.175684 0.177494 0.179303
0.390777 0.199038 0.200788
0.606772 0.220607 0.222260
0.771963 0.237071 0.238565
0.118778 0.432443 0.238682
0.248585 0.445641 0.251534
0.465122 0.467387 0.272986
0.682299 0.489130 0.294433
0.848132 0.505728 0.310725
0.191379 0.701493 0.310838
0.321891 0.714762 0.323684
0.539371 0.736571 0.345128
0.757230 0.758348 0.366574
0.923304 0.774947 0.382876
0.247026 0.906780 0.365653
0.377896 0.919968 0.378517
0.595808 0.941685 0.399980
0.813842 0.963348 0.421452
0.979753 0.979804 0.437788
0.035000 0.035000 0.327799
0.139002 0.035000 0.340586
0.352451 0.045704 0.361994
0.567031 0.067091 0.383391
0.731376 0.083405 0.399615
0.054124 0.171806 0.370802
0.183013 0.184807 0.383582
0.398275 0.206360 0.404974
0.614411 0.227936 0.426361
0.779685 0.244405 0.442589
0.126080 0.439830 0.442753
0.255974 0.453026 0.455530
0.472629 0.474771 0.476914
0.689897 0.496512 0.498301
0.855772 0.513106 0.514540
0.198733 0.708913 0.514685
0.329298 0.722172 0.527481
0.546845 0.743970 0.548882
0.764745 0.765736 0.570293
0.930821 0.782321 0.586567
0.254385 0.914179 0.569361
0.385274 0.927349 0.582200
0.603204 0.949048 0.603645
0.821230 0.970691 0.625106
0.987103 0.987126 0.641439
0.035000 0.035000 0.532478
0.146269 0.035000 0.545146
0.359931 0.052963 0.566442
0.574697 0.074363 0.587734
0.739159 0.090688 0.603861
0.061345 0.179115 0.575112
0.190350 0.192124 0.587798
0.405775 0.213685 0.609102
0.622048 0.235268 0.630408
0.787402 0.251741 0.646563
0.133390 0.447217 0.646771
0.263367 0.460411 0.659480
0.480134 0.482155 0.680801
0.697489 0.503893 0.702131
0.863403 0.520483 0.718323
0.206090 0.716330 0.718496
0.336704 0.729578 0.731248
0.554313 0.751366 0.752610
0.772249 0.773120 0.773990
0.938324 0.789690 0.790242
0.261742 0.921572 0.773049
0.392648 0.934724 0.785868
0.610591 0.956405 0.807299
0.828603 0.978027 0.828754
0.994435 0.994441 0.845088
0.035000 0.035000 0.688084
0.151840 0.037121 0.700667
0.365705 0.058492 0.721881
0.580647 0.079904 0.743097
0.745218 0.096238 0.759155
0.066858 0.184692 0.730453
0.195973 0.197706 0.743072
0.411552 0.219273 0.764313
0.627954 0.240861 0.785563
0.793378 0.257337 0.801668
0.138976 0.452863 0.801906
0.269029 0.466054 0.814566
0.485901 0.487795 0.835844
0.703335 0.509529 0.857138
0.869281 0.526112 0.873298
0.211710 0.721999 0.873489
0.342367 0.735235 0.886212
0.560032 0.757012 0.907551
0.777997 0.778752 0.928913
0.944065 0.795308 0.945152
0.267353 0.927213 0.927968
0.398271 0.940346 0.940777
0.616221 0.962007 0.962203
0.834213 0.983609 0.983659
1.000000 1.000000 1.000000
