library/cube/Shadow_King_003.cube
# CINEGRADE LAB — Premium Cinematic LUT
# Title: Shadow King
# Category: High Dynamic Luxury
# Description: HDR-like with detailed shadows and highlights for luxury imagery
# Mood: Premium, detailed, luminous
# Variant: 4
# Generated: 2026-05-21T16:12:34.936334
TITLE "Shadow King"
LUT_3D_SIZE 33
0.077787 0.077787 0.077787
0.109055 0.076477 0.076476
0.140334 0.075176 0.075175
0.171623 0.073886 0.073884
0.202922 0.072606 0.072602
0.234232 0.071336 0.071330
0.265552 0.070076 0.070068
0.296881 0.068827 0.068815
0.328220 0.067588 0.067573
0.359568 0.066359 0.066340
0.390925 0.065141 0.065117
0.422290 0.063933 0.063904
0.453664 0.062735 0.062700
0.485047 0.061548 0.061506
0.516437 0.060371 0.060323
0.547836 0.059204 0.059149
0.579242 0.058047 0.057985
0.610655 0.056901 0.056830
0.642075 0.055765 0.055686
0.673503 0.054640 0.054551
0.704937 0.053525 0.053426
0.736377 0.052420 0.052311
0.767823 0.051325 0.051206
0.799276 0.050241 0.050111
0.830734 0.049167 0.049025
0.862197 0.048104 0.047950
0.893666 0.047051 0.046884
0.925140 0.046009 0.045828
0.956618 0.044976 0.044782
0.988101 0.043954 0.043746
1.000000 0.042943 0.042719
1.000000 0.041942 0.041703
1.000000 0.040951 0.040696
0.073423 0.105996 0.073416
0.104728 0.104720 0.072138
0.136042 0.103453 0.070869
0.167367 0.102197 0.069611
0.198702 0.100952 0.068362
0.230046 0.099716 0.067123
0.261400 0.098490 0.065893
0.292762 0.097275 0.064674
0.324134 0.096070 0.063464
0.355515 0.094876 0.062264
0.386904 0.093691 0.061074
0.418301 0.092517 0.059894
0.449706 0.091353 0.058724
0.481119 0.090200 0.057563
0.512539 0.089057 0.056412
0.543967 0.087924 0.055272
0.575402 0.086801 0.054140
0.606844 0.085688 0.053019
0.638292 0.084586 0.051908
0.669746 0.083495 0.050806
0.701207 0.082413 0.049714
0.732674 0.081342 0.048633
0.764146 0.080281 0.047561
0.795624 0.079230 0.046498
0.827106 0.078190 0.045446
0.858594 0.077160 0.044404
0.890087 0.076141 0.043371
0.921584 0.075132 0.042348
0.953085 0.074133 0.041335
0.984590 0.073144 0.040332
1.000000 0.072166 0.039339
1.000000 0.071198 0.038356
1.000000 0.070241 0.037383
0.069185 0.134320 0.069155
0.100525 0.133077 0.067909
0.131875 0.131845 0.066674
0.163235 0.130623 0.065448
0.194603 0.129411 0.064232
0.225981 0.128209 0.063026
0.257368 0.127017 0.061830
0.288764 0.125836 0.060644
0.320168 0.124665 0.059467
0.351580 0.123504 0.058300
0.383000 0.122353 0.057143
0.414428 0.121213 0.055996
0.445863 0.120083 0.054859
0.477306 0.118963 0.053731
0.508756 0.117853 0.052613
0.540212 0.116754 0.051506
0.571675 0.115664 0.050408
0.603144 0.114585 0.049319
0.634619 0.113517 0.048241
0.666100 0.112458 0.047173
0.697587 0.111410 0.046114
0.729079 0.110372 0.045065
0.760576 0.109345 0.044026
0.792078 0.108327 0.042997
0.823585 0.107320 0.041978
0.855096 0.106324 0.040969
0.886611 0.105337 0.039970
0.918131 0.104361 0.038980
0.949654 0.103395 0.038000
0.981180 0.102440 0.037031
1.000000 0.101495 0.036071
1.000000 0.100560 0.035121
1.000000 0.099635 0.034181
0.065073 0.162756 0.065004
0.096448 0.161547 0.063792
0.127832 0.160348 0.062590
0.159226 0.159160 0.061397
0.190628 0.157981 0.060214
0.222039 0.156813 0.059041
0.253458 0.155655 0.057878
0.284886 0.154508 0.056724
0.316321 0.153370 0.055581
0.347764 0.152242 0.054447
0.379215 0.151125 0.053323
0.410673 0.150018 0.052209
0.442137 0.148921 0.051105
0.473609 0.147835 0.050010
0.505086 0.146758 0.048926
0.536571 0.145692 0.047851
0.568061 0.144636 0.046786
0.599557 0.143590 0.045731
0.631058 0.142555 0.044686
0.662565 0.141529 0.043651
0.694077 0.140514 0.042625
0.725593 0.139510 0.041610
0.757115 0.138515 0.040604
0.788640 0.137531 0.039608
0.820170 0.136556 0.038622
0.851704 0.135593 0.037646
0.883241 0.134639 0.036680
0.914782 0.133696 0.035724
0.946325 0.132763 0.034777
0.977872 0.131840 0.033841
1.000000 0.130927 0.032914
1.000000 0.130025 0.031997
1.000000 0.129133 0.031090
0.061087 0.191303 0.060965
0.092496 0.190128 0.059786
0.123914 0.188962 0.058616
0.155341 0.187807 0.057457
0.186776 0.186662 0.056307
0.218219 0.185528 0.055167
0.249670 0.184403 0.054037
0.281129 0.183288 0.052916
0.312595 0.182184 0.051806
0.344068 0.181090 0.050705
0.375548 0.180006 0.049614
0.407034 0.178932 0.048533
0.438528 0.177868 0.047462
0.470027 0.176814 0.046401
0.501532 0.175771 0.045349
0.533043 0.174737 0.044308
0.564560 0.173714 0.043276
0.596081 0.172701 0.042254
0.627608 0.171699 0.041242
0.659140 0.170706 0.040240
0.690676 0.169724 0.039248
0.722216 0.168752 0.038266
0.753761 0.167790 0.037293
0.785309 0.166838 0.036331
0.816861 0.165897 0.035378
0.848416 0.164965 0.034435
0.879975 0.164044 0.033502
0.911536 0.163133 0.032579
0.943100 0.162233 0.031666
0.974667 0.161342 0.030763
1.000000 0.160462 0.029869
1.000000 0.159592 0.028986
1.000000 0.158732 0.028112
0.057228 0.219960 0.057037
0.088671 0.218818 0.055891
0.120122 0.217686 0.054754
0.151581 0.216564 0.053628
0.183048 0.215452 0.052511
0.214522 0.214350 0.051404
0.246004 0.213258 0.050307
0.277492 0.212177 0.049220
0.308988 0.211105 0.048142
0.340490 0.210044 0.047075
0.371999 0.208993 0.046017
0.403514 0.207951 0.044969
0.435035 0.206920 0.043931
0.466561 0.205900 0.042903
0.498093 0.204889 0.041885
0.529630 0.203888 0.040876
0.561172 0.202898 0.039878
0.592719 0.201917 0.038889
0.624270 0.200947 0.037911
0.655826 0.199987 0.036942
0.687385 0.199037 0.035983
0.718949 0.198097 0.035034
0.750516 0.197168 0.034094
0.782086 0.196248 0.033165
0.813659 0.195339 0.032246
0.845235 0.194440 0.031336
0.876814 0.193551 0.030436
0.908395 0.192673 0.029547
0.939978 0.191804 0.028667
0.971563 0.190946 0.027797
1.000000 0.190097 0.026937
1.000000 0.189259 0.026086
1.000000 0.188432 0.025246
0.053496 0.248726 0.053220
0.084972 0.247616 0.052107
0.116455 0.246517 0.051003
0.147945 0.245428 0.049910
0.179443 0.244349 0.048826
0.210948 0.243279 0.047752
0.242459 0.242220 0.046688
0.273977 0.241171 0.045634
0.305502 0.240133 0.044590
0.337033 0.239104 0.043556
0.368569 0.238085 0.042531
0.400111 0.237076 0.041517
0.431659 0.236078 0.040512
0.463212 0.235089 0.039517
0.494769 0.234111 0.038532
0.526331 0.233142 0.037557
0.557898 0.232184 0.036591
0.589469 0.231236 0.035636
0.621044 0.230298 0.034691
0.652623 0.229370 0.033755
0.684205 0.228453 0.032829
0.715790 0.227545 0.031913
0.747379 0.226647 0.031007
0.778970 0.225760 0.030111
0.810564 0.224883 0.029225
0.842160 0.224016 0.028349
0.873758 0.223159 0.027482
0.905358 0.222312 0.026626
0.936959 0.221475 0.025779
0.968562 0.220648 0.024943
1.000000 0.219832 0.024116
1.000000 0.219025 0.023299
1.000000 0.218229 0.022492
0.049892 0.277597 0.049514
0.081399 0.276521 0.048434
0.112913 0.275454 0.047364
0.144434 0.274397 0.046304
0.175962 0.273351 0.045253
0.207496 0.272314 0.044212
0.239037 0.271287 0.043182
0.270584 0.270271 0.042161
0.302137 0.269264 0.041150
0.333695 0.268267 0.040148
0.365258 0.267281 0.039157
0.396827 0.266304 0.038176
0.428400 0.265338 0.037204
0.459978 0.264382 0.036242
0.491561 0.263435 0.035291
0.523148 0.262499 0.034349
0.554738 0.261573 0.033417
0.586332 0.260657 0.032495
0.617930 0.259750 0.031582
0.649531 0.258854 0.030680
0.681135 0.257968 0.029787
0.712741 0.257093 0.028905
0.744351 0.256227 0.028032
0.775962 0.255371 0.027169
0.807575 0.254525 0.026317
0.839190 0.253690 0.025474
0.870807 0.252864 0.024641
0.902425 0.252049 0.023817
0.934044 0.251244 0.023004
0.965664 0.250449 0.022201
0.997284 0.249663 0.021407
1.000000 0.248888 0.020624
1.000000 0.248124 0.019850
0.046415 0.306574 0.045920
0.077953 0.305530 0.044873
0.109497 0.304495 0.043836
0.141048 0.303471 0.042809
0.172606 0.302456 0.041791
0.204169 0.301452 0.040784
0.235738 0.300457 0.039786
0.267312 0.299473 0.038799
0.298892 0.298498 0.037821
0.330477 0.297533 0.036853
0.362066 0.296579 0.035895
0.393661 0.295634 0.034947
0.425259 0.294699 0.034008
0.456862 0.293775 0.033080
0.488468 0.292860 0.032161
0.520079 0.291956 0.031253
0.551692 0.291061 0.030354
0.583309 0.290177 0.029465
0.614928 0.289302 0.028586
0.646551 0.288438 0.027717
0.678175 0.287583 0.026858
0.709802 0.286739 0.026009
0.741431 0.285904 0.025169
0.773062 0.285080 0.024340
0.804694 0.284266 0.023520
0.836327 0.283461 0.022711
0.867962 0.282667 0.021911
0.899597 0.281883 0.021121
0.931232 0.281109 0.020341
0.962868 0.280345 0.019571
0.994504 0.279591 0.018811
1.000000 0.278847 0.018061
1.000000 0.278113 0.017320
0.043066 0.335655 0.042437
0.074634 0.334642 0.041424
0.106208 0.333640 0.040420
0.137788 0.332647 0.039426
0.169374 0.331664 0.038442
0.200965 0.330691 0.037467
0.232561 0.329729 0.036503
0.264162 0.328776 0.035548
0.295769 0.327833 0.034604
0.327379 0.326900 0.033669
0.358994 0.325977 0.032744
0.390613 0.325064 0.031829
0.422236 0.324161 0.030924
0.453862 0.323268 0.030029
0.485492 0.322384 0.029144
0.517125 0.321511 0.028269
0.548760 0.320648 0.027403
0.580399 0.319795 0.026547
0.612039 0.318952 0.025702
0.643682 0.318118 0.024866
0.675327 0.317295 0.024040
0.706973 0.316482 0.023224
0.738621 0.315679 0.022418
0.770270 0.314885 0.021622
0.801920 0.314102 0.020836
0.833570 0.313329 0.020060
0.865221 0.312565 0.019293
0.896873 0.311812 0.018537
0.928524 0.311069 0.017790
0.960175 0.310335 0.017053
0.991826 0.309612 0.016327
1.000000 0.308899 0.015610
1.000000 0.308195 0.014903
0.039846 0.364837 0.039066
0.071443 0.363856 0.038086
0.103045 0.362885 0.037115
0.134653 0.361924 0.036154
0.166266 0.360973 0.035203
0.197885 0.360032 0.034262
0.229507 0.359100 0.033331
0.261135 0.358179 0.032410
0.292766 0.357267 0.031499
0.324402 0.356366 0.030597
0.356041 0.355474 0.029706
0.387684 0.354592 0.028824
0.419330 0.353720 0.027952
0.450980 0.352858 0.027090
0.482632 0.352006 0.026238
0.514286 0.351164 0.025396
0.545943 0.350332 0.024564
0.577602 0.349510 0.023742
0.609263 0.348697 0.022930
0.640925 0.347895 0.022127
0.672589 0.347103 0.021335
0.704254 0.346320 0.020552
0.735920 0.345547 0.019779
0.767586 0.344785 0.019017
0.799253 0.344032 0.018264
0.830920 0.343290 0.017521
0.862587 0.342557 0.016788
0.894254 0.341834 0.016065
0.925920 0.341121 0.015351
0.957585 0.340418 0.014648
0.989249 0.339725 0.013955
1.000000 0.339042 0.013271
1.000000 0.338369 0.012598
0.036753 0.394119 0.035807
0.068378 0.393170 0.034860
0.100009 0.392230 0.033922
0.131644 0.391300 0.032995
0.163284 0.390380 0.032077
0.194928 0.389470 0.031169
0.226577 0.388570 0.030272
0.258230 0.387680 0.029384
0.289886 0.386799 0.028506
0.321545 0.385928 0.027637
0.353208 0.385068 0.026779
0.384874 0.384217 0.025931
0.416543 0.383376 0.025092
0.448214 0.382545 0.024264
0.479887 0.381724 0.023445
0.511563 0.380912 0.022636
0.543240 0.380111 0.021838
0.574919 0.379319 0.021049
0.606599 0.378537 0.020270
0.638280 0.377766 0.019500
0.669962 0.377004 0.018741
0.701645 0.376252 0.017992
0.733328 0.375510 0.017253
0.765011 0.374777 0.016523
0.796694 0.374055 0.015804
0.828376 0.373343 0.015094
0.860058 0.372640 0.014394
0.891739 0.371948 0.013705
0.923419 0.371265 0.013025
0.955098 0.370592 0.012355
0.986775 0.369929 0.011695
1.000000 0.369276 0.011045
1.000000 0.368633 0.010405
0.033789 0.423500 0.032660
0.065442 0.422582 0.031746
0.097099 0.421673 0.030841
0.128761 0.420774 0.029947
0.160427 0.419885 0.029063
0.192097 0.419006 0.028188
0.223770 0.418136 0.027324
0.255447 0.417277 0.026469
0.287127 0.416427 0.025624
0.318810 0.415587 0.024790
0.350495 0.414757 0.023965
0.382183 0.413937 0.023150
0.413873 0.413126 0.022344
0.445566 0.412326 0.021549
0.477260 0.411535 0.020764
0.508955 0.410754 0.019988
0.540652 0.409983 0.019223
0.572349 0.409222 0.018467
0.604048 0.408470 0.017722
0.635747 0.407729 0.016986
0.667446 0.406997 0.016260
0.699146 0.406275 0.015544
0.730845 0.405563 0.014838
0.762544 0.404861 0.014142
0.794242 0.404169 0.013456
0.825939 0.403486 0.012780
0.857635 0.402814 0.012113
0.889330 0.402151 0.011457
0.921023 0.401498 0.010811
0.952714 0.400855 0.010174
0.984403 0.400222 0.009547
1.000000 0.399598 0.008931
1.000000 0.398985 0.008324
0.030954 0.452978 0.029624
0.062634 0.452090 0.028743
0.094317 0.451212 0.027872
0.126004 0.450344 0.027011
0.157695 0.449486 0.026160
0.189389 0.448637 0.025319
0.221086 0.447798 0.024488
0.252787 0.446969 0.023667
0.284489 0.446149 0.022855
0.316195 0.445340 0.022054
0.347902 0.444540 0.021262
0.379611 0.443750 0.020480
0.411322 0.442970 0.019709
0.443035 0.442200 0.018947
0.474748 0.441439 0.018195
0.506463 0.440688 0.017453
0.538178 0.439947 0.016721
0.569894 0.439216 0.015998
0.601610 0.438494 0.015286
0.633326 0.437783 0.014584
0.665042 0.437081 0.013891
0.696757 0.436389 0.013209
0.728472 0.435707 0.012536
0.760185 0.435034 0.011873
0.791898 0.434371 0.011221
0.823609 0.433719 0.010578
0.855318 0.433076 0.009945
0.887025 0.432442 0.009322
0.918730 0.431819 0.008709
0.950433 0.431205 0.008106
0.982133 0.430601 0.007512
1.000000 0.430007 0.006929
1.000000 0.429423 0.006356
0.028248 0.482551 0.026700
0.059953 0.481694 0.025853
0.091662 0.480846 0.025015
0.123374 0.480008 0.024188
0.155088 0.479180 0.023370
0.186806 0.478361 0.022562
0.218527 0.477553 0.021764
0.250249 0.476754 0.020976
0.281974 0.475965 0.020198
0.313701 0.475185 0.019430
0.345429 0.474415 0.018672
0.377159 0.473655 0.017923
0.408889 0.472905 0.017185
0.440621 0.472164 0.016456
0.472353 0.471434 0.015738
0.504086 0.470712 0.015029
0.535819 0.470001 0.014330
0.567552 0.469300 0.013642
0.599285 0.468608 0.012963
0.631017 0.467926 0.012294
0.662748 0.467253 0.011635
0.694479 0.466591 0.010985
0.726208 0.465938 0.010346
0.757935 0.465295 0.009717
0.789661 0.464662 0.009097
0.821385 0.464038 0.008488
0.853106 0.463424 0.007888
0.884825 0.462820 0.007299
0.916542 0.462226 0.006719
0.948255 0.461641 0.006149
0.979965 0.461066 0.005589
1.000000 0.460501 0.005040
1.000000 0.459946 0.004499
0.025671 0.512218 0.023889
0.057401 0.511390 0.023075
0.089134 0.510573 0.022271
0.120869 0.509765 0.021476
0.152607 0.508967 0.020692
0.184348 0.508178 0.019917
0.216090 0.507399 0.019153
0.247835 0.506630 0.018398
0.279581 0.505871 0.017653
0.311328 0.505121 0.016919
0.343076 0.504381 0.016194
0.374825 0.503650 0.015479
0.406575 0.502930 0.014774
0.438325 0.502218 0.014078
0.470075 0.501517 0.013393
0.501826 0.500825 0.012718
0.533575 0.500144 0.012053
0.565325 0.499471 0.011397
0.597073 0.498809 0.010752
0.628820 0.498156 0.010116
0.660566 0.497513 0.009490
0.692311 0.496879 0.008874
0.724053 0.496256 0.008269
0.755794 0.495642 0.007673
0.787532 0.495037 0.007087
0.819268 0.494443 0.006510
0.851001 0.493858 0.005944
0.882730 0.493282 0.005388
0.914457 0.492717 0.004842
0.946180 0.492161 0.004305
0.977900 0.491615 0.003779
1.000000 0.491078 0.003262
1.000000 0.490552 0.002756
0.023223 0.541976 0.021190
0.054977 0.541179 0.020409
0.086733 0.540391 0.019638
0.118492 0.539613 0.018877
0.150252 0.538844 0.018126
0.182014 0.538085 0.017385
0.213778 0.537336 0.016654
0.245543 0.536596 0.015932
0.277309 0.535866 0.015221
0.309076 0.535145 0.014519
0.340844 0.534435 0.013828
0.372611 0.533734 0.013146
0.404379 0.533042 0.012475
0.436147 0.532360 0.011813
0.467914 0.531688 0.011161
0.499681 0.531025 0.010519
0.531446 0.530373 0.009887
0.563211 0.529729 0.009265
0.594974 0.529096 0.008653
0.626736 0.528472 0.008050
0.658495 0.527857 0.007458
0.690253 0.527253 0.006876
0.722008 0.526658 0.006303
0.753761 0.526072 0.005741
0.785511 0.525497 0.005188
0.817257 0.524931 0.004645
0.849001 0.524374 0.004113
0.880740 0.523828 0.003590
0.912477 0.523290 0.003077
0.944209 0.522763 0.002574
0.975936 0.522245 0.002081
1.000000 0.521737 0.001597
1.000000 0.521238 0.001124
0.020904 0.571825 0.018602
0.052681 0.571057 0.017855
0.084460 0.570299 0.017117
0.116241 0.569550 0.016390
0.148022 0.568810 0.015672
0.179806 0.568081 0.014964
0.211590 0.567360 0.014267
0.243375 0.566650 0.013579
0.275160 0.565949 0.012901
0.306946 0.565257 0.012232
0.338731 0.564576 0.011574
0.370517 0.563903 0.010926
0.402302 0.563241 0.010288
0.434086 0.562588 0.009659
0.465869 0.561944 0.009041
0.497652 0.561311 0.008432
0.529432 0.560686 0.007834
0.561211 0.560072 0.007245
0.592988 0.559467 0.006666
0.624763 0.558871 0.006097
0.656536 0.558286 0.005538
0.688306 0.557709 0.004989
0.720073 0.557143 0.004450
0.751836 0.556586 0.003921
0.783597 0.556038 0.003402
0.815354 0.555501 0.002892
0.847107 0.554972 0.002393
0.878855 0.554454 0.001904
0.910600 0.553945 0.001424
0.942340 0.553445 0.000954
0.974075 0.552955 0.000495
1.000000 0.552475 0.000045
1.000000 0.552004 0.000000
0.018715 0.601763 0.016127
0.050514 0.601024 0.015413
0.082315 0.600294 0.014709
0.114116 0.599574 0.014015
0.145919 0.598864 0.013331
0.177722 0.598163 0.012656
0.209526 0.597472 0.011992
0.241329 0.596790 0.011337
0.273133 0.596118 0.010692
0.304937 0.595455 0.010058
0.336740 0.594802 0.009433
0.368542 0.594158 0.008818
0.400343 0.593524 0.008213
0.432143 0.592900 0.007618
0.463942 0.592285 0.007033
0.495738 0.591679 0.006458
0.527533 0.591084 0.005893
0.559326 0.590497 0.005337
0.591116 0.589920 0.004792
0.622903 0.589353 0.004256
0.654688 0.588796 0.003731
0.686469 0.588247 0.003215
0.718246 0.587709 0.002710
0.750021 0.587180 0.002214
0.781791 0.586660 0.001728
0.813557 0.586150 0.001252
0.845318 0.585650 0.000786
0.877075 0.585159 0.000330
0.908827 0.584678 0.000000
0.940574 0.584206 0.000000
0.972316 0.583744 0.000000
1.000000 0.583291 0.000000
1.000000 0.582848 0.000000
0.016655 0.631787 0.013765
0.048475 0.631077 0.013084
0.080297 0.630376 0.012413
0.112119 0.629685 0.011752
0.143941 0.629003 0.011101
0.175763 0.628330 0.010460
0.207585 0.627668 0.009829
0.239407 0.627014 0.009208
0.271229 0.626371 0.008597
0.303049 0.625736 0.007995
0.334869 0.625111 0.007404
0.366687 0.624496 0.006823
0.398503 0.623890 0.006251
0.430318 0.623294 0.005689
0.462131 0.622707 0.005138
0.493941 0.622130 0.004596
0.525749 0.621562 0.004064
0.557554 0.621004 0.003542
0.589356 0.620455 0.003030
0.621155 0.619915 0.002528
0.652951 0.619385 0.002036
0.684742 0.618865 0.001553
0.716530 0.618354 0.001081
0.748313 0.617853 0.000619
0.780092 0.617361 0.000166
0.811866 0.616878 0.000000
0.843636 0.616405 0.000000
0.875400 0.615942 0.000000
0.907158 0.615488 0.000000
0.938911 0.615044 0.000000
0.970658 0.614609 0.000000
1.000000 0.614183 0.000000
1.000000 0.613767 0.000000
0.014725 0.661896 0.011514
0.046566 0.661214 0.010867
0.078407 0.660542 0.010229
0.110248 0.659879 0.009602
0.142089 0.659225 0.008984
0.173929 0.658581 0.008377
0.205769 0.657947 0.007779
0.237608 0.657322 0.007191
0.269446 0.656706 0.006613
0.301283 0.656100 0.006045
0.333118 0.655503 0.005487
0.364951 0.654915 0.004939
0.396782 0.654337 0.004401
0.428611 0.653769 0.003873
0.460437 0.653210 0.003354
0.492260 0.652660 0.002846
0.524080 0.652120 0.002348
0.555897 0.651589 0.001859
0.587710 0.651068 0.001380
0.619520 0.650556 0.000912
0.651325 0.650053 0.000453
0.683126 0.649560 0.000004
0.714923 0.649077 0.000000
0.746715 0.648603 0.000000
0.778501 0.648138 0.000000
0.810283 0.647683 0.000000
0.842059 0.647237 0.000000
0.873829 0.646801 0.000000
0.905593 0.646374 0.000000
0.937351 0.645956 0.000000
0.969103 0.645548 0.000000
1.000000 0.645149 0.000000
1.000000 0.644760 0.000000
0.012924 0.692089 0.009376
0.044784 0.691435 0.008762
0.076644 0.690791 0.008158
0.108504 0.690156 0.007564
0.140363 0.689530 0.006980
0.172221 0.688914 0.006405
0.204077 0.688307 0.005841
0.235933 0.687710 0.005287
0.267786 0.687122 0.004742
0.299638 0.686543 0.004208
0.331487 0.685974 0.003683
0.363335 0.685414 0.003168
0.395179 0.684864 0.002663
0.427021 0.684323 0.002169
0.458859 0.683791 0.001684
0.490694 0.683269 0.001209
0.522526 0.682756 0.000743
0.554353 0.682252 0.000288
0.586177 0.681758 0.000000
0.617996 0.681273 0.000000
0.649811 0.680798 0.000000
0.681620 0.680332 0.000000
0.713425 0.679875 0.000000
0.745224 0.679428 0.000000
0.777018 0.678990 0.000000
0.808806 0.678562 0.000000
0.840587 0.678143 0.000000
0.872363 0.677733 0.000000
0.904132 0.677333 0.000000
0.935894 0.676942 0.000000
0.967649 0.676560 0.000000
0.999397 0.676188 0.000000
1.000000 0.675825 0.000000
0.011253 0.722363 0.007350
0.043132 0.721737 0.006769
0.075010 0.721121 0.006199
0.106887 0.720513 0.005638
0.138763 0.719915 0.005087
0.170637 0.719327 0.004546
0.202510 0.718747 0.004015
0.234380 0.718177 0.003494
0.266249 0.717617 0.002983
0.298114 0.717065 0.002482
0.329978 0.716523 0.001991
0.361838 0.715991 0.001509
0.393695 0.715467 0.001038
0.425549 0.714954 0.000577
0.457399 0.714449 0.000125
0.489245 0.713954 0.000000
0.521086 0.713468 0.000000
0.552924 0.712991 0.000000
0.584757 0.712524 0.000000
0.616584 0.712066 0.000000
0.648407 0.711617 0.000000
0.680225 0.711178 0.000000
0.712036 0.710748 0.000000
0.743842 0.710327 0.000000
0.775642 0.709916 0.000000
0.807435 0.709514 0.000000
0.839222 0.709121 0.000000
0.871001 0.708737 0.000000
0.902774 0.708363 0.000000
0.934539 0.707998 0.000000
0.966297 0.707643 0.000000
0.998047 0.707297 0.000000
1.000000 0.706960 0.000000
0.009711 0.752718 0.005436
0.041608 0.752119 0.004889
0.073503 0.751530 0.004352
0.105397 0.750950 0.003825
0.137289 0.750379 0.003307
0.169178 0.749817 0.002800
0.201066 0.749265 0.002302
0.232951 0.748722 0.001814
0.264833 0.748189 0.001337
0.296712 0.747664 0.000869
0.328588 0.747149 0.000411
0.360461 0.746643 0.000000
0.392329 0.746147 0.000000
0.424194 0.745660 0.000000
0.456055 0.745182 0.000000
0.487911 0.744713 0.000000
0.519762 0.744254 0.000000
0.551608 0.743804 0.000000
0.583449 0.743363 0.000000
0.615285 0.742931 0.000000
0.647115 0.742509 0.000000
0.678939 0.742096 0.000000
0.710757 0.741692 0.000000
0.742568 0.741298 0.000000
0.774373 0.740912 0.000000
0.806171 0.740536 0.000000
0.837961 0.740170 0.000000
0.869744 0.739812 0.000000
0.901520 0.739464 0.000000
0.933287 0.739125 0.000000
0.965047 0.738795 0.000000
0.996798 0.738475 0.000000
1.000000 0.738163 0.000000
0.008300 0.783150 0.003635
0.040213 0.782579 0.003121
0.072124 0.782016 0.002617
0.104033 0.781463 0.002123
0.135940 0.780919 0.001639
0.167845 0.780385 0.001165
0.199746 0.779859 0.000701
0.231645 0.779343 0.000247
0.263540 0.778836 0.000000
0.295431 0.778338 0.000000
0.327319 0.777850 0.000000
0.359203 0.777370 0.000000
0.391082 0.776900 0.000000
0.422957 0.776439 0.000000
0.454827 0.775988 0.000000
0.486692 0.775545 0.000000
0.518552 0.775112 0.000000
0.550406 0.774688 0.000000
0.582255 0.774274 0.000000
0.614097 0.773868 0.000000
0.645934 0.773472 0.000000
0.677763 0.773085 0.000000
0.709586 0.772707 0.000000
0.741402 0.772338 0.000000
0.773211 0.771978 0.000000
0.805012 0.771628 0.000000
0.836806 0.771287 0.000000
0.868592 0.770955 0.000000
0.900369 0.770632 0.000000
0.932138 0.770319 0.000000
0.963898 0.770014 0.000000
0.995649 0.769719 0.000000
1.000000 0.769433 0.000000
0.007017 0.813659 0.001946
0.038946 0.813114 0.001466
0.070873 0.812578 0.000995
0.102797 0.812052 0.000535
0.134718 0.811534 0.000084
0.166636 0.811026 0.000000
0.198551 0.810527 0.000000
0.230462 0.810037 0.000000
0.262369 0.809557 0.000000
0.294272 0.809085 0.000000
0.326170 0.808623 0.000000
0.358064 0.808170 0.000000
0.389954 0.807726 0.000000
0.421838 0.807291 0.000000
0.453716 0.806865 0.000000
0.485590 0.806449 0.000000
0.517457 0.806041 0.000000
0.549318 0.805643 0.000000
0.581173 0.805254 0.000000
0.613022 0.804874 0.000000
0.644863 0.804504 0.000000
0.676698 0.804142 0.000000
0.708525 0.803790 0.000000
0.740345 0.803446 0.000000
0.772157 0.803112 0.000000
0.803960 0.802787 0.000000
0.835756 0.802471 0.000000
0.867543 0.802165 0.000000
0.899321 0.801867 0.000000
0.931090 0.801578 0.000000
0.962850 0.801299 0.000000
0.994601 0.801029 0.000000
1.000000 0.800768 0.000000
0.005865 0.844243 0.000369
0.037809 0.843724 0.000000
0.069749 0.843214 0.000000
0.101687 0.842714 0.000000
0.133622 0.842223 0.000000
0.165552 0.841741 0.000000
0.197479 0.841268 0.000000
0.229402 0.840804 0.000000
0.261320 0.840349 0.000000
0.293233 0.839904 0.000000
0.325142 0.839467 0.000000
0.357045 0.839040 0.000000
0.388943 0.838621 0.000000
0.420836 0.838212 0.000000
0.452722 0.837812 0.000000
0.484602 0.837421 0.000000
0.516476 0.837039 0.000000
0.548344 0.836667 0.000000
0.580204 0.836303 0.000000
