library/cube/Shadow_Scroll_002.cube
# CINEGRADE LAB — Premium Cinematic LUT
# Title: Shadow Scroll
# Category: Dark Instagram Mood
# Description: Desaturated, crushed blacks, cool tones for social media aesthetics
# Mood: Moody, cool, modern
# Variant: 3
# Generated: 2026-05-21T16:12:36.364385
TITLE "Shadow Scroll"
LUT_3D_SIZE 9
0.035000 0.035000 0.045000
0.035000 0.035000 0.045000
0.127340 0.035000 0.045000
0.233694 0.035000 0.045000
0.340358 0.035000 0.045000
0.447318 0.044766 0.045378
0.554559 0.055452 0.056163
0.662069 0.066148 0.066943
0.718664 0.071746 0.072553
0.035000 0.035000 0.045000
0.035000 0.035000 0.045000
0.135095 0.039614 0.045000
0.241952 0.050299 0.045000
0.349088 0.060994 0.045000
0.456487 0.071700 0.052647
0.564138 0.082414 0.063423
0.672024 0.093138 0.074194
0.728757 0.098753 0.079799
0.042575 0.160090 0.045000
0.064147 0.162322 0.045792
0.171228 0.173079 0.056571
0.278569 0.183845 0.067345
0.386155 0.194617 0.078115
0.493973 0.205396 0.088880
0.602008 0.216180 0.099641
0.710248 0.226970 0.110399
0.767118 0.232641 0.115995
0.078346 0.293842 0.079881
0.100042 0.296129 0.082034
0.207576 0.306954 0.092798
0.315337 0.317782 0.103558
0.423311 0.328614 0.114315
0.531485 0.339449 0.125068
0.639843 0.350286 0.135818
0.748373 0.361125 0.146565
0.805343 0.366836 0.152155
0.114363 0.427959 0.116083
0.136162 0.430286 0.118230
0.244086 0.441160 0.128982
0.352206 0.452034 0.139731
0.460505 0.462908 0.150477
0.568971 0.473782 0.161221
0.677590 0.484654 0.171963
0.786348 0.495525 0.182703
0.843381 0.501259 0.188289
0.150574 0.562364 0.152247
0.172454 0.564716 0.154389
0.280707 0.575621 0.165132
0.389122 0.586523 0.175873
0.497684 0.597423 0.186613
0.606381 0.608318 0.197351
0.715197 0.619208 0.208087
0.824120 0.630093 0.218823
0.881178 0.635834 0.224408
0.186926 0.696979 0.188382
0.208867 0.699339 0.190522
0.317386 0.710259 0.201259
0.426034 0.721173 0.211996
0.534797 0.732079 0.222731
0.643661 0.742978 0.233466
0.752613 0.753869 0.244201
0.861638 0.764752 0.254935
0.918683 0.770482 0.260522
0.223368 0.831727 0.224499
0.245350 0.834081 0.226639
0.354071 0.844998 0.237374
0.462889 0.855905 0.248109
0.571790 0.866802 0.258843
0.680760 0.877687 0.269578
0.789784 0.888561 0.280314
0.898850 0.899423 0.291051
0.955845 0.905128 0.296641
0.242576 0.902289 0.243286
0.264570 0.904608 0.245431
0.373425 0.915495 0.256168
0.482345 0.926370 0.266905
0.591316 0.937231 0.277643
0.700324 0.948079 0.288382
0.809354 0.958913 0.299122
0.918394 0.969733 0.309865
0.975299 0.975391 0.315462
0.035000 0.035000 0.045000
0.035000 0.035000 0.045000
0.128122 0.035000 0.045000
0.234530 0.035000 0.045000
0.341244 0.035000 0.055182
0.448251 0.045503 0.065966
0.555536 0.056191 0.076745
0.663086 0.066889 0.087520
0.719696 0.072488 0.093124
0.035000 0.035000 0.045000
0.035000 0.035000 0.045000
0.135878 0.040351 0.045000
0.242783 0.051037 0.051663
0.349963 0.061735 0.062443
0.457404 0.072442 0.073218
0.565093 0.083158 0.083988
0.673014 0.093883 0.094754
0.729760 0.099499 0.100354
0.043315 0.160848 0.064209
0.064897 0.163079 0.066366
0.172023 0.173838 0.077139
0.279405 0.184605 0.087908
0.387030 0.195378 0.098672
0.494883 0.206157 0.109432
0.602951 0.216943 0.120189
0.711220 0.227733 0.130942
0.768099 0.233404 0.136534
0.079101 0.294619 0.100441
0.100805 0.296905 0.102590
0.208378 0.307730 0.113349
0.316175 0.318558 0.124104
0.424182 0.329390 0.134856
0.532385 0.340225 0.145605
0.640770 0.351062 0.156351
0.749323 0.361900 0.167094
0.806299 0.367610 0.172681
0.115129 0.428750 0.136627
0.136934 0.431076 0.138770
0.244892 0.441948 0.149517
0.353042 0.452821 0.160262
0.461368 0.463694 0.171005
0.569858 0.474567 0.181745
0.678497 0.485438 0.192484
0.787272 0.496307 0.203221
0.844307 0.502039 0.208804
0.151347 0.563163 0.172776
0.173232 0.565512 0.174915
0.281513 0.576416 0.185655
0.389952 0.587317 0.196393
0.498535 0.598213 0.207129
0.607249 0.609106 0.217865
0.716081 0.619994 0.228599
0.825015 0.630877 0.239332
0.882072 0.636614 0.244915
0.187703 0.697782 0.208900
0.209648 0.700139 0.211038
0.318188 0.711056 0.221773
0.426854 0.721966 0.232507
0.535632 0.732870 0.243240
0.644508 0.743765 0.253973
0.753468 0.754653 0.264706
0.862500 0.765532 0.275439
0.919540 0.771258 0.281024
0.224145 0.832528 0.245008
0.246128 0.834877 0.247147
0.354865 0.845790 0.257880
0.463696 0.856693 0.268613
0.572606 0.867586 0.279346
0.681581 0.878467 0.290080
0.790609 0.889337 0.300815
0.899674 0.900194 0.311551
0.956661 0.905893 0.317141
0.243347 0.903078 0.263791
0.265340 0.905393 0.265934
0.374205 0.916275 0.276670
0.483132 0.927145 0.287406
0.592106 0.938001 0.298143
0.701114 0.948845 0.308882
0.810142 0.959673 0.319622
0.919176 0.970488 0.330365
0.976070 0.976140 0.335962
0.035000 0.035000 0.123036
0.035000 0.035000 0.125175
0.131746 0.035000 0.135946
0.238210 0.035000 0.146711
0.344978 0.038451 0.157472
0.452035 0.049132 0.168227
0.559367 0.059823 0.178978
0.666961 0.070525 0.189726
0.723590 0.076126 0.195304
0.035000 0.035000 0.130231
0.035000 0.035000 0.132369
0.139516 0.043979 0.143131
0.246472 0.054669 0.153889
0.353700 0.065370 0.164642
0.461185 0.076080 0.175391
0.568915 0.086799 0.186136
0.676874 0.097527 0.196878
0.733635 0.103145 0.202456
0.046915 0.164500 0.166424
0.068510 0.166732 0.168555
0.175684 0.177494 0.179303
0.283111 0.188262 0.190047
0.390777 0.199038 0.200788
0.498669 0.209819 0.211525
0.606772 0.220607 0.222260
0.715072 0.231399 0.232992
0.771963 0.237071 0.238565
0.082728 0.298294 0.202571
0.104443 0.300581 0.204697
0.212058 0.311407 0.215434
0.319894 0.322237 0.226168
0.427936 0.333069 0.236899
0.536170 0.343905 0.247628
0.644584 0.354742 0.258356
0.753162 0.365582 0.269081
0.810146 0.371291 0.274651
0.118778 0.432443 0.238682
0.140592 0.434768 0.240805
0.248585 0.445641 0.251534
0.356767 0.456514 0.262261
0.465122 0.467387 0.272986
0.573637 0.478259 0.283710
0.682299 0.489130 0.294433
0.791093 0.499998 0.305155
0.848132 0.505728 0.310725
0.155012 0.566868 0.274768
0.176904 0.569216 0.276890
0.285214 0.580118 0.287614
0.393678 0.591018 0.298336
0.502284 0.601913 0.309059
0.611018 0.612804 0.319780
0.719865 0.623691 0.330502
0.828812 0.634571 0.341224
0.885868 0.640306 0.346797
0.191379 0.701493 0.310838
0.213328 0.703847 0.312962
0.321891 0.714762 0.323684
0.430577 0.725670 0.334406
0.539371 0.736571 0.345128
0.648260 0.747464 0.355850
0.757230 0.758348 0.366574
0.866267 0.769224 0.377299
0.923304 0.774947 0.382876
0.227827 0.836239 0.346903
0.249812 0.838584 0.349031
0.358566 0.849494 0.359754
0.467410 0.860394 0.370478
0.576329 0.871283 0.381203
0.685311 0.882160 0.391930
0.794342 0.893025 0.402659
0.903407 0.903878 0.413389
0.960387 0.909573 0.418975
0.247026 0.906780 0.365653
0.269020 0.909090 0.367789
0.377896 0.919968 0.378517
0.486830 0.930833 0.389248
0.595808 0.941685 0.399980
0.704816 0.952524 0.410715
0.813842 0.963348 0.421452
0.922870 0.974157 0.432192
0.979753 0.979804 0.437788
0.035000 0.035000 0.225428
0.035000 0.035000 0.227536
0.135372 0.035000 0.238276
0.241893 0.035000 0.249011
0.348714 0.042077 0.259742
0.455820 0.052762 0.270469
0.563199 0.063456 0.281193
0.670836 0.074161 0.291914
0.727483 0.079765 0.297467
0.035000 0.035000 0.232522
0.036432 0.036925 0.234632
0.143156 0.047608 0.245366
0.250163 0.058302 0.256096
0.357438 0.069006 0.266823
0.464967 0.079719 0.277547
0.572737 0.090442 0.288268
0.680734 0.101172 0.298987
0.737509 0.106792 0.304542
0.050518 0.168152 0.268622
0.072127 0.170386 0.270728
0.179348 0.181150 0.281451
0.286819 0.191921 0.292171
0.394526 0.202699 0.302888
0.502455 0.213482 0.313604
0.610592 0.224271 0.324317
0.718923 0.235065 0.335029
0.775825 0.240737 0.340583
0.086357 0.301970 0.304686
0.108083 0.304257 0.306790
0.215740 0.315084 0.317504
0.323613 0.325915 0.328217
0.431689 0.336749 0.338929
0.539955 0.347585 0.349639
0.648396 0.358423 0.360348
0.756999 0.369263 0.371057
0.813990 0.374972 0.376611
0.122428 0.436136 0.340724
0.144251 0.438460 0.342828
0.252279 0.449333 0.353538
0.360492 0.460207 0.364247
0.468875 0.471079 0.374956
0.577415 0.481951 0.385664
0.686099 0.492821 0.396372
0.794911 0.503689 0.407080
0.851953 0.509417 0.412637
0.158678 0.570573 0.376747
0.180577 0.572919 0.378854
0.288915 0.583820 0.389562
0.397405 0.594718 0.400270
0.506032 0.605612 0.410978
0.614784 0.616502 0.421687
0.723647 0.627386 0.432397
0.832606 0.638265 0.443108
0.889662 0.643998 0.448671
0.195056 0.705203 0.412766
0.217010 0.707554 0.414877
0.325594 0.718467 0.425586
0.434299 0.729373 0.436297
0.543108 0.740271 0.447008
0.652010 0.751161 0.457721
0.760989 0.762043 0.468436
0.870032 0.772915 0.479153
0.927065 0.778635 0.484724
0.231509 0.839949 0.448790
0.253497 0.842291 0.450908
0.362266 0.853197 0.461622
0.471122 0.864093 0.472338
0.580051 0.874978 0.483055
0.689039 0.885851 0.493775
0.798073 0.896713 0.504498
0.907137 0.907561 0.515224
0.964109 0.913251 0.520806
0.250706 0.910480 0.467509
0.272700 0.912786 0.469639
0.381586 0.923659 0.480361
0.490526 0.934520 0.491086
0.599507 0.945368 0.501814
0.708516 0.956201 0.512545
0.817537 0.967020 0.523280
0.926559 0.977824 0.534018
0.983430 0.983466 0.539614
0.035000 0.035000 0.327799
0.035000 0.035000 0.329876
0.139002 0.035000 0.340586
0.245578 0.035027 0.351291
0.352451 0.045704 0.361994
0.459607 0.056392 0.372694
0.567031 0.067091 0.383391
0.674711 0.077799 0.394086
0.731376 0.083405 0.399615
0.035000 0.038384 0.334794
0.040022 0.040552 0.336877
0.146799 0.051239 0.347583
0.253856 0.061936 0.358287
0.361177 0.072643 0.368988
0.468749 0.083360 0.379687
0.576559 0.094085 0.390385
0.684593 0.104818 0.401080
0.741383 0.110440 0.406615
0.054124 0.171806 0.370802
0.075745 0.174041 0.372884
0.183013 0.184807 0.383582
0.290528 0.195581 0.394279
0.398275 0.206360 0.404974
0.506241 0.217146 0.415668
0.614411 0.227936 0.426361
0.722773 0.238732 0.437053
0.779685 0.244405 0.442589
0.089989 0.305647 0.406785
0.111726 0.307934 0.408867
0.219422 0.318762 0.419561
0.327333 0.329594 0.430254
0.435443 0.340429 0.440946
0.543739 0.351266 0.451638
0.652208 0.362104 0.462330
0.760835 0.372944 0.473022
0.817833 0.378653 0.478560
0.126080 0.439830 0.442753
0.147912 0.442153 0.444838
0.255974 0.453026 0.455530
0.364218 0.463899 0.466222
0.472629 0.474771 0.476914
0.581193 0.485643 0.487607
0.689897 0.496512 0.498301
0.798727 0.507379 0.508996
0.855772 0.513106 0.514540
0.162346 0.574277 0.478716
0.184251 0.576621 0.480807
0.292617 0.587522 0.491500
0.401131 0.598418 0.502194
0.509780 0.609311 0.512890
0.618550 0.620199 0.523586
0.727427 0.631082 0.534285
0.836397 0.641958 0.544986
0.893453 0.647688 0.550539
0.198733 0.708913 0.514685
0.220691 0.711261 0.516784
0.329298 0.722172 0.527481
0.438020 0.733075 0.538181
0.546845 0.743970 0.548882
0.655758 0.754858 0.559586
0.764745 0.765736 0.570293
0.873793 0.776605 0.581002
0.930821 0.782321 0.586567
0.235191 0.843658 0.550670
0.257181 0.845996 0.552779
0.365966 0.856898 0.563484
0.474834 0.867791 0.574191
0.583771 0.878672 0.584902
0.692765 0.889541 0.595616
0.801800 0.900398 0.606334
0.910863 0.911242 0.617056
0.967827 0.916928 0.622635
0.254385 0.914179 0.569361
0.276380 0.916480 0.571484
0.385274 0.927349 0.582200
0.494220 0.938206 0.592921
0.603204 0.949048 0.603645
0.712212 0.959877 0.614373
0.821230 0.970691 0.625106
0.930243 0.981490 0.635843
0.987103 0.987126 0.641439
0.035000 0.035000 0.430149
0.036310 0.035000 0.432196
0.142634 0.035000 0.442876
0.249266 0.038652 0.453552
0.356190 0.049333 0.464227
0.463395 0.060024 0.474900
0.570864 0.070726 0.485571
0.678585 0.081438 0.496240
0.735268 0.087046 0.501745
0.035000 0.042010 0.437047
0.043615 0.044180 0.439102
0.150445 0.054870 0.449782
0.257550 0.065571 0.460460
0.364917 0.076282 0.471136
0.472532 0.087001 0.481812
0.580381 0.097729 0.492486
0.688451 0.108465 0.503159
0.745255 0.114089 0.508673
0.057733 0.175460 0.472965
0.079367 0.177696 0.475023
0.186681 0.188465 0.485698
0.294238 0.199241 0.496372
0.402025 0.210022 0.507045
0.510027 0.220810 0.517718
0.618230 0.231602 0.528391
0.726621 0.242399 0.539065
0.783544 0.248073 0.544582
0.093623 0.309323 0.508869
0.115370 0.311611 0.510931
0.223107 0.322440 0.521604
0.331053 0.333273 0.532277
0.439197 0.344109 0.542950
0.547523 0.354946 0.553624
0.656018 0.365786 0.564299
0.764669 0.376626 0.574975
0.821673 0.382334 0.580499
0.129734 0.443523 0.544768
0.151574 0.445845 0.546836
0.259670 0.456719 0.557511
0.367944 0.467591 0.568186
0.476381 0.478463 0.578863
0.584969 0.489334 0.589541
0.693694 0.500203 0.600221
0.802541 0.511069 0.610903
0.859589 0.516795 0.616436
0.166014 0.577982 0.580673
0.187926 0.580323 0.582750
0.296319 0.591223 0.593429
0.404857 0.602118 0.604109
0.513526 0.613009 0.614792
0.622313 0.623895 0.625477
0.731204 0.634776 0.636165
0.840185 0.645651 0.646856
0.897240 0.651378 0.652401
0.202411 0.712622 0.616595
0.224374 0.714967 0.618682
0.333001 0.725875 0.629368
0.441741 0.736776 0.640057
0.550580 0.747669 0.650749
0.659503 0.758553 0.661445
0.768499 0.769428 0.672144
0.877551 0.780294 0.682847
0.934574 0.786006 0.688406
0.238873 0.847366 0.652542
0.260865 0.849699 0.654643
0.369664 0.860599 0.665340
0.478544 0.871487 0.676040
0.587489 0.882364 0.686745
0.696487 0.893230 0.697454
0.805524 0.904082 0.708167
0.914585 0.914922 0.718885
0.971540 0.920603 0.724462
0.258064 0.917876 0.671208
0.280059 0.920172 0.673325
0.388962 0.931038 0.684036
0.497913 0.941889 0.694752
0.606899 0.952727 0.705473
0.715905 0.963551 0.716199
0.824918 0.974360 0.726930
0.933924 0.985154 0.737667
0.990771 0.990785 0.743264
0.035000 0.035000 0.532478
0.039887 0.035000 0.534496
0.146269 0.035000 0.545146
0.252955 0.042278 0.555795
0.359931 0.052963 0.566442
0.467183 0.063658 0.577088
0.574697 0.074363 0.587734
0.682460 0.085078 0.598379
0.739159 0.090688 0.603861
0.035000 0.045637 0.539281
0.047212 0.047809 0.541310
0.154093 0.058503 0.551964
0.261247 0.069207 0.562616
0.368659 0.079921 0.573268
0.476316 0.090643 0.583920
0.584204 0.101374 0.594572
0.692308 0.112113 0.605224
0.749126 0.117738 0.610717
0.061345 0.179115 0.575112
0.082991 0.181353 0.577146
0.190350 0.192124 0.587798
0.297950 0.202902 0.598450
0.405775 0.213685 0.609102
0.513813 0.224474 0.619755
0.622048 0.235268 0.630408
0.730469 0.246066 0.641063
0.787402 0.251741 0.646563
0.097260 0.313001 0.610939
0.119017 0.315288 0.612980
0.226792 0.326119 0.623633
0.334775 0.336953 0.634287
0.442951 0.347789 0.644943
0.551306 0.358627 0.655599
0.659828 0.369467 0.666258
0.768501 0.380307 0.676919
0.825511 0.386015 0.682429
0.133390 0.447217 0.646771
0.155238 0.449538 0.648822
0.263367 0.460411 0.659480
0.371670 0.471284 0.670139
0.480134 0.482155 0.680801
0.588745 0.493025 0.691465
0.697489 0.503893 0.702131
0.806352 0.514758 0.712801
0.863403 0.520483 0.718323
0.169684 0.581685 0.682620
0.191602 0.584025 0.684683
0.300021 0.594923 0.695348
0.408582 0.605817 0.706015
0.517272 0.616707 0.716686
0.626076 0.627591 0.727361
0.734980 0.638470 0.738039
0.843971 0.649343 0.748720
0.901024 0.655067 0.754257
0.206090 0.716330 0.718496
0.228056 0.718672 0.720572
0.336704 0.729578 0.731248
0.445461 0.740476 0.741927
0.554313 0.751366 0.752610
0.663247 0.762247 0.763298
0.772249 0.773120 0.773990
0.881305 0.783982 0.784687
0.938324 0.789690 0.790242
0.242555 0.851073 0.754408
0.264550 0.853402 0.756501
0.373363 0.864298 0.767190
0.482252 0.875183 0.777884
0.591205 0.886056 0.788583
0.700207 0.896917 0.799287
0.809245 0.907765 0.809997
0.918303 0.918600 0.820712
0.975249 0.924276 0.826286
0.261742 0.921572 0.773049
0.283738 0.923864 0.775161
0.392648 0.934724 0.785868
0.501604 0.945572 0.796581
0.610591 0.956405 0.807299
0.719595 0.967224 0.818024
0.828603 0.978027 0.828754
0.937600 0.988816 0.839491
0.994435 0.994441 0.845088
0.035000 0.035000 0.634786
0.043468 0.035000 0.636776
0.149907 0.035228 0.647398
0.256647 0.045905 0.658018
0.363673 0.056594 0.668639
0.470972 0.067292 0.679259
0.578530 0.078001 0.689880
0.686333 0.088718 0.700501
0.743049 0.094331 0.705960
0.035000 0.049266 0.641496
0.050811 0.051440 0.643500
0.157743 0.062137 0.654128
0.264945 0.072845 0.664756
0.372402 0.083561 0.675384
0.480100 0.094287 0.686013
0.588026 0.105020 0.696643
0.696165 0.115762 0.707274
0.752996 0.121388 0.712747
0.064959 0.182771 0.677242
0.086617 0.185010 0.679254
0.194022 0.195783 0.689883
0.301663 0.206563 0.700513
0.409526 0.217349 0.711145
0.517599 0.228139 0.721778
0.625866 0.238935 0.732413
0.734315 0.249734 0.743050
0.791257 0.255409 0.748533
0.100898 0.316679 0.712994
0.122666 0.318966 0.715016
0.230479 0.329798 0.725649
0.338497 0.340633 0.736285
0.446705 0.351470 0.746923
0.555089 0.362308 0.757563
0.663636 0.373148 0.768206
0.772331 0.383989 0.778852
0.829347 0.389696 0.784348
0.137047 0.450910 0.748762
0.158903 0.453231 0.750796
0.267064 0.464104 0.761437
0.375396 0.474976 0.772081
0.483886 0.485847 0.782729
0.592519 0.496716 0.793379
0.701282 0.507583 0.804033
0.810161 0.518448 0.814691
0.867214 0.524170 0.820203
0.173355 0.585389 0.784557
0.195279 0.587727 0.786606
0.303724 0.598623 0.797257
0.412308 0.609516 0.807913
0.521016 0.620404 0.818573
0.629836 0.631286 0.829236
0.738753 0.642163 0.839905
0.847754 0.653033 0.850578
0.904805 0.658755 0.856108
0.209769 0.720037 0.820389
0.231740 0.722377 0.822454
0.340406 0.733280 0.833120
0.449180 0.744175 0.843790
0.558045 0.755062 0.854465
0.666989 0.765941 0.865146
0.775997 0.776810 0.875832
0.885057 0.787669 0.886523
0.942069 0.793373 0.892073
0.246238 0.854778 0.856268
0.268234 0.857104 0.858353
0.377060 0.867996 0.869035
0.485960 0.878876 0.879723
0.594919 0.889746 0.890417
0.703925 0.900602 0.901117
0.812962 0.911446 0.911823
0.922018 0.922277 0.922536
0.978954 0.927948 0.928110
0.265421 0.925267 0.874887
0.287416 0.927554 0.876994
0.396334 0.938410 0.887698
0.505293 0.949252 0.898407
0.614281 0.960081 0.909123
0.723282 0.970894 0.919847
0.832284 0.981693 0.930577
0.941272 0.992476 0.941315
0.998094 0.998095 0.946914
0.035000 0.035000 0.688084
0.045347 0.035000 0.690059
0.151840 0.037121 0.700667
0.258631 0.047801 0.711274
0.365705 0.058492 0.721881
0.473048 0.069193 0.732489
0.580647 0.079904 0.743097
0.688488 0.090624 0.753706
0.745218 0.096238 0.759155
0.035000 0.051163 0.694749
0.052700 0.053338 0.696740
0.159681 0.064038 0.707355
0.266927 0.074747 0.717971
0.374426 0.085466 0.728588
0.482163 0.096194 0.739206
0.590124 0.106929 0.749825
0.698295 0.117672 0.760446
0.755137 0.123300 0.765910
0.066858 0.184692 0.730453
0.088526 0.186931 0.732453
0.195973 0.197706 0.743072
0.303652 0.208487 0.753692
0.411552 0.219273 0.764313
0.519657 0.230065 0.774937
0.627954 0.240861 0.785563
0.736428 0.251662 0.796192
0.793378 0.257337 0.801668
0.102814 0.318618 0.766168
0.124589 0.320905 0.768181
0.232439 0.331737 0.778805
0.340490 0.342572 0.789432
0.448728 0.353409 0.800062
0.557138 0.364248 0.810695
0.665708 0.375087 0.821330
0.774423 0.385927 0.831970
0.831443 0.391633 0.837460
0.138976 0.452863 0.801906
0.160838 0.455182 0.803932
0.269029 0.466054 0.814566
0.377388 0.476925 0.825203
0.485901 0.487795 0.835844
0.594554 0.498663 0.846489
0.703335 0.509529 0.857138
0.812228 0.520392 0.867791
0.869281 0.526112 0.873298
0.175292 0.587349 0.837676
0.197219 0.589684 0.839719
0.305689 0.600579 0.850365
0.414293 0.611470 0.861015
0.523020 0.622355 0.871670
0.631854 0.633236 0.882330
0.740782 0.644110 0.892995
0.849790 0.654978 0.903665
0.906839 0.660696 0.909192
0.211710 0.721999 0.873489
0.233682 0.724335 0.875551
0.342367 0.735235 0.886212
0.451155 0.746128 0.896879
0.560032 0.757012 0.907551
0.668984 0.767887 0.918229
0.777997 0.778752 0.928913
0.887059 0.789608 0.939603
0.944065 0.795308 0.945152
0.248177 0.856737 0.909356
0.270174 0.859058 0.911438
0.379012 0.869946 0.922118
0.487920 0.880822 0.932804
0.596885 0.891687 0.943497
0.705893 0.902539 0.954196
0.814929 0.913379 0.964902
0.923981 0.924205 0.975615
0.980907 0.929870 0.981189
0.267353 0.927213 0.927968
0.289347 0.929495 0.930074
0.398271 0.940346 0.940777
0.507234 0.951184 0.951486
0.616221 0.962007 0.962203
0.725219 0.972816 0.972927
0.834213 0.983609 0.983659
0.943191 0.994386 0.994399
1.000000 1.000000 1.000000
