library/cube/Shadow_Play_000.cube
# CINEGRADE LAB — Premium Cinematic LUT
# Title: Shadow Play
# Category: Neo Noir
# Description: Dramatic shadows, high contrast, moody lighting inspired by noir cinema
# Mood: Mysterious, dramatic, dark
# Variant: 1
# Generated: 2026-05-21T16:12:29.532789
TITLE "Shadow Play"
LUT_3D_SIZE 33
0.000000 0.000000 0.000000
0.000000 0.000000 0.000000
0.000001 0.000000 0.000000
0.000002 0.000001 0.000000
0.000004 0.000001 0.000000
0.000006 0.000002 0.000000
0.013575 0.001609 0.001730
0.040443 0.004775 0.005128
0.066678 0.007843 0.008410
0.092708 0.010867 0.011635
0.118687 0.013865 0.014821
0.144689 0.016847 0.017980
0.170759 0.019818 0.021119
0.196924 0.022783 0.024241
0.223202 0.025744 0.027351
0.249606 0.028703 0.030450
0.276142 0.031662 0.033540
0.302817 0.034621 0.036622
0.329634 0.037582 0.039698
0.356594 0.040544 0.042769
0.383698 0.043509 0.045834
0.410945 0.046477 0.048896
0.438336 0.049448 0.051954
0.465867 0.052423 0.055009
0.493539 0.055401 0.058061
0.521347 0.058382 0.061111
0.549291 0.061368 0.064158
0.577366 0.064357 0.067203
0.605571 0.067350 0.070247
0.618207 0.068606 0.071473
0.620859 0.068755 0.071545
0.623469 0.068902 0.071616
0.626039 0.069046 0.071686
0.000002 0.000001 0.000000
0.000004 0.000001 0.000000
0.000006 0.000002 0.000000
0.000009 0.000003 0.000000
0.000012 0.000004 0.000000
0.000015 0.000005 0.000000
0.013892 0.001630 0.001738
0.041348 0.004828 0.005152
0.068133 0.007927 0.008450
0.094686 0.010980 0.011688
0.121165 0.014006 0.014888
0.147648 0.017014 0.018061
0.174179 0.020012 0.021212
0.200787 0.023001 0.024347
0.227492 0.025986 0.027468
0.254305 0.028968 0.030578
0.281237 0.031949 0.033678
0.308291 0.034929 0.036771
0.335472 0.037910 0.039857
0.362783 0.040892 0.042937
0.390223 0.043876 0.046012
0.417793 0.046862 0.049082
0.445494 0.049850 0.052149
0.473322 0.052841 0.055212
0.501277 0.055835 0.058271
0.529358 0.058832 0.061328
0.557560 0.061832 0.064382
0.585884 0.064835 0.067434
0.614324 0.067841 0.070484
0.626964 0.069098 0.071711
0.629478 0.069239 0.071779
0.631951 0.069379 0.071845
0.634384 0.069516 0.071911
0.000010 0.000003 0.000000
0.000013 0.000004 0.000000
0.000017 0.000005 0.000000
0.000021 0.000007 0.000000
0.000025 0.000008 0.000000
0.000030 0.000010 0.000000
0.014199 0.001651 0.001746
0.042217 0.004880 0.005175
0.069526 0.008009 0.008488
0.096578 0.011089 0.011740
0.123533 0.014142 0.014953
0.150472 0.017176 0.018138
0.177442 0.020198 0.021301
0.204471 0.023211 0.024447
0.231581 0.026218 0.027579
0.258783 0.029222 0.030700
0.286088 0.032223 0.033810
0.313502 0.035224 0.036913
0.341028 0.038224 0.040008
0.368669 0.041224 0.043097
0.396427 0.044226 0.046180
0.424302 0.047229 0.049259
0.452294 0.050233 0.052333
0.480402 0.053240 0.055403
0.508624 0.056249 0.058470
0.536959 0.059260 0.061534
0.565405 0.062274 0.064595
0.593960 0.065290 0.067653
0.622621 0.068308 0.070708
0.635260 0.069565 0.071935
0.637640 0.069699 0.071999
0.639980 0.069832 0.072062
0.642281 0.069962 0.072124
0.000022 0.000007 0.000000
0.000027 0.000009 0.000000
0.000032 0.000010 0.000000
0.000038 0.000012 0.000000
0.000044 0.000014 0.000000
0.000050 0.000016 0.000000
0.014499 0.001673 0.001754
0.043050 0.004932 0.005198
0.070859 0.008088 0.008523
0.098385 0.011196 0.011789
0.125794 0.014273 0.015014
0.153167 0.017332 0.018211
0.180552 0.020376 0.021385
0.207982 0.023412 0.024542
0.235475 0.026441 0.027685
0.263046 0.029465 0.030815
0.290704 0.032486 0.033935
0.318457 0.035505 0.037047
0.346309 0.038524 0.040151
0.374263 0.041542 0.043248
0.402320 0.044560 0.046340
0.430482 0.047579 0.049426
0.458748 0.050599 0.052508
0.487117 0.053620 0.055585
0.515590 0.056643 0.058658
0.544163 0.059667 0.061728
0.572836 0.062694 0.064795
0.601607 0.065722 0.067859
0.630474 0.068752 0.070920
0.643110 0.070009 0.072146
0.645359 0.070136 0.072206
0.647570 0.070262 0.072266
0.649744 0.070385 0.072324
0.000040 0.000013 0.000000
0.000046 0.000015 0.000000
0.000053 0.000017 0.000000
0.000060 0.000019 0.000000
0.000067 0.000022 0.000000
0.000075 0.000024 0.000000
0.014790 0.001696 0.001761
0.043850 0.004983 0.005219
0.072133 0.008166 0.008558
0.100111 0.011298 0.011835
0.127950 0.014400 0.015072
0.155735 0.017481 0.018280
0.183515 0.020548 0.021465
0.211323 0.023605 0.024632
0.239179 0.026654 0.027785
0.267098 0.029698 0.030925
0.295091 0.032737 0.034054
0.323165 0.035775 0.037174
0.351324 0.038810 0.040286
0.379572 0.041844 0.043392
0.407911 0.044878 0.046491
0.436341 0.047912 0.049584
0.464864 0.050947 0.052673
0.493479 0.053982 0.055756
0.522186 0.057018 0.058836
0.550982 0.060055 0.061912
0.579867 0.063093 0.064984
0.608839 0.066132 0.068053
0.637896 0.069173 0.071119
0.650526 0.070429 0.072345
0.652649 0.070550 0.072402
0.654735 0.070669 0.072457
0.656785 0.070786 0.072512
0.000062 0.000020 0.000000
0.000070 0.000022 0.000000
0.000078 0.000025 0.000000
0.000087 0.000028 0.000000
0.000096 0.000031 0.000000
0.000105 0.000034 0.000000
0.015073 0.001720 0.001768
0.044617 0.005034 0.005239
0.073352 0.008242 0.008590
0.101757 0.011398 0.011879
0.130004 0.014523 0.015127
0.158179 0.017626 0.018345
0.186334 0.020713 0.021541
0.214500 0.023790 0.024718
0.242699 0.026858 0.027879
0.270948 0.029920 0.031028
0.299256 0.032978 0.034166
0.327631 0.036032 0.037294
0.356079 0.039083 0.040414
0.384604 0.042133 0.043527
0.413207 0.045182 0.046633
0.441890 0.048230 0.049733
0.470654 0.051278 0.052828
0.499499 0.054326 0.055918
0.528423 0.057374 0.059003
0.557428 0.060422 0.062085
0.586510 0.063471 0.065162
0.615668 0.066521 0.068236
0.644902 0.069572 0.071306
0.657522 0.070828 0.072532
0.659523 0.070942 0.072585
0.661489 0.071055 0.072637
0.663419 0.071166 0.072689
0.005191 0.020263 0.005929
0.005226 0.020316 0.005936
0.005261 0.020369 0.005943
0.005296 0.020420 0.005949
0.005332 0.020472 0.005956
0.005367 0.020522 0.005963
0.020599 0.022268 0.007743
0.050626 0.025654 0.011233
0.079813 0.028930 0.014602
0.108648 0.032153 0.017908
0.137304 0.035343 0.021173
0.165871 0.038509 0.024407
0.194401 0.041658 0.027618
0.222927 0.044795 0.030810
0.251472 0.047922 0.033986
0.280051 0.051041 0.037148
0.308677 0.054155 0.040299
0.337357 0.057263 0.043441
0.366096 0.060368 0.046573
0.394900 0.063469 0.049698
0.423770 0.066569 0.052816
0.452708 0.069666 0.055927
0.481716 0.072762 0.059033
0.510792 0.075856 0.062133
0.539939 0.078950 0.065228
0.569153 0.082042 0.068319
0.598435 0.085135 0.071406
0.627784 0.088226 0.074489
0.657197 0.091318 0.077568
0.669822 0.092605 0.078797
0.671721 0.092743 0.078851
0.673585 0.092880 0.078904
0.675415 0.093013 0.078956
0.015476 0.060426 0.017619
0.015560 0.060570 0.017638
0.015643 0.060712 0.017657
0.015726 0.060852 0.017676
0.015808 0.060990 0.017695
0.015889 0.061126 0.017713
0.031393 0.062968 0.019511
0.061898 0.066460 0.023024
0.091533 0.069840 0.026415
0.120794 0.073164 0.029743
0.149857 0.076452 0.033028
0.178813 0.079715 0.036283
0.207716 0.082958 0.039513
0.236600 0.086187 0.042723
0.265489 0.089404 0.045918
0.294398 0.092611 0.049098
0.323340 0.095810 0.052266
0.352323 0.099003 0.055424
0.381353 0.102190 0.058573
0.410434 0.105372 0.061713
0.439570 0.108549 0.064846
0.468763 0.111723 0.067972
0.498013 0.114894 0.071092
0.527322 0.118061 0.074206
0.556689 0.121226 0.077315
0.586114 0.124389 0.080418
0.615596 0.127549 0.083517
0.645135 0.130707 0.086612
0.674728 0.133862 0.089703
0.687367 0.135204 0.090939
0.689180 0.135391 0.090997
0.690960 0.135574 0.091054
0.692705 0.135754 0.091110
0.025703 0.099716 0.028962
0.025829 0.099938 0.028992
0.025954 0.100157 0.029022
0.026077 0.100373 0.029051
0.026199 0.100585 0.029080
0.026320 0.100794 0.029108
0.042078 0.102720 0.030922
0.073032 0.106305 0.034456
0.103087 0.109775 0.037867
0.132747 0.113187 0.041214
0.162191 0.116561 0.044518
0.191511 0.119907 0.047790
0.220762 0.123233 0.051037
0.249980 0.126541 0.054264
0.279188 0.129836 0.057475
0.308404 0.133119 0.060671
0.337639 0.136393 0.063854
0.366902 0.139657 0.067027
0.396201 0.142915 0.070190
0.425539 0.146166 0.073344
0.454920 0.149410 0.076490
0.484347 0.152650 0.079629
0.513821 0.155884 0.082761
0.543342 0.159114 0.085887
0.572911 0.162339 0.089007
0.602528 0.165561 0.092122
0.632192 0.168778 0.095231
0.661902 0.171992 0.098336
0.691658 0.175202 0.101437
0.704305 0.176589 0.102678
0.706032 0.176814 0.102739
0.707726 0.177036 0.102799
0.709387 0.177253 0.102858
0.036007 0.138737 0.040146
0.036170 0.139027 0.040185
0.036330 0.139313 0.040224
0.036489 0.139594 0.040262
0.036646 0.139870 0.040300
0.036801 0.140142 0.040336
0.052796 0.142142 0.042165
0.084173 0.145809 0.045717
0.114622 0.149358 0.049146
0.144655 0.152847 0.052510
0.174455 0.156296 0.055831
0.204115 0.159716 0.059119
0.233691 0.163112 0.062382
0.263220 0.166490 0.065624
0.292726 0.169853 0.068849
0.322226 0.173202 0.072059
0.351733 0.176539 0.075256
0.381257 0.179867 0.078441
0.410804 0.183185 0.081616
0.440379 0.186495 0.084782
0.469987 0.189798 0.087940
0.499629 0.193093 0.091090
0.529307 0.196382 0.094233
0.559022 0.199665 0.097369
0.588776 0.202942 0.100499
0.618568 0.206214 0.103624
0.648397 0.209480 0.106743
0.678263 0.212741 0.109856
0.708166 0.215997 0.112965
0.720814 0.217421 0.114211
0.722455 0.217678 0.114274
0.724064 0.217930 0.114336
0.725640 0.218177 0.114396
0.046422 0.177682 0.051234
0.046617 0.178031 0.051282
0.046809 0.178374 0.051328
0.046998 0.178711 0.051374
0.047185 0.179042 0.051419
0.047370 0.179368 0.051464
0.063586 0.181431 0.053304
0.095359 0.185170 0.056874
0.126177 0.188789 0.060319
0.156560 0.192346 0.063698
0.186692 0.195860 0.067033
0.216670 0.199344 0.070336
0.246549 0.202802 0.073613
0.276367 0.206240 0.076868
0.306149 0.209661 0.080106
0.335914 0.213067 0.083328
0.365673 0.216460 0.086537
0.395437 0.219842 0.089734
0.425214 0.223212 0.092920
0.455007 0.226573 0.096096
0.484822 0.229925 0.099264
0.514662 0.233268 0.102424
0.544528 0.236604 0.105576
0.574421 0.239931 0.108721
0.604342 0.243252 0.111860
0.634293 0.246566 0.114993
0.664272 0.249873 0.118119
0.694279 0.253174 0.121240
0.724314 0.256469 0.124356
0.736959 0.257923 0.125606
0.738514 0.258205 0.125670
0.740038 0.258481 0.125733
0.741530 0.258752 0.125794
0.056957 0.216633 0.062259
0.057179 0.217031 0.062314
0.057397 0.217423 0.062367
0.057613 0.217808 0.062419
0.057826 0.218186 0.062470
0.058036 0.218558 0.062521
0.074459 0.220676 0.064372
0.106602 0.224477 0.067957
0.137766 0.228157 0.071417
0.168475 0.231772 0.074810
0.198918 0.235343 0.078159
0.229191 0.238882 0.081474
0.259352 0.242393 0.084763
0.289439 0.245883 0.088030
0.319478 0.249355 0.091279
0.349487 0.252809 0.094512
0.379479 0.256250 0.097731
0.409465 0.259677 0.100938
0.439453 0.263092 0.104134
0.469447 0.266495 0.107319
0.499453 0.269889 0.110496
0.529473 0.273272 0.113664
0.559510 0.276647 0.116824
0.589565 0.280012 0.119977
0.619639 0.283369 0.123123
0.649733 0.286718 0.126262
0.679847 0.290059 0.129396
0.709980 0.293393 0.132523
0.740133 0.296719 0.135645
0.752770 0.298197 0.136897
0.754241 0.298499 0.136961
0.755680 0.298794 0.137025
0.757090 0.299082 0.137086
0.067608 0.255625 0.073238
0.067853 0.256065 0.073298
0.068095 0.256498 0.073357
0.068334 0.256923 0.073414
0.068569 0.257340 0.073471
0.068800 0.257751 0.073526
0.085415 0.259915 0.075388
0.117905 0.263771 0.078986
0.149391 0.267503 0.082459
0.180405 0.271168 0.085864
0.211136 0.274788 0.089224
0.241684 0.278373 0.092551
0.272107 0.281930 0.095850
0.302443 0.285464 0.099128
0.332719 0.288978 0.102386
0.362953 0.292474 0.105629
0.393161 0.295954 0.108857
0.423351 0.299419 0.112073
0.453532 0.302871 0.115277
0.483711 0.306311 0.118470
0.513890 0.309738 0.121654
0.544075 0.313155 0.124830
0.574268 0.316562 0.127997
0.604469 0.319958 0.131156
0.634681 0.323345 0.134308
0.664904 0.326722 0.137453
0.695139 0.330091 0.140592
0.725386 0.333451 0.143724
0.755645 0.336802 0.146851
0.768268 0.338299 0.148104
0.769656 0.338614 0.148169
0.771013 0.338922 0.148231
0.772341 0.339223 0.148293
0.078369 0.294673 0.084180
0.078634 0.295147 0.084245
0.078896 0.295614 0.084308
0.079153 0.296072 0.084370
0.079406 0.296521 0.084431
0.079656 0.296963 0.084491
0.096449 0.299166 0.086360
0.129262 0.303069 0.089971
0.161049 0.306845 0.093455
0.192345 0.310553 0.096871
0.223346 0.314213 0.100242
0.254148 0.317838 0.103578
0.284813 0.321433 0.106887
0.315380 0.325004 0.110173
0.345874 0.328553 0.113440
0.376317 0.332083 0.116691
0.406722 0.335595 0.119927
0.437099 0.339092 0.123150
0.467458 0.342575 0.126361
0.497804 0.346043 0.129561
0.528143 0.349499 0.132752
0.558477 0.352943 0.135933
0.588810 0.356375 0.139105
0.619144 0.359796 0.142270
0.649480 0.363206 0.145427
0.679819 0.366606 0.148577
0.710163 0.369996 0.151720
0.740510 0.373376 0.154857
0.770861 0.376747 0.157987
0.783468 0.378257 0.159241
0.784774 0.378581 0.159305
0.786050 0.378898 0.159367
0.787298 0.379207 0.159427
0.089231 0.333777 0.095093
0.089513 0.334280 0.095161
0.089790 0.334773 0.095228
0.090062 0.335257 0.095293
0.090331 0.335732 0.095357
0.090595 0.336199 0.095420
0.107553 0.338434 0.097297
0.140668 0.342375 0.100919
0.172733 0.346188 0.104412
0.204293 0.349932 0.107838
0.235542 0.353626 0.111217
0.266580 0.357283 0.114562
0.297469 0.360910 0.117879
0.328248 0.364510 0.121173
0.358944 0.368088 0.124448
0.389577 0.371645 0.127705
0.420163 0.375184 0.130948
0.450712 0.378707 0.134177
0.481232 0.382213 0.137394
0.511731 0.385704 0.140600
0.542214 0.389182 0.143795
0.572683 0.392647 0.146981
0.603144 0.396099 0.150158
0.633596 0.399538 0.153327
0.664043 0.402966 0.156488
0.694486 0.406383 0.159642
0.724925 0.409789 0.162788
0.755361 0.413185 0.165928
0.785794 0.416570 0.169061
0.798381 0.418087 0.170316
0.799606 0.418416 0.170378
0.800803 0.418737 0.170438
0.801972 0.419050 0.170497
0.100183 0.372933 0.105979
0.100477 0.373457 0.106050
0.100767 0.373971 0.106119
0.101052 0.374475 0.106187
0.101332 0.374970 0.106254
0.101608 0.375454 0.106319
0.118719 0.377716 0.108202
0.152113 0.381689 0.111833
0.184438 0.385532 0.115335
0.216241 0.389304 0.118769
0.247720 0.393026 0.122156
0.278976 0.396709 0.125508
0.310071 0.400360 0.128832
0.341045 0.403984 0.132133
0.371925 0.407585 0.135414
0.402734 0.411163 0.138677
0.433485 0.414723 0.141925
0.464189 0.418264 0.145159
0.494857 0.421789 0.148381
0.525494 0.425298 0.151591
0.556107 0.428792 0.154791
0.586698 0.432271 0.157981
0.617272 0.435738 0.161161
0.647831 0.439191 0.164333
0.678377 0.442632 0.167497
0.708911 0.446061 0.170654
0.739434 0.449478 0.173803
0.769948 0.452883 0.176945
0.800452 0.456278 0.180080
0.813017 0.457799 0.181334
0.814163 0.458129 0.181394
0.815282 0.458450 0.181453
0.816375 0.458763 0.181509
0.111214 0.412130 0.116841
0.111518 0.412669 0.116914
0.111817 0.413198 0.116985
0.112111 0.413717 0.117055
0.112400 0.414225 0.117123
0.112685 0.414723 0.117190
0.129937 0.417004 0.119078
0.163590 0.421002 0.122717
0.196155 0.424869 0.126227
0.228183 0.428663 0.129667
0.259873 0.432406 0.133061
0.291330 0.436110 0.136419
0.322614 0.439780 0.139749
0.353766 0.443422 0.143055
0.384816 0.447039 0.146341
0.415784 0.450634 0.149609
0.446685 0.454208 0.152861
0.477531 0.457763 0.156099
0.508332 0.461301 0.159325
0.539094 0.464821 0.162539
0.569823 0.468327 0.165741
0.600524 0.471817 0.168934
0.631199 0.475293 0.172118
0.661853 0.478755 0.175292
0.692486 0.482203 0.178458
0.723100 0.485639 0.181617
0.753697 0.489063 0.184767
0.784278 0.492474 0.187911
0.814843 0.495873 0.191047
0.827383 0.497395 0.192300
0.828453 0.497721 0.192358
0.829497 0.498039 0.192414
0.830515 0.498349 0.192468
0.122312 0.451356 0.127680
0.122623 0.451905 0.127754
0.122929 0.452443 0.127826
0.123230 0.452971 0.127897
0.123525 0.453487 0.127966
0.123816 0.453993 0.128034
0.141197 0.456288 0.129926
0.175090 0.460306 0.133572
0.207876 0.464191 0.137088
0.240111 0.468002 0.140534
0.271996 0.471760 0.143933
0.303636 0.475478 0.147297
0.335093 0.479162 0.150631
0.366409 0.482816 0.153941
0.397613 0.486445 0.157231
0.428726 0.490050 0.160503
0.459763 0.493634 0.163759
0.490737 0.497198 0.167000
0.521658 0.500744 0.170229
0.552532 0.504272 0.173445
0.583365 0.507784 0.176650
0.614163 0.511279 0.179845
0.644929 0.514760 0.183030
0.675665 0.518227 0.186206
0.706375 0.521679 0.189374
0.737059 0.525118 0.192533
0.767721 0.528543 0.195685
0.798359 0.531956 0.198829
0.828976 0.535357 0.201966
0.841125 0.536875 0.203218
0.842079 0.537195 0.203273
0.843008 0.537507 0.203326
0.843912 0.537810 0.203378
0.133466 0.490597 0.138497
0.133782 0.491151 0.138571
0.134092 0.491694 0.138644
0.134397 0.492225 0.138715
0.134697 0.492745 0.138784
0.134991 0.493254 0.138852
0.152490 0.495557 0.140747
0.186604 0.499589 0.144398
0.219594 0.503487 0.147920
0.252019 0.507309 0.151371
0.284083 0.511078 0.154774
0.315890 0.514805 0.158142
0.347506 0.518497 0.161480
0.378970 0.522159 0.164794
0.410314 0.525794 0.168086
0.441557 0.529406 0.171361
0.472718 0.532995 0.174619
0.503807 0.536563 0.177863
0.534835 0.540112 0.181094
0.565809 0.543643 0.184312
0.596735 0.547157 0.187518
0.627619 0.550655 0.190715
0.658464 0.554136 0.193901
0.689273 0.557603 0.197078
0.720049 0.561055 0.200246
0.750795 0.564493 0.203406
0.781511 0.567917 0.206558
0.812198 0.571328 0.209702
0.842433 0.574726 0.212839
0.854408 0.576238 0.214088
0.855278 0.576549 0.214140
0.856125 0.576852 0.214191
0.856947 0.577146 0.214239
0.144667 0.529838 0.149290
0.144985 0.530393 0.149364
0.145297 0.530935 0.149437
0.145603 0.531466 0.149508
0.145905 0.531985 0.149577
0.146200 0.532492 0.149644
0.163807 0.534800 0.151541
0.198125 0.538840 0.155197
0.231301 0.542745 0.158723
0.263900 0.546574 0.162178
0.296127 0.550349 0.165585
0.328088 0.554080 0.168955
0.359846 0.557776 0.172296
0.391445 0.561441 0.175612
0.422915 0.565079 0.178907
0.454277 0.568692 0.182184
0.485548 0.572282 0.185444
0.516740 0.575850 0.188689
0.547863 0.579399 0.191921
0.578926 0.582929 0.195140
0.609934 0.586441 0.198348
0.640894 0.589937 0.201544
0.671808 0.593416 0.204731
0.702681 0.596879 0.207908
0.733514 0.600327 0.211076
0.764312 0.603761 0.214236
0.795074 0.607180 0.217387
0.825803 0.610586 0.220531
0.855479 0.613979 0.223667
0.867374 0.615481 0.224914
0.868164 0.615781 0.224963
0.868931 0.616073 0.225010
0.869674 0.616355 0.225055
0.155903 0.569066 0.160061
0.156221 0.569616 0.160134
0.156533 0.570154 0.160206
0.156839 0.570680 0.160275
0.157140 0.571194 0.160343
0.157434 0.571696 0.160410
0.175140 0.574003 0.162308
0.209644 0.578048 0.165968
0.242990 0.581956 0.169497
0.275748 0.585786 0.172955
0.308123 0.589562 0.176364
0.340223 0.593294 0.179737
0.372111 0.596990 0.183080
0.403832 0.600654 0.186398
0.435415 0.604290 0.189694
0.466883 0.607900 0.192972
0.498252 0.611487 0.196233
0.529536 0.615052 0.199479
0.560744 0.618597 0.202711
0.591885 0.622123 0.205931
0.622966 0.625630 0.209138
0.653991 0.629120 0.212335
0.684966 0.632593 0.215522
0.715893 0.636049 0.218698
0.746776 0.639491 0.221866
0.777616 0.642917 0.225025
0.808418 0.646329 0.228175
0.838899 0.649727 0.231318
0.868219 0.653111 0.234453
0.880032 0.654602 0.235697
0.880743 0.654889 0.235742
0.881432 0.655167 0.235786
0.882099 0.655437 0.235827
0.167165 0.608265 0.170808
0.167481 0.608808 0.170880
0.167791 0.609337 0.170950
0.168095 0.609855 0.171018
0.168393 0.610360 0.171084
0.168685 0.610853 0.171149
0.186479 0.613156 0.173048
0.221153 0.617200 0.176711
0.254656 0.621106 0.180242
0.287558 0.624935 0.183702
0.320067 0.628708 0.187113
0.352292 0.632436 0.190488
0.384298 0.636128 0.193832
0.416128 0.639787 0.197151
0.447813 0.643418 0.200448
0.479375 0.647023 0.203726
0.510832 0.650603 0.206987
0.542196 0.654162 0.210233
0.573479 0.657699 0.213465
0.604689 0.661217 0.216685
0.635832 0.664716 0.219892
0.666915 0.668197 0.223088
0.697941 0.671662 0.226273
0.728914 0.675109 0.229449
0.759839 0.678541 0.232616
0.790716 0.681958 0.235773
0.821549 0.685360 0.238922
0.851429 0.688747 0.242063
0.880658 0.692120 0.245197
0.892388 0.693598 0.246438
0.893023 0.693870 0.246479
0.893637 0.694133 0.246519
0.894231 0.694388 0.246557
0.178444 0.647423 0.181530
0.178756 0.647953 0.181600
0.179062 0.648471 0.181668
0.179362 0.648977 0.181734
0.179656 0.649470 0.181799
0.179944 0.649950 0.181862
0.197818 0.652245 0.183761
0.232648 0.656285 0.187426
0.266291 0.660187 0.190958
0.299323 0.664010 0.194420
0.331954 0.667776 0.197832
0.364292 0.671498 0.201207
0.396403 0.675182 0.204551
0.428331 0.678833 0.207870
0.460106 0.682455 0.211168
0.491752 0.686051 0.214446
0.523286 0.689622 0.217707
0.554722 0.693171 0.220952
0.586071 0.696699 0.224184
0.617340 0.700206 0.227402
0.648537 0.703695 0.230608
0.679669 0.707165 0.233803
0.710739 0.710618 0.236987
0.741752 0.714054 0.240162
0.772710 0.717474 0.243326
0.803618 0.720878 0.246482
0.834441 0.724268 0.249630
0.863675 0.727643 0.252769
0.892805 0.731004 0.255900
0.904449 0.732467 0.257138
0.905011 0.732723 0.257176
0.905554 0.732970 0.257212
0.906076 0.733208 0.257246
0.189731 0.686525 0.192227
0.190038 0.687041 0.192295
0.190338 0.687544 0.192361
0.190633 0.688034 0.192424
0.190922 0.688512 0.192486
0.191204 0.688978 0.192547
0.209150 0.691262 0.194446
0.244120 0.695294 0.198111
0.277891 0.699187 0.201645
0.311041 0.703001 0.205107
0.343781 0.706758 0.208519
0.376220 0.710469 0.211894
0.408425 0.714143 0.215239
0.440439 0.717783 0.218557
0.472295 0.721394 0.221854
0.504015 0.724978 0.225132
0.535617 0.728538 0.228392
0.567115 0.732074 0.231636
0.598520 0.735590 0.234866
0.629841 0.739084 0.238083
0.661085 0.742560 0.241288
0.692258 0.746017 0.244481
0.723365 0.749456 0.247664
0.754410 0.752879 0.250836
0.785398 0.756285 0.253999
0.816329 0.759676 0.257153
0.846513 0.763052 0.260298
0.875645 0.766413 0.263435
0.904666 0.769760 0.266563
0.916224 0.771207 0.267799
0.916716 0.771445 0.267832
0.917190 0.771675 0.267864
0.917645 0.771897 0.267895
0.201019 0.725559 0.202898
0.201319 0.726058 0.202963
0.201613 0.726543 0.203026
0.201901 0.727016 0.203087
0.202182 0.727477 0.203146
0.202458 0.727924 0.203204
0.220468 0.730194 0.205102
0.255565 0.734216 0.208768
0.289451 0.738097 0.212302
0.322707 0.741899 0.215763
0.355544 0.745644 0.219176
0.388073 0.749343 0.222550
0.420361 0.753003 0.225894
0.452452 0.756631 0.229212
0.484379 0.760228 0.232507
0.516164 0.763798 0.235784
0.547825 0.767344 0.239042
0.579377 0.770866 0.242285
0.610831 0.774366 0.245514
0.642196 0.777846 0.248729
0.673480 0.781307 0.251932
0.704688 0.784749 0.255123
0.735826 0.788174 0.258303
0.766898 0.791581 0.261474
0.797908 0.794973 0.264634
0.828859 0.798348 0.267785
0.858324 0.801709 0.270928
0.887345 0.805054 0.274062
0.916251 0.808386 0.277189
0.927721 0.809816 0.278420
0.928147 0.810037 0.278450
0.928555 0.810249 0.278478
0.928947 0.810454 0.278505
0.212301 0.764515 0.213543
0.212593 0.764994 0.213604
0.212878 0.765460 0.213664
0.213158 0.765912 0.213722
0.213432 0.766353 0.213778
0.213700 0.766781 0.213832
0.231767 0.769034 0.215729
0.266978 0.773042 0.219395
0.300966 0.776910 0.222928
0.334317 0.780698 0.226389
0.367241 0.784428 0.229801
0.399850 0.788112 0.233174
0.432212 0.791757 0.236516
0.464371 0.795369 0.239833
0.496359 0.798950 0.243127
0.528200 0.802505 0.246402
0.559913 0.806034 0.249659
0.591512 0.809540 0.252900
0.623008 0.813025 0.256126
0.654410 0.816489 0.259339
0.685727 0.819933 0.262540
0.716964 0.823359 0.265729
0.748128 0.826767 0.268907
0.779222 0.830158 0.272074
0.810250 0.833533 0.275232
0.840857 0.836893 0.278381
0.869882 0.840237 0.281521
0.898785 0.843567 0.284653
0.927569 0.846883 0.287776
0.938951 0.848295 0.289004
0.939313 0.848498 0.289030
0.939659 0.848693 0.289055
0.939990 0.848880 0.289078
0.223569 0.803383 0.224159
0.223852 0.803839 0.224218
0.224129 0.804283 0.224274
0.224400 0.804714 0.224328
0.224665 0.805132 0.224381
0.224924 0.805539 0.224432
0.243041 0.807774 0.226327
0.278354 0.811766 0.229992
0.312435 0.815618 0.233524
0.345869 0.819389 0.236984
0.378871 0.823102 0.240394
0.411550 0.826769 0.243766
0.443977 0.830397 0.247107
0.476195 0.833992 0.250422
0.508237 0.837557 0.253714
0.540127 0.841094 0.256986
0.571884 0.844606 0.260241
0.603523 0.848095 0.263480
0.635054 0.851562 0.266704
0.666489 0.855008 0.269915
