library/cube/Shadow_Journal_002.cube
# CINEGRADE LAB — Premium Cinematic LUT
# Title: Shadow Journal
# Category: Moody Documentary
# Description: Desaturated, contrasty, journalistic style for documentary storytelling
# Mood: Raw, honest, gritty
# Variant: 3
# Generated: 2026-05-21T16:12:16.742186
TITLE "Shadow Journal"
LUT_3D_SIZE 9
0.000000 0.000000 0.003600
0.004721 0.000382 0.003753
0.122932 0.009931 0.013212
0.241468 0.019493 0.022673
0.360309 0.029065 0.032137
0.479433 0.038647 0.041603
0.598821 0.048238 0.051073
0.718454 0.057838 0.060547
0.762102 0.061315 0.063838
0.001273 0.005688 0.004151
0.006018 0.006074 0.004334
0.124749 0.015645 0.013812
0.243760 0.025226 0.023293
0.363030 0.034816 0.032777
0.482541 0.044415 0.042264
0.602273 0.054021 0.051756
0.722209 0.063634 0.061251
0.765871 0.067114 0.064569
0.033240 0.148168 0.036027
0.038039 0.148623 0.036231
0.157247 0.158275 0.045719
0.276690 0.167932 0.055212
0.396348 0.177594 0.064708
0.516204 0.187259 0.074209
0.636240 0.196927 0.083715
0.756440 0.206598 0.093225
0.800122 0.210124 0.096563
0.065430 0.291084 0.067942
0.070268 0.291586 0.068167
0.189870 0.301295 0.077669
0.309665 0.311004 0.087176
0.429635 0.320714 0.096688
0.549762 0.330423 0.106205
0.670032 0.340131 0.115727
0.790427 0.349838 0.125254
0.834104 0.353390 0.128613
0.097786 0.434327 0.099905
0.102650 0.434856 0.100152
0.222570 0.444599 0.109671
0.342643 0.454339 0.119194
0.462853 0.464076 0.128723
0.583184 0.473808 0.138258
0.703621 0.483536 0.147798
0.824150 0.493260 0.157344
0.867802 0.496820 0.160725
0.130256 0.577797 0.131924
0.135135 0.578334 0.132194
0.255301 0.588092 0.141730
0.375584 0.597843 0.151272
0.495969 0.607588 0.160820
0.616442 0.617326 0.170374
0.736989 0.627056 0.179933
0.857598 0.636780 0.189499
0.901207 0.640335 0.192902
0.162796 0.721402 0.164004
0.167679 0.721931 0.164298
0.288026 0.731687 0.173853
0.408458 0.741433 0.183415
0.528960 0.751171 0.192982
0.649520 0.760899 0.202556
0.770126 0.770618 0.212135
0.890768 0.780328 0.221720
0.934324 0.783865 0.225144
0.195364 0.865062 0.196150
0.200243 0.865572 0.196467
0.320713 0.875311 0.206042
0.441238 0.885039 0.215624
0.561807 0.894757 0.225211
0.682408 0.904464 0.234804
0.803032 0.914161 0.244402
0.923670 0.923848 0.254006
0.967167 0.927360 0.257449
0.207206 0.917011 0.207618
0.212069 0.917482 0.207958
0.332608 0.927187 0.217553
0.453178 0.936882 0.227155
0.573770 0.946566 0.236761
0.694374 0.956241 0.246373
0.814984 0.965907 0.255989
0.935592 0.975564 0.265610
0.979031 0.979048 0.269069
0.000128 0.000130 0.008114
0.004852 0.000511 0.008269
0.123119 0.010063 0.017728
0.241706 0.019626 0.027189
0.360593 0.029200 0.036654
0.479760 0.038784 0.046121
0.599186 0.048376 0.055592
0.718852 0.057978 0.065066
0.762503 0.061455 0.068359
0.001402 0.005819 0.008670
0.006149 0.006205 0.008855
0.124929 0.015778 0.018334
0.243983 0.025361 0.027815
0.363293 0.034952 0.037300
0.482839 0.044552 0.046788
0.602602 0.054159 0.056280
0.722565 0.063773 0.065776
0.766228 0.067253 0.069097
0.033382 0.148323 0.040549
0.038182 0.148777 0.040754
0.157430 0.158429 0.050243
0.276909 0.168087 0.059737
0.396599 0.177748 0.069235
0.516483 0.187413 0.078737
0.636544 0.197081 0.088243
0.756764 0.206752 0.097755
0.800444 0.210277 0.101095
0.065580 0.291255 0.072467
0.070418 0.291755 0.072693
0.190054 0.301463 0.082197
0.309878 0.311172 0.091705
0.429872 0.320880 0.101219
0.550021 0.330588 0.110737
0.670308 0.340295 0.120260
0.790717 0.350000 0.129789
0.834391 0.353550 0.133151
0.097941 0.434508 0.104434
0.102805 0.435034 0.104683
0.222751 0.444775 0.114203
0.342846 0.454513 0.123728
0.463074 0.464247 0.133259
0.583421 0.473977 0.142795
0.703870 0.483703 0.152337
0.824408 0.493424 0.161885
0.868055 0.496982 0.165268
0.130414 0.577980 0.136458
0.135291 0.578514 0.136730
0.255477 0.588269 0.146268
0.375776 0.598017 0.155812
0.496174 0.607759 0.165362
0.616657 0.617494 0.174917
0.737211 0.627222 0.184479
0.857823 0.636942 0.194046
0.901427 0.640494 0.197451
0.162952 0.721583 0.168544
0.167834 0.722109 0.168840
0.288195 0.731860 0.178397
0.408637 0.741603 0.187961
0.529147 0.751337 0.197530
0.649712 0.761062 0.207105
0.770321 0.770777 0.216686
0.890963 0.780484 0.226273
0.934513 0.784018 0.229700
0.195517 0.865237 0.200697
0.200394 0.865742 0.201016
0.320873 0.875477 0.210593
0.441404 0.885201 0.220176
0.561976 0.894915 0.229765
0.682579 0.904618 0.239360
0.803203 0.914312 0.248960
0.923838 0.923995 0.258566
0.967328 0.927504 0.262011
0.207352 0.917172 0.212171
0.212214 0.917640 0.212513
0.332757 0.927341 0.222110
0.453330 0.937032 0.231713
0.573922 0.946713 0.241322
0.694525 0.956384 0.250935
0.815132 0.966047 0.260553
0.935737 0.975701 0.270175
0.979171 0.979183 0.273636
0.003329 0.003370 0.122898
0.008060 0.003754 0.123012
0.126387 0.013310 0.132432
0.245029 0.022876 0.141855
0.363966 0.032454 0.151284
0.483177 0.042040 0.160717
0.602644 0.051636 0.170155
0.722347 0.061240 0.179598
0.766003 0.064719 0.182862
0.004619 0.009067 0.123325
0.009372 0.009455 0.123476
0.128203 0.019031 0.132920
0.247304 0.028617 0.142370
0.366656 0.038211 0.151824
0.486239 0.047814 0.161283
0.606036 0.057423 0.170748
0.726028 0.067040 0.180219
0.769693 0.070520 0.183516
0.036624 0.151600 0.155091
0.041428 0.152054 0.155267
0.160719 0.161708 0.164729
0.280236 0.171367 0.174196
0.399960 0.181030 0.183668
0.519874 0.190696 0.193147
0.639961 0.200365 0.202632
0.760203 0.210037 0.212122
0.803883 0.213561 0.215444
0.068841 0.294553 0.186916
0.073682 0.295052 0.187118
0.193352 0.304760 0.196599
0.313206 0.314469 0.206086
0.433228 0.324177 0.215579
0.553400 0.333884 0.225079
0.673706 0.343591 0.234585
0.794131 0.353296 0.244098
0.837803 0.356845 0.247446
0.101215 0.437819 0.218807
0.106081 0.438342 0.219037
0.226054 0.448082 0.228539
0.346173 0.457819 0.238048
0.466421 0.467552 0.247563
0.586784 0.477281 0.257085
0.707246 0.487005 0.266614
0.827794 0.496725 0.276150
0.871437 0.500280 0.279524
0.133696 0.581297 0.250771
0.138575 0.581827 0.251029
0.258781 0.591580 0.260554
0.379097 0.601326 0.270085
0.499509 0.611066 0.279624
0.620002 0.620798 0.289169
0.740564 0.630523 0.298722
0.861181 0.640241 0.308281
0.904780 0.643790 0.311680
0.166239 0.724899 0.282813
0.171120 0.725421 0.283098
0.291496 0.735170 0.292646
0.411949 0.744910 0.302201
0.532468 0.754641 0.311763
0.653039 0.764362 0.321332
0.773651 0.774075 0.330908
0.894294 0.783778 0.340491
0.937837 0.787309 0.343914
0.198805 0.868548 0.314934
0.203680 0.869049 0.315246
0.324168 0.878781 0.324818
0.444706 0.888501 0.334396
0.565282 0.898212 0.343981
0.685887 0.907911 0.353573
0.806510 0.917601 0.363170
0.927143 0.927281 0.372774
0.970627 0.930788 0.376218
0.210636 0.920472 0.326390
0.215496 0.920935 0.326728
0.336045 0.930633 0.336323
0.456620 0.940320 0.345923
0.577212 0.949998 0.355530
0.697814 0.959667 0.365142
0.818418 0.969326 0.374760
0.939020 0.978978 0.384382
0.982449 0.982458 0.387843
0.006534 0.006612 0.237653
0.011271 0.006998 0.237728
0.129657 0.016557 0.247109
0.248353 0.026128 0.256496
0.367339 0.035708 0.265889
0.486595 0.045298 0.275289
0.606101 0.054897 0.284696
0.725840 0.064504 0.294110
0.769500 0.067984 0.297346
0.007839 0.012317 0.237956
0.012597 0.012706 0.238073
0.131479 0.022286 0.247485
0.250625 0.031874 0.256903
0.370018 0.041471 0.266328
0.489639 0.051076 0.275760
0.609468 0.060688 0.285198
0.729488 0.070307 0.294644
0.773157 0.073789 0.297919
0.039867 0.154877 0.269613
0.044676 0.155332 0.269761
0.164009 0.164988 0.279195
0.283563 0.174648 0.288637
0.403321 0.184312 0.298085
0.523264 0.193980 0.307541
0.643376 0.203650 0.317005
0.763639 0.213322 0.326476
0.807320 0.216846 0.329781
0.072103 0.297851 0.301347
0.076947 0.298349 0.301527
0.196651 0.308057 0.310986
0.316535 0.317766 0.320452
0.436583 0.327474 0.329927
0.556777 0.337181 0.339409
0.677101 0.346887 0.348899
0.797541 0.356591 0.358397
0.841211 0.360139 0.361731
0.104490 0.441129 0.333165
0.109357 0.441650 0.333378
0.229357 0.451389 0.342863
0.349499 0.461125 0.352356
0.469766 0.470856 0.361857
0.590145 0.480584 0.371366
0.710620 0.490306 0.380883
0.831177 0.500024 0.390408
0.874816 0.503578 0.393773
0.136979 0.584613 0.365073
0.141858 0.585140 0.365318
0.262085 0.594891 0.374830
0.382417 0.604635 0.384350
0.502842 0.614372 0.393878
0.623345 0.624102 0.403415
0.743914 0.633825 0.412959
0.864537 0.643540 0.422512
0.908130 0.647086 0.425905
0.169526 0.728215 0.397073
0.174407 0.728733 0.397349
0.294797 0.738479 0.406889
0.415261 0.748216 0.416436
0.535787 0.757943 0.425992
0.656363 0.767662 0.435555
0.776978 0.777371 0.445126
0.897622 0.787071 0.454705
0.941159 0.790599 0.458125
0.202092 0.871858 0.429166
0.206967 0.872355 0.429472
0.327463 0.882083 0.439039
0.448007 0.891800 0.448613
0.568587 0.901507 0.458194
0.689192 0.911203 0.467783
0.809815 0.920890 0.477379
0.930446 0.930567 0.486982
0.973924 0.934070 0.490425
0.213920 0.923770 0.440605
0.218778 0.924230 0.440940
0.339331 0.933924 0.450533
0.459908 0.943608 0.460132
0.580501 0.953283 0.469737
0.701102 0.962948 0.479349
0.821704 0.972605 0.488967
0.942301 0.982254 0.498590
0.985726 0.985732 0.502051
0.009741 0.009855 0.352380
0.014486 0.010243 0.352417
0.132929 0.019806 0.361761
0.251678 0.029380 0.371112
0.370712 0.038964 0.380472
0.490011 0.048557 0.389840
0.609557 0.058159 0.399216
0.729330 0.067768 0.408601
0.772996 0.071249 0.411811
0.011061 0.015567 0.352562
0.015825 0.015958 0.352646
0.134756 0.025541 0.362027
0.253948 0.035133 0.371415
0.373381 0.044732 0.380812
0.493037 0.054340 0.390217
0.612899 0.063954 0.399631
0.732946 0.073575 0.409053
0.776617 0.077058 0.412306
0.043113 0.158156 0.384114
0.047926 0.158611 0.384235
0.167300 0.168268 0.393643
0.286891 0.177930 0.403060
0.406681 0.187595 0.412486
0.526653 0.197263 0.421921
0.646789 0.206934 0.431364
0.767073 0.216607 0.440817
0.810754 0.220131 0.444105
0.075366 0.301149 0.415761
0.080213 0.301646 0.415920
0.199951 0.311354 0.425358
0.319864 0.321063 0.434805
0.439937 0.330770 0.444261
0.560152 0.340477 0.453726
0.680495 0.350183 0.463201
0.800949 0.359887 0.472685
0.844617 0.363433 0.476007
0.107766 0.444439 0.447510
0.112635 0.444958 0.447706
0.232661 0.454696 0.457175
0.352824 0.464430 0.466653
0.473111 0.474160 0.476140
0.593504 0.483886 0.485637
0.713991 0.493607 0.495143
0.834557 0.503323 0.504659
0.878192 0.506875 0.508015
0.140263 0.587928 0.479364
0.145143 0.588452 0.479597
0.265388 0.598201 0.489097
0.385737 0.607942 0.498606
0.506174 0.617677 0.508125
0.626687 0.627405 0.517653
0.747263 0.637125 0.527191
0.867889 0.646838 0.536737
0.911477 0.650381 0.540125
0.172813 0.731529 0.511326
0.177694 0.732044 0.511593
0.298097 0.741787 0.521125
0.418571 0.751520 0.530665
0.539105 0.761245 0.540215
0.659686 0.770960 0.549773
0.780303 0.780666 0.559341
0.900947 0.790364 0.568916
0.944478 0.793888 0.572334
0.205379 0.875167 0.543393
0.210253 0.875660 0.543694
0.330758 0.885384 0.553255
0.451307 0.895098 0.562826
0.571889 0.904801 0.572404
0.692496 0.914494 0.581991
0.813118 0.924177 0.591586
0.933746 0.933851 0.601188
0.977218 0.937351 0.604631
0.217203 0.927068 0.554817
0.222060 0.927523 0.555150
0.342617 0.937214 0.564740
0.463196 0.946895 0.574338
0.583789 0.956566 0.583944
0.704388 0.966229 0.593555
0.824987 0.975883 0.603173
0.945581 0.985530 0.612797
0.989002 0.989005 0.616259
0.012952 0.013099 0.467079
0.017703 0.013490 0.467079
0.136203 0.023056 0.476387
0.255004 0.032634 0.485704
0.374085 0.042221 0.495031
0.493427 0.051817 0.504368
0.613012 0.061421 0.513715
0.732818 0.071033 0.523072
0.776488 0.074516 0.526257
0.014286 0.018819 0.467144
0.019056 0.019212 0.467198
0.138035 0.028797 0.476548
0.257271 0.038392 0.485907
0.376744 0.047994 0.495277
0.496435 0.057604 0.504656
0.616327 0.067221 0.514046
0.736402 0.076843 0.523446
0.780075 0.080327 0.526678
0.046361 0.161435 0.498595
0.051178 0.161890 0.498690
0.170592 0.171549 0.508074
0.290219 0.181212 0.517467
0.410041 0.190878 0.526871
0.530041 0.200547 0.536285
0.650201 0.210219 0.545710
0.770505 0.219892 0.555145
0.814185 0.223416 0.558417
0.078631 0.304447 0.530159
0.083481 0.304943 0.530297
0.203251 0.314651 0.539715
0.323193 0.324360 0.549144
0.443290 0.334067 0.558583
0.563526 0.343774 0.568032
0.683886 0.353479 0.577493
0.804354 0.363182 0.586964
0.848019 0.366727 0.590274
0.111043 0.447748 0.561842
0.115913 0.448266 0.562022
0.235964 0.458002 0.571475
0.356150 0.467735 0.580939
0.476454 0.477464 0.590414
0.596862 0.487188 0.599900
0.717360 0.496907 0.609396
0.837935 0.506622 0.618902
0.881566 0.510171 0.622250
0.143547 0.591242 0.593646
0.148428 0.591764 0.593866
0.268692 0.601510 0.603356
0.389055 0.611249 0.612855
0.509505 0.620981 0.622366
0.630027 0.630706 0.631886
0.750609 0.640424 0.641417
0.871238 0.650135 0.650958
0.914821 0.653675 0.654341
0.176101 0.734842 0.625571
0.180981 0.735354 0.625831
0.301397 0.745093 0.635355
0.421881 0.754824 0.644889
0.542421 0.764545 0.654434
0.663007 0.774257 0.663988
0.783626 0.783961 0.673552
0.904269 0.793655 0.683125
0.947795 0.797177 0.686541
0.208666 0.878475 0.657614
0.213539 0.878964 0.657911
0.334051 0.888684 0.667469
0.454605 0.898394 0.677036
0.575191 0.908094 0.686612
0.695798 0.917783 0.696198
0.816418 0.927464 0.705791
0.937044 0.937134 0.715393
0.980510 0.940631 0.718837
0.220486 0.930363 0.669027
0.225342 0.930815 0.669358
0.345902 0.940503 0.678947
0.466482 0.950180 0.688544
0.587075 0.959848 0.698149
0.707672 0.969508 0.707761
0.828269 0.979160 0.717380
0.948859 0.988804 0.727004
0.992276 0.992278 0.730468
0.016166 0.016345 0.581751
0.020923 0.016737 0.581716
0.139479 0.026308 0.590989
0.258331 0.035889 0.600273
0.377459 0.045479 0.609568
0.496843 0.055078 0.618875
0.616464 0.064685 0.628194
0.736304 0.074299 0.637525
0.779978 0.077783 0.640685
0.017513 0.022072 0.581703
0.022289 0.022466 0.581727
0.141316 0.032055 0.591048
0.260594 0.041652 0.600379
0.380106 0.051257 0.609723
0.499832 0.060869 0.619078
0.619755 0.070488 0.628445
0.739856 0.080113 0.637823
0.783531 0.083597 0.641036
0.049611 0.164714 0.613056
0.054431 0.165170 0.613127
0.173885 0.174830 0.622487
0.293547 0.184494 0.631858
0.413401 0.194162 0.641241
0.533427 0.203832 0.650635
0.653610 0.213504 0.660042
0.773934 0.223178 0.669460
0.817614 0.226701 0.672717
0.081897 0.307745 0.644541
0.086750 0.308240 0.644659
0.206551 0.317948 0.654058
0.326521 0.327656 0.663469
0.446642 0.337364 0.672892
0.566899 0.347070 0.682327
0.687275 0.356774 0.691774
0.807757 0.366476 0.701233
0.851419 0.370020 0.704532
0.114321 0.451057 0.676161
0.119193 0.451573 0.676326
0.239268 0.461308 0.685765
0.359474 0.471039 0.695216
0.479796 0.480767 0.704679
0.600218 0.490489 0.714154
0.720727 0.500207 0.723641
0.841309 0.509920 0.733139
0.884936 0.513467 0.736480
0.146832 0.594556 0.707918
0.151713 0.595074 0.708127
0.271995 0.604818 0.717606
0.392373 0.614555 0.727097
0.512834 0.624285 0.736599
0.633365 0.634007 0.746113
0.753952 0.643723 0.755638
0.874585 0.653431 0.765174
0.918162 0.656968 0.768554
0.179388 0.738155 0.739809
0.184268 0.738662 0.740062
0.304696 0.748399 0.749580
0.425189 0.758126 0.759109
0.545736 0.767844 0.768649
0.666325 0.777554 0.778199
0.786946 0.787254 0.787760
0.907589 0.796945 0.797331
0.951108 0.800464 0.800746
0.211953 0.881781 0.771832
0.216825 0.882266 0.772124
0.337344 0.891983 0.781679
0.457903 0.901689 0.791243
0.578491 0.911386 0.800818
0.699098 0.921072 0.810402
0.819717 0.930749 0.819996
0.940339 0.940417 0.829597
0.983800 0.943911 0.833042
0.223768 0.933658 0.783234
0.228623 0.934106 0.783563
0.349186 0.943790 0.793151
0.469768 0.953465 0.802748
0.590360 0.963130 0.812354
0.710955 0.972787 0.821966
0.831549 0.982436 0.831586
0.952136 0.992078 0.841211
0.995550 0.995550 0.844676
0.019383 0.019592 0.696397
0.024146 0.019986 0.696328
0.142757 0.029560 0.705566
0.261659 0.039144 0.714818
0.380832 0.048738 0.724084
0.500258 0.058339 0.733362
0.619916 0.067949 0.742654
0.739788 0.077565 0.751959
0.783466 0.081051 0.755096
0.020743 0.025326 0.696240
0.025524 0.025721 0.696235
0.144598 0.035313 0.705527
0.263919 0.044913 0.714832
0.383468 0.054521 0.724151
0.503228 0.064135 0.733482
0.623180 0.073756 0.742827
0.743307 0.083382 0.752185
0.786983 0.086868 0.755379
0.052862 0.167994 0.727499
0.057687 0.168450 0.727547
0.177179 0.178112 0.736883
0.296876 0.187777 0.746233
0.416759 0.197445 0.755595
0.536812 0.207116 0.764972
0.657018 0.216789 0.774361
0.777360 0.226463 0.783764
0.821039 0.229987 0.787007
0.085165 0.311043 0.758908
0.090020 0.311537 0.759007
0.209853 0.321245 0.768388
0.329849 0.330953 0.777783
0.449994 0.340660 0.787190
0.570270 0.350365 0.796611
0.690662 0.360069 0.806046
0.811156 0.369771 0.815493
0.854816 0.373313 0.818783
0.117600 0.454366 0.790469
0.122473 0.454879 0.790619
0.242572 0.464613 0.800044
0.362799 0.474343 0.809483
0.483137 0.484069 0.818935
0.603573 0.493790 0.828400
0.724092 0.503506 0.837878
0.844681 0.513217 0.847369
0.888303 0.516762 0.850704
0.150117 0.597868 0.822180
0.154998 0.598384 0.822380
0.275298 0.608126 0.831850
0.395690 0.617860 0.841332
0.516162 0.627587 0.850827
0.636701 0.637308 0.860335
0.757294 0.647020 0.869855
0.877929 0.656726 0.879386
0.921501 0.660261 0.882763
0.182676 0.741466 0.854041
0.187556 0.741970 0.854287
0.307995 0.751703 0.863799
0.428496 0.761428 0.873323
0.549049 0.771143 0.882859
0.669642 0.780849 0.892407
0.790264 0.790546 0.901966
0.910906 0.800235 0.911536
0.954420 0.803750 0.914949
0.215240 0.885086 0.886045
0.220110 0.885567 0.886334
0.340636 0.895280 0.895886
0.461199 0.904983 0.905449
0.581789 0.914676 0.915022
0.702396 0.924359 0.924605
0.823013 0.934033 0.934187
0.943633 0.943698 0.943787
0.987088 0.947189 0.947237
0.227050 0.936952 0.897438
0.231903 0.937396 0.897767
0.352470 0.947077 0.907355
0.473052 0.956748 0.916952
0.593644 0.966410 0.926556
0.714237 0.976064 0.936168
0.834828 0.985711 0.945790
0.955412 0.995352 0.955418
0.998822 0.998822 0.958885
0.020547 0.020764 0.737559
0.025314 0.021159 0.737482
0.143976 0.030735 0.746713
0.262925 0.040321 0.755958
0.382141 0.049916 0.765216
0.501604 0.059520 0.774488
0.621296 0.069131 0.783774
0.741198 0.078749 0.793074
0.784878 0.082235 0.796206
0.021912 0.026500 0.737379
0.026696 0.026896 0.737368
0.145813 0.036490 0.746654
0.265174 0.046092 0.755953
0.384759 0.055701 0.765266
0.504549 0.065317 0.774593
0.624528 0.074939 0.783934
0.744678 0.084566 0.793288
0.788354 0.088052 0.796479
0.054045 0.169191 0.768617
0.058871 0.169646 0.768660
0.178399 0.179308 0.777992
0.298128 0.188974 0.787338
0.418039 0.198642 0.796697
0.538116 0.208313 0.806070
0.658342 0.217986 0.815457
0.778701 0.227660 0.824858
0.822378 0.231183 0.828099
0.086357 0.312255 0.800011
0.091213 0.312747 0.800108
0.211074 0.322454 0.809486
0.331095 0.332161 0.818878
0.451261 0.341867 0.828284
0.571555 0.351572 0.837703
0.691961 0.361274 0.847136
0.812467 0.370974 0.856583
0.856122 0.374515 0.859872
0.118797 0.455586 0.831562
0.123670 0.456096 0.831711
0.243792 0.465828 0.841136
0.364036 0.475556 0.850574
0.484390 0.485280 0.860025
0.604837 0.494999 0.869490
0.725365 0.504713 0.878968
0.845960 0.514422 0.888459
0.889578 0.517964 0.891795
0.151317 0.599090 0.863270
0.156197 0.599602 0.863470
0.276512 0.609341 0.872939
0.396917 0.619073 0.882422
0.517399 0.628797 0.891918
0.637944 0.638515 0.901426
0.758541 0.648225 0.910947
0.879179 0.657927 0.920481
0.922744 0.661459 0.923859
0.183874 0.742684 0.895131
0.188753 0.743184 0.895378
0.309202 0.752914 0.904891
0.429712 0.762635 0.914417
0.550270 0.772347 0.923954
0.670865 0.782050 0.933463
0.791488 0.791744 0.943002
0.912128 0.801430 0.952567
0.955635 0.804942 0.955997
0.216435 0.886297 0.927120
0.221304 0.886774 0.927413
0.341835 0.896484 0.936933
0.462402 0.906183 0.946482
0.582993 0.915872 0.956054
0.703600 0.925552 0.965647
0.824215 0.935223 0.975255
0.944830 0.944884 0.984874
0.988280 0.948373 0.988337
0.228239 0.938150 0.938500
0.233091 0.938591 0.938841
0.353659 0.948268 0.948428
0.474242 0.957937 0.958031
0.594832 0.967596 0.967646
0.715424 0.977248 0.977270
0.836011 0.986892 0.986900
0.956592 0.996531 0.996532
1.000000 1.000000 1.000000
