library/cube/Shadow_Journal_002.cube
# CINEGRADE LAB — Premium Cinematic LUT
# Title: Shadow Journal
# Category: Moody Documentary
# Description: Desaturated, contrasty, journalistic style for documentary storytelling
# Mood: Raw, honest, gritty
# Variant: 3
# Generated: 2026-05-21T16:12:16.742186
TITLE "Shadow Journal"
LUT_3D_SIZE 33
0.000000 0.000000 0.003600
0.000000 0.000000 0.003541
0.000000 0.000000 0.003482
0.000000 0.000000 0.003423
0.004721 0.000382 0.003753
0.034243 0.002768 0.006118
0.063785 0.005155 0.008482
0.093348 0.007543 0.010847
0.122932 0.009931 0.013212
0.152537 0.012321 0.015577
0.182161 0.014711 0.017942
0.211805 0.017101 0.020307
0.241468 0.019493 0.022673
0.271151 0.021885 0.025038
0.300852 0.024277 0.027404
0.330571 0.026671 0.029770
0.360309 0.029065 0.032137
0.390064 0.031459 0.034503
0.419836 0.033854 0.036869
0.449626 0.036250 0.039236
0.479433 0.038647 0.041603
0.509256 0.041044 0.043970
0.539095 0.043441 0.046338
0.568950 0.045839 0.048705
0.598821 0.048238 0.051073
0.628707 0.050637 0.053441
0.658608 0.053037 0.055809
0.688524 0.055437 0.058178
0.718454 0.057838 0.060547
0.748398 0.060239 0.062916
0.761694 0.061300 0.063931
0.761899 0.061308 0.063884
0.762102 0.061315 0.063838
0.000000 0.000000 0.003402
0.000000 0.000000 0.003345
0.000000 0.000000 0.003288
0.000000 0.000000 0.003231
0.004727 0.000382 0.003563
0.034284 0.002769 0.005929
0.063861 0.005158 0.008295
0.093458 0.007547 0.010661
0.123075 0.009936 0.013027
0.152712 0.012327 0.015393
0.182368 0.014718 0.017759
0.212043 0.017110 0.020126
0.241737 0.019502 0.022493
0.271448 0.021895 0.024860
0.301178 0.024289 0.027227
0.330926 0.026683 0.029594
0.360691 0.029078 0.031962
0.390473 0.031474 0.034329
0.420271 0.033870 0.036697
0.450086 0.036267 0.039065
0.479918 0.038664 0.041434
0.509765 0.041062 0.043802
0.539627 0.043460 0.046171
0.569505 0.045859 0.048540
0.599398 0.048259 0.050909
0.629305 0.050659 0.053278
0.659227 0.053059 0.055648
0.689163 0.055460 0.058018
0.719112 0.057862 0.060388
0.749075 0.060264 0.062758
0.762374 0.061324 0.063776
0.762571 0.061331 0.063731
0.762765 0.061338 0.063686
0.000000 0.000000 0.003211
0.000000 0.000000 0.003156
0.000000 0.000000 0.003101
0.000000 0.000000 0.003046
0.004733 0.000382 0.003380
0.034323 0.002771 0.005747
0.063934 0.005160 0.008114
0.093564 0.007550 0.010481
0.123213 0.009941 0.012848
0.152881 0.012333 0.015216
0.182567 0.014725 0.017583
0.212272 0.017118 0.019951
0.241995 0.019511 0.022319
0.271735 0.021905 0.024687
0.301493 0.024300 0.027056
0.331267 0.026695 0.029425
0.361058 0.029091 0.031793
0.390866 0.031488 0.034162
0.420690 0.033885 0.036532
0.450529 0.036282 0.038901
0.480384 0.038680 0.041271
0.510254 0.041079 0.043640
0.540139 0.043478 0.046010
0.570038 0.045878 0.048381
0.599952 0.048278 0.050751
0.629880 0.050679 0.053122
0.659821 0.053080 0.055493
0.689776 0.055482 0.057864
0.719744 0.057884 0.060236
0.749724 0.060287 0.062607
0.763026 0.061348 0.063627
0.763215 0.061354 0.063584
0.763400 0.061361 0.063541
0.000000 0.000000 0.003027
0.000000 0.000000 0.002973
0.000000 0.000000 0.002920
0.000000 0.000000 0.002867
0.004738 0.000382 0.003203
0.034361 0.002772 0.005571
0.064004 0.005163 0.007939
0.093665 0.007554 0.010308
0.123345 0.009946 0.012676
0.153043 0.012339 0.015045
0.182759 0.014732 0.017414
0.212493 0.017126 0.019783
0.242243 0.019520 0.022152
0.272011 0.021915 0.024522
0.301795 0.024311 0.026892
0.331595 0.026707 0.029261
0.361412 0.029104 0.031632
0.391244 0.031501 0.034002
0.421091 0.033899 0.036372
0.450954 0.036297 0.038743
0.480831 0.038696 0.041114
0.510723 0.041096 0.043485
0.540629 0.043496 0.045857
0.570549 0.045896 0.048228
0.600483 0.048297 0.050600
0.630430 0.050698 0.052972
0.660390 0.053100 0.055345
0.690363 0.055503 0.057717
0.720348 0.057905 0.060090
0.750345 0.060309 0.062463
0.763650 0.061370 0.063484
0.763830 0.061376 0.063443
0.764007 0.061382 0.063402
0.001273 0.005688 0.004151
0.001274 0.005689 0.004099
0.001274 0.005690 0.004048
0.001274 0.005691 0.003997
0.006018 0.006074 0.004334
0.035674 0.008466 0.006704
0.065348 0.010858 0.009073
0.095040 0.013252 0.011442
0.124749 0.015645 0.013812
0.154477 0.018040 0.016182
0.184221 0.020435 0.018552
0.213982 0.022830 0.020923
0.243760 0.025226 0.023293
0.273554 0.027623 0.025664
0.303364 0.030020 0.028035
0.333190 0.032418 0.030406
0.363030 0.034816 0.032777
0.392886 0.037215 0.035148
0.422757 0.039614 0.037520
0.452642 0.042014 0.039892
0.482541 0.044415 0.042264
0.512454 0.046816 0.044637
0.542381 0.049217 0.047009
0.572321 0.051619 0.049382
0.602273 0.054021 0.051756
0.632239 0.056424 0.054129
0.662217 0.058827 0.056503
0.692207 0.061230 0.058876
0.722209 0.063634 0.061251
0.752223 0.066038 0.063625
0.765530 0.067100 0.064648
0.765702 0.067107 0.064608
0.765871 0.067114 0.064569
0.009241 0.041261 0.012117
0.009244 0.041267 0.012067
0.009247 0.041272 0.012017
0.009250 0.041278 0.011967
0.014000 0.041666 0.012305
0.043689 0.044064 0.014675
0.073395 0.046462 0.017045
0.103119 0.048861 0.019415
0.132859 0.051260 0.021785
0.162616 0.053660 0.024156
0.192390 0.056060 0.026527
0.222180 0.058461 0.028898
0.251986 0.060862 0.031269
0.281807 0.063264 0.033640
0.311643 0.065667 0.036012
0.341494 0.068069 0.038384
0.371360 0.070473 0.040756
0.401241 0.072876 0.043128
0.431135 0.075280 0.045501
0.461043 0.077685 0.047873
0.490965 0.080090 0.050246
0.520899 0.082495 0.052620
0.550847 0.084901 0.054993
0.580807 0.087307 0.057367
0.610780 0.089714 0.059741
0.640765 0.092121 0.062115
0.670761 0.094528 0.064490
0.700769 0.096936 0.066864
0.730788 0.099344 0.069239
0.760818 0.101752 0.071615
0.774129 0.102817 0.072638
0.774295 0.102827 0.072600
0.774458 0.102837 0.072563
0.017225 0.076866 0.020085
0.017231 0.076877 0.020036
0.017236 0.076887 0.019987
0.017241 0.076897 0.019939
0.021999 0.077290 0.020278
0.051719 0.079693 0.022649
0.081456 0.082096 0.025019
0.111209 0.084500 0.027390
0.140979 0.086904 0.029761
0.170765 0.089309 0.032132
0.200567 0.091715 0.034504
0.230384 0.094120 0.036875
0.260216 0.096527 0.039247
0.290063 0.098933 0.041619
0.319925 0.101340 0.043992
0.349801 0.103748 0.046364
0.379690 0.106155 0.048737
0.409594 0.108564 0.051110
0.439511 0.110972 0.053484
0.469441 0.113381 0.055857
0.499383 0.115790 0.058231
0.529339 0.118200 0.060605
0.559306 0.120610 0.062979
0.589286 0.123020 0.065354
0.619277 0.125430 0.067729
0.649280 0.127841 0.070104
0.679293 0.130252 0.072479
0.709318 0.132664 0.074855
0.739353 0.135075 0.077231
0.769399 0.137487 0.079607
0.782713 0.138556 0.080632
0.782872 0.138568 0.080596
0.783029 0.138581 0.080560
0.025225 0.112502 0.028055
0.025233 0.112517 0.028007
0.025240 0.112531 0.027960
0.025247 0.112545 0.027913
0.030012 0.112942 0.028253
0.059762 0.115350 0.030624
0.089528 0.117759 0.032996
0.119311 0.120168 0.035367
0.149109 0.122577 0.037739
0.178922 0.124986 0.040111
0.208750 0.127396 0.042483
0.238593 0.129806 0.044856
0.268451 0.132217 0.047228
0.298323 0.134628 0.049601
0.328208 0.137039 0.051974
0.358107 0.139451 0.054348
0.388020 0.141863 0.056721
0.417945 0.144275 0.059095
0.447883 0.146688 0.061469
0.477834 0.149101 0.063844
0.507797 0.151514 0.066219
0.537771 0.153927 0.068594
0.567758 0.156341 0.070969
0.597755 0.158755 0.073344
0.627764 0.161169 0.075720
0.657784 0.163583 0.078096
0.687814 0.165998 0.080473
0.717854 0.168413 0.082849
0.747904 0.170828 0.085226
0.777964 0.173243 0.087603
0.791280 0.174314 0.088630
0.791433 0.174329 0.088594
0.791584 0.174343 0.088560
0.033240 0.148168 0.036027
0.033250 0.148186 0.035981
0.033259 0.148204 0.035935
0.033268 0.148222 0.035889
0.038039 0.148623 0.036231
0.067818 0.151035 0.038602
0.097612 0.153448 0.040974
0.127422 0.155862 0.043347
0.157247 0.158275 0.045719
0.187086 0.160689 0.048092
0.216940 0.163103 0.050465
0.246808 0.165518 0.052838
0.276690 0.167932 0.055212
0.306585 0.170347 0.057586
0.336493 0.172762 0.059960
0.366414 0.175178 0.062334
0.396348 0.177594 0.064708
0.426294 0.180010 0.067083
0.456252 0.182426 0.069458
0.486223 0.184842 0.071834
0.516204 0.187259 0.074209
0.546197 0.189676 0.076585
0.576201 0.192093 0.078961
0.606215 0.194510 0.081338
0.636240 0.196927 0.083715
0.666276 0.199345 0.086092
0.696321 0.201763 0.088469
0.726376 0.204180 0.090847
0.756440 0.206598 0.093225
0.786513 0.209016 0.095603
0.799831 0.210090 0.096630
0.799978 0.210107 0.096597
0.800122 0.210124 0.096563
0.041269 0.183860 0.044002
0.041280 0.183882 0.043957
0.041291 0.183904 0.043912
0.041302 0.183925 0.043868
0.046079 0.184329 0.044211
0.075885 0.186746 0.046583
0.105707 0.189163 0.048956
0.135543 0.191580 0.051329
0.165393 0.193998 0.053702
0.195257 0.196416 0.056076
0.225135 0.198834 0.058450
0.255026 0.201252 0.060824
0.284931 0.203670 0.063198
0.314848 0.206089 0.065573
0.344778 0.208508 0.067948
0.374720 0.210927 0.070323
0.404674 0.213346 0.072698
0.434640 0.215765 0.075074
0.464617 0.218185 0.077450
0.494606 0.220604 0.079827
0.524605 0.223024 0.082203
0.554615 0.225444 0.084580
0.584635 0.227864 0.086957
0.614666 0.230284 0.089335
0.644706 0.232704 0.091712
0.674756 0.235125 0.094090
0.704815 0.237545 0.096469
0.734883 0.239966 0.098847
0.764960 0.242386 0.101226
0.795046 0.244807 0.103606
0.808366 0.245883 0.104634
0.808506 0.245902 0.104602
0.808643 0.245920 0.104570
0.049311 0.219578 0.051979
0.049324 0.219603 0.051935
0.049336 0.219628 0.051892
0.049348 0.219652 0.051849
0.054131 0.220060 0.052193
0.083964 0.222480 0.054567
0.113811 0.224901 0.056940
0.143672 0.227322 0.059314
0.173546 0.229743 0.061688
0.203434 0.232164 0.064063
0.233335 0.234586 0.066438
0.263248 0.237008 0.068813
0.293174 0.239429 0.071188
0.323113 0.241851 0.073563
0.353063 0.244273 0.075939
0.383025 0.246695 0.078315
0.412998 0.249118 0.080692
0.442982 0.251540 0.083068
0.472977 0.253962 0.085445
0.502983 0.256385 0.087823
0.532999 0.258807 0.090200
0.563024 0.261230 0.092578
0.593060 0.263653 0.094956
0.623105 0.266076 0.097335
0.653160 0.268498 0.099713
0.683223 0.270921 0.102093
0.713296 0.273344 0.104472
0.743376 0.275767 0.106852
0.773465 0.278190 0.109232
0.803562 0.280613 0.111612
0.816883 0.281691 0.112642
0.817016 0.281711 0.112611
0.817148 0.281731 0.112581
0.057365 0.255320 0.059959
0.057379 0.255348 0.059917
0.057393 0.255375 0.059875
0.057407 0.255402 0.059833
0.062194 0.255813 0.060179
0.092052 0.258237 0.062553
0.121923 0.260661 0.064927
0.151808 0.263085 0.067302
0.181705 0.265509 0.069677
0.211616 0.267934 0.072053
0.241538 0.270358 0.074428
0.271473 0.272783 0.076804
0.301419 0.275208 0.079180
0.331377 0.277633 0.081557
0.361347 0.280058 0.083934
0.391327 0.282482 0.086311
0.421318 0.284907 0.088688
0.451320 0.287332 0.091066
0.481331 0.289757 0.093444
0.511353 0.292183 0.095822
0.541385 0.294608 0.098201
0.571425 0.297033 0.100580
0.601475 0.299458 0.102959
0.631534 0.301883 0.105338
0.661602 0.304308 0.107718
0.691678 0.306733 0.110098
0.721762 0.309158 0.112479
0.751854 0.311583 0.114860
0.781954 0.314008 0.117241
0.812061 0.316433 0.119622
0.825383 0.317512 0.120654
0.825510 0.317533 0.120624
0.825635 0.317555 0.120595
0.065430 0.291084 0.067942
0.065445 0.291114 0.067901
0.065460 0.291144 0.067860
0.065475 0.291174 0.067820
0.070268 0.291586 0.068167
0.100149 0.294013 0.070542
0.130044 0.296441 0.072918
0.159951 0.298868 0.075293
0.189870 0.301295 0.077669
0.219802 0.303722 0.080046
0.249745 0.306150 0.082422
0.279699 0.308577 0.084799
0.309665 0.311004 0.087176
0.339642 0.313432 0.089554
0.369629 0.315859 0.091932
0.399627 0.318287 0.094310
0.429635 0.320714 0.096688
0.459652 0.323141 0.099067
0.489680 0.325569 0.101446
0.519717 0.327996 0.103825
0.549762 0.330423 0.106205
0.579817 0.332850 0.108585
0.609880 0.335277 0.110965
0.639952 0.337704 0.113346
0.670032 0.340131 0.115727
0.700119 0.342558 0.118108
0.730214 0.344985 0.120489
0.760317 0.347412 0.122871
0.790427 0.349838 0.125254
0.820543 0.352265 0.127636
0.833865 0.353345 0.128669
0.833986 0.353368 0.128641
0.834104 0.353390 0.128613
0.073505 0.326868 0.075928
0.073522 0.326901 0.075888
0.073538 0.326933 0.075849
0.073554 0.326964 0.075810
0.078351 0.327379 0.076158
0.108255 0.329809 0.078534
0.138171 0.332239 0.080911
0.168100 0.334669 0.083288
0.198040 0.337098 0.085665
0.227991 0.339528 0.088042
0.257954 0.341958 0.090419
0.287927 0.344388 0.092797
0.317911 0.346817 0.095175
0.347905 0.349247 0.097554
0.377909 0.351677 0.099933
0.407923 0.354106 0.102312
0.437947 0.356536 0.104691
0.467980 0.358965 0.107071
0.498022 0.361394 0.109451
0.528072 0.363823 0.111832
0.558132 0.366252 0.114212
0.588199 0.368681 0.116593
0.618275 0.371110 0.118975
0.648358 0.373539 0.121357
0.678449 0.375967 0.123739
0.708547 0.378396 0.126121
0.738652 0.380824 0.128504
0.768764 0.383252 0.130887
0.798883 0.385680 0.133270
0.829008 0.388108 0.135654
0.842330 0.389189 0.136688
0.842444 0.389213 0.136661
0.842555 0.389236 0.136635
0.081590 0.362671 0.083917
0.081608 0.362706 0.083879
0.081625 0.362739 0.083841
0.081642 0.362773 0.083803
0.086443 0.363189 0.084153
0.116368 0.365622 0.086530
0.146305 0.368054 0.088907
0.176254 0.370486 0.091285
0.206213 0.372918 0.093663
0.236184 0.375350 0.096041
0.266164 0.377782 0.098420
0.296155 0.380214 0.100799
0.326156 0.382645 0.103178
0.356167 0.385077 0.105558
0.386187 0.387508 0.107938
0.416216 0.389939 0.110318
0.446254 0.392371 0.112698
0.476301 0.394802 0.115079
0.506357 0.397233 0.117460
0.536420 0.399663 0.119842
0.566492 0.402094 0.122224
0.596571 0.404524 0.124606
0.626658 0.406954 0.126988
0.656752 0.409384 0.129371
0.686853 0.411814 0.131754
0.716961 0.414244 0.134138
0.747075 0.416673 0.136522
0.777195 0.419103 0.138906
0.807322 0.421532 0.141291
0.837455 0.423961 0.143676
0.850776 0.425043 0.144711
0.850884 0.425067 0.144686
0.850989 0.425090 0.144661
0.089684 0.398492 0.091909
0.089702 0.398527 0.091872
0.089720 0.398563 0.091836
0.089738 0.398597 0.091800
0.094543 0.399015 0.092151
0.124488 0.401450 0.094529
0.154445 0.403884 0.096907
0.184412 0.406318 0.099286
0.214390 0.408752 0.101665
0.244378 0.411186 0.104044
0.274376 0.413620 0.106424
0.304383 0.416053 0.108804
0.334400 0.418486 0.111184
0.364426 0.420920 0.113565
0.394461 0.423352 0.115946
0.424505 0.425785 0.118327
0.454556 0.428218 0.120709
0.484616 0.430650 0.123091
0.514684 0.433082 0.125473
0.544760 0.435514 0.127856
0.574843 0.437946 0.130239
0.604933 0.440378 0.132622
0.635030 0.442809 0.135006
0.665133 0.445240 0.137390
0.695244 0.447671 0.139774
0.725360 0.450102 0.142159
0.755483 0.452532 0.144544
0.785611 0.454962 0.146929
0.815745 0.457392 0.149315
0.845884 0.459822 0.151701
0.859204 0.460904 0.152738
0.859305 0.460928 0.152714
0.859404 0.460952 0.152691
0.097786 0.434327 0.099905
0.097804 0.434364 0.099869
0.097823 0.434401 0.099834
0.097841 0.434437 0.099800
0.102650 0.434856 0.100152
0.132614 0.437292 0.102531
0.162590 0.439728 0.104911
0.192575 0.442164 0.107291
0.222570 0.444599 0.109671
0.252574 0.447035 0.112051
0.282588 0.449470 0.114432
0.312611 0.451905 0.116813
0.342643 0.454339 0.119194
0.372683 0.456774 0.121576
0.402732 0.459208 0.123958
0.432788 0.461642 0.126341
0.462853 0.464076 0.128723
0.492925 0.466509 0.131106
0.523004 0.468943 0.133490
0.553090 0.471376 0.135874
0.583184 0.473808 0.138258
0.613283 0.476241 0.140642
0.643390 0.478673 0.143027
0.673502 0.481105 0.145412
0.703621 0.483536 0.147798
0.733745 0.485968 0.150184
0.763875 0.488399 0.152570
0.794010 0.490829 0.154957
0.824150 0.493260 0.157344
0.854295 0.495690 0.159731
0.867614 0.496773 0.160769
0.867709 0.496797 0.160747
0.867802 0.496820 0.160725
0.105894 0.470177 0.107904
0.105914 0.470215 0.107870
0.105933 0.470253 0.107837
0.105951 0.470289 0.107804
0.110763 0.470710 0.108157
0.140746 0.473147 0.110537
0.170738 0.475585 0.112918
0.200740 0.478022 0.115299
0.230751 0.480458 0.117680
0.260771 0.482895 0.120061
0.290800 0.485331 0.122443
0.320837 0.487767 0.124826
0.350883 0.490203 0.127208
0.380936 0.492638 0.129591
0.410998 0.495074 0.131974
0.441066 0.497509 0.134358
0.471142 0.499943 0.136742
0.501225 0.502377 0.139126
0.531315 0.504811 0.141511
0.561412 0.507245 0.143895
0.591514 0.509678 0.146281
0.621623 0.512111 0.148666
0.651738 0.514544 0.151052
0.681858 0.516977 0.153439
0.711984 0.519409 0.155826
0.742115 0.521840 0.158213
0.772251 0.524272 0.160600
0.802392 0.526703 0.162988
0.832538 0.529134 0.165376
0.862688 0.531564 0.167765
0.876006 0.532647 0.168804
0.876094 0.532671 0.168783
0.876181 0.532694 0.168763
0.114010 0.506040 0.115907
0.114029 0.506078 0.115874
0.114049 0.506116 0.115842
0.114068 0.506154 0.115811
0.118882 0.506575 0.116166
0.148882 0.509013 0.118547
0.178890 0.511452 0.120929
0.208908 0.513890 0.123311
0.238934 0.516328 0.125693
0.268969 0.518765 0.128076
0.299011 0.521202 0.130459
0.329062 0.523639 0.132842
0.359120 0.526076 0.135226
0.389186 0.528512 0.137610
0.419259 0.530948 0.139994
0.449339 0.533383 0.142379
0.479425 0.535818 0.144764
0.509518 0.538253 0.147149
0.539618 0.540688 0.149535
0.569723 0.543122 0.151921
0.599834 0.545556 0.154308
0.629951 0.547989 0.156695
0.660074 0.550422 0.159082
0.690201 0.552855 0.161469
0.720333 0.555287 0.163857
0.750471 0.557719 0.166246
0.780612 0.560150 0.168634
0.810758 0.562581 0.171023
0.840909 0.565012 0.173413
0.871063 0.567443 0.175803
0.884379 0.568525 0.176843
0.884461 0.568549 0.176824
0.884541 0.568572 0.176805
0.122131 0.541913 0.123913
0.122150 0.541952 0.123882
0.122170 0.541991 0.123852
0.122189 0.542029 0.123822
0.127007 0.542450 0.124178
0.157022 0.544890 0.126560
0.187045 0.547329 0.128943
0.217078 0.549768 0.131326
0.247118 0.552206 0.133710
0.277166 0.554644 0.136093
0.307221 0.557082 0.138478
0.337284 0.559519 0.140862
0.367354 0.561956 0.143247
0.397431 0.564393 0.145632
0.427515 0.566829 0.148018
0.457605 0.569265 0.150404
0.487701 0.571700 0.152790
0.517803 0.574136 0.155177
0.547911 0.576570 0.157564
0.578025 0.579005 0.159951
0.608144 0.581438 0.162339
0.638268 0.583872 0.164727
0.668397 0.586305 0.167115
0.698530 0.588738 0.169504
0.728668 0.591170 0.171893
0.758811 0.593602 0.174283
0.788957 0.596033 0.176673
0.819108 0.598464 0.179063
0.849262 0.600895 0.181454
0.879419 0.603325 0.183845
0.892733 0.604407 0.184887
0.892809 0.604430 0.184869
0.892883 0.604452 0.184851
0.130256 0.577797 0.131924
0.130276 0.577836 0.131894
0.130296 0.577875 0.131865
0.130315 0.577912 0.131836
0.135135 0.578334 0.132194
0.165165 0.580774 0.134577
0.195203 0.583214 0.136961
0.225248 0.585653 0.139346
0.255301 0.588092 0.141730
0.285362 0.590530 0.144115
0.315429 0.592968 0.146501
0.345503 0.595406 0.148886
0.375584 0.597843 0.151272
0.405672 0.600280 0.153659
0.435765 0.602717 0.156046
0.465864 0.605153 0.158433
0.495969 0.607588 0.160820
0.526080 0.610023 0.163208
0.556195 0.612458 0.165596
0.586316 0.614892 0.167985
0.616442 0.617326 0.170374
0.646572 0.619759 0.172763
0.676707 0.622192 0.175153
0.706846 0.624624 0.177543
0.736989 0.627056 0.179933
0.767136 0.629488 0.182324
0.797286 0.631919 0.184715
0.827440 0.634350 0.187107
0.857598 0.636780 0.189499
0.887758 0.639210 0.191891
0.901069 0.640291 0.192934
0.901139 0.640313 0.192918
0.901207 0.640335 0.192902
0.138387 0.613689 0.139938
0.138406 0.613728 0.139910
0.138426 0.613766 0.139882
0.138445 0.613804 0.139855
0.143267 0.614225 0.140214
0.173311 0.616666 0.142599
0.203361 0.619106 0.144984
0.233420 0.621545 0.147369
0.263485 0.623984 0.149755
0.293556 0.626423 0.152141
0.323635 0.628861 0.154528
0.353719 0.631299 0.156915
0.383810 0.633736 0.159302
0.413907 0.636173 0.161690
0.444009 0.638609 0.164078
0.474117 0.641045 0.166466
0.504229 0.643480 0.168855
0.534347 0.645915 0.171244
0.564470 0.648349 0.173633
0.594597 0.650783 0.176023
0.624729 0.653217 0.178413
0.654865 0.655650 0.180804
0.685005 0.658082 0.183194
0.715148 0.660514 0.185586
0.745295 0.662946 0.187977
0.775446 0.665377 0.190369
0.805600 0.667807 0.192762
0.835756 0.670237 0.195155
0.865916 0.672667 0.197548
0.896078 0.675096 0.199941
0.909387 0.676176 0.200986
0.909451 0.676198 0.200971
0.909513 0.676218 0.200956
0.146520 0.649588 0.147956
0.146540 0.649626 0.147929
0.146559 0.649664 0.147903
0.146578 0.649702 0.147877
0.151402 0.650123 0.148238
0.181458 0.652563 0.150624
0.211521 0.655003 0.153010
0.241591 0.657443 0.155397
0.271667 0.659882 0.157784
0.301749 0.662320 0.160171
0.331837 0.664758 0.162559
0.361932 0.667195 0.164947
0.392031 0.669632 0.167335
0.422136 0.672069 0.169724
0.452246 0.674505 0.172114
0.482362 0.676940 0.174503
0.512481 0.679375 0.176893
0.542606 0.681810 0.179283
0.572735 0.684243 0.181674
0.602867 0.686677 0.184065
0.633004 0.689110 0.186456
0.663145 0.691542 0.188848
0.693289 0.693974 0.191240
0.723436 0.696405 0.193633
0.753587 0.698836 0.196026
0.783740 0.701266 0.198419
0.813897 0.703696 0.200813
0.844056 0.706126 0.203207
0.874217 0.708554 0.205601
0.904381 0.710982 0.207996
0.917687 0.712062 0.209042
0.917745 0.712082 0.209028
0.917801 0.712102 0.209015
0.154657 0.685492 0.155978
0.154676 0.685530 0.155953
0.154695 0.685568 0.155928
0.154714 0.685605 0.155904
0.159540 0.686025 0.156266
0.189607 0.688465 0.158653
0.219681 0.690905 0.161040
0.249761 0.693344 0.163428
0.279848 0.695783 0.165817
0.309939 0.698221 0.168205
0.340037 0.700658 0.170594
0.370139 0.703095 0.172983
0.400247 0.705532 0.175373
0.430360 0.707968 0.177763
0.460477 0.710403 0.180154
0.490599 0.712838 0.182544
0.520725 0.715272 0.184936
0.550855 0.717706 0.187327
0.580989 0.720139 0.189719
0.611127 0.722572 0.192111
0.641268 0.725004 0.194504
0.671412 0.727436 0.196897
0.701560 0.729867 0.199290
0.731711 0.732297 0.201684
0.761864 0.734727 0.204078
0.792020 0.737157 0.206473
0.822178 0.739586 0.208868
0.852339 0.742014 0.211263
0.882501 0.744442 0.213658
0.912666 0.746869 0.216054
0.925969 0.747947 0.217102
0.926021 0.747966 0.217089
0.926071 0.747984 0.217077
0.162796 0.721402 0.164004
0.162815 0.721439 0.163980
0.162834 0.721476 0.163957
0.162852 0.721512 0.163934
0.167679 0.721931 0.164298
0.197757 0.724371 0.166686
0.227841 0.726810 0.169075
0.257931 0.729249 0.171464
0.288026 0.731687 0.173853
0.318127 0.734124 0.176243
0.348232 0.736561 0.178633
0.378343 0.738998 0.181024
0.408458 0.741433 0.183415
0.438577 0.743869 0.185806
0.468701 0.746303 0.188198
0.498828 0.748737 0.190590
0.528960 0.751171 0.192982
0.559095 0.753604 0.195375
0.589233 0.756036 0.197768
0.619375 0.758468 0.200162
0.649520 0.760899 0.202556
0.679668 0.763330 0.204950
0.709818 0.765760 0.207345
0.739971 0.768189 0.209740
0.770126 0.770618 0.212135
0.800284 0.773046 0.214531
0.830443 0.775474 0.216927
0.860605 0.777901 0.219323
0.890768 0.780328 0.221720
0.920933 0.782754 0.224117
0.934232 0.783831 0.225166
0.934279 0.783849 0.225155
0.934324 0.783865 0.225144
0.170937 0.757314 0.172034
0.170955 0.757351 0.172012
0.170974 0.757386 0.171990
0.170991 0.757421 0.171969
0.175819 0.757840 0.172334
0.205907 0.760279 0.174723
0.236001 0.762718 0.177113
0.266099 0.765156 0.179504
0.296203 0.767593 0.181894
0.326311 0.770030 0.184285
0.356424 0.772466 0.186677
0.386541 0.774901 0.189069
0.416662 0.777336 0.191461
0.446788 0.779770 0.193853
0.476917 0.782204 0.196246
0.507049 0.784637 0.198640
0.537185 0.787069 0.201033
0.567325 0.789501 0.203427
0.597467 0.791932 0.205822
0.627612 0.794363 0.208216
0.657760 0.796793 0.210612
0.687910 0.799223 0.213007
0.718063 0.801651 0.215403
0.748217 0.804080 0.217799
0.778374 0.806507 0.220196
0.808533 0.808935 0.222593
0.838693 0.811361 0.224990
0.868855 0.813787 0.227387
0.899018 0.816212 0.229785
0.929182 0.818637 0.232184
0.942479 0.819713 0.233234
0.942520 0.819729 0.233224
0.942559 0.819744 0.233215
0.179079 0.793229 0.180069
0.179097 0.793265 0.180048
0.179114 0.793299 0.180028
0.179131 0.793333 0.180008
0.183960 0.793751 0.180374
0.214057 0.796189 0.182765
0.244159 0.798626 0.185156
0.274265 0.801063 0.187548
0.304376 0.803499 0.189940
0.334491 0.805935 0.192332
0.364611 0.808370 0.194725
0.394734 0.810805 0.197118
0.424861 0.813238 0.199511
0.454991 0.815671 0.201905
0.485125 0.818104 0.204299
0.515262 0.820536 0.206693
0.545402 0.822967 0.209088
0.575545 0.825398 0.211484
0.605690 0.827828 0.213879
