library/cube/Shadow_King_003.cube
# CINEGRADE LAB — Premium Cinematic LUT
# Title: Shadow King
# Category: High Dynamic Luxury
# Description: HDR-like with detailed shadows and highlights for luxury imagery
# Mood: Premium, detailed, luminous
# Variant: 4
# Generated: 2026-05-21T16:12:34.936334
TITLE "Shadow King"
LUT_3D_SIZE 9
0.077787 0.077787 0.077787
0.202922 0.072606 0.072602
0.328220 0.067588 0.067573
0.453664 0.062735 0.062700
0.579242 0.058047 0.057985
0.704937 0.053525 0.053426
0.830734 0.049167 0.049025
0.956618 0.044976 0.044782
1.000000 0.040951 0.040696
0.061087 0.191303 0.060965
0.186776 0.186662 0.056307
0.312595 0.182184 0.051806
0.438528 0.177868 0.047462
0.564560 0.173714 0.043276
0.690676 0.169724 0.039248
0.816861 0.165897 0.035378
0.943100 0.162233 0.031666
1.000000 0.158732 0.028112
0.046415 0.306574 0.045920
0.172606 0.302456 0.041791
0.298892 0.298498 0.037821
0.425259 0.294699 0.034008
0.551692 0.291061 0.030354
0.678175 0.287583 0.026858
0.804694 0.284266 0.023520
0.931232 0.281109 0.020341
1.000000 0.278113 0.017320
0.033789 0.423500 0.032660
0.160427 0.419885 0.029063
0.287127 0.416427 0.025624
0.413873 0.413126 0.022344
0.540652 0.409983 0.019223
0.667446 0.406997 0.016260
0.794242 0.404169 0.013456
0.921023 0.401498 0.010811
1.000000 0.398985 0.008324
0.023223 0.541976 0.021190
0.150252 0.538844 0.018126
0.277309 0.535866 0.015221
0.404379 0.533042 0.012475
0.531446 0.530373 0.009887
0.658495 0.527857 0.007458
0.785511 0.525497 0.005188
0.912477 0.523290 0.003077
1.000000 0.521238 0.001124
0.014725 0.661896 0.011514
0.142089 0.659225 0.008984
0.269446 0.656706 0.006613
0.396782 0.654337 0.004401
0.524080 0.652120 0.002348
0.651325 0.650053 0.000453
0.778501 0.648138 0.000000
0.905593 0.646374 0.000000
1.000000 0.644760 0.000000
0.008300 0.783150 0.003635
0.135940 0.780919 0.001639
0.263540 0.778836 0.000000
0.391082 0.776900 0.000000
0.518552 0.775112 0.000000
0.645934 0.773472 0.000000
0.773211 0.771978 0.000000
0.900369 0.770632 0.000000
1.000000 0.769433 0.000000
0.003948 0.905626 0.000000
0.131806 0.903812 0.000000
0.259588 0.902142 0.000000
0.387277 0.900616 0.000000
0.514858 0.899234 0.000000
0.642316 0.897996 0.000000
0.769633 0.896901 0.000000
0.896795 0.895949 0.000000
1.000000 0.895140 0.000000
0.001665 1.000000 0.000000
0.129680 1.000000 0.000000
0.257583 1.000000 0.000000
0.385358 1.000000 0.000000
0.512989 1.000000 0.000000
0.640460 1.000000 0.000000
0.767755 1.000000 0.000000
0.894858 1.000000 0.000000
1.000000 1.000000 0.000000
0.076010 0.076009 0.206321
0.201203 0.070883 0.201187
0.326556 0.065922 0.196207
0.452052 0.061125 0.191381
0.577678 0.056493 0.186710
0.703417 0.052026 0.182194
0.829256 0.047726 0.177834
0.955179 0.043591 0.173629
1.000000 0.039622 0.169579
0.059513 0.189709 0.189663
0.185256 0.185123 0.185048
0.311124 0.180700 0.180589
0.437103 0.176439 0.176285
0.563178 0.172341 0.172136
0.689334 0.168406 0.168143
0.815555 0.164634 0.164306
0.941827 0.161026 0.160625
1.000000 0.157581 0.157100
0.045047 0.305158 0.174756
0.171285 0.301094 0.170664
0.297616 0.297190 0.166728
0.424024 0.293446 0.162948
0.550495 0.289862 0.159323
0.677012 0.286439 0.155855
0.803561 0.283176 0.152543
0.930126 0.280073 0.149387
1.000000 0.277132 0.146387
0.032629 0.422255 0.161610
0.159309 0.418693 0.158042
0.286047 0.415289 0.154631
0.412829 0.412041 0.151376
0.539639 0.408951 0.148277
0.666462 0.406019 0.145334
0.793282 0.403244 0.142548
0.920085 0.400627 0.139918
1.000000 0.398167 0.137445
0.022271 0.540895 0.150229
0.149337 0.537815 0.147187
0.276427 0.534890 0.144302
0.403526 0.532118 0.141572
0.530619 0.529501 0.139000
0.657691 0.527038 0.136584
0.784725 0.524730 0.134324
0.911706 0.522576 0.132221
1.000000 0.520577 0.130274
0.013982 0.660972 0.140618
0.141377 0.658353 0.138102
0.268761 0.655885 0.135743
0.396120 0.653567 0.133540
0.523439 0.651401 0.131494
0.650700 0.649386 0.129604
0.777889 0.647522 0.127871
0.904991 0.645809 0.126294
1.000000 0.644246 0.124874
0.007766 0.782376 0.132777
0.135432 0.780195 0.130788
0.263052 0.778162 0.128955
0.390612 0.776277 0.127279
0.518096 0.774539 0.125759
0.645488 0.772948 0.124395
0.772772 0.771505 0.123188
0.899933 0.770209 0.122137
1.000000 0.769059 0.121241
0.003623 0.904994 0.126707
0.131500 0.903229 0.125244
0.259297 0.901608 0.123938
0.386998 0.900131 0.122787
0.514587 0.898797 0.121793
0.642048 0.897608 0.120954
0.769367 0.896561 0.120271
0.896525 0.895658 0.119744
1.000000 0.894898 0.119372
0.001549 1.000000 0.122407
0.129577 1.000000 0.121469
0.257489 1.000000 0.120687
0.385269 1.000000 0.120061
0.512902 1.000000 0.119591
0.640370 1.000000 0.119276
0.767660 1.000000 0.119116
0.894753 1.000000 0.119111
1.000000 1.000000 0.119261
0.074253 0.074250 0.334872
0.199504 0.069180 0.329787
0.324911 0.064274 0.324855
0.450459 0.059533 0.320075
0.576132 0.054957 0.315447
0.701916 0.050547 0.310972
0.827796 0.046303 0.306650
0.953757 0.042224 0.302482
1.000000 0.038312 0.298467
0.057961 0.188133 0.318372
0.183755 0.183603 0.313800
0.309673 0.179235 0.309381
0.435698 0.175029 0.305115
0.561815 0.170986 0.301002
0.688010 0.167107 0.297043
0.814267 0.163390 0.293237
0.940571 0.159837 0.289585
1.000000 0.156448 0.286087
0.043701 0.303760 0.303600
0.169986 0.299750 0.299543
0.296360 0.295901 0.295640
0.422808 0.292211 0.291890
0.549316 0.288681 0.288294
0.675866 0.285312 0.284851
0.802445 0.282104 0.281563
0.929037 0.279056 0.278429
1.000000 0.276169 0.275449
0.031490 0.421028 0.290563
0.158211 0.417519 0.287023
0.284987 0.414168 0.283637
0.411804 0.410974 0.280404
0.538645 0.407938 0.277326
0.665496 0.405059 0.274402
0.792340 0.402338 0.271633
0.919163 0.399774 0.269017
1.000000 0.397368 0.266556
0.021340 0.539832 0.279266
0.148442 0.536804 0.276244
0.275564 0.533931 0.273376
0.402692 0.531212 0.270663
0.529811 0.528647 0.268103
0.656904 0.526237 0.265698
0.783957 0.523981 0.263448
0.910953 0.521880 0.261351
1.000000 0.519933 0.259409
0.013260 0.660066 0.269713
0.140685 0.657498 0.267210
0.268096 0.655081 0.264861
0.395478 0.652815 0.262666
0.522816 0.650700 0.260626
0.650093 0.648736 0.258740
0.777295 0.646923 0.257008
0.904405 0.645261 0.255430
1.000000 0.643750 0.254006
0.007254 0.781619 0.261906
0.134943 0.779488 0.259922
0.262585 0.777505 0.258092
0.390162 0.775670 0.256416
0.517659 0.773982 0.254894
0.645061 0.772441 0.253526
0.772351 0.771048 0.252312
0.899515 0.769802 0.251252
1.000000 0.768703 0.250346
0.003320 0.904378 0.255844
0.131215 0.902662 0.254378
0.259026 0.901090 0.253066
0.386738 0.899662 0.251909
0.514334 0.898377 0.250905
0.641799 0.897236 0.250054
0.769117 0.896238 0.249357
0.896272 0.895384 0.248813
1.000000 0.894672 0.248423
0.001455 1.000000 0.251525
0.129494 1.000000 0.250577
0.257414 1.000000 0.249783
0.385199 1.000000 0.249141
0.512832 1.000000 0.248654
0.640298 1.000000 0.248319
0.767581 1.000000 0.248137
0.894665 1.000000 0.248108
1.000000 1.000000 0.248231
0.072517 0.072510 0.463440
0.197825 0.067495 0.458403
0.323286 0.062645 0.453517
0.448884 0.057961 0.448780
0.574605 0.053441 0.444194
0.700433 0.049087 0.439759
0.826353 0.044899 0.435474
0.952351 0.040877 0.431341
1.000000 0.037022 0.427359
0.056429 0.186577 0.447093
0.182275 0.182101 0.442562
0.308241 0.177788 0.438182
0.434311 0.173638 0.433952
0.560471 0.169650 0.429874
0.686704 0.165826 0.425946
0.812996 0.162165 0.422171
0.939331 0.158668 0.418546
1.000000 0.155334 0.415073
0.042375 0.302380 0.432450
0.168706 0.298425 0.428426
0.295124 0.294630 0.424554
0.421612 0.290994 0.420834
0.548155 0.287519 0.417264
0.674739 0.284205 0.413847
0.801347 0.281051 0.410581
0.927965 0.278058 0.407467
1.000000 0.275226 0.404505
0.030371 0.419819 0.419517
0.157133 0.416364 0.416003
0.283947 0.413066 0.412640
0.410798 0.409925 0.409430
0.537670 0.406942 0.406371
0.664548 0.404117 0.403464
0.791416 0.401449 0.400710
0.918259 0.398939 0.398107
1.000000 0.396587 0.395656
0.020431 0.538787 0.408299
0.147567 0.535811 0.405295
0.274721 0.532990 0.402444
0.401878 0.530324 0.399744
0.529021 0.527812 0.397197
0.656136 0.525454 0.394802
0.783206 0.523250 0.392558
0.910216 0.521201 0.390467
1.000000 0.519307 0.388527
0.012560 0.659177 0.398799
0.140014 0.656660 0.396307
0.267451 0.654294 0.393967
0.394855 0.652080 0.391779
0.522212 0.650016 0.389743
0.649505 0.648103 0.387859
0.776718 0.646342 0.386127
0.903836 0.644731 0.384546
1.000000 0.643271 0.383118
0.006763 0.780879 0.391020
0.134476 0.778798 0.389040
0.262137 0.776865 0.387211
0.389730 0.775080 0.385534
0.517240 0.773442 0.384009
0.644651 0.771952 0.382635
0.771947 0.770608 0.381413
0.899113 0.769412 0.380343
1.000000 0.768363 0.379424
0.003038 0.903779 0.384961
0.130951 0.902112 0.383491
0.258775 0.900589 0.382173
0.386497 0.899209 0.381006
0.514100 0.897974 0.379991
0.641568 0.896881 0.379127
0.768885 0.895932 0.378414
0.896036 0.895126 0.377853
1.000000 0.894463 0.377442
0.001381 1.000000 0.380619
0.129432 1.000000 0.379659
0.257359 1.000000 0.378850
0.385148 1.000000 0.378192
0.512781 1.000000 0.377686
0.640244 1.000000 0.377330
0.767520 1.000000 0.377124
0.894593 1.000000 0.377069
1.000000 1.000000 0.377164
0.070801 0.070788 0.592023
0.196166 0.065830 0.587033
0.321680 0.061036 0.582191
0.447328 0.056407 0.577497
0.573096 0.051944 0.572951
0.698967 0.047646 0.568554
0.824927 0.043515 0.564305
0.950962 0.039549 0.560205
1.000000 0.035750 0.556254
0.054917 0.185039 0.575825
0.180815 0.180618 0.571333
0.306829 0.176360 0.566990
0.432944 0.172265 0.562795
0.559145 0.168333 0.558750
0.685416 0.164565 0.554853
0.811742 0.160959 0.551106
0.938109 0.157518 0.547507
1.000000 0.154240 0.544059
0.041070 0.301019 0.561305
0.167447 0.297118 0.557314
0.293907 0.293377 0.553472
0.420434 0.289796 0.549778
0.547014 0.286376 0.546235
0.673629 0.283116 0.542840
0.800266 0.280017 0.539595
0.926910 0.277078 0.536500
1.000000 0.274300 0.533554
0.029274 0.418628 0.548471
0.156077 0.415226 0.544981
0.282927 0.411982 0.541642
0.409811 0.408895 0.538451
0.536713 0.405965 0.535410
0.663618 0.403193 0.532519
0.790509 0.400579 0.529778
0.917372 0.398123 0.527186
1.000000 0.395824 0.524744
0.019542 0.537759 0.537327
0.146713 0.534836 0.534340
0.273899 0.532068 0.531504
0.401083 0.529453 0.528817
0.528250 0.526994 0.526280
0.655386 0.524688 0.523893
0.782473 0.522537 0.521655
0.909497 0.520541 0.519567
1.000000 0.518698 0.517629
0.011881 0.658305 0.527876
0.139363 0.655840 0.525393
0.266826 0.653525 0.523061
0.394252 0.651362 0.520877
0.521627 0.649350 0.518844
0.648934 0.647488 0.516960
0.776159 0.645778 0.515226
0.903284 0.644218 0.513642
1.000000 0.642809 0.512207
0.006293 0.780156 0.520120
0.134029 0.778125 0.518141
0.261709 0.776242 0.516312
0.389318 0.774507 0.514632
0.516840 0.772919 0.513102
0.644260 0.771479 0.511721
0.771561 0.770186 0.510490
0.898728 0.769039 0.509408
1.000000 0.768040 0.508475
0.002777 0.903197 0.514058
0.130706 0.901579 0.512582
0.258544 0.900104 0.511256
0.386276 0.898774 0.510079
0.513885 0.897587 0.509051
0.641355 0.896543 0.508172
0.768671 0.895642 0.507442
0.895817 0.894885 0.506861
1.000000 0.894270 0.506428
0.001328 1.000000 0.509687
0.129390 1.000000 0.508714
0.257324 1.000000 0.507889
0.385116 1.000000 0.507214
0.512749 1.000000 0.506686
0.640208 1.000000 0.506308
0.767476 1.000000 0.506077
0.894537 1.000000 0.505995
1.000000 1.000000 0.506060
0.069106 0.069086 0.720621
0.194527 0.064183 0.715676
0.320094 0.059445 0.710877
0.445791 0.054873 0.706224
0.571605 0.050466 0.701717
0.697519 0.046224 0.697356
0.823519 0.042149 0.693142
0.949589 0.038240 0.689074
1.000000 0.034498 0.685153
0.053427 0.183519 0.704566
0.179375 0.179154 0.700113
0.305437 0.174951 0.695805
0.431596 0.170912 0.691644
0.557837 0.167035 0.687630
0.684145 0.163322 0.683762
0.810506 0.159772 0.680041
0.936903 0.156386 0.676468
1.000000 0.153164 0.673042
0.039786 0.299676 0.690166
0.166209 0.295830 0.686205
0.292710 0.292143 0.682391
0.419276 0.288617 0.678723
0.545890 0.285251 0.675203
0.672538 0.282045 0.671831
0.799203 0.279001 0.668605
0.925871 0.276117 0.665527
1.000000 0.273394 0.662596
0.028198 0.417455 0.677425
0.155040 0.414107 0.673959
0.281927 0.410916 0.670639
0.408844 0.407882 0.667468
0.535776 0.405006 0.664443
0.662706 0.402288 0.661566
0.789619 0.399727 0.658837
0.916501 0.397324 0.656255
1.000000 0.395079 0.653820
0.018675 0.536749 0.666349
0.145880 0.533879 0.663379
0.273096 0.531162 0.660555
0.400307 0.528601 0.657880
0.527498 0.526193 0.655351
0.654653 0.523940 0.652970
0.781757 0.521842 0.650737
0.908794 0.519898 0.648651
1.000000 0.518108 0.646713
0.011222 0.657451 0.656942
0.138733 0.655037 0.654467
0.266220 0.652774 0.652140
0.393668 0.650662 0.649961
0.521060 0.648701 0.647928
0.648382 0.646891 0.646044
0.775617 0.645231 0.644306
0.902749 0.643723 0.642716
1.000000 0.642365 0.641273
0.005844 0.779449 0.649204
0.133602 0.777469 0.647225
0.261301 0.775637 0.645394
0.388925 0.773952 0.643710
0.516459 0.772414 0.642174
0.643886 0.771023 0.640784
0.771192 0.769780 0.639542
0.898359 0.768683 0.638447
1.000000 0.767733 0.637498
0.002537 0.902631 0.643134
0.130482 0.901062 0.641651
0.258333 0.899636 0.640315
0.386073 0.898354 0.639126
0.513687 0.897216 0.638084
0.641160 0.896221 0.637189
0.768474 0.895369 0.636440
0.895614 0.894660 0.635838
1.000000 0.894093 0.635382
0.001297 1.000000 0.638730
0.129368 1.000000 0.637741
0.257308 1.000000 0.636899
0.385103 1.000000 0.636204
0.512735 1.000000 0.635655
0.640189 1.000000 0.635252
0.767448 1.000000 0.634995
0.894498 1.000000 0.634883
1.000000 1.000000 0.634917
0.067431 0.067402 0.849233
0.192908 0.062556 0.844332
0.318527 0.057874 0.839575
0.444274 0.053358 0.834961
0.570133 0.049007 0.830491
0.696089 0.044822 0.826165
0.822128 0.040803 0.821984
0.948234 0.036951 0.817946
1.000000 0.033265 0.814054
0.051957 0.182019 0.833317
0.177956 0.177709 0.828900
0.304064 0.173561 0.824626
0.430267 0.169577 0.820497
0.556548 0.165756 0.816513
0.682893 0.162098 0.812673
0.809287 0.158604 0.808977
0.935714 0.155273 0.805427
1.000000 0.152107 0.802021
0.038522 0.298352 0.819030
0.164990 0.294560 0.815098
0.291534 0.290927 0.811310
0.418137 0.287455 0.807668
0.544786 0.284144 0.804170
0.671465 0.280993 0.800818
0.798158 0.278003 0.797610
0.924850 0.275174 0.794548
1.000000 0.272506 0.791630
0.027143 0.416300 0.806378
0.154024 0.413005 0.802933
0.280947 0.409868 0.799633
0.407896 0.406888 0.796478
0.534856 0.404065 0.793469
0.661812 0.401401 0.790604
0.788748 0.398894 0.787885
0.915648 0.396544 0.785311
1.000000 0.394352 0.782883
0.017828 0.535757 0.795366
0.145067 0.532939 0.792409
0.272313 0.530275 0.789598
0.399551 0.527766 0.786931
0.526765 0.525411 0.784410
0.653940 0.523210 0.782034
0.781059 0.521164 0.779804
0.908109 0.519272 0.777718
1.000000 0.517535 0.775778
0.010585 0.656614 0.785997
0.138124 0.654251 0.783528
0.265635 0.652039 0.781206
0.393103 0.649979 0.779028
0.520512 0.648069 0.776995
0.647847 0.646310 0.775108
0.775092 0.644702 0.773366
0.902231 0.643245 0.771768
1.000000 0.641938 0.770316
0.005416 0.778760 0.778271
0.133196 0.776830 0.776291
0.260913 0.775048 0.774457
0.388552 0.773413 0.772767
0.516096 0.771925 0.771223
0.643531 0.770585 0.769823
0.770840 0.769391 0.768568
0.898008 0.768344 0.767458
1.000000 0.767444 0.766492
0.002318 0.902082 0.772188
0.130279 0.900562 0.770696
0.258142 0.899185 0.769349
0.385890 0.897952 0.768147
0.513509 0.896862 0.767089
0.640982 0.895916 0.766176
0.768294 0.895112 0.765407
0.895427 0.894451 0.764782
1.000000 0.893933 0.764301
0.001286 1.000000 0.767745
0.129366 1.000000 0.766740
0.257312 1.000000 0.765879
0.385109 1.000000 0.765163
0.512739 1.000000 0.764590
0.640188 1.000000 0.764161
0.767438 1.000000 0.763876
0.894475 1.000000 0.763734
1.000000 1.000000 0.763735
0.065777 0.065738 0.977859
0.191309 0.060947 0.973000
0.316980 0.056322 0.968283
0.442775 0.051861 0.963707
0.568679 0.047567 0.959273
0.694677 0.043438 0.954980
0.820754 0.039476 0.950830
0.946895 0.035680 0.946822
1.000000 0.032051 0.942956
0.050508 0.180537 0.962076
0.176557 0.176282 0.957693
0.302711 0.172190 0.953453
0.428957 0.168261 0.949354
0.555278 0.164495 0.945398
0.681659 0.160893 0.941584
0.808086 0.157454 0.937912
0.934542 0.154180 0.934384
1.000000 0.151069 0.930998
0.037280 0.297046 0.947897
0.163792 0.293308 0.943993
0.290376 0.289730 0.940231
0.417018 0.286313 0.936611
0.543700 0.283056 0.933134
0.670410 0.279960 0.929800
0.797130 0.277024 0.926609
0.923845 0.274250 0.923561
1.000000 0.271636 0.920655
0.026109 0.415163 0.935329
0.153029 0.411922 0.931904
0.279987 0.408838 0.928622
0.406968 0.405912 0.925483
0.533956 0.403143 0.922486
0.660936 0.400532 0.919633
0.787893 0.398078 0.916923
0.914811 0.395782 0.914355
1.000000 0.393644 0.911931
0.017003 0.534783 0.924375
0.144275 0.532017 0.921431
0.271550 0.529406 0.918630
0.398814 0.526949 0.915971
0.526050 0.524646 0.913456
0.653244 0.522498 0.911084
0.780379 0.520504 0.908854
0.907440 0.518665 0.906768
1.000000 0.516980 0.904824
0.009969 0.655795 0.915039
0.137535 0.653483 0.912576
0.265070 0.651323 0.910256
0.392558 0.649313 0.908078
0.519983 0.647455 0.906044
0.647331 0.645747 0.904152
0.774585 0.644190 0.902404
0.901730 0.642784 0.900798
1.000000 0.641528 0.899334
0.005010 0.778088 0.907321
0.132810 0.776208 0.905339
0.260545 0.774476 0.903499
0.388197 0.772891 0.901802
0.515752 0.771453 0.900248
0.643194 0.770163 0.898837
0.770506 0.769019 0.897568
0.897673 0.768022 0.896441
1.000000 0.767172 0.895456
0.002121 0.901550 0.901220
0.130096 0.900078 0.899718
0.257970 0.898750 0.898358
0.385726 0.897566 0.897141
0.513349 0.896525 0.896066
0.640822 0.895627 0.895133
0.768131 0.894872 0.894342
0.895258 0.894260 0.893693
1.000000 0.893789 0.893185
0.001296 1.000000 0.896733
0.129385 1.000000 0.895710
0.257336 1.000000 0.894829
0.385134 1.000000 0.894089
0.512762 1.000000 0.893491
0.640204 1.000000 0.893035
0.767445 1.000000 0.892720
0.894468 1.000000 0.892546
1.000000 1.000000 0.892513
0.064143 0.064093 1.000000
0.189730 0.059358 1.000000
0.315452 0.054788 1.000000
0.441295 0.050384 1.000000
0.567244 0.046146 1.000000
0.693283 0.042074 1.000000
0.819398 0.038168 1.000000
0.945573 0.034429 1.000000
1.000000 0.030857 1.000000
0.049079 0.179073 1.000000
0.175178 0.174874 1.000000
0.301378 0.170837 1.000000
0.427666 0.166964 1.000000
0.554026 0.163254 1.000000
0.680443 0.159707 1.000000
0.806902 0.156324 1.000000
0.933387 0.153105 1.000000
1.000000 0.150050 1.000000
0.036059 0.295759 1.000000
0.162615 0.292075 1.000000
0.289239 0.288552 1.000000
0.415917 0.285189 1.000000
0.542633 0.281986 1.000000
0.669373 0.278945 1.000000
0.796119 0.276064 1.000000
0.922858 0.273344 1.000000
1.000000 0.270785 1.000000
0.025095 0.414045 1.000000
0.152054 0.410857 1.000000
0.279046 0.407827 1.000000
0.406059 0.404954 1.000000
0.533075 0.402238 1.000000
0.660079 0.399681 1.000000
0.787057 0.397281 1.000000
0.913992 0.395038 1.000000
1.000000 0.392954 1.000000
0.016199 0.533826 1.000000
0.143503 0.531113 1.000000
0.270807 0.528554 1.000000
0.398096 0.526150 1.000000
0.525354 0.523899 1.000000
0.652566 0.521804 1.000000
0.779716 0.519862 1.000000
0.906789 0.518075 1.000000
1.000000 0.516443 1.000000
0.009375 0.654993 1.000000
0.136967 0.652732 1.000000
0.264524 0.650623 1.000000
0.392032 0.648665 1.000000
0.519473 0.646858 1.000000
0.646833 0.645202 1.000000
0.774096 0.643696 1.000000
0.901246 0.642341 1.000000
1.000000 0.641136 1.000000
0.004624 0.777433 1.000000
0.132445 0.775604 1.000000
0.260196 0.773921 1.000000
0.387862 0.772386 1.000000
0.515427 0.770999 1.000000
0.642874 0.769758 1.000000
0.770189 0.768664 1.000000
0.897355 0.767717 1.000000
1.000000 0.766916 1.000000
0.001944 0.901034 1.000000
0.129934 0.899611 1.000000
0.257818 0.898332 1.000000
0.385581 0.897196 1.000000
0.513208 0.896204 1.000000
0.640681 0.895354 1.000000
0.767985 0.894648 1.000000
0.895105 0.894084 1.000000
1.000000 0.893662 1.000000
0.001327 1.000000 1.000000
0.129424 1.000000 1.000000
0.257380 1.000000 1.000000
0.385178 1.000000 1.000000
0.512803 1.000000 1.000000
0.640239 1.000000 1.000000
0.767469 1.000000 1.000000
0.894478 1.000000 1.000000
1.000000 1.000000 1.000000
