library/cube/Silk_Embers_003.cube
# CINEGRADE LAB — Premium Cinematic LUT
# Title: Silk Embers
# Category: Luxury Editorial
# Description: Rich blacks, soft contrast, warm skin tones for high-end editorial photography
# Mood: Sophisticated, elegant, polished
# Variant: 4
# Generated: 2026-05-21T16:12:11.199085
TITLE "Silk Embers"
LUT_3D_SIZE 33
0.000000 0.000000 0.000000
0.000000 0.000000 0.000000
0.001660 0.000046 0.000046
0.028033 0.000772 0.000772
0.055982 0.001542 0.001541
0.084642 0.002331 0.002330
0.113782 0.003133 0.003132
0.143286 0.003946 0.003944
0.173085 0.004767 0.004765
0.203132 0.005594 0.005592
0.233394 0.006428 0.006425
0.263845 0.007267 0.007263
0.294466 0.008110 0.008106
0.325241 0.008958 0.008953
0.356157 0.009810 0.009805
0.387202 0.010666 0.010659
0.418369 0.011524 0.011517
0.449647 0.012386 0.012378
0.481032 0.013252 0.013242
0.512515 0.014119 0.014109
0.544094 0.014990 0.014978
0.575761 0.015863 0.015850
0.607514 0.016738 0.016725
0.639348 0.017616 0.017601
0.671261 0.018496 0.018480
0.703247 0.019378 0.019360
0.735306 0.020262 0.020243
0.767434 0.021148 0.021127
0.799628 0.022036 0.022014
0.831843 0.022924 0.022901
0.863971 0.023811 0.023785
0.896134 0.024698 0.024671
0.907483 0.025012 0.024983
0.000001 0.000000 0.000000
0.000002 0.000001 0.000000
0.001663 0.000047 0.000046
0.028037 0.000773 0.000772
0.055987 0.001543 0.001541
0.084649 0.002332 0.002330
0.113791 0.003135 0.003133
0.143297 0.003948 0.003945
0.173098 0.004769 0.004765
0.203147 0.005597 0.005592
0.233412 0.006431 0.006426
0.263866 0.007270 0.007264
0.294490 0.008114 0.008107
0.325268 0.008962 0.008954
0.356187 0.009814 0.009806
0.387236 0.010670 0.010660
0.418406 0.011529 0.011519
0.449689 0.012392 0.012380
0.481077 0.013257 0.013244
0.512566 0.014125 0.014111
0.544149 0.014996 0.014980
0.575821 0.015869 0.015852
0.607579 0.016745 0.016727
0.639419 0.017623 0.017603
0.671336 0.018503 0.018482
0.703329 0.019386 0.019363
0.735393 0.020270 0.020246
0.767527 0.021156 0.021130
0.799728 0.022045 0.022017
0.831939 0.022933 0.022904
0.864029 0.023819 0.023787
0.896150 0.024705 0.024672
0.907484 0.025019 0.024984
0.000178 0.001994 0.000174
0.000180 0.001995 0.000174
0.001841 0.002041 0.000219
0.028218 0.002768 0.000945
0.056169 0.003538 0.001715
0.084833 0.004328 0.002504
0.113977 0.005131 0.003306
0.143485 0.005944 0.004119
0.173288 0.006765 0.004939
0.203340 0.007593 0.005767
0.233608 0.008427 0.006600
0.264065 0.009267 0.007438
0.294692 0.010111 0.008282
0.325474 0.010960 0.009129
0.356397 0.011812 0.009980
0.387450 0.012668 0.010835
0.418624 0.013528 0.011693
0.449911 0.014390 0.012555
0.481304 0.015256 0.013419
0.512798 0.016125 0.014286
0.544385 0.016996 0.015156
0.576063 0.017869 0.016028
0.607827 0.018746 0.016903
0.639672 0.019624 0.017779
0.671595 0.020505 0.018658
0.703594 0.021387 0.019539
0.735665 0.022272 0.020422
0.767805 0.023159 0.021307
0.800013 0.024048 0.022194
0.832219 0.024936 0.023081
0.864265 0.025821 0.023963
0.896340 0.026706 0.024846
0.907658 0.027020 0.025158
0.002785 0.031905 0.002774
0.002788 0.031906 0.002774
0.004450 0.031952 0.002820
0.030828 0.032679 0.003546
0.058781 0.033450 0.004316
0.087447 0.034240 0.005105
0.116593 0.035043 0.005908
0.146104 0.035856 0.006720
0.175910 0.036678 0.007541
0.205966 0.037507 0.008368
0.236236 0.038341 0.009201
0.266697 0.039181 0.010040
0.297328 0.040026 0.010883
0.328114 0.040875 0.011731
0.359041 0.041728 0.012582
0.390098 0.042584 0.013437
0.421277 0.043444 0.014296
0.452568 0.044308 0.015157
0.483967 0.045174 0.016022
0.515465 0.046043 0.016889
0.547058 0.046914 0.017759
0.578742 0.047789 0.018631
0.610511 0.048665 0.019506
0.642362 0.049544 0.020383
0.674292 0.050426 0.021262
0.706297 0.051309 0.022143
0.738374 0.052194 0.023027
0.770522 0.053082 0.023912
0.802737 0.053971 0.024799
0.834936 0.054860 0.025685
0.866935 0.055744 0.026566
0.898960 0.056628 0.027448
0.910259 0.056942 0.027759
0.005487 0.062879 0.005468
0.005490 0.062880 0.005468
0.007153 0.062927 0.005514
0.033533 0.063654 0.006240
0.061489 0.064425 0.007010
0.090158 0.065216 0.007799
0.119306 0.066019 0.008601
0.148820 0.066833 0.009414
0.178629 0.067656 0.010235
0.208688 0.068485 0.011062
0.238962 0.069320 0.011896
0.269427 0.070160 0.012734
0.300062 0.071005 0.013578
0.330852 0.071855 0.014426
0.361783 0.072708 0.015277
0.392845 0.073565 0.016132
0.424029 0.074426 0.016991
0.455326 0.075289 0.017853
0.486729 0.076156 0.018717
0.518233 0.077026 0.019585
0.549832 0.077898 0.020455
0.581521 0.078773 0.021327
0.613297 0.079650 0.022202
0.645154 0.080530 0.023079
0.677090 0.081412 0.023959
0.709102 0.082296 0.024840
0.741187 0.083182 0.025724
0.773342 0.084070 0.026609
0.805564 0.084960 0.027496
0.837757 0.085849 0.028383
0.869704 0.086732 0.029262
0.901674 0.087615 0.030143
0.912954 0.087929 0.030454
0.008232 0.094326 0.008202
0.008236 0.094327 0.008202
0.009900 0.094374 0.008248
0.036282 0.095102 0.008974
0.064241 0.095873 0.009744
0.092912 0.096664 0.010534
0.122064 0.097469 0.011336
0.151581 0.098283 0.012149
0.181394 0.099106 0.012970
0.211456 0.099935 0.013797
0.241734 0.100771 0.014631
0.272203 0.101612 0.015470
0.302843 0.102457 0.016314
0.333637 0.103307 0.017162
0.364573 0.104161 0.018013
0.395640 0.105019 0.018869
0.426829 0.105880 0.019727
0.458131 0.106744 0.020589
0.489540 0.107612 0.021454
0.521050 0.108482 0.022322
0.552655 0.109355 0.023192
0.584351 0.110230 0.024065
0.616133 0.111108 0.024940
0.647997 0.111989 0.025817
0.679940 0.112871 0.026697
0.711959 0.113756 0.027579
0.744051 0.114643 0.028462
0.776214 0.115531 0.029348
0.808444 0.116422 0.030235
0.840629 0.117312 0.031122
0.872520 0.118193 0.032000
0.904431 0.119075 0.032879
0.915689 0.119389 0.033189
0.011008 0.126088 0.010964
0.011012 0.126090 0.010964
0.012677 0.126137 0.011010
0.039062 0.126866 0.011737
0.067023 0.127637 0.012507
0.095698 0.128429 0.013296
0.124853 0.129234 0.014099
0.154374 0.130049 0.014912
0.184191 0.130872 0.015733
0.214257 0.131702 0.016560
0.244539 0.132538 0.017394
0.275012 0.133379 0.018233
0.305657 0.134226 0.019077
0.336456 0.135076 0.019925
0.367397 0.135931 0.020777
0.398470 0.136789 0.021633
0.429664 0.137651 0.022492
0.460972 0.138516 0.023354
0.492387 0.139384 0.024219
0.523903 0.140255 0.025087
0.555514 0.141128 0.025957
0.587217 0.142005 0.026830
0.619005 0.142883 0.027705
0.650877 0.143764 0.028583
0.682827 0.144648 0.029463
0.714854 0.145533 0.030345
0.746954 0.146420 0.031229
0.779124 0.147310 0.032115
0.811362 0.148202 0.033002
0.843540 0.149092 0.033889
0.875369 0.149972 0.034765
0.907217 0.150853 0.035642
0.918452 0.151167 0.035952
0.013806 0.158089 0.013747
0.013812 0.158091 0.013747
0.015477 0.158140 0.013793
0.041865 0.158868 0.014520
0.069830 0.159641 0.015290
0.098508 0.160433 0.016079
0.127667 0.161238 0.016882
0.157191 0.162054 0.017695
0.187012 0.162877 0.018516
0.217083 0.163708 0.019344
0.247370 0.164545 0.020178
0.277848 0.165387 0.021018
0.308497 0.166234 0.021861
0.339302 0.167085 0.022710
0.370248 0.167940 0.023562
0.401326 0.168799 0.024418
0.432527 0.169662 0.025277
0.463841 0.170527 0.026139
0.495262 0.171396 0.027004
0.526785 0.172268 0.027873
0.558403 0.173142 0.028743
0.590112 0.174019 0.029616
0.621908 0.174898 0.030492
0.653787 0.175780 0.031370
0.685745 0.176664 0.032250
0.717780 0.177551 0.033132
0.749888 0.178439 0.034016
0.782066 0.179329 0.034903
0.814313 0.180222 0.035791
0.846481 0.181112 0.036677
0.878246 0.181991 0.037551
0.910025 0.182871 0.038427
0.921236 0.183185 0.038736
0.016624 0.190284 0.016546
0.016630 0.190286 0.016547
0.018297 0.190335 0.016593
0.044688 0.191064 0.017320
0.072656 0.191837 0.018090
0.101338 0.192630 0.018879
0.130501 0.193436 0.019683
0.160030 0.194252 0.020496
0.189855 0.195076 0.021317
0.219931 0.195908 0.022145
0.250222 0.196745 0.022979
0.280706 0.197588 0.023819
0.311360 0.198436 0.024663
0.342170 0.199288 0.025511
0.373123 0.200144 0.026364
0.404207 0.201003 0.027220
0.435413 0.201866 0.028079
0.466734 0.202733 0.028942
0.498162 0.203602 0.029807
0.529692 0.204475 0.030675
0.561317 0.205350 0.031546
0.593034 0.206228 0.032420
0.624837 0.207108 0.033296
0.656724 0.207990 0.034174
0.688690 0.208875 0.035054
0.720733 0.209762 0.035937
0.752849 0.210652 0.036821
0.785036 0.211543 0.037708
0.817292 0.212436 0.038596
0.849450 0.213327 0.039482
0.881145 0.214205 0.040355
0.912852 0.215083 0.041228
0.924036 0.215397 0.041536
0.019458 0.222640 0.019360
0.019465 0.222644 0.019361
0.021133 0.222693 0.019407
0.047528 0.223423 0.020134
0.075500 0.224196 0.020904
0.104186 0.224990 0.021694
0.133353 0.225796 0.022497
0.162886 0.226613 0.023310
0.192717 0.227438 0.024132
0.222797 0.228270 0.024960
0.253094 0.229109 0.025795
0.283583 0.229952 0.026634
0.314243 0.230800 0.027479
0.345059 0.231653 0.028327
0.376018 0.232510 0.029180
0.407108 0.233370 0.030036
0.438321 0.234234 0.030896
0.469649 0.235102 0.031758
0.501084 0.235972 0.032624
0.532621 0.236845 0.033493
0.564254 0.237721 0.034364
0.595978 0.238600 0.035238
0.627789 0.239481 0.036114
0.659684 0.240364 0.036992
0.691659 0.241250 0.037873
0.723710 0.242138 0.038756
0.755835 0.243028 0.039641
0.788031 0.243920 0.040527
0.820296 0.244815 0.041416
0.852444 0.245706 0.042301
0.884064 0.246582 0.043172
0.915695 0.247459 0.044044
0.926851 0.247773 0.044351
0.022307 0.255138 0.022186
0.022315 0.255142 0.022187
0.023984 0.255191 0.022233
0.050382 0.255922 0.022960
0.078359 0.256696 0.023730
0.107049 0.257490 0.024521
0.136221 0.258298 0.025324
0.165759 0.259115 0.026137
0.195595 0.259941 0.026959
0.225680 0.260774 0.027788
0.255983 0.261613 0.028622
0.286478 0.262457 0.029462
0.317144 0.263306 0.030307
0.347966 0.264160 0.031156
0.378932 0.265017 0.032008
0.410029 0.265879 0.032865
0.441249 0.266744 0.033725
0.472583 0.267612 0.034588
0.504026 0.268483 0.035454
0.535570 0.269357 0.036323
0.567211 0.270234 0.037194
0.598943 0.271113 0.038068
0.630763 0.271995 0.038945
0.662666 0.272880 0.039823
0.694650 0.273767 0.040704
0.726710 0.274656 0.041587
0.758844 0.275547 0.042472
0.791050 0.276440 0.043360
0.823324 0.277335 0.044249
0.855460 0.278226 0.045134
0.887002 0.279102 0.046003
0.918552 0.279977 0.046872
0.929679 0.280291 0.047179
0.025170 0.287759 0.025023
0.025178 0.287764 0.025024
0.026848 0.287814 0.025070
0.053251 0.288545 0.025797
0.081231 0.289320 0.026568
0.109926 0.290115 0.027358
0.139103 0.290923 0.028162
0.168647 0.291742 0.028975
0.198488 0.292568 0.029797
0.228579 0.293402 0.030626
0.258888 0.294242 0.031461
0.289389 0.295087 0.032301
0.320061 0.295937 0.033146
0.350890 0.296791 0.033995
0.381863 0.297650 0.034848
0.412967 0.298512 0.035705
0.444194 0.299378 0.036565
0.475536 0.300247 0.037428
0.506986 0.301119 0.038294
0.538539 0.301994 0.039164
0.570188 0.302872 0.040035
0.601928 0.303752 0.040910
0.633757 0.304635 0.041786
0.665669 0.305520 0.042665
0.697661 0.306408 0.043547
0.729731 0.307298 0.044430
0.761875 0.308190 0.045316
0.794090 0.309085 0.046203
0.826374 0.309981 0.047092
0.858498 0.310873 0.047977
0.889957 0.311746 0.048844
0.921421 0.312620 0.049711
0.932517 0.312934 0.050017
0.028044 0.320491 0.027870
0.028054 0.320497 0.027871
0.029724 0.320548 0.027917
0.056131 0.321280 0.028644
0.084117 0.322056 0.029415
0.112817 0.322851 0.030206
0.141999 0.323660 0.031009
0.171548 0.324480 0.031823
0.201395 0.325307 0.032645
0.231493 0.326142 0.033474
0.261808 0.326982 0.034309
0.292315 0.327828 0.035150
0.322994 0.328679 0.035995
0.353830 0.329534 0.036844
0.384810 0.330394 0.037698
0.415921 0.331257 0.038555
0.447156 0.332124 0.039415
0.478506 0.332994 0.040278
0.509965 0.333867 0.041145
0.541525 0.334743 0.042014
0.573183 0.335622 0.042887
0.604932 0.336503 0.043761
0.636769 0.337387 0.044638
0.668691 0.338274 0.045518
0.700693 0.339162 0.046399
0.732772 0.340053 0.047283
0.764925 0.340947 0.048169
0.797151 0.341842 0.049056
0.829446 0.342739 0.049946
0.861555 0.343632 0.050831
0.892928 0.344504 0.051695
0.924301 0.345376 0.052559
0.935365 0.345690 0.052865
0.030930 0.353325 0.030725
0.030940 0.353331 0.030726
0.032612 0.353383 0.030773
0.059024 0.354116 0.031500
0.087014 0.354892 0.032271
0.115720 0.355689 0.033062
0.144908 0.356499 0.033866
0.174463 0.357319 0.034680
0.204316 0.358147 0.035502
0.234420 0.358982 0.036332
0.264741 0.359824 0.037167
0.295255 0.360671 0.038007
0.325942 0.361523 0.038853
0.356785 0.362379 0.039702
0.387772 0.363240 0.040556
0.418891 0.364104 0.041413
0.450134 0.364971 0.042274
0.481492 0.365842 0.043138
0.512959 0.366717 0.044005
0.544528 0.367594 0.044874
0.576195 0.368474 0.045747
0.607953 0.369356 0.046622
0.639800 0.370241 0.047499
0.671731 0.371129 0.048379
0.703743 0.372019 0.049261
0.735832 0.372911 0.050145
0.767996 0.373805 0.051031
0.800231 0.374702 0.051919
0.832537 0.375600 0.052809
0.864633 0.376493 0.053693
0.895913 0.377363 0.054555
0.927192 0.378234 0.055417
0.938222 0.378547 0.055722
0.033827 0.386251 0.033589
0.033838 0.386258 0.033590
0.035510 0.386310 0.033636
0.061927 0.387044 0.034364
0.089923 0.387822 0.035135
0.118634 0.388619 0.035926
0.147828 0.389430 0.036731
0.177389 0.390251 0.037545
0.207249 0.391080 0.038367
0.237359 0.391916 0.039197
0.267688 0.392759 0.040032
0.298209 0.393607 0.040873
0.328903 0.394460 0.041719
0.359754 0.395317 0.042569
0.390749 0.396179 0.043423
0.421876 0.397044 0.044280
0.453127 0.397913 0.045141
0.484494 0.398785 0.046005
0.515970 0.399660 0.046873
0.547548 0.400538 0.047743
0.579224 0.401419 0.048615
0.610992 0.402303 0.049491
0.642848 0.403189 0.050368
0.674789 0.404078 0.051248
0.706810 0.404969 0.052131
0.738910 0.405862 0.053015
0.771084 0.406757 0.053902
0.803331 0.407655 0.054790
0.835648 0.408555 0.055681
0.867728 0.409448 0.056565
0.898913 0.410317 0.057424
0.930092 0.411186 0.058283
0.941087 0.411499 0.058587
0.036733 0.419262 0.036460
0.036745 0.419270 0.036461
0.038418 0.419323 0.036508
0.064840 0.420058 0.037236
0.092842 0.420837 0.038007
0.121559 0.421635 0.038798
0.150760 0.422447 0.039603
0.180327 0.423269 0.040417
0.210194 0.424099 0.041240
0.240311 0.424936 0.042070
0.270647 0.425780 0.042906
0.301176 0.426629 0.043747
0.331878 0.427483 0.044593
0.362736 0.428341 0.045443
0.393739 0.429204 0.046297
0.424875 0.430070 0.047155
0.456135 0.430940 0.048016
0.487511 0.431813 0.048881
0.518996 0.432690 0.049748
0.550583 0.433569 0.050619
0.582268 0.434451 0.051492
0.614046 0.435336 0.052367
0.645913 0.436223 0.053245
0.677864 0.437113 0.054126
0.709896 0.438005 0.055008
0.742006 0.438900 0.055893
0.774192 0.439797 0.056780
0.806449 0.440696 0.057669
0.838777 0.441597 0.058560
0.870842 0.442491 0.059443
0.901926 0.443358 0.060300
0.933002 0.444224 0.061157
0.943959 0.444538 0.061459
0.039648 0.452353 0.039338
0.039661 0.452362 0.039339
0.041336 0.452416 0.039386
0.067763 0.453152 0.040114
0.095771 0.453931 0.040886
0.124495 0.454731 0.041677
0.153702 0.455544 0.042482
0.183276 0.456367 0.043297
0.213150 0.457198 0.044120
0.243275 0.458037 0.044950
0.273618 0.458881 0.045786
0.304155 0.459731 0.046627
0.334865 0.460586 0.047474
0.365732 0.461446 0.048324
0.396743 0.462310 0.049179
0.427888 0.463177 0.050037
0.459157 0.464048 0.050899
0.490542 0.464922 0.051763
0.522036 0.465800 0.052631
0.553633 0.466681 0.053502
0.585329 0.467564 0.054375
0.617117 0.468450 0.055251
0.648993 0.469339 0.056130
0.680955 0.470230 0.057010
0.712998 0.471123 0.057894
0.745119 0.472019 0.058779
0.777316 0.472917 0.059666
0.809586 0.473817 0.060555
0.841925 0.474720 0.061447
0.873973 0.475614 0.062330
0.904952 0.476479 0.063184
0.935920 0.477344 0.064037
0.946839 0.477657 0.064339
0.042573 0.485519 0.042223
0.042587 0.485529 0.042224
0.044263 0.485584 0.042271
0.070696 0.486321 0.042999
0.098710 0.487101 0.043771
0.127440 0.487902 0.044563
0.156654 0.488716 0.045368
0.186236 0.489540 0.046183
0.216117 0.490372 0.047006
0.246250 0.491212 0.047837
0.276601 0.492058 0.048673
0.307146 0.492909 0.049515
0.337864 0.493765 0.050361
0.368740 0.494626 0.051212
0.399760 0.495491 0.052067
0.430914 0.496359 0.052926
0.462193 0.497232 0.053787
0.493587 0.498107 0.054653
0.525091 0.498986 0.055521
0.556698 0.499868 0.056392
0.588404 0.500752 0.057266
0.620202 0.501640 0.058142
0.652090 0.502530 0.059021
0.684063 0.503422 0.059902
0.716117 0.504317 0.060785
0.748250 0.505214 0.061671
0.780458 0.506114 0.062559
0.812739 0.507015 0.063448
0.845091 0.507919 0.064340
0.877122 0.508814 0.065223
0.907991 0.509677 0.066074
0.938847 0.510540 0.066924
0.949725 0.510853 0.067225
0.045506 0.518756 0.045114
0.045521 0.518766 0.045115
0.047198 0.518822 0.045162
0.073637 0.519560 0.045891
0.101658 0.520342 0.046663
0.130395 0.521143 0.047455
0.159616 0.521958 0.048260
0.189206 0.522783 0.049075
0.219095 0.523617 0.049899
0.249235 0.524458 0.050730
0.279595 0.525305 0.051566
0.310148 0.526157 0.052408
0.340875 0.527015 0.053255
0.371760 0.527877 0.054106
0.402790 0.528743 0.054962
0.433953 0.529613 0.055820
0.465241 0.530486 0.056683
0.496646 0.531363 0.057548
0.528160 0.532243 0.058417
0.559778 0.533126 0.059288
0.591494 0.534012 0.060162
0.623303 0.534901 0.061039
0.655202 0.535792 0.061918
0.687186 0.536686 0.062800
0.719252 0.537582 0.063684
0.751396 0.538481 0.064570
0.783616 0.539382 0.065458
0.815910 0.540285 0.066348
0.848274 0.541190 0.067240
0.880287 0.542085 0.068123
0.911042 0.542946 0.068970
0.941781 0.543807 0.069818
0.952617 0.544120 0.070117
0.048448 0.552058 0.048010
0.048463 0.552070 0.048012
0.050141 0.552127 0.048059
0.076587 0.552866 0.048788
0.104615 0.553649 0.049560
0.133360 0.554451 0.050352
0.162588 0.555268 0.051158
0.192186 0.556094 0.051974
0.222082 0.556929 0.052798
0.252232 0.557771 0.053629
0.282600 0.558619 0.054466
0.313162 0.559473 0.055308
0.343898 0.560332 0.056155
0.374793 0.561195 0.057007
0.405832 0.562062 0.057862
0.437005 0.562934 0.058721
0.468303 0.563808 0.059584
0.499718 0.564687 0.060450
0.531242 0.565568 0.061319
0.562871 0.566453 0.062191
0.594598 0.567340 0.063065
0.626419 0.568230 0.063942
0.658329 0.569123 0.064822
0.690324 0.570018 0.065704
0.722402 0.570915 0.066588
0.754559 0.571815 0.067475
0.786791 0.572718 0.068363
0.819098 0.573622 0.069254
0.851475 0.574529 0.070146
0.883468 0.575425 0.071028
0.914105 0.576284 0.071873
0.944723 0.577142 0.072717
0.955516 0.577456 0.073016
0.051397 0.585424 0.050913
0.051413 0.585437 0.050914
0.053093 0.585495 0.050961
0.079546 0.586235 0.051690
0.107581 0.587019 0.052463
0.136333 0.587823 0.053256
0.165569 0.588640 0.054062
0.195175 0.589468 0.054878
0.225080 0.590304 0.055702
0.255238 0.591148 0.056533
0.285616 0.591997 0.057371
0.316187 0.592852 0.058213
0.346933 0.593712 0.059061
0.377836 0.594577 0.059913
0.408886 0.595446 0.060769
0.440069 0.596318 0.061628
0.471377 0.597195 0.062491
0.502803 0.598074 0.063358
0.534338 0.598957 0.064227
0.565978 0.599843 0.065099
0.597716 0.600732 0.065974
0.629548 0.601623 0.066852
0.661470 0.602517 0.067732
0.693478 0.603414 0.068614
0.725568 0.604313 0.069499
0.757737 0.605215 0.070386
0.789983 0.606118 0.071275
0.822302 0.607024 0.072166
0.854692 0.607932 0.073059
0.886665 0.608829 0.073940
0.917179 0.609686 0.074782
0.947672 0.610542 0.075622
0.958420 0.610855 0.075920
0.054355 0.618851 0.053820
0.054372 0.618864 0.053822
0.056052 0.618923 0.053869
0.082512 0.619665 0.054599
0.110555 0.620450 0.055372
0.139315 0.621255 0.056164
0.168560 0.622074 0.056971
0.198174 0.622903 0.057787
0.228088 0.623741 0.058612
0.258255 0.624585 0.059443
0.288641 0.625436 0.060281
0.319222 0.626293 0.061124
0.349978 0.627154 0.061972
0.380892 0.628020 0.062824
0.411951 0.628890 0.063680
0.443145 0.629764 0.064540
0.474464 0.630642 0.065404
0.505901 0.631523 0.066271
0.537447 0.632407 0.067140
0.569098 0.633295 0.068013
0.600848 0.634185 0.068888
0.632692 0.635078 0.069766
0.664626 0.635973 0.070647
0.696647 0.636872 0.071530
0.728749 0.637772 0.072415
0.760931 0.638675 0.073302
0.793190 0.639581 0.074191
0.825522 0.640488 0.075083
0.857926 0.641398 0.075976
0.889878 0.642295 0.076858
0.920265 0.643150 0.077696
0.950627 0.644004 0.078533
0.961329 0.644317 0.078829
0.057320 0.652335 0.056733
0.057337 0.652349 0.056734
0.059019 0.652410 0.056782
0.085486 0.653152 0.057512
0.113537 0.653939 0.058285
0.142305 0.654746 0.059078
0.171558 0.655566 0.059885
0.201181 0.656396 0.060701
0.231104 0.657235 0.061526
0.261281 0.658081 0.062358
0.291677 0.658934 0.063197
0.322268 0.659791 0.064040
0.353034 0.660654 0.064888
0.383958 0.661522 0.065741
0.415028 0.662393 0.066597
0.446233 0.663269 0.067458
0.477563 0.664148 0.068322
0.509011 0.665030 0.069189
0.540569 0.665916 0.070059
0.572232 0.666805 0.070932
0.603994 0.667697 0.071808
0.635850 0.668591 0.072686
0.667797 0.669489 0.073567
0.699830 0.670388 0.074450
0.731945 0.671291 0.075336
0.764140 0.672195 0.076224
0.796412 0.673102 0.077114
0.828759 0.674011 0.078006
0.861176 0.674923 0.078900
0.893107 0.675821 0.079780
0.923362 0.676673 0.080615
0.953590 0.677524 0.081449
0.964243 0.677837 0.081743
0.060292 0.685874 0.059650
0.060310 0.685890 0.059652
0.061993 0.685951 0.059700
0.088468 0.686696 0.060430
0.116527 0.687484 0.061203
0.145304 0.688292 0.061997
0.174566 0.689113 0.062804
0.204198 0.689945 0.063621
0.234131 0.690785 0.064446
0.264317 0.691633 0.065279
0.294723 0.692487 0.066117
0.325324 0.693346 0.066961
0.356100 0.694210 0.067809
0.387035 0.695079 0.068663
0.418116 0.695952 0.069520
0.449332 0.696829 0.070380
0.480674 0.697710 0.071245
0.512133 0.698594 0.072112
0.543704 0.699481 0.072983
0.575379 0.700372 0.073856
0.607153 0.701265 0.074733
0.639022 0.702161 0.075611
0.670981 0.703060 0.076493
0.703027 0.703962 0.077377
0.735156 0.704866 0.078263
0.767365 0.705772 0.079151
0.799651 0.706680 0.080041
0.832011 0.707591 0.080934
0.864443 0.708504 0.081828
0.896351 0.709403 0.082708
0.926470 0.710253 0.083539
0.956559 0.711102 0.084369
0.967163 0.711415 0.084663
0.063271 0.719467 0.062573
0.063290 0.719484 0.062574
0.064975 0.719547 0.062622
0.091457 0.720292 0.063353
0.119524 0.721082 0.064127
0.148310 0.721891 0.064920
0.177582 0.722714 0.065728
0.207224 0.723547 0.066545
0.237166 0.724389 0.067371
0.267362 0.725238 0.068204
0.297779 0.726094 0.069042
0.328390 0.726954 0.069887
0.359177 0.727820 0.070736
0.390123 0.728691 0.071589
0.421215 0.729565 0.072447
0.452443 0.730444 0.073308
0.483796 0.731326 0.074172
0.515268 0.732212 0.075040
0.546850 0.733101 0.075911
0.578538 0.733993 0.076785
0.610325 0.734888 0.077662
0.642207 0.735786 0.078541
0.674180 0.736686 0.079423
0.706239 0.737589 0.080308
0.738382 0.738495 0.081194
0.770604 0.739403 0.082083
0.802904 0.740313 0.082974
0.835279 0.741226 0.083867
0.867725 0.742141 0.084762
0.899610 0.743040 0.085641
0.929589 0.743887 0.086468
0.959534 0.744734 0.087295
0.970087 0.745047 0.087587
0.066257 0.753112 0.065499
0.066277 0.753130 0.065501
0.067963 0.753194 0.065549
0.094454 0.753941 0.066280
0.122530 0.754732 0.067054
0.151325 0.755542 0.067849
0.180606 0.756367 0.068656
0.210257 0.757202 0.069474
0.240210 0.758045 0.070300
0.270416 0.758896 0.071133
0.300844 0.759753 0.071972
0.331466 0.760615 0.072817
0.362264 0.761482 0.073666
0.393222 0.762354 0.074520
0.424326 0.763231 0.075378
0.455565 0.764111 0.076240
0.486931 0.764995 0.077105
0.518415 0.765882 0.077973
0.550010 0.766773 0.078845
0.581710 0.767667 0.079719
0.613510 0.768563 0.080597
0.645406 0.769463 0.081476
0.677392 0.770365 0.082359
0.709465 0.771270 0.083243
0.741622 0.772177 0.084130
0.773859 0.773087 0.085020
0.806173 0.773999 0.085911
0.838562 0.774913 0.086805
0.871024 0.775830 0.087700
0.902885 0.776730 0.088579
0.932718 0.777575 0.089402
0.962516 0.778419 0.090225
0.973016 0.778732 0.090516
0.069250 0.786806 0.068430
0.069271 0.786825 0.068433
0.070958 0.786890 0.068481
0.097457 0.787639 0.069212
0.125543 0.788431 0.069986
0.154347 0.789244 0.070781
0.183638 0.790070 0.071589
0.213300 0.790906 0.072407
0.243263 0.791751 0.073234
0.273480 0.792603 0.074067
0.303918 0.793462 0.074907
0.334552 0.794326 0.075752
0.365362 0.795195 0.076602
0.396331 0.796069 0.077456
0.427447 0.796947 0.078314
0.458698 0.797829 0.079177
0.490076 0.798714 0.080042
0.521573 0.799603 0.080911
0.553181 0.800496 0.081783
