library/cube/Silk_Embers_003.cube
# CINEGRADE LAB — Premium Cinematic LUT
# Title: Silk Embers
# Category: Luxury Editorial
# Description: Rich blacks, soft contrast, warm skin tones for high-end editorial photography
# Mood: Sophisticated, elegant, polished
# Variant: 4
# Generated: 2026-05-21T16:12:11.199085
TITLE "Silk Embers"
LUT_3D_SIZE 9
0.000000 0.000000 0.000000
0.055982 0.001542 0.001541
0.173085 0.004767 0.004765
0.294466 0.008110 0.008106
0.418369 0.011524 0.011517
0.544094 0.014990 0.014978
0.671261 0.018496 0.018480
0.799628 0.022036 0.022014
0.907483 0.025012 0.024983
0.005487 0.062879 0.005468
0.061489 0.064425 0.007010
0.178629 0.067656 0.010235
0.300062 0.071005 0.013578
0.424029 0.074426 0.016991
0.549832 0.077898 0.020455
0.677090 0.081412 0.023959
0.805564 0.084960 0.027496
0.912954 0.087929 0.030454
0.016624 0.190284 0.016546
0.072656 0.191837 0.018090
0.189855 0.195076 0.021317
0.311360 0.198436 0.024663
0.435413 0.201866 0.028079
0.561317 0.205350 0.031546
0.688690 0.208875 0.035054
0.817292 0.212436 0.038596
0.924036 0.215397 0.041536
0.028044 0.320491 0.027870
0.084117 0.322056 0.029415
0.201395 0.325307 0.032645
0.322994 0.328679 0.035995
0.447156 0.332124 0.039415
0.573183 0.335622 0.042887
0.700693 0.339162 0.046399
0.829446 0.342739 0.049946
0.935365 0.345690 0.052865
0.039648 0.452353 0.039338
0.095771 0.453931 0.040886
0.213150 0.457198 0.044120
0.334865 0.460586 0.047474
0.459157 0.464048 0.050899
0.585329 0.467564 0.054375
0.712998 0.471123 0.057894
0.841925 0.474720 0.061447
0.946839 0.477657 0.064339
0.051397 0.585424 0.050913
0.107581 0.587019 0.052463
0.225080 0.590304 0.055702
0.346933 0.593712 0.059061
0.471377 0.597195 0.062491
0.597716 0.600732 0.065974
0.725568 0.604313 0.069499
0.854692 0.607932 0.073059
0.958420 0.610855 0.075920
0.063271 0.719467 0.062573
0.119524 0.721082 0.064127
0.237166 0.724389 0.067371
0.359177 0.727820 0.070736
0.483796 0.731326 0.074172
0.610325 0.734888 0.077662
0.738382 0.738495 0.081194
0.867725 0.742141 0.084762
0.970087 0.745047 0.087587
0.075256 0.854337 0.074305
0.131590 0.855975 0.075863
0.249394 0.859308 0.079114
0.371586 0.862765 0.082485
0.496402 0.866298 0.085930
0.623143 0.869888 0.089427
0.751426 0.873524 0.092967
0.881013 0.877200 0.096544
0.981828 0.880087 0.099328
0.085313 0.966571 0.084071
0.141728 0.968124 0.085624
0.259705 0.971372 0.088872
0.382089 0.974741 0.092241
0.507113 0.978182 0.095682
0.634077 0.981677 0.099177
0.762600 0.985215 0.102715
0.892439 0.988789 0.106289
0.991517 0.991517 0.109016
0.000315 0.000315 0.033100
0.056299 0.001857 0.034642
0.173405 0.005083 0.037865
0.294790 0.008427 0.041207
0.418698 0.011841 0.044618
0.544430 0.015307 0.048080
0.671605 0.018814 0.051581
0.799983 0.022354 0.055115
0.907799 0.025330 0.058084
0.005806 0.063196 0.038568
0.061811 0.064742 0.040110
0.178957 0.067973 0.043336
0.300395 0.071323 0.046679
0.424370 0.074745 0.050092
0.550182 0.078218 0.053557
0.677451 0.081732 0.057061
0.805936 0.085281 0.060599
0.913269 0.088249 0.063554
0.016948 0.190603 0.049647
0.072983 0.192157 0.051191
0.190189 0.195397 0.054418
0.311703 0.198757 0.057765
0.435766 0.202189 0.061181
0.561681 0.205673 0.064649
0.689067 0.209199 0.068157
0.817683 0.212761 0.071699
0.924352 0.215720 0.074638
0.028372 0.320814 0.060971
0.084449 0.322379 0.062517
0.201737 0.325631 0.065747
0.323347 0.329004 0.069097
0.447521 0.332450 0.072518
0.573561 0.335949 0.075990
0.701086 0.339491 0.079503
0.829855 0.343069 0.083050
0.935681 0.346017 0.085966
0.039981 0.452680 0.072440
0.096109 0.454259 0.073988
0.213499 0.457527 0.077222
0.335227 0.460916 0.080577
0.459533 0.464379 0.084002
0.585721 0.467896 0.087479
0.713408 0.471457 0.090998
0.842354 0.475055 0.094552
0.947155 0.477990 0.097441
0.051734 0.585756 0.084015
0.107924 0.587352 0.085566
0.225437 0.590639 0.088805
0.347304 0.594048 0.092164
0.471766 0.597532 0.095595
0.598123 0.601070 0.099079
0.725994 0.604653 0.102604
0.855139 0.608274 0.106165
0.958737 0.611194 0.109022
0.063612 0.719805 0.095676
0.119873 0.721421 0.097230
0.237530 0.724730 0.100475
0.359559 0.728163 0.103840
0.484197 0.731670 0.107277
0.610746 0.735234 0.110768
0.738824 0.738842 0.114301
0.868191 0.742490 0.117869
0.970405 0.745393 0.120690
0.075602 0.854682 0.107409
0.131945 0.856321 0.108968
0.249766 0.859656 0.112219
0.371977 0.863115 0.115591
0.496814 0.866650 0.119036
0.623578 0.870242 0.122534
0.751886 0.873880 0.126075
0.881497 0.877557 0.129652
0.982147 0.880441 0.132432
0.085660 0.966887 0.117172
0.142085 0.968440 0.118726
0.260082 0.971689 0.121974
0.382487 0.975058 0.125343
0.507534 0.978500 0.128786
0.634523 0.981996 0.132281
0.763072 0.985535 0.135820
0.892939 0.989109 0.139395
0.991832 0.991832 0.142117
0.001389 0.001388 0.145784
0.057374 0.002931 0.147325
0.174483 0.006156 0.150549
0.295873 0.009501 0.153891
0.419786 0.012916 0.157302
0.545526 0.016383 0.160764
0.672709 0.019890 0.164265
0.801096 0.023431 0.167800
0.908872 0.026406 0.170768
0.006884 0.064270 0.151252
0.062892 0.065817 0.152794
0.180042 0.069049 0.156019
0.301487 0.072400 0.159363
0.425470 0.075821 0.162777
0.551291 0.079295 0.166241
0.678571 0.082810 0.169746
0.807069 0.086360 0.173284
0.914342 0.089326 0.176238
0.018030 0.191680 0.162331
0.074069 0.193235 0.163875
0.191282 0.196475 0.167103
0.312805 0.199836 0.170449
0.436878 0.203268 0.173866
0.562804 0.206754 0.177334
0.690203 0.210281 0.180843
0.818834 0.213844 0.184385
0.925426 0.216801 0.187322
0.029459 0.321894 0.173656
0.085540 0.323460 0.175201
0.202837 0.326713 0.178432
0.324458 0.330087 0.181782
0.448644 0.333534 0.185203
0.574698 0.337034 0.188676
0.702238 0.340577 0.192189
0.831025 0.344156 0.195737
0.936755 0.347102 0.198651
0.041072 0.453765 0.185125
0.097206 0.455345 0.186673
0.214607 0.458614 0.189908
0.336348 0.462004 0.193262
0.460669 0.465468 0.196688
0.586872 0.468987 0.200166
0.714577 0.472549 0.203685
0.843541 0.476148 0.207239
0.948230 0.479081 0.210126
0.052829 0.586846 0.196700
0.109026 0.588443 0.198252
0.226552 0.591731 0.201491
0.348435 0.595142 0.204851
0.472913 0.598627 0.208283
0.599288 0.602167 0.211766
0.727179 0.605751 0.215292
0.856346 0.609373 0.218854
0.959812 0.612291 0.221708
0.064712 0.720901 0.208362
0.120981 0.722518 0.209916
0.238653 0.725829 0.213162
0.360699 0.729263 0.216527
0.485356 0.732772 0.219966
0.611926 0.736337 0.223456
0.740026 0.739948 0.226990
0.869417 0.743597 0.230559
0.971481 0.746497 0.233376
0.076706 0.855785 0.220096
0.133058 0.857426 0.221655
0.250897 0.860762 0.224906
0.373128 0.864223 0.228279
0.497986 0.867760 0.231725
0.624772 0.871354 0.235223
0.753104 0.874993 0.238765
0.882742 0.878673 0.242343
0.983223 0.881553 0.245119
0.086766 0.967961 0.229857
0.143200 0.969515 0.231410
0.261217 0.972763 0.234659
0.383643 0.976133 0.238029
0.508714 0.979576 0.241472
0.635728 0.983072 0.244968
0.764303 0.986612 0.248508
0.894198 0.990187 0.252083
0.992905 0.992905 0.254800
0.002537 0.002536 0.266242
0.058524 0.004078 0.267783
0.175636 0.007305 0.271007
0.297031 0.010650 0.274349
0.420950 0.014065 0.277761
0.546696 0.017532 0.281223
0.673889 0.021040 0.284724
0.802286 0.024582 0.288260
0.910019 0.027556 0.291226
0.008036 0.065419 0.271710
0.064046 0.066967 0.273252
0.181202 0.070199 0.276478
0.302654 0.073550 0.279822
0.426645 0.076972 0.283236
0.552476 0.080447 0.286701
0.679767 0.083962 0.290206
0.808277 0.087513 0.293744
0.915490 0.090478 0.296697
0.019186 0.192831 0.282790
0.075229 0.194387 0.284334
0.192450 0.197628 0.287562
0.313981 0.200989 0.290909
0.438065 0.204423 0.294326
0.564003 0.207909 0.297794
0.691415 0.211437 0.301303
0.820060 0.215000 0.304846
0.926574 0.217956 0.307780
0.030619 0.323049 0.294115
0.086706 0.324616 0.295660
0.204012 0.327870 0.298892
0.325644 0.331245 0.302242
0.449843 0.334692 0.305663
0.575911 0.338193 0.309136
0.703466 0.341737 0.312650
0.832270 0.345318 0.316199
0.937903 0.348262 0.319110
0.042237 0.454924 0.305584
0.098376 0.456505 0.307133
0.215789 0.459775 0.310368
0.337543 0.463166 0.313723
0.461879 0.466632 0.317149
0.588099 0.470151 0.320628
0.715821 0.473714 0.324147
0.844805 0.477315 0.327702
0.949378 0.480246 0.330585
0.053999 0.588010 0.317160
0.110202 0.589608 0.318712
0.227742 0.592898 0.321952
0.349640 0.596310 0.325312
0.474135 0.599796 0.328744
0.600529 0.603338 0.332229
0.728440 0.606924 0.335755
0.857628 0.610547 0.339317
0.960961 0.613462 0.342168
0.065886 0.722072 0.328822
0.122163 0.723690 0.330377
0.239851 0.727002 0.333623
0.361914 0.730438 0.336990
0.486591 0.733949 0.340428
0.613181 0.737515 0.343920
0.741304 0.741127 0.347454
0.870718 0.744778 0.351024
0.972630 0.747675 0.353837
0.077885 0.856963 0.340557
0.134245 0.858605 0.342116
0.252102 0.861943 0.345369
0.374353 0.865406 0.348742
0.499232 0.868944 0.352188
0.626042 0.872540 0.355688
0.754398 0.876182 0.359230
0.884062 0.879863 0.362809
0.984373 0.882740 0.365580
0.087946 0.969109 0.350316
0.144390 0.970663 0.351869
0.262427 0.973912 0.355119
0.384875 0.977283 0.358489
0.509969 0.980726 0.361933
0.637008 0.984223 0.365430
0.765610 0.987763 0.368970
0.895533 0.991340 0.372546
0.994052 0.994052 0.375258
0.003726 0.003724 0.391025
0.059715 0.005267 0.392566
0.176831 0.008494 0.395790
0.298230 0.011840 0.399133
0.422156 0.015256 0.402544
0.547910 0.018723 0.406006
0.675111 0.022231 0.409509
0.803519 0.025774 0.413044
0.911207 0.028747 0.416009
0.009230 0.066609 0.396493
0.065243 0.068157 0.398036
0.182404 0.071390 0.401262
0.303864 0.074742 0.404606
0.427862 0.078165 0.408020
0.553703 0.081640 0.411485
0.681005 0.085156 0.414990
0.809528 0.088707 0.418529
0.916678 0.091671 0.421480
0.020384 0.194023 0.407573
0.076431 0.195580 0.409117
0.193659 0.198822 0.412346
0.315200 0.202184 0.415693
0.439294 0.205618 0.419110
0.565244 0.209105 0.422579
0.692670 0.212634 0.426089
0.821330 0.216199 0.429632
0.927762 0.219153 0.432564
0.031822 0.324245 0.418899
0.087913 0.325812 0.420445
0.205229 0.329067 0.423676
0.326872 0.332443 0.427027
0.451084 0.335892 0.430449
0.577166 0.339394 0.433922
0.704737 0.342939 0.437437
0.833558 0.346521 0.440986
0.939092 0.349463 0.443894
0.043443 0.456124 0.430369
0.099589 0.457706 0.431917
0.217014 0.460977 0.435153
0.338781 0.464370 0.438508
0.463132 0.467837 0.441935
0.589368 0.471357 0.445414
0.717108 0.474922 0.448934
0.846112 0.478524 0.452490
0.950568 0.481452 0.455370
0.055210 0.589216 0.441945
0.111420 0.590815 0.443497
0.228974 0.594106 0.446738
0.350888 0.597519 0.450099
0.475400 0.601007 0.453531
0.601813 0.604550 0.457016
0.729744 0.608137 0.460543
0.858954 0.611763 0.464106
0.962151 0.614675 0.466953
0.067102 0.723284 0.453608
0.123386 0.724903 0.455163
0.241091 0.728217 0.458410
0.363172 0.731654 0.461777
0.487868 0.735167 0.465216
0.614479 0.738735 0.468708
0.742624 0.742349 0.472243
0.872062 0.746001 0.475814
0.973821 0.748895 0.478623
0.079105 0.858182 0.465344
0.135475 0.859826 0.466903
0.253350 0.863165 0.470156
0.375620 0.866630 0.473530
0.500521 0.870171 0.476977
0.627354 0.873768 0.480477
0.755735 0.877411 0.484021
0.885425 0.881095 0.487600
0.985565 0.883968 0.490367
0.089168 0.970298 0.475100
0.145622 0.971852 0.476654
0.263678 0.975102 0.479903
0.386149 0.978473 0.483275
0.511266 0.981917 0.486719
0.638331 0.985415 0.490217
0.766959 0.988956 0.493757
0.896912 0.992533 0.497335
0.995240 0.995240 0.500041
0.004946 0.004942 0.518879
0.060937 0.006486 0.520420
0.178056 0.009713 0.523645
0.299460 0.013059 0.526987
0.423392 0.016475 0.530399
0.549154 0.019943 0.533861
0.676364 0.023452 0.537364
0.804783 0.026995 0.540899
0.912425 0.029968 0.543863
0.010453 0.067829 0.524348
0.066469 0.069377 0.525890
0.183637 0.072610 0.529116
0.305103 0.075963 0.532461
0.429110 0.079387 0.535875
0.554961 0.082862 0.539340
0.682275 0.086379 0.542846
0.810810 0.089931 0.546385
0.917896 0.092894 0.549334
0.021612 0.195246 0.535428
0.077663 0.196802 0.536972
0.194899 0.200045 0.540201
0.316449 0.203408 0.543548
0.440554 0.206843 0.546966
0.566516 0.210331 0.550435
0.693955 0.213861 0.553945
0.822630 0.217427 0.557489
0.928980 0.220379 0.560419
0.033054 0.325470 0.546754
0.089150 0.327039 0.548300
0.206476 0.330295 0.551532
0.328131 0.333672 0.554883
0.452355 0.337121 0.558305
0.578452 0.340624 0.561779
0.706039 0.344171 0.565294
0.834877 0.347753 0.568843
0.940311 0.350694 0.571749
0.044680 0.457354 0.558224
0.100831 0.458937 0.559773
0.218268 0.462209 0.563009
0.340049 0.465603 0.566365
0.464416 0.469071 0.569792
0.590668 0.472593 0.573272
0.718427 0.476159 0.576793
0.847450 0.479762 0.580349
0.951787 0.482688 0.583225
0.056451 0.590451 0.569801
0.112668 0.592052 0.571353
0.230236 0.595344 0.574595
0.352166 0.598759 0.577956
0.476696 0.602248 0.581389
0.603127 0.605792 0.584875
0.731079 0.609381 0.588403
0.860310 0.613008 0.591966
0.963371 0.615917 0.594809
0.068347 0.724525 0.581465
0.124640 0.726146 0.583020
0.242360 0.729462 0.586267
0.364459 0.732900 0.589635
0.489175 0.736414 0.593075
0.615807 0.739984 0.596568
0.743975 0.743600 0.600103
0.873438 0.747254 0.603675
0.975041 0.750145 0.606479
0.080355 0.859431 0.593201
0.136734 0.861076 0.594761
0.254627 0.864418 0.598014
0.376918 0.867884 0.601389
0.501841 0.871426 0.604837
0.628697 0.875025 0.608338
0.757103 0.878671 0.611882
0.886820 0.882356 0.615462
0.986786 0.885226 0.618224
0.090419 0.971516 0.602954
0.146883 0.973071 0.604509
0.264960 0.976321 0.607759
0.387453 0.979693 0.611131
0.512594 0.983138 0.614576
0.639684 0.986636 0.618074
0.768340 0.990178 0.621616
0.898321 0.993756 0.625194
0.996457 0.996457 0.627895
0.006188 0.006183 0.649133
0.062181 0.007727 0.650674
0.179304 0.010954 0.653899
0.300714 0.014301 0.657241
0.424653 0.017718 0.660653
0.550422 0.021187 0.664116
0.677642 0.024696 0.667619
0.806071 0.028240 0.671155
0.913666 0.031211 0.674117
0.011700 0.069071 0.654602
0.067719 0.070620 0.656144
0.184892 0.073854 0.659371
0.306366 0.077207 0.662715
0.430382 0.080631 0.666130
0.556244 0.084108 0.669595
0.683568 0.087625 0.673101
0.812117 0.091178 0.676641
0.919137 0.094139 0.679589
0.022862 0.196491 0.665682
0.078918 0.198048 0.667227
0.196162 0.201292 0.670455
0.317721 0.204656 0.673803
0.441837 0.208091 0.677221
0.567812 0.211580 0.680691
0.695265 0.215111 0.684201
0.823956 0.218677 0.687746
0.930221 0.221628 0.690673
0.034309 0.326719 0.677008
0.090410 0.328288 0.678555
0.207746 0.331545 0.681787
0.329413 0.334923 0.685139
0.453651 0.338374 0.688561
0.579762 0.341878 0.692035
0.707366 0.345425 0.695551
0.836221 0.349009 0.699101
0.941552 0.351947 0.702004
0.045939 0.458607 0.688479
0.102097 0.460191 0.690029
0.219546 0.463464 0.693265
0.341341 0.466860 0.696621
0.465723 0.470329 0.700049
0.591993 0.473852 0.703529
0.719769 0.477419 0.707051
0.848813 0.481024 0.710607
0.953029 0.483947 0.713481
0.057715 0.591710 0.700057
0.113939 0.593311 0.701610
0.231522 0.596605 0.704851
0.353467 0.600021 0.708213
0.478015 0.603512 0.711647
0.604466 0.607057 0.715133
0.732438 0.610648 0.718662
0.861692 0.614276 0.722225
0.964613 0.617183 0.725065
0.069616 0.725790 0.711721
0.125917 0.727413 0.713277
0.243653 0.730729 0.716524
0.365771 0.734170 0.719893
0.490506 0.737685 0.723333
0.617160 0.741257 0.726827
0.745351 0.744874 0.730363
0.874838 0.748530 0.733935
0.976284 0.751418 0.736736
0.081629 0.860704 0.723458
0.138016 0.862350 0.725018
0.255928 0.865693 0.728273
0.378239 0.869161 0.731648
0.503184 0.872705 0.735096
0.630064 0.876306 0.738598
0.758496 0.879954 0.742143
0.888239 0.883641 0.745724
0.988030 0.886507 0.748481
0.091694 0.972757 0.733209
0.148168 0.974312 0.734764
0.266265 0.977563 0.738015
0.388780 0.980935 0.741387
0.513946 0.984381 0.744833
0.641062 0.987880 0.748332
0.769745 0.991422 0.751874
0.899755 0.995001 0.755453
0.997697 0.997697 0.758149
0.007450 0.007443 0.781364
0.063445 0.008987 0.782906
0.180572 0.012215 0.786130
0.301988 0.015562 0.789473
0.425933 0.018980 0.792885
0.551711 0.022449 0.796348
0.678940 0.025959 0.799851
0.807380 0.029503 0.803387
0.914925 0.032474 0.806349
0.012966 0.070333 0.786833
0.068988 0.071882 0.788376
0.186168 0.075116 0.791602
0.307649 0.078470 0.794947
0.431674 0.081895 0.798362
0.557546 0.085372 0.801828
0.684883 0.088891 0.805335
0.813444 0.092444 0.808875
0.920396 0.095404 0.811820
0.024133 0.197755 0.797914
0.080192 0.199313 0.799459
0.197445 0.202557 0.802688
0.319014 0.205922 0.806036
0.443141 0.209359 0.809454
0.569129 0.212848 0.812924
0.696596 0.216380 0.816435
0.825302 0.219947 0.819980
0.931481 0.222896 0.822905
0.035583 0.327987 0.809241
0.091690 0.329557 0.810787
0.209037 0.332814 0.814020
0.330715 0.336193 0.817372
0.454966 0.339645 0.820795
0.581092 0.343151 0.824270
0.708712 0.346699 0.827786
0.837586 0.350284 0.831336
0.942812 0.353220 0.834236
0.047218 0.459879 0.820712
0.103382 0.461464 0.822262
0.220844 0.464739 0.825499
0.342653 0.468135 0.828855
0.467050 0.471606 0.832284
0.593337 0.475130 0.835764
0.721133 0.478699 0.839286
0.850196 0.482304 0.842843
0.954290 0.485225 0.845713
0.058999 0.592988 0.832291
0.115230 0.594590 0.833843
0.232827 0.597885 0.837085
0.354789 0.601303 0.840448
0.479354 0.604795 0.843882
0.605824 0.608342 0.847369
0.733818 0.611934 0.850898
0.863094 0.615564 0.854463
0.965874 0.618467 0.857298
0.070904 0.727074 0.843955
0.127213 0.728698 0.845511
0.244966 0.732016 0.848759
0.367102 0.735458 0.852128
0.491858 0.738976 0.855569
0.618533 0.742549 0.859064
0.746747 0.746168 0.862601
0.876259 0.749826 0.866174
0.977546 0.752710 0.868970
0.082921 0.861995 0.855693
0.139318 0.863643 0.857254
0.257249 0.866988 0.860508
0.379580 0.870458 0.863884
0.504548 0.874004 0.867333
0.631451 0.877607 0.870836
0.759909 0.881256 0.874382
0.889679 0.884945 0.877964
0.989292 0.887807 0.880716
0.092988 0.974017 0.865441
0.149472 0.975572 0.866996
0.267590 0.978824 0.870248
0.390128 0.982197 0.873621
0.515318 0.985643 0.877067
0.642459 0.989143 0.880567
0.771170 0.992686 0.884110
0.901209 0.996266 0.887689
0.998956 0.998956 0.890380
0.008497 0.008488 0.890984
0.064494 0.010032 0.892526
0.181626 0.013261 0.895751
0.303047 0.016608 0.899093
0.426999 0.020026 0.902506
0.552786 0.023496 0.905969
0.680025 0.027007 0.909472
0.808476 0.030552 0.913009
0.915969 0.033521 0.915969
0.014017 0.071379 0.896454
0.070042 0.072929 0.897997
0.187228 0.076164 0.901223
0.308718 0.079518 0.904568
0.432752 0.082944 0.907984
0.558634 0.086421 0.911450
0.685983 0.089941 0.914956
0.814558 0.093495 0.918497
0.921441 0.096453 0.921441
0.025188 0.198804 0.907535
0.081252 0.200363 0.909080
0.198513 0.203608 0.912309
0.320092 0.206973 0.915657
0.444231 0.210411 0.919076
0.570231 0.213901 0.922546
0.697713 0.217434 0.926058
0.826434 0.221002 0.929603
0.932526 0.223949 0.932526
0.036643 0.329039 0.918862
0.092755 0.330610 0.920409
0.210112 0.333869 0.923641
0.331803 0.337249 0.926994
0.456068 0.340702 0.930417
0.582209 0.344208 0.933892
0.709846 0.347758 0.937409
0.838737 0.351344 0.940960
0.943857 0.354277 0.943857
0.048282 0.460937 0.930334
0.104452 0.462522 0.931883
0.221927 0.465798 0.935121
0.343750 0.469196 0.938478
0.468163 0.472667 0.941907
0.594468 0.476193 0.945388
0.722282 0.479763 0.948910
0.851366 0.483370 0.952468
0.955335 0.486288 0.955335
0.060067 0.594050 0.941913
0.116306 0.595654 0.943466
0.233918 0.598950 0.946708
0.355896 0.602369 0.950071
0.480479 0.605863 0.953506
0.606969 0.609411 0.956994
0.734984 0.613005 0.960523
0.864283 0.616637 0.964089
0.966920 0.619537 0.966920
0.071977 0.728144 0.953578
0.128294 0.729769 0.955135
0.246065 0.733088 0.958383
0.368219 0.736532 0.961753
0.492995 0.740051 0.965194
0.619692 0.743626 0.968689
0.747930 0.747247 0.972227
0.877467 0.750906 0.975801
0.978593 0.753787 0.978593
0.083999 0.863072 0.965317
0.140405 0.864721 0.966878
0.258355 0.868068 0.970133
0.380707 0.871539 0.973510
0.505697 0.875087 0.976959
0.632625 0.878692 0.980463
0.761108 0.882343 0.984009
0.890905 0.886034 0.987592
0.990340 0.888893 0.990340
0.094067 0.975062 0.975062
0.150561 0.976617 0.976617
0.268700 0.979869 0.979869
0.391261 0.983243 0.983243
0.516475 0.986690 0.986690
0.643643 0.990190 0.990190
0.772382 0.993734 0.993734
0.902450 0.997315 0.997315
1.000000 1.000000 1.000000
