library/cube/Silk_Embers_003.cube
# CINEGRADE LAB — Premium Cinematic LUT
# Title: Silk Embers
# Category: Luxury Editorial
# Description: Rich blacks, soft contrast, warm skin tones for high-end editorial photography
# Mood: Sophisticated, elegant, polished
# Variant: 4
# Generated: 2026-05-21T16:12:11.199085
TITLE "Silk Embers"
LUT_3D_SIZE 5
0.000000 0.000000 0.000000
0.173085 0.004767 0.004765
0.418369 0.011524 0.011517
0.671261 0.018496 0.018480
0.907483 0.025012 0.024983
0.016624 0.190284 0.016546
0.189855 0.195076 0.021317
0.435413 0.201866 0.028079
0.688690 0.208875 0.035054
0.924036 0.215397 0.041536
0.039648 0.452353 0.039338
0.213150 0.457198 0.044120
0.459157 0.464048 0.050899
0.712998 0.471123 0.057894
0.946839 0.477657 0.064339
0.063271 0.719467 0.062573
0.237166 0.724389 0.067371
0.483796 0.731326 0.074172
0.738382 0.738495 0.081194
0.970087 0.745047 0.087587
0.085313 0.966571 0.084071
0.259705 0.971372 0.088872
0.507113 0.978182 0.095682
0.762600 0.985215 0.102715
0.991517 0.991517 0.109016
0.001389 0.001388 0.145784
0.174483 0.006156 0.150549
0.419786 0.012916 0.157302
0.672709 0.019890 0.164265
0.908872 0.026406 0.170768
0.018030 0.191680 0.162331
0.191282 0.196475 0.167103
0.436878 0.203268 0.173866
0.690203 0.210281 0.180843
0.925426 0.216801 0.187322
0.041072 0.453765 0.185125
0.214607 0.458614 0.189908
0.460669 0.465468 0.196688
0.714577 0.472549 0.203685
0.948230 0.479081 0.210126
0.064712 0.720901 0.208362
0.238653 0.725829 0.213162
0.485356 0.732772 0.219966
0.740026 0.739948 0.226990
0.971481 0.746497 0.233376
0.086766 0.967961 0.229857
0.261217 0.972763 0.234659
0.508714 0.979576 0.241472
0.764303 0.986612 0.248508
0.992905 0.992905 0.254800
0.003726 0.003724 0.391025
0.176831 0.008494 0.395790
0.422156 0.015256 0.402544
0.675111 0.022231 0.409509
0.911207 0.028747 0.416009
0.020384 0.194023 0.407573
0.193659 0.198822 0.412346
0.439294 0.205618 0.419110
0.692670 0.212634 0.426089
0.927762 0.219153 0.432564
0.043443 0.456124 0.430369
0.217014 0.460977 0.435153
0.463132 0.467837 0.441935
0.717108 0.474922 0.448934
0.950568 0.481452 0.455370
0.067102 0.723284 0.453608
0.241091 0.728217 0.458410
0.487868 0.735167 0.465216
0.742624 0.742349 0.472243
0.973821 0.748895 0.478623
0.089168 0.970298 0.475100
0.263678 0.975102 0.479903
0.511266 0.981917 0.486719
0.766959 0.988956 0.493757
0.995240 0.995240 0.500041
0.006188 0.006183 0.649133
0.179304 0.010954 0.653899
0.424653 0.017718 0.660653
0.677642 0.024696 0.667619
0.913666 0.031211 0.674117
0.022862 0.196491 0.665682
0.196162 0.201292 0.670455
0.441837 0.208091 0.677221
0.695265 0.215111 0.684201
0.930221 0.221628 0.690673
0.045939 0.458607 0.688479
0.219546 0.463464 0.693265
0.465723 0.470329 0.700049
0.719769 0.477419 0.707051
0.953029 0.483947 0.713481
0.069616 0.725790 0.711721
0.243653 0.730729 0.716524
0.490506 0.737685 0.723333
0.745351 0.744874 0.730363
0.976284 0.751418 0.736736
0.091694 0.972757 0.733209
0.266265 0.977563 0.738015
0.513946 0.984381 0.744833
0.769745 0.991422 0.751874
0.997697 0.997697 0.758149
0.008497 0.008488 0.890984
0.181626 0.013261 0.895751
0.426999 0.020026 0.902506
0.680025 0.027007 0.909472
0.915969 0.033521 0.915969
0.025188 0.198804 0.907535
0.198513 0.203608 0.912309
0.444231 0.210411 0.919076
0.697713 0.217434 0.926058
0.932526 0.223949 0.932526
0.048282 0.460937 0.930334
0.221927 0.465798 0.935121
0.468163 0.472667 0.941907
0.722282 0.479763 0.948910
0.955335 0.486288 0.955335
0.071977 0.728144 0.953578
0.246065 0.733088 0.958383
0.492995 0.740051 0.965194
0.747930 0.747247 0.972227
0.978593 0.753787 0.978593
0.094067 0.975062 0.975062
0.268700 0.979869 0.979869
0.516475 0.986690 0.986690
0.772382 0.993734 0.993734
1.000000 1.000000 1.000000
