library/cube/Silver_Keep_000.cube
# CINEGRADE LAB — Premium Cinematic LUT
# Title: Silver Keep
# Category: Bleach Bypass
# Description: Silver retention, high contrast, desaturated bleach bypass film process
# Mood: Gritty, stark, intense
# Variant: 1
# Generated: 2026-05-21T16:12:55.799682
TITLE "Silver Keep"
LUT_3D_SIZE 5
0.000000 0.000000 0.000000
0.126515 0.011323 0.009538
0.369653 0.033021 0.027784
0.605343 0.053977 0.045365
0.711214 0.063305 0.053150
0.044075 0.162802 0.032088
0.171978 0.174333 0.041627
0.417457 0.196260 0.059872
0.655182 0.217420 0.077453
0.761776 0.226897 0.085238
0.129544 0.475714 0.093467
0.258690 0.487488 0.103005
0.506182 0.509659 0.121251
0.745621 0.531030 0.138832
0.852814 0.540661 0.146617
0.213130 0.778596 0.152612
0.343242 0.790454 0.162151
0.592291 0.812703 0.180396
0.833003 0.834120 0.197977
0.939153 0.843750 0.205762
0.251347 0.913670 0.178800
0.382092 0.925410 0.188338
0.632195 0.947538 0.206584
0.873695 0.968816 0.224165
0.976328 0.978279 0.231950
0.004404 0.003842 0.137837
0.131071 0.015175 0.147375
0.374464 0.036885 0.165621
0.610377 0.057852 0.183202
0.716330 0.067187 0.190987
0.048575 0.166717 0.169925
0.176606 0.178252 0.179463
0.422298 0.200185 0.197709
0.660206 0.221350 0.215290
0.766862 0.230827 0.223075
0.134152 0.479715 0.231304
0.263399 0.491483 0.240842
0.511061 0.513650 0.259088
0.750641 0.535016 0.276669
0.857874 0.544639 0.284454
0.217811 0.782627 0.290449
0.347998 0.794471 0.299987
0.597174 0.816707 0.318233
0.837984 0.838110 0.335814
0.943841 0.847724 0.343599
0.256046 0.917663 0.316637
0.386844 0.929384 0.326175
0.637031 0.951494 0.344421
0.878589 0.972751 0.362002
0.980669 0.982193 0.369787
0.012844 0.011196 0.401495
0.139671 0.022542 0.411033
0.383327 0.044269 0.429278
0.619471 0.065250 0.446860
0.725515 0.074594 0.454645
0.057149 0.174155 0.433583
0.185314 0.185697 0.443121
0.431226 0.207639 0.461367
0.669322 0.228811 0.478948
0.776047 0.238292 0.486733
0.142864 0.487246 0.494961
0.272219 0.499012 0.504500
0.520055 0.521177 0.522745
0.759779 0.542540 0.540327
0.867057 0.552156 0.548111
0.226620 0.790195 0.554107
0.356888 0.802027 0.563645
0.606192 0.824250 0.581891
0.847103 0.845640 0.599472
0.952426 0.855237 0.607257
0.264894 0.925195 0.580295
0.395747 0.936899 0.589833
0.646019 0.958990 0.608078
0.887636 0.980227 0.625660
0.988800 0.989647 0.633445
0.020995 0.018289 0.655557
0.147979 0.029647 0.665096
0.391893 0.051390 0.683341
0.628263 0.072385 0.700923
0.734395 0.081737 0.708707
0.065428 0.181328 0.687645
0.193725 0.192877 0.697184
0.439851 0.214827 0.715429
0.678131 0.236006 0.733011
0.784921 0.245489 0.740795
0.151275 0.494508 0.749024
0.280735 0.506270 0.758563
0.528739 0.528433 0.776808
0.768603 0.549792 0.794390
0.875922 0.559401 0.802174
0.235123 0.797489 0.808169
0.365468 0.809308 0.817708
0.614895 0.831519 0.835953
0.855901 0.852895 0.853535
0.960661 0.862475 0.861319
0.273430 0.932452 0.834357
0.404335 0.944137 0.843896
0.654687 0.966209 0.862141
0.896357 0.987426 0.879723
0.996575 0.996824 0.887507
0.024627 0.021436 0.768050
0.151752 0.032802 0.777588
0.395905 0.054555 0.795834
0.632484 0.075559 0.813415
0.738689 0.084916 0.821200
0.069141 0.184539 0.800138
0.197555 0.196090 0.809677
0.443879 0.218045 0.827922
0.682328 0.239227 0.845503
0.789172 0.248708 0.853288
0.155079 0.497792 0.861517
0.284631 0.509548 0.871055
0.532790 0.531706 0.889301
0.772781 0.553058 0.906882
0.880133 0.562657 0.914667
0.238985 0.800794 0.920662
0.369397 0.812598 0.930201
0.618936 0.834794 0.948446
0.860027 0.856154 0.966027
0.964441 0.865717 0.973812
0.277300 0.935712 0.946850
0.408249 0.947377 0.956388
0.658671 0.969429 0.974634
0.900386 0.990625 0.992215
1.000000 1.000000 1.000000
