library/cube/Silver_Keep_000.cube
# CINEGRADE LAB — Premium Cinematic LUT
# Title: Silver Keep
# Category: Bleach Bypass
# Description: Silver retention, high contrast, desaturated bleach bypass film process
# Mood: Gritty, stark, intense
# Variant: 1
# Generated: 2026-05-21T16:12:55.799682
TITLE "Silver Keep"
LUT_3D_SIZE 33
0.000000 0.000000 0.000000
0.000000 0.000000 0.000000
0.000000 0.000000 0.000000
0.000001 0.000000 0.000000
0.000001 0.000000 0.000000
0.029918 0.002680 0.002258
0.062903 0.005633 0.004746
0.094982 0.008503 0.007164
0.126515 0.011323 0.009538
0.157661 0.014107 0.011882
0.188508 0.016863 0.014201
0.219116 0.019597 0.016501
0.249524 0.022311 0.018783
0.279761 0.025009 0.021051
0.309850 0.027692 0.023307
0.339810 0.030362 0.025550
0.369653 0.033021 0.027784
0.399393 0.035670 0.030008
0.429039 0.038308 0.032223
0.458599 0.040938 0.034431
0.488082 0.043560 0.036631
0.517492 0.046175 0.038824
0.546836 0.048782 0.041010
0.576118 0.051382 0.043191
0.605343 0.053977 0.045365
0.634514 0.056565 0.047535
0.663635 0.059148 0.049698
0.692709 0.061726 0.051858
0.710224 0.063273 0.053150
0.710473 0.063281 0.053150
0.710722 0.063289 0.053150
0.710968 0.063297 0.053150
0.711214 0.063305 0.053150
0.000001 0.000000 0.000000
0.000001 0.000000 0.000000
0.000002 0.000000 0.000000
0.000003 0.000000 0.000000
0.000004 0.000000 0.000000
0.029961 0.002681 0.002258
0.062990 0.005635 0.004746
0.095111 0.008507 0.007164
0.126685 0.011329 0.009538
0.157871 0.014114 0.011882
0.188758 0.016872 0.014201
0.219404 0.019606 0.016501
0.249849 0.022322 0.018783
0.280123 0.025021 0.021051
0.310249 0.027705 0.023307
0.340244 0.030377 0.025550
0.370122 0.033037 0.027784
0.399897 0.035686 0.030008
0.429576 0.038326 0.032223
0.459170 0.040958 0.034431
0.488685 0.043580 0.036631
0.518128 0.046196 0.038824
0.547503 0.048804 0.041010
0.576817 0.051406 0.043191
0.606072 0.054001 0.045365
0.635274 0.056591 0.047535
0.664425 0.059175 0.049698
0.693528 0.061753 0.051858
0.711058 0.063300 0.053150
0.711303 0.063308 0.053150
0.711547 0.063316 0.053150
0.711789 0.063324 0.053150
0.712030 0.063332 0.053150
0.000003 0.000000 0.000000
0.000004 0.000000 0.000000
0.000005 0.000000 0.000000
0.000007 0.000000 0.000000
0.000008 0.000000 0.000000
0.030005 0.002682 0.002258
0.063077 0.005638 0.004746
0.095240 0.008511 0.007164
0.126854 0.011334 0.009538
0.158079 0.014121 0.011882
0.189004 0.016880 0.014201
0.219687 0.019616 0.016501
0.250169 0.022333 0.018783
0.280480 0.025033 0.021051
0.310641 0.027718 0.023307
0.340671 0.030391 0.025550
0.370584 0.033052 0.027784
0.400392 0.035703 0.030008
0.430105 0.038344 0.032223
0.459731 0.040976 0.034431
0.489279 0.043600 0.036631
0.518753 0.046216 0.038824
0.548159 0.048826 0.041010
0.577503 0.051428 0.043191
0.606789 0.054025 0.045365
0.636020 0.056615 0.047535
0.665200 0.059200 0.049698
0.694332 0.061779 0.051858
0.711877 0.063327 0.053150
0.712117 0.063335 0.053150
0.712356 0.063343 0.053150
0.712594 0.063350 0.053150
0.712830 0.063358 0.053150
0.000007 0.000000 0.000000
0.000009 0.000000 0.000000
0.000010 0.000000 0.000000
0.000012 0.000000 0.000000
0.000014 0.000000 0.000000
0.030050 0.002684 0.002258
0.063164 0.005641 0.004746
0.095367 0.008516 0.007164
0.127021 0.011340 0.009538
0.158284 0.014128 0.011882
0.189247 0.016888 0.014201
0.219967 0.019625 0.016501
0.250486 0.022343 0.018783
0.280831 0.025044 0.021051
0.311027 0.027731 0.023307
0.341092 0.030405 0.025550
0.371038 0.033067 0.027784
0.400879 0.035719 0.030008
0.430625 0.038361 0.032223
0.460283 0.040994 0.034431
0.489862 0.043619 0.036631
0.519367 0.046237 0.038824
0.548804 0.048847 0.041010
0.578178 0.051450 0.043191
0.607493 0.054048 0.045365
0.636752 0.056639 0.047535
0.665961 0.059225 0.049698
0.695120 0.061805 0.051858
0.712680 0.063353 0.053150
0.712916 0.063361 0.053150
0.713150 0.063368 0.053150
0.713383 0.063375 0.053150
0.713615 0.063383 0.053150
0.000013 0.000000 0.000000
0.000015 0.000000 0.000000
0.000017 0.000000 0.000000
0.000019 0.000000 0.000000
0.000022 0.000000 0.000000
0.030095 0.002685 0.002258
0.063251 0.005644 0.004746
0.095494 0.008520 0.007164
0.127187 0.011345 0.009538
0.158488 0.014135 0.011882
0.189487 0.016896 0.014201
0.220244 0.019634 0.016501
0.250797 0.022353 0.018783
0.281178 0.025056 0.021051
0.311408 0.027744 0.023307
0.341506 0.030419 0.025550
0.371485 0.033082 0.027784
0.401359 0.035735 0.030008
0.431136 0.038378 0.032223
0.460826 0.041012 0.034431
0.490435 0.043638 0.036631
0.519970 0.046256 0.038824
0.549437 0.048867 0.041010
0.578840 0.051472 0.043191
0.608183 0.054070 0.045365
0.637471 0.056662 0.047535
0.666707 0.059249 0.049698
0.695894 0.061830 0.051858
0.713468 0.063378 0.053150
0.713699 0.063386 0.053150
0.713929 0.063393 0.053150
0.714157 0.063400 0.053150
0.714385 0.063407 0.053150
0.010405 0.038490 0.007597
0.010411 0.038496 0.007597
0.010418 0.038501 0.007597
0.010424 0.038507 0.007597
0.010431 0.038512 0.007597
0.040546 0.041204 0.009855
0.073746 0.044169 0.012343
0.106032 0.047052 0.014761
0.137766 0.049884 0.017135
0.169107 0.052679 0.019479
0.200147 0.055447 0.021798
0.230942 0.058191 0.024098
0.261534 0.060917 0.026380
0.291952 0.063625 0.028648
0.322220 0.066319 0.030904
0.352353 0.069000 0.033147
0.382369 0.071669 0.035381
0.412277 0.074328 0.037605
0.442089 0.076977 0.039820
0.471813 0.079617 0.042028
0.501455 0.082248 0.044228
0.531023 0.084872 0.046421
0.560522 0.087489 0.048607
0.589957 0.090099 0.050788
0.619332 0.092702 0.052962
0.648651 0.095300 0.055131
0.677917 0.097891 0.057295
0.707133 0.100478 0.059454
0.724725 0.102031 0.060747
0.724954 0.102042 0.060747
0.725183 0.102054 0.060747
0.725410 0.102065 0.060747
0.725636 0.102076 0.060747
0.021882 0.080935 0.015967
0.021893 0.080946 0.015967
0.021904 0.080957 0.015967
0.021915 0.080968 0.015967
0.021926 0.080979 0.015967
0.052081 0.083677 0.018225
0.085326 0.086650 0.020713
0.117654 0.089539 0.023131
0.149429 0.092378 0.025505
0.180810 0.095180 0.027849
0.211889 0.097954 0.030168
0.242723 0.100705 0.032467
0.273353 0.103437 0.034750
0.303808 0.106152 0.037018
0.334112 0.108852 0.039273
0.364281 0.111539 0.041517
0.394332 0.114214 0.043751
0.424275 0.116879 0.045975
0.454121 0.119533 0.048190
0.483878 0.122179 0.050397
0.513553 0.124816 0.052597
0.543154 0.127446 0.054791
0.572685 0.130068 0.056977
0.602151 0.132684 0.059157
0.631556 0.135293 0.061332
0.660905 0.137896 0.063501
0.690201 0.140493 0.065665
0.719447 0.143085 0.067824
0.737055 0.144643 0.069117
0.737284 0.144659 0.069117
0.737511 0.144674 0.069117
0.737737 0.144689 0.069117
0.737961 0.144705 0.069117
0.033064 0.122218 0.024100
0.033079 0.122234 0.024100
0.033094 0.122251 0.024100
0.033110 0.122267 0.024100
0.033125 0.122283 0.024100
0.063320 0.124988 0.026358
0.096607 0.127966 0.028846
0.128976 0.130862 0.031264
0.160791 0.133707 0.033638
0.192212 0.136515 0.035982
0.223329 0.139295 0.038301
0.254201 0.142052 0.040601
0.284867 0.144790 0.042883
0.315358 0.147510 0.045151
0.345697 0.150216 0.047406
0.375902 0.152909 0.049650
0.405986 0.155590 0.051884
0.435963 0.158260 0.054108
0.465842 0.160920 0.056323
0.495632 0.163571 0.058531
0.525339 0.166214 0.060731
0.554971 0.168849 0.062924
0.584533 0.171476 0.065110
0.614029 0.174097 0.067291
0.643465 0.176711 0.069465
0.672843 0.179319 0.071634
0.702168 0.181921 0.073798
0.731442 0.184517 0.075957
0.749066 0.186080 0.077250
0.749293 0.186099 0.077250
0.749519 0.186119 0.077250
0.749743 0.186138 0.077250
0.749966 0.186157 0.077250
0.044075 0.162802 0.032088
0.044094 0.162823 0.032088
0.044113 0.162844 0.032088
0.044132 0.162866 0.032088
0.044152 0.162886 0.032088
0.074386 0.165597 0.034346
0.107715 0.168581 0.036834
0.140124 0.171483 0.039252
0.171978 0.174333 0.041627
0.203437 0.177147 0.043970
0.234591 0.179933 0.046289
0.265499 0.182696 0.048589
0.296201 0.185438 0.050871
0.326728 0.188164 0.053139
0.357101 0.190876 0.055395
0.387339 0.193574 0.057638
0.417457 0.196260 0.059872
0.447467 0.198935 0.062096
0.477378 0.201600 0.064311
0.507199 0.204256 0.066519
0.536938 0.206904 0.068719
0.566600 0.209544 0.070912
0.596191 0.212176 0.073098
0.625717 0.214801 0.075279
0.655182 0.217420 0.077453
0.684588 0.220032 0.079623
0.713941 0.222639 0.081787
0.743242 0.225240 0.083946
0.760882 0.226807 0.085238
0.761108 0.226830 0.085238
0.761332 0.226852 0.085238
0.761554 0.226875 0.085238
0.761776 0.226897 0.085238
0.054968 0.202890 0.039972
0.054991 0.202916 0.039972
0.055014 0.202941 0.039972
0.055037 0.202967 0.039972
0.055060 0.202992 0.039972
0.085332 0.205708 0.042230
0.118702 0.208698 0.044718
0.151150 0.211605 0.047136
0.183042 0.214461 0.049510
0.214538 0.217280 0.051854
0.245729 0.220071 0.054173
0.276673 0.222839 0.056473
0.307410 0.225587 0.058755
0.337970 0.228318 0.061023
0.368377 0.231034 0.063278
0.398649 0.233737 0.065522
0.428799 0.236427 0.067756
0.458840 0.239107 0.069980
0.488782 0.241777 0.072195
0.518634 0.244438 0.074403
0.548403 0.247090 0.076603
0.578095 0.249734 0.078796
0.607715 0.252371 0.080982
0.637270 0.255001 0.083163
0.666762 0.257624 0.085337
0.696196 0.260240 0.087506
0.725576 0.262851 0.089670
0.754904 0.265456 0.091829
0.772558 0.267027 0.093122
0.772782 0.267053 0.093122
0.773004 0.267078 0.093122
0.773225 0.267104 0.093122
0.773444 0.267129 0.093122
0.065775 0.242595 0.047774
0.065801 0.242626 0.047774
0.065828 0.242655 0.047774
0.065855 0.242685 0.047774
0.065882 0.242714 0.047774
0.096190 0.245435 0.050032
0.129599 0.248431 0.052520
0.162086 0.251343 0.054938
0.194015 0.254203 0.057312
0.225548 0.257028 0.059656
0.256774 0.259823 0.061975
0.287752 0.262596 0.064275
0.318523 0.265348 0.066557
0.349117 0.268084 0.068825
0.379556 0.270805 0.071081
0.409860 0.273512 0.073324
0.440042 0.276207 0.075558
0.470114 0.278892 0.077782
0.500086 0.281566 0.079997
0.529968 0.284231 0.082205
0.559766 0.286887 0.084405
0.589486 0.289535 0.086598
0.619135 0.292176 0.088784
0.648717 0.294810 0.090965
0.678237 0.297437 0.093139
0.707697 0.300057 0.095309
0.737103 0.302672 0.097472
0.766457 0.305281 0.099632
0.784126 0.306854 0.100924
0.784347 0.306883 0.100924
0.784567 0.306912 0.100924
0.784786 0.306940 0.100924
0.785003 0.306968 0.100924
0.076513 0.281992 0.055509
0.076544 0.282026 0.055509
0.076574 0.282060 0.055509
0.076604 0.282093 0.055509
0.076634 0.282126 0.055509
0.106979 0.284852 0.057768
0.140427 0.287852 0.060256
0.172951 0.290769 0.062673
0.204916 0.293634 0.065048
0.236484 0.296463 0.067391
0.267744 0.299263 0.069711
0.298756 0.302040 0.072010
0.329560 0.304797 0.074293
0.360186 0.307537 0.076561
0.390658 0.310262 0.078816
0.420992 0.312973 0.081060
0.451205 0.315673 0.083293
0.481307 0.318361 0.085517
0.511309 0.321039 0.087733
0.541219 0.323708 0.089940
0.571045 0.326368 0.092140
0.600794 0.329020 0.094333
0.630470 0.331665 0.096520
0.660079 0.334302 0.098700
0.689624 0.336932 0.100875
0.719111 0.339556 0.103044
0.748542 0.342174 0.105208
0.777920 0.344787 0.107367
0.795603 0.346363 0.108659
0.795822 0.346394 0.108659
0.796040 0.346425 0.108659
0.796257 0.346456 0.108659
0.796472 0.346486 0.108659
0.087197 0.321130 0.063188
0.087231 0.321168 0.063188
0.087264 0.321205 0.063188
0.087298 0.321242 0.063188
0.087331 0.321278 0.063188
0.117711 0.324008 0.065447
0.151197 0.327013 0.067935
0.183757 0.329934 0.070352
0.215758 0.332804 0.072727
0.247359 0.335637 0.075070
0.278653 0.338441 0.077390
0.309698 0.341222 0.079689
0.340534 0.343983 0.081972
0.371192 0.346727 0.084240
0.401694 0.349456 0.086495
0.432059 0.352171 0.088739
0.462301 0.354874 0.090972
0.492432 0.357566 0.093196
0.522463 0.360248 0.095412
0.552401 0.362920 0.097619
0.582255 0.365584 0.099819
0.612030 0.368239 0.102012
0.641733 0.370887 0.104199
0.671368 0.373527 0.106379
0.700939 0.376161 0.108554
0.730450 0.378788 0.110723
0.759905 0.381409 0.112887
0.789308 0.384025 0.115046
0.807004 0.385604 0.116338
0.807221 0.385637 0.116338
0.807436 0.385670 0.116338
0.807650 0.385703 0.116338
0.807863 0.385735 0.116338
0.097836 0.360046 0.070818
0.097873 0.360087 0.070818
0.097909 0.360128 0.070818
0.097946 0.360168 0.070818
0.097982 0.360207 0.070818
0.128396 0.362942 0.073076
0.161919 0.365950 0.075564
0.194515 0.368875 0.077982
0.226549 0.371749 0.080357
0.258185 0.374586 0.082700
0.289511 0.377394 0.085019
0.320588 0.380179 0.087319
0.351455 0.382943 0.089601
0.382144 0.385691 0.091870
0.412676 0.388423 0.094125
0.443070 0.391142 0.096369
0.473341 0.393848 0.098602
0.503500 0.396543 0.100826
0.533559 0.399228 0.103042
0.563524 0.401904 0.105249
0.593404 0.404571 0.107449
0.623206 0.407229 0.109642
0.652934 0.409880 0.111829
0.682593 0.412524 0.114009
0.712189 0.415160 0.116184
0.741725 0.417790 0.118353
0.771203 0.420414 0.120517
0.800629 0.423032 0.122676
0.818337 0.424614 0.123968
0.818552 0.424649 0.123968
0.818765 0.424684 0.123968
0.818976 0.424718 0.123968
0.819186 0.424752 0.123968
0.108437 0.398769 0.078405
0.108476 0.398812 0.078405
0.108516 0.398856 0.078405
0.108555 0.398899 0.078405
0.108595 0.398941 0.078405
0.139041 0.401679 0.080663
0.172600 0.404692 0.083151
0.205230 0.407620 0.085569
0.237299 0.410498 0.087943
0.268966 0.413338 0.090287
0.300325 0.416150 0.092606
0.331432 0.418938 0.094906
0.362330 0.421706 0.097188
0.393048 0.424456 0.099456
0.423610 0.427192 0.101712
0.454032 0.429914 0.103955
0.484331 0.432623 0.106189
0.514518 0.435321 0.108413
0.544603 0.438009 0.110628
0.574594 0.440688 0.112836
0.604500 0.443357 0.115036
0.634327 0.446019 0.117229
0.664080 0.448672 0.119415
0.693764 0.451318 0.121596
0.723383 0.453957 0.123770
0.752942 0.456590 0.125940
0.782443 0.459216 0.128104
0.811891 0.461837 0.130263
0.829611 0.463420 0.131555
0.829823 0.463457 0.131555
0.830033 0.463494 0.131555
0.830242 0.463529 0.131555
0.830449 0.463565 0.131555
0.119005 0.437319 0.085953
0.119047 0.437365 0.085953
0.119089 0.437411 0.085953
0.119131 0.437457 0.085953
0.119173 0.437502 0.085953
0.149653 0.440243 0.088212
0.183246 0.443259 0.090700
0.215910 0.446191 0.093117
0.248011 0.449072 0.095492
0.279710 0.451915 0.097835
0.311099 0.454730 0.100155
0.342237 0.457521 0.102454
0.373164 0.460292 0.104737
0.403911 0.463046 0.107005
0.434501 0.465784 0.109260
0.464951 0.468509 0.111504
0.495277 0.471221 0.113737
0.525490 0.473922 0.115961
0.555601 0.476612 0.118177
0.585618 0.479293 0.120384
0.615549 0.481966 0.122584
0.645400 0.484629 0.124777
0.675176 0.487285 0.126964
0.704883 0.489933 0.129144
0.734526 0.492575 0.131319
0.764107 0.495210 0.133488
0.793630 0.497838 0.135652
0.823099 0.500461 0.137811
0.840830 0.502046 0.139103
0.841039 0.502084 0.139103
0.841247 0.502122 0.139103
0.841452 0.502159 0.139103
0.841657 0.502195 0.139103
0.129544 0.475714 0.093467
0.129589 0.475763 0.093467
0.129634 0.475811 0.093467
0.129679 0.475859 0.093467
0.129723 0.475906 0.093467
0.160234 0.478651 0.095725
0.193861 0.481670 0.098213
0.226558 0.484605 0.100631
0.258690 0.487488 0.103005
0.290420 0.490335 0.105349
0.321839 0.493153 0.107668
0.353006 0.495946 0.109968
0.383962 0.498720 0.112250
0.414737 0.501476 0.114518
0.445354 0.504217 0.116774
0.475831 0.506944 0.119017
0.506182 0.509659 0.121251
0.536421 0.512362 0.123475
0.566557 0.515055 0.125690
0.596599 0.517738 0.127898
0.626554 0.520413 0.130098
0.656428 0.523078 0.132291
0.686228 0.525736 0.134477
0.715957 0.528387 0.136658
0.745621 0.531030 0.138832
0.775224 0.533667 0.141001
0.804768 0.536297 0.143165
0.834257 0.538921 0.145324
0.852000 0.540508 0.146617
0.852206 0.540547 0.146617
0.852410 0.540585 0.146617
0.852613 0.540623 0.146617
0.852814 0.540661 0.146617
0.140058 0.513969 0.100949
0.140106 0.514020 0.100949
0.140153 0.514070 0.100949
0.140200 0.514120 0.100949
0.140247 0.514169 0.100949
0.170789 0.516916 0.103207
0.204449 0.519938 0.105695
0.237177 0.522876 0.108113
0.269340 0.525762 0.110487
0.301100 0.528611 0.112831
0.332548 0.531431 0.115150
0.363743 0.534228 0.117449
0.394727 0.537004 0.119732
0.425528 0.539762 0.122000
0.456172 0.542505 0.124255
0.486674 0.545234 0.126499
0.517052 0.547951 0.128733
0.547315 0.550657 0.130957
0.577475 0.553351 0.133172
0.607541 0.556037 0.135379
0.637519 0.558713 0.137579
0.667416 0.561380 0.139773
0.697237 0.564040 0.141959
0.726988 0.566692 0.144139
0.756674 0.569337 0.146314
0.786297 0.571975 0.148483
0.815861 0.574607 0.150647
0.845370 0.577232 0.152806
0.863123 0.578820 0.154099
0.863326 0.578860 0.154099
0.863527 0.578899 0.154099
0.863726 0.578938 0.154099
0.863924 0.578976 0.154099
0.150550 0.552095 0.108401
0.150600 0.552148 0.108401
0.150649 0.552200 0.108401
0.150699 0.552251 0.108401
0.150748 0.552302 0.108401
0.181319 0.555052 0.110660
0.215012 0.558076 0.113148
0.247770 0.561016 0.115565
0.279963 0.563905 0.117940
0.311752 0.566756 0.120283
0.343228 0.569578 0.122603
0.374451 0.572376 0.124902
0.405461 0.575155 0.127185
0.436289 0.577915 0.129453
0.466958 0.580660 0.131708
0.497485 0.583391 0.133952
0.527887 0.586110 0.136185
0.558174 0.588817 0.138409
0.588358 0.591513 0.140625
0.618446 0.594200 0.142832
0.648446 0.596878 0.145032
0.678365 0.599547 0.147225
0.708208 0.602208 0.149412
0.737980 0.604861 0.151592
0.767685 0.607507 0.153767
0.797328 0.610147 0.155936
0.826912 0.612780 0.158100
0.856440 0.615406 0.160259
0.874202 0.616995 0.161551
0.874402 0.617035 0.161551
0.874599 0.617075 0.161551
0.874795 0.617114 0.161551
0.874990 0.617152 0.161551
0.161022 0.590102 0.115827
0.161074 0.590156 0.115827
0.161125 0.590209 0.115827
0.161177 0.590262 0.115827
0.161228 0.590314 0.115827
0.191828 0.593066 0.118086
0.225552 0.596093 0.120574
0.258340 0.599035 0.122991
0.290562 0.601925 0.125366
0.322378 0.604779 0.127709
0.353882 0.607603 0.130029
0.385131 0.610403 0.132328
0.416167 0.613183 0.134611
0.447021 0.615945 0.136879
0.477714 0.618691 0.139134
0.508266 0.621424 0.141378
0.538691 0.624144 0.143611
0.569001 0.626852 0.145835
0.599207 0.629550 0.148051
0.629317 0.632238 0.150258
0.659339 0.634917 0.152458
0.689279 0.637587 0.154651
0.719142 0.640249 0.156838
0.748934 0.642904 0.159018
0.778659 0.645551 0.161193
0.808320 0.648191 0.163362
0.837922 0.650825 0.165526
0.867468 0.653453 0.167685
0.885240 0.655042 0.168977
0.885436 0.655082 0.168977
0.885630 0.655122 0.168977
0.885822 0.655161 0.168977
0.886013 0.655199 0.168977
0.171475 0.627998 0.123228
0.171529 0.628053 0.123228
0.171583 0.628108 0.123228
0.171636 0.628161 0.123228
0.171690 0.628215 0.123228
0.202317 0.630968 0.125486
0.236071 0.633997 0.127974
0.268889 0.636941 0.130392
0.301138 0.639833 0.132767
0.332982 0.642688 0.135110
0.364511 0.645513 0.137429
0.395786 0.648315 0.139729
0.426847 0.651096 0.142011
0.457725 0.653859 0.144280
0.488442 0.656607 0.146535
0.519017 0.659341 0.148779
0.549465 0.662062 0.151012
0.579798 0.664772 0.153236
0.610025 0.667471 0.155452
0.640156 0.670160 0.157659
0.670199 0.672840 0.159859
0.700158 0.675511 0.162052
0.730041 0.678174 0.164239
0.759852 0.680829 0.166419
0.789595 0.683477 0.168594
0.819275 0.686118 0.170763
0.848895 0.688752 0.172927
0.878458 0.691380 0.175086
0.896238 0.692969 0.176378
0.896430 0.693009 0.176378
0.896621 0.693049 0.176378
0.896809 0.693088 0.176378
0.896996 0.693126 0.176378
0.181911 0.665789 0.130606
0.181967 0.665846 0.130606
0.182023 0.665901 0.130606
0.182078 0.665956 0.130606
0.182133 0.666010 0.130606
0.212788 0.668765 0.132864
0.246571 0.671795 0.135352
0.279416 0.674740 0.137770
0.311693 0.677634 0.140144
0.343563 0.680490 0.142488
0.375118 0.683317 0.144807
0.406418 0.686119 0.147106
0.437503 0.688902 0.149389
0.468404 0.691666 0.151657
0.499144 0.694415 0.153912
0.529742 0.697150 0.156156
0.560211 0.699872 0.158390
0.590565 0.702582 0.160614
0.620813 0.705282 0.162829
0.650965 0.707971 0.165036
0.681026 0.710652 0.167236
0.711005 0.713323 0.169430
0.740907 0.715987 0.171616
0.770736 0.718642 0.173796
0.800497 0.721291 0.175971
0.830194 0.723932 0.178140
0.859830 0.726566 0.180304
0.889409 0.729194 0.182463
0.907198 0.730784 0.183756
0.907386 0.730824 0.183756
0.907573 0.730863 0.183756
0.907758 0.730901 0.183756
0.907941 0.730938 0.183756
0.192332 0.703483 0.137961
0.192390 0.703540 0.137961
0.192447 0.703596 0.137961
0.192504 0.703651 0.137961
0.192561 0.703706 0.137961
0.223242 0.706462 0.140220
0.257053 0.709493 0.142708
0.289925 0.712440 0.145125
0.322228 0.715334 0.147500
0.354123 0.718191 0.149843
0.385703 0.721019 0.152163
0.417026 0.723823 0.154462
0.448135 0.726606 0.156745
0.479058 0.729371 0.159013
0.509821 0.732120 0.161268
0.540440 0.734856 0.163512
0.570930 0.737578 0.165745
0.601304 0.740289 0.167969
0.631572 0.742989 0.170185
0.661743 0.745679 0.172392
0.691824 0.748360 0.174592
0.721821 0.751032 0.176785
0.751740 0.753695 0.178972
0.781587 0.756351 0.181152
0.811365 0.758999 0.183327
0.841078 0.761640 0.185496
0.870730 0.764275 0.187660
0.900325 0.766903 0.189819
0.917831 0.768492 0.191111
0.918005 0.768531 0.191111
0.918178 0.768569 0.191111
0.918348 0.768607 0.191111
0.918516 0.768643 0.191111
0.202738 0.741084 0.145296
0.202797 0.741141 0.145296
0.202856 0.741197 0.145296
0.202915 0.741253 0.145296
0.202973 0.741308 0.145296
0.233679 0.744065 0.147555
0.267518 0.747097 0.150043
0.300416 0.750044 0.152460
0.332744 0.752939 0.154835
0.364663 0.755797 0.157178
0.396267 0.758626 0.159498
0.427613 0.761430 0.161797
0.458744 0.764213 0.164080
0.489690 0.766979 0.166348
0.520473 0.769729 0.168603
0.551113 0.772464 0.170847
0.581623 0.775187 0.173080
0.612017 0.777898 0.175304
0.642304 0.780598 0.177520
0.672493 0.783288 0.179727
0.702592 0.785969 0.181927
0.732607 0.788641 0.184120
0.762543 0.791304 0.186307
0.792406 0.793960 0.188487
0.822200 0.796608 0.190662
0.851929 0.799249 0.192831
0.881596 0.801883 0.194995
0.911195 0.804510 0.197154
0.928249 0.806098 0.198446
0.928410 0.806137 0.198446
0.928569 0.806174 0.198446
0.928727 0.806210 0.198446
0.928882 0.806246 0.198446
0.213130 0.778596 0.152612
0.213191 0.778653 0.152612
0.213251 0.778709 0.152612
0.213311 0.778765 0.152612
0.213371 0.778820 0.152612
0.244102 0.781578 0.154870
0.277967 0.784610 0.157358
0.310890 0.787558 0.159776
0.343242 0.790454 0.162151
0.375185 0.793312 0.164494
0.406811 0.796141 0.166813
0.438179 0.798945 0.169113
0.469332 0.801729 0.171395
0.500298 0.804494 0.173663
0.531102 0.807244 0.175919
0.561761 0.809980 0.178162
0.592291 0.812703 0.180396
0.622703 0.815413 0.182620
0.653009 0.818113 0.184835
0.683216 0.820803 0.187043
0.713331 0.823483 0.189243
0.743363 0.826155 0.191436
0.773315 0.828818 0.193622
0.803194 0.831473 0.195803
0.833003 0.834120 0.197977
0.862746 0.836761 0.200147
0.892428 0.839394 0.202311
0.921572 0.842021 0.204470
0.938575 0.843608 0.205762
0.938723 0.843645 0.205762
0.938868 0.843681 0.205762
0.939012 0.843716 0.205762
0.939153 0.843750 0.205762
0.223509 0.816023 0.159909
0.223571 0.816080 0.159909
0.223633 0.816136 0.159909
0.223694 0.816192 0.159909
0.223755 0.816246 0.159909
0.254509 0.819004 0.162167
0.288399 0.822037 0.164655
0.321347 0.824985 0.167073
0.353722 0.827881 0.169448
0.385688 0.830739 0.171791
0.417336 0.833568 0.174110
0.448725 0.836372 0.176410
0.479898 0.839156 0.178693
0.510885 0.841921 0.180961
0.541708 0.844671 0.183216
0.572386 0.847406 0.185460
0.602934 0.850128 0.187693
0.633365 0.852839 0.189917
0.663687 0.855538 0.192133
0.693911 0.858228 0.194340
0.724043 0.860907 0.196540
0.754090 0.863578 0.198733
0.784058 0.866240 0.200920
0.813951 0.868894 0.203100
0.843775 0.871541 0.205275
0.873532 0.874180 0.207444
0.903227 0.876813 0.209608
0.931858 0.879439 0.211767
0.948807 0.881025 0.213059
0.948940 0.881060 0.213059
0.949072 0.881095 0.213059
0.949201 0.881128 0.213059
0.949328 0.881161 0.213059
0.233876 0.853369 0.167189
0.233939 0.853425 0.167189
0.234001 0.853481 0.167189
0.234063 0.853536 0.167189
0.234125 0.853590 0.167189
0.264902 0.856348 0.169447
0.298817 0.859381 0.171935
0.331788 0.862329 0.174353
0.364186 0.865224 0.176727
0.396173 0.868082 0.179071
0.427842 0.870911 0.181390
0.459252 0.873715 0.183690
0.490445 0.876498 0.185972
0.521450 0.879263 0.188240
0.552292 0.882012 0.190496
0.582988 0.884747 0.192739
0.613554 0.887468 0.194973
0.644001 0.890178 0.197197
0.674340 0.892877 0.199412
0.704580 0.895565 0.201620
