library/cube/Silver_Keep_000.cube
# CINEGRADE LAB — Premium Cinematic LUT
# Title: Silver Keep
# Category: Bleach Bypass
# Description: Silver retention, high contrast, desaturated bleach bypass film process
# Mood: Gritty, stark, intense
# Variant: 1
# Generated: 2026-05-21T16:12:55.799682
TITLE "Silver Keep"
LUT_3D_SIZE 9
0.000000 0.000000 0.000000
0.000001 0.000000 0.000000
0.126515 0.011323 0.009538
0.249524 0.022311 0.018783
0.369653 0.033021 0.027784
0.488082 0.043560 0.036631
0.605343 0.053977 0.045365
0.710224 0.063273 0.053150
0.711214 0.063305 0.053150
0.000013 0.000000 0.000000
0.000022 0.000000 0.000000
0.127187 0.011345 0.009538
0.250797 0.022353 0.018783
0.371485 0.033082 0.027784
0.490435 0.043638 0.036631
0.608183 0.054070 0.045365
0.713468 0.063378 0.053150
0.714385 0.063407 0.053150
0.044075 0.162802 0.032088
0.044152 0.162886 0.032088
0.171978 0.174333 0.041627
0.296201 0.185438 0.050871
0.417457 0.196260 0.059872
0.536938 0.206904 0.068719
0.655182 0.217420 0.077453
0.760882 0.226807 0.085238
0.761776 0.226897 0.085238
0.087197 0.321130 0.063188
0.087331 0.321278 0.063188
0.215758 0.332804 0.072727
0.340534 0.343983 0.081972
0.462301 0.354874 0.090972
0.582255 0.365584 0.099819
0.700939 0.376161 0.108554
0.807004 0.385604 0.116338
0.807863 0.385735 0.116338
0.129544 0.475714 0.093467
0.129723 0.475906 0.093467
0.258690 0.487488 0.103005
0.383962 0.498720 0.112250
0.506182 0.509659 0.121251
0.626554 0.520413 0.130098
0.745621 0.531030 0.138832
0.852000 0.540508 0.146617
0.852814 0.540661 0.146617
0.171475 0.627998 0.123228
0.171690 0.628215 0.123228
0.301138 0.639833 0.132767
0.426847 0.651096 0.142011
0.549465 0.662062 0.151012
0.670199 0.672840 0.159859
0.789595 0.683477 0.168594
0.896238 0.692969 0.176378
0.896996 0.693126 0.176378
0.213130 0.778596 0.152612
0.213371 0.778820 0.152612
0.343242 0.790454 0.162151
0.469332 0.801729 0.171395
0.592291 0.812703 0.180396
0.713331 0.823483 0.189243
0.833003 0.834120 0.197977
0.938575 0.843608 0.205762
0.939153 0.843750 0.205762
0.250520 0.913023 0.178800
0.250773 0.913234 0.178800
0.381005 0.924861 0.188338
0.507416 0.936125 0.197583
0.630658 0.947084 0.206584
0.751948 0.957847 0.215431
0.871837 0.968462 0.224165
0.975081 0.977924 0.231950
0.975430 0.978033 0.231950
0.251347 0.913670 0.178800
0.251579 0.913828 0.178800
0.382092 0.925410 0.188338
0.508745 0.936627 0.197583
0.632195 0.947538 0.206584
0.753660 0.958251 0.215431
0.873695 0.968816 0.224165
0.976105 0.978225 0.231950
0.976328 0.978279 0.231950
0.000000 0.000000 0.000000
0.000002 0.000000 0.000000
0.126584 0.011325 0.009538
0.249656 0.022315 0.018783
0.369843 0.033028 0.027784
0.488327 0.043568 0.036631
0.605639 0.053987 0.045365
0.710563 0.063284 0.053150
0.711545 0.063316 0.053150
0.000015 0.000000 0.000000
0.000025 0.000000 0.000000
0.127253 0.011347 0.009538
0.250922 0.022357 0.018783
0.371664 0.033088 0.027784
0.490663 0.043645 0.036631
0.608458 0.054079 0.045365
0.713782 0.063388 0.053150
0.714691 0.063417 0.053150
0.044101 0.162831 0.032088
0.044178 0.162914 0.032088
0.172062 0.174362 0.041627
0.296338 0.185468 0.050871
0.417643 0.196290 0.059872
0.537168 0.206935 0.068719
0.655454 0.217451 0.077453
0.761188 0.226838 0.085238
0.762074 0.226927 0.085238
0.087243 0.321181 0.063188
0.087376 0.321327 0.063188
0.215855 0.332853 0.072727
0.340679 0.344032 0.081972
0.462490 0.354922 0.090972
0.582483 0.365631 0.099819
0.701204 0.376208 0.108554
0.807298 0.385649 0.116338
0.808149 0.385778 0.116338
0.129605 0.475781 0.093467
0.129784 0.475970 0.093467
0.258797 0.487550 0.103005
0.384111 0.498780 0.112250
0.506370 0.509718 0.121251
0.626776 0.520470 0.130098
0.745876 0.531085 0.138832
0.852279 0.540561 0.146617
0.853084 0.540711 0.146617
0.171548 0.628073 0.123228
0.171762 0.628286 0.123228
0.301251 0.639902 0.132767
0.426998 0.651162 0.142011
0.549649 0.662126 0.151012
0.670412 0.672900 0.159859
0.789836 0.683534 0.168594
0.896499 0.693024 0.176378
0.897248 0.693176 0.176378
0.213213 0.778673 0.152612
0.213451 0.778893 0.152612
0.343358 0.790523 0.162151
0.469480 0.801795 0.171395
0.592467 0.812765 0.180396
0.713533 0.823542 0.189243
0.833226 0.834174 0.197977
0.938775 0.843658 0.205762
0.939342 0.843796 0.205762
0.250606 0.913096 0.178800
0.250857 0.913302 0.178800
0.381120 0.924924 0.188338
0.507558 0.936184 0.197583
0.630823 0.947138 0.206584
0.752133 0.957896 0.215431
0.872038 0.968506 0.224165
0.975204 0.977963 0.231950
0.975540 0.978067 0.231950
0.251426 0.913725 0.178800
0.251657 0.913878 0.178800
0.382195 0.925455 0.188338
0.508870 0.936668 0.197583
0.632338 0.947574 0.206584
0.753818 0.958282 0.215431
0.873865 0.968841 0.224165
0.976185 0.978245 0.231950
0.976396 0.978293 0.231950
0.004404 0.003842 0.137837
0.004414 0.003845 0.137837
0.131071 0.015175 0.147375
0.254211 0.026169 0.156620
0.374464 0.036885 0.165621
0.493008 0.047430 0.174468
0.610377 0.057852 0.183202
0.715349 0.067153 0.190987
0.716330 0.067187 0.190987
0.004445 0.003850 0.137837
0.004462 0.003852 0.137837
0.131759 0.015204 0.147375
0.255492 0.026218 0.156620
0.376293 0.036952 0.165621
0.495348 0.047513 0.174468
0.613195 0.057949 0.183202
0.718562 0.067262 0.190987
0.719470 0.067292 0.190987
0.048575 0.166717 0.169925
0.048659 0.166801 0.169925
0.176606 0.178252 0.179463
0.300940 0.189360 0.188708
0.422298 0.200185 0.197709
0.541873 0.210831 0.206556
0.660206 0.221350 0.215290
0.765979 0.230738 0.223075
0.766862 0.230827 0.223075
0.091756 0.325095 0.201025
0.091895 0.325241 0.201025
0.220431 0.336768 0.210564
0.345307 0.347948 0.219808
0.467166 0.358839 0.228809
0.587204 0.369549 0.237656
0.705965 0.380126 0.246390
0.812093 0.389568 0.254175
0.812940 0.389696 0.254175
0.134152 0.479715 0.231304
0.134335 0.479902 0.231304
0.263399 0.491483 0.240842
0.388760 0.502713 0.250087
0.511061 0.513650 0.259088
0.631506 0.524402 0.267934
0.750641 0.535016 0.276669
0.857074 0.544491 0.284454
0.857874 0.544639 0.284454
0.176123 0.632020 0.261065
0.176340 0.632231 0.261065
0.305875 0.643846 0.270604
0.431662 0.655105 0.279848
0.554350 0.666067 0.288849
0.675147 0.676839 0.297696
0.794600 0.687471 0.306430
0.901287 0.696958 0.314215
0.902030 0.697108 0.314215
0.217811 0.782627 0.290449
0.218052 0.782843 0.290449
0.347998 0.794471 0.299987
0.474155 0.805740 0.309232
0.597174 0.816707 0.318233
0.718267 0.827481 0.327080
0.837984 0.838110 0.335814
0.943299 0.847590 0.343599
0.943841 0.847724 0.343599
0.255222 0.917049 0.316637
0.255474 0.917250 0.316637
0.385771 0.928869 0.326175
0.512237 0.940124 0.335420
0.635528 0.951075 0.344421
0.756860 0.961828 0.353268
0.876785 0.972434 0.362002
0.979604 0.981886 0.369787
0.979912 0.981984 0.369787
0.256046 0.917663 0.316637
0.256278 0.917811 0.316637
0.386844 0.929384 0.326175
0.513543 0.940592 0.335420
0.637031 0.951494 0.344421
0.758529 0.962197 0.353268
0.878589 0.972751 0.362002
0.980488 0.982150 0.369787
0.980669 0.982193 0.369787
0.008678 0.007568 0.271430
0.008695 0.007572 0.271430
0.135425 0.018907 0.280969
0.258634 0.029906 0.290214
0.378951 0.040626 0.299214
0.497554 0.051175 0.308061
0.614980 0.061600 0.316796
0.720000 0.070904 0.324580
0.720979 0.070939 0.324580
0.008744 0.007583 0.271430
0.008768 0.007587 0.271430
0.136133 0.018943 0.280969
0.259929 0.029961 0.290214
0.380788 0.040698 0.299214
0.499898 0.051263 0.308061
0.617797 0.061702 0.316796
0.723207 0.071018 0.324580
0.724112 0.071049 0.324580
0.052917 0.170485 0.303518
0.053007 0.170570 0.303518
0.181015 0.182024 0.313057
0.305407 0.193135 0.322302
0.426819 0.203961 0.331302
0.546443 0.214610 0.340149
0.664821 0.225130 0.348884
0.770632 0.234519 0.356668
0.771512 0.234609 0.356668
0.096136 0.328890 0.334619
0.096280 0.329036 0.334619
0.224871 0.340564 0.344157
0.349800 0.351745 0.353402
0.471705 0.362637 0.362402
0.591787 0.373348 0.371249
0.710589 0.383926 0.379984
0.816750 0.393368 0.387769
0.817593 0.393495 0.387769
0.138564 0.483530 0.364897
0.138751 0.483716 0.364897
0.267866 0.495297 0.374436
0.393272 0.506527 0.383680
0.515615 0.517463 0.392681
0.636098 0.528214 0.401528
0.755268 0.538828 0.410263
0.861729 0.548301 0.418047
0.862523 0.548447 0.418047
0.180563 0.635848 0.394658
0.180783 0.636057 0.394658
0.310362 0.647670 0.404197
0.436189 0.658927 0.413442
0.558913 0.669888 0.422442
0.679742 0.680658 0.431289
0.799225 0.691288 0.440024
0.905935 0.700773 0.447808
0.906672 0.700919 0.447808
0.222273 0.786461 0.424042
0.222516 0.786674 0.424042
0.352500 0.798299 0.433581
0.478692 0.809565 0.442826
0.601741 0.820529 0.451826
0.722861 0.831300 0.460673
0.842602 0.841926 0.469408
0.947677 0.851402 0.477192
0.948195 0.851531 0.477192
0.259700 0.920881 0.450230
0.259954 0.921078 0.450230
0.390282 0.932693 0.459769
0.516778 0.943944 0.469014
0.640094 0.954890 0.478014
0.761447 0.965639 0.486861
0.881390 0.976240 0.495596
0.983858 0.985688 0.503380
0.984138 0.985781 0.503380
0.260528 0.921480 0.450230
0.260760 0.921623 0.450230
0.391353 0.933192 0.459769
0.518076 0.944395 0.469014
0.641584 0.955292 0.478014
0.763098 0.965991 0.486861
0.883172 0.976540 0.495596
0.984646 0.985934 0.503380
0.984797 0.985971 0.503380
0.012844 0.011196 0.401495
0.012868 0.011203 0.401495
0.139671 0.022542 0.411033
0.262948 0.033545 0.420278
0.383327 0.044269 0.429278
0.501990 0.054821 0.438125
0.619471 0.065250 0.446860
0.724538 0.074557 0.454645
0.725515 0.074594 0.454645
0.012933 0.011219 0.401495
0.012964 0.011225 0.401495
0.140396 0.022585 0.411033
0.264255 0.033606 0.420278
0.385172 0.044347 0.429278
0.504336 0.054915 0.438125
0.622285 0.065358 0.446860
0.727738 0.074675 0.454645
0.728640 0.074708 0.454645
0.057149 0.174155 0.433583
0.057244 0.174241 0.433583
0.185314 0.185697 0.443121
0.309763 0.196811 0.452366
0.431226 0.207639 0.461367
0.550899 0.218290 0.470213
0.669322 0.228811 0.478948
0.775171 0.238202 0.486733
0.776047 0.238292 0.486733
0.100405 0.332587 0.464683
0.100553 0.332733 0.464683
0.229200 0.344262 0.474221
0.354179 0.355444 0.483466
0.476132 0.366337 0.492467
0.596257 0.377048 0.501314
0.715098 0.387626 0.510048
0.821291 0.397068 0.517833
0.822130 0.397194 0.517833
0.142864 0.487246 0.494961
0.143055 0.487431 0.494961
0.272219 0.499012 0.504500
0.397671 0.510241 0.513745
0.520055 0.521177 0.522745
0.640576 0.531927 0.531592
0.759779 0.542540 0.540327
0.866267 0.552012 0.548111
0.867057 0.552156 0.548111
0.184889 0.639576 0.524723
0.185112 0.639782 0.524723
0.314735 0.651394 0.534261
0.440602 0.662650 0.543506
0.563361 0.673609 0.552507
0.684222 0.684377 0.561353
0.803733 0.695005 0.570088
0.910466 0.704487 0.577873
0.911188 0.704630 0.577873
0.226620 0.790195 0.554107
0.226865 0.790404 0.554107
0.356888 0.802027 0.563645
0.483113 0.813289 0.572890
0.606192 0.824250 0.581891
0.727338 0.835018 0.590737
0.847103 0.845640 0.599472
0.951932 0.855113 0.607257
0.952426 0.855237 0.607257
0.264063 0.924613 0.580295
0.264318 0.924804 0.580295
0.394679 0.936416 0.589833
0.521202 0.947663 0.599078
0.644542 0.958605 0.608078
0.765917 0.969349 0.616925
0.885878 0.979946 0.625660
0.987987 0.989388 0.633445
0.988239 0.989476 0.633445
0.264894 0.925195 0.580295
0.265127 0.925334 0.580295
0.395747 0.936899 0.589833
0.522492 0.948098 0.599078
0.646019 0.958990 0.608078
0.767549 0.969683 0.616925
0.887636 0.980227 0.625660
0.988679 0.989616 0.633445
0.988800 0.989647 0.633445
0.016943 0.014765 0.529337
0.016975 0.014774 0.529337
0.143849 0.026117 0.538875
0.267193 0.037124 0.548120
0.387635 0.047852 0.557121
0.506356 0.058407 0.565967
0.623892 0.068840 0.574702
0.729005 0.078150 0.582487
0.729981 0.078188 0.582487
0.017056 0.014794 0.529337
0.017093 0.014802 0.529337
0.144592 0.026165 0.538875
0.268512 0.037190 0.548120
0.389487 0.047935 0.557121
0.508704 0.058506 0.565967
0.626703 0.068952 0.574702
0.732197 0.078272 0.582487
0.733098 0.078305 0.582487
0.061313 0.177764 0.561425
0.061414 0.177851 0.561425
0.189544 0.189309 0.570963
0.314049 0.200425 0.580208
0.435564 0.211255 0.589209
0.555285 0.221908 0.598056
0.673753 0.232431 0.606790
0.779638 0.241823 0.614575
0.780511 0.241913 0.614575
0.104604 0.336222 0.592525
0.104758 0.336367 0.592525
0.233460 0.347898 0.602063
0.358489 0.359081 0.611308
0.480487 0.369974 0.620309
0.600654 0.380686 0.629156
0.719535 0.391264 0.637890
0.825760 0.400706 0.645675
0.826594 0.400831 0.645675
0.147095 0.490899 0.622804
0.147289 0.491083 0.622804
0.276502 0.502664 0.632342
0.401999 0.513893 0.641587
0.524423 0.524828 0.650588
0.644980 0.535577 0.659434
0.764218 0.546189 0.668169
0.870733 0.555660 0.675954
0.871517 0.555801 0.675954
0.189145 0.643242 0.652565
0.189371 0.643445 0.652565
0.319037 0.655056 0.662103
0.444942 0.666310 0.671348
0.567736 0.677266 0.680349
0.688629 0.688033 0.689196
0.808168 0.698658 0.697930
0.914760 0.708137 0.705715
0.915452 0.708277 0.705715
0.230897 0.793865 0.681949
0.231144 0.794071 0.681949
0.361204 0.805691 0.691487
0.487462 0.816950 0.700732
0.610570 0.827908 0.709733
0.731742 0.838672 0.718580
0.851529 0.849291 0.727314
0.956105 0.858760 0.735099
0.956575 0.858880 0.735099
0.268355 0.928280 0.708137
0.268611 0.928467 0.708137
0.399003 0.940075 0.717675
0.525554 0.951318 0.726920
0.648917 0.962255 0.735921
0.770312 0.972995 0.744767
0.890290 0.983587 0.753502
0.992034 0.993024 0.761287
0.992258 0.993106 0.761287
0.269188 0.928847 0.708137
0.269422 0.928981 0.708137
0.400067 0.940541 0.717675
0.526835 0.951736 0.726920
0.650380 0.962623 0.735921
0.771925 0.973312 0.744767
0.892024 0.983850 0.753502
0.992629 0.993234 0.761287
0.992721 0.993259 0.761287
0.020995 0.018289 0.655557
0.021033 0.018300 0.655557
0.147979 0.029647 0.665096
0.271390 0.040658 0.674341
0.391893 0.051390 0.683341
0.510672 0.061949 0.692188
0.628263 0.072385 0.700923
0.733421 0.081698 0.708707
0.734395 0.081737 0.708707
0.021130 0.018325 0.655557
0.021173 0.018335 0.655557
0.148738 0.029702 0.665096
0.272720 0.040731 0.674341
0.393751 0.051478 0.683341
0.513021 0.062052 0.692188
0.631070 0.072501 0.700923
0.736605 0.081824 0.708707
0.737503 0.081858 0.708707
0.065428 0.181328 0.687645
0.065534 0.181416 0.687645
0.193725 0.192877 0.697184
0.318285 0.203995 0.706429
0.439851 0.214827 0.715429
0.559619 0.225481 0.724276
0.678131 0.236006 0.733011
0.784052 0.245399 0.740795
0.784921 0.245489 0.740795
0.108755 0.339812 0.718746
0.108913 0.339957 0.718746
0.237669 0.351488 0.728284
0.362748 0.362672 0.737529
0.484791 0.373566 0.746530
0.605000 0.384278 0.755376
0.723919 0.394857 0.764111
0.830176 0.404299 0.771896
0.831005 0.404422 0.771896
0.151275 0.494508 0.749024
0.151473 0.494690 0.749024
0.280735 0.506270 0.758563
0.406275 0.517499 0.767808
0.528739 0.528433 0.776808
0.649333 0.539181 0.785655
0.768603 0.549792 0.794390
0.875144 0.559262 0.802174
0.875922 0.559401 0.802174
0.193351 0.646861 0.778786
0.193579 0.647062 0.778786
0.323287 0.658671 0.788324
0.449231 0.669923 0.797569
0.572059 0.680878 0.806570
0.692982 0.691642 0.815416
0.812549 0.702265 0.824151
0.918983 0.711742 0.831936
0.919654 0.711878 0.831936
0.235123 0.797489 0.808169
0.235371 0.797691 0.808169
0.365468 0.809308 0.817708
0.491758 0.820564 0.826953
0.614895 0.831519 0.835953
0.736092 0.842279 0.844800
0.855901 0.852895 0.853535
0.960215 0.862359 0.861319
0.960661 0.862475 0.861319
0.272595 0.931901 0.834357
0.272851 0.932083 0.834357
0.403274 0.943686 0.843896
0.529852 0.954925 0.853141
0.653239 0.965858 0.862141
0.774653 0.976594 0.870988
0.894648 0.987180 0.879723
0.996016 0.996613 0.887507
0.996212 0.996689 0.887507
0.273430 0.932452 0.834357
0.273664 0.932581 0.834357
0.404335 0.944137 0.843896
0.531123 0.955326 0.853141
0.654687 0.966209 0.862141
0.776247 0.976892 0.870988
0.896357 0.987426 0.879723
0.996514 0.996804 0.887507
0.996575 0.996824 0.887507
0.024612 0.021432 0.768050
0.024656 0.021445 0.768050
0.151672 0.032796 0.777588
0.275147 0.043810 0.786833
0.395712 0.054545 0.795834
0.514548 0.065108 0.804681
0.632191 0.075547 0.813415
0.737394 0.084862 0.821200
0.738365 0.084902 0.821200
0.024767 0.021473 0.768050
0.024816 0.021485 0.768050
0.152445 0.032856 0.777588
0.276486 0.043887 0.786833
0.397573 0.054638 0.795834
0.516895 0.065215 0.804681
0.634992 0.075666 0.813415
0.740568 0.084991 0.821200
0.741462 0.085027 0.821200
0.069103 0.184509 0.800138
0.069214 0.184597 0.800138
0.197464 0.196060 0.809677
0.322077 0.207180 0.818921
0.443694 0.218014 0.827922
0.563508 0.228669 0.836769
0.682062 0.239196 0.845503
0.788019 0.248590 0.853288
0.788884 0.248679 0.853288
0.112463 0.343017 0.831238
0.112624 0.343161 0.831238
0.241433 0.354694 0.840777
0.366561 0.365878 0.850022
0.488649 0.376773 0.859022
0.608899 0.387485 0.867869
0.727854 0.398063 0.876604
0.834142 0.407505 0.884388
0.834965 0.407627 0.884388
0.155011 0.497730 0.861517
0.155211 0.497910 0.861517
0.284520 0.509490 0.871055
0.410103 0.520718 0.880300
0.532606 0.531652 0.889301
0.653235 0.542399 0.898148
0.772537 0.553009 0.906882
0.879104 0.562476 0.914667
0.879876 0.562613 0.914667
0.197109 0.650094 0.891278
0.197339 0.650292 0.891278
0.327089 0.661899 0.900817
0.453070 0.673149 0.910061
0.575932 0.684102 0.919062
0.696885 0.694864 0.927909
0.816478 0.705484 0.936644
0.922762 0.714958 0.944428
0.923414 0.715091 0.944428
0.238900 0.800725 0.920662
0.239149 0.800923 0.920662
0.369281 0.812537 0.930201
0.495603 0.823791 0.939445
0.618767 0.834742 0.948446
0.739989 0.845499 0.957293
0.859820 0.856110 0.966027
0.963884 0.865571 0.973812
0.964306 0.865682 0.973812
0.276385 0.935133 0.946850
0.276641 0.935311 0.946850
0.407094 0.946910 0.956388
0.533697 0.958144 0.965633
0.657106 0.969073 0.974634
0.778540 0.979804 0.983481
0.898550 0.990385 0.992215
0.999560 0.999812 1.000000
0.999728 0.999884 1.000000
0.277220 0.935668 0.946850
0.277454 0.935793 0.946850
0.408149 0.947343 0.956388
0.534959 0.958528 0.965633
0.658539 0.969406 0.974634
0.780113 0.980084 0.983481
0.900234 0.990612 0.992215
0.999965 0.999985 1.000000
0.999998 0.999999 1.000000
0.024627 0.021436 0.768050
0.024671 0.021449 0.768050
0.151752 0.032802 0.777588
0.275286 0.043818 0.786833
0.395905 0.054555 0.795834
0.514792 0.065119 0.804681
0.632484 0.075559 0.813415
0.737726 0.084876 0.821200
0.738689 0.084916 0.821200
0.024783 0.021477 0.768050
0.024833 0.021489 0.768050
0.152521 0.032861 0.777588
0.276617 0.043895 0.786833
0.397754 0.054647 0.795834
0.517123 0.065225 0.804681
0.635263 0.075677 0.813415
0.740874 0.085004 0.821200
0.741760 0.085038 0.821200
0.069141 0.184539 0.800138
0.069252 0.184626 0.800138
0.197555 0.196090 0.809677
0.322218 0.207210 0.818921
0.443879 0.218045 0.827922
0.563735 0.228700 0.836769
0.682328 0.239227 0.845503
0.788316 0.248621 0.853288
0.789172 0.248708 0.853288
0.112518 0.343067 0.831238
0.112679 0.343209 0.831238
0.241536 0.354741 0.840777
0.366707 0.365925 0.850022
0.488835 0.376818 0.859022
0.609122 0.387530 0.867869
0.728111 0.398107 0.876604
0.834424 0.407547 0.884388
0.835239 0.407667 0.884388
0.155079 0.497792 0.861517
0.155279 0.497970 0.861517
0.284631 0.509548 0.871055
0.410252 0.520774 0.880300
0.532790 0.531706 0.889301
0.653450 0.542451 0.898148
0.772781 0.553058 0.906882
0.879369 0.562524 0.914667
0.880133 0.562657 0.914667
0.197188 0.650162 0.891278
0.197417 0.650357 0.891278
0.327204 0.661961 0.900817
0.453218 0.673209 0.910061
0.576109 0.684158 0.919062
0.697089 0.694917 0.927909
0.816705 0.705534 0.936644
0.922987 0.715004 0.944428
0.923628 0.715133 0.944428
0.238985 0.800794 0.920662
0.239233 0.800987 0.920662
0.369397 0.812598 0.930201
0.495747 0.823847 0.939445
0.618936 0.834794 0.948446
0.740179 0.845547 0.957293
0.860027 0.856154 0.966027
0.964031 0.865610 0.973812
0.964441 0.865717 0.973812
0.276472 0.935195 0.946850
0.276727 0.935368 0.946850
0.407206 0.946962 0.956388
0.533832 0.958192 0.965633
0.657261 0.969115 0.974634
0.778710 0.979840 0.983481
0.898734 0.990417 0.992215
0.999622 0.999839 1.000000
0.999776 0.999904 1.000000
0.277300 0.935712 0.946850
0.277531 0.935831 0.946850
0.408249 0.947377 0.956388
0.535076 0.958557 0.965633
0.658671 0.969429 0.974634
0.780257 0.980102 0.983481
0.900386 0.990625 0.992215
0.999980 0.999992 1.000000
1.000000 1.000000 1.000000
