library/cube/Sin_City_003.cube
# CINEGRADE LAB — Premium Cinematic LUT
# Title: Sin City
# Category: Neo Noir
# Description: Dramatic shadows, high contrast, moody lighting inspired by noir cinema
# Mood: Mysterious, dramatic, dark
# Variant: 4
# Generated: 2026-05-21T16:12:30.742046
TITLE "Sin City"
LUT_3D_SIZE 5
0.000000 0.000000 0.000000
0.049874 0.007755 0.008316
0.252452 0.038264 0.040537
0.462102 0.068567 0.071870
0.575021 0.083826 0.087047
0.025417 0.079284 0.028638
0.083530 0.088911 0.037443
0.310728 0.122316 0.070716
0.537907 0.154848 0.102814
0.653614 0.171128 0.118201
0.134281 0.400480 0.141216
0.198827 0.413010 0.150616
0.442141 0.449580 0.184751
0.680018 0.484493 0.217448
0.796927 0.502127 0.233040
0.248485 0.722083 0.251154
0.315648 0.734504 0.260568
0.566714 0.771191 0.294862
0.808828 0.805874 0.327572
0.919139 0.822872 0.342993
0.306869 0.878525 0.303433
0.374289 0.889223 0.312550
0.627995 0.924569 0.346642
0.868301 0.956720 0.379124
0.971863 0.971377 0.394304
0.002218 0.002588 0.055310
0.053099 0.010476 0.064308
0.258682 0.041256 0.097212
0.470532 0.071766 0.129134
0.583881 0.087097 0.144773
0.028333 0.082542 0.085942
0.087080 0.092200 0.095187
0.316176 0.125726 0.128889
0.544645 0.158333 0.161343
0.660477 0.174602 0.176994
0.138069 0.404789 0.199902
0.202886 0.417157 0.209530
0.447190 0.453632 0.243878
0.685637 0.488432 0.276737
0.802437 0.505922 0.292434
0.252408 0.726381 0.310509
0.319621 0.738566 0.320007
0.571085 0.775069 0.354371
0.813354 0.809581 0.387121
0.922970 0.826415 0.402555
0.310496 0.882217 0.362980
0.377900 0.892746 0.372107
0.631740 0.927966 0.406201
0.871693 0.959759 0.438677
0.974767 0.974290 0.453847
0.010905 0.012593 0.267819
0.063085 0.020786 0.279215
0.271847 0.051983 0.314324
0.486059 0.082829 0.348176
0.600034 0.098351 0.365452
0.038662 0.093709 0.305477
0.098232 0.103511 0.316279
0.329324 0.137251 0.351370
0.559171 0.170013 0.384997
0.675245 0.186344 0.401604
0.149848 0.417275 0.423976
0.215050 0.429555 0.434479
0.460388 0.465990 0.469569
0.699448 0.500727 0.503015
0.816206 0.518113 0.519152
0.264662 0.739020 0.536982
0.331985 0.751013 0.546869
0.583863 0.787365 0.581528
0.826309 0.821733 0.614479
0.934645 0.838429 0.630033
0.322641 0.894359 0.590381
0.390059 0.904743 0.599608
0.644045 0.939699 0.633755
0.882833 0.970704 0.666247
0.985348 0.985053 0.681415
0.019508 0.022308 0.472229
0.072902 0.030773 0.485734
0.284681 0.062353 0.522779
0.501115 0.093504 0.558314
0.615646 0.109191 0.577004
0.048731 0.104476 0.516029
0.109060 0.114401 0.528172
0.342023 0.148329 0.564455
0.573146 0.181225 0.599077
0.689416 0.197602 0.616480
0.161213 0.429244 0.638413
0.226756 0.441426 0.649640
0.473044 0.477810 0.685337
0.712652 0.512474 0.719252
0.829347 0.529752 0.735728
0.276408 0.751080 0.753375
0.343819 0.762882 0.763557
0.596064 0.799085 0.798432
0.838479 0.833312 0.831518
0.945675 0.849876 0.847144
0.334248 0.905925 0.807445
0.401673 0.916173 0.816728
0.655792 0.950309 0.850896
0.893386 0.981075 0.883385
0.995354 0.995256 0.898544
0.023851 0.027018 0.569405
0.078182 0.035623 0.583725
0.292650 0.067461 0.621549
0.511020 0.098806 0.657740
0.625908 0.114565 0.676942
0.053804 0.109834 0.615534
0.114703 0.119792 0.628160
0.349310 0.153829 0.664886
0.581519 0.186789 0.699860
0.697862 0.203156 0.717516
0.167077 0.435501 0.739341
0.232847 0.447536 0.750783
0.479943 0.483828 0.786661
0.719989 0.518385 0.820698
0.836406 0.535532 0.837240
0.282368 0.757269 0.854868
0.349808 0.768862 0.865093
0.602348 0.804903 0.899992
0.844458 0.838983 0.933076
0.951102 0.855415 0.948678
0.339948 0.911579 0.908989
0.407361 0.921693 0.918247
0.661592 0.955350 0.952389
0.898507 0.985930 0.984854
1.000000 1.000000 1.000000
