library/cube/Sin_City_003.cube
# CINEGRADE LAB — Premium Cinematic LUT
# Title: Sin City
# Category: Neo Noir
# Description: Dramatic shadows, high contrast, moody lighting inspired by noir cinema
# Mood: Mysterious, dramatic, dark
# Variant: 4
# Generated: 2026-05-21T16:12:30.742046
TITLE "Sin City"
LUT_3D_SIZE 33
0.000000 0.000000 0.000000
0.000000 0.000000 0.000000
0.000001 0.000000 0.000000
0.000002 0.000001 0.000000
0.000004 0.000001 0.000000
0.000006 0.000002 0.000000
0.000008 0.000003 0.000000
0.024194 0.003776 0.004055
0.049874 0.007755 0.008316
0.075177 0.011649 0.012472
0.100355 0.015498 0.016567
0.125515 0.019319 0.020620
0.150715 0.023123 0.024643
0.175990 0.026916 0.028641
0.201362 0.030702 0.032621
0.226846 0.034484 0.036585
0.252452 0.038264 0.040537
0.278186 0.042043 0.044477
0.304052 0.045824 0.048409
0.330054 0.049606 0.052334
0.356192 0.053391 0.056251
0.382466 0.057179 0.060163
0.408877 0.060971 0.064069
0.435423 0.064767 0.067971
0.462102 0.068567 0.071870
0.488913 0.072372 0.075764
0.515854 0.076181 0.079656
0.542921 0.079994 0.083545
0.565349 0.083113 0.086700
0.567825 0.083295 0.086789
0.570262 0.083475 0.086876
0.572660 0.083652 0.086962
0.575021 0.083826 0.087047
0.000002 0.000001 0.000000
0.000004 0.000001 0.000000
0.000006 0.000002 0.000000
0.000009 0.000003 0.000000
0.000012 0.000004 0.000000
0.000015 0.000005 0.000000
0.000019 0.000006 0.000000
0.024741 0.003819 0.004074
0.050965 0.007838 0.008355
0.076784 0.011770 0.012530
0.102453 0.015655 0.016643
0.128084 0.019511 0.020713
0.153736 0.023348 0.024751
0.179445 0.027173 0.028765
0.205234 0.030989 0.032760
0.231119 0.034800 0.036739
0.257111 0.038608 0.040704
0.283216 0.042415 0.044659
0.309440 0.046222 0.048603
0.335784 0.050029 0.052540
0.362251 0.053838 0.056469
0.388842 0.057650 0.060392
0.415556 0.061464 0.064309
0.442393 0.065281 0.068222
0.469350 0.069102 0.072130
0.496428 0.072926 0.076034
0.523623 0.076754 0.079935
0.550933 0.080585 0.083832
0.573524 0.083715 0.086993
0.575872 0.083889 0.087077
0.578182 0.084059 0.087160
0.580455 0.084228 0.087241
0.582691 0.084393 0.087321
0.000010 0.000003 0.000000
0.000013 0.000004 0.000000
0.000017 0.000005 0.000000
0.000021 0.000007 0.000000
0.000025 0.000008 0.000000
0.000030 0.000010 0.000000
0.000036 0.000011 0.000000
0.025267 0.003862 0.004093
0.052012 0.007919 0.008393
0.078322 0.011887 0.012585
0.104459 0.015806 0.016715
0.130538 0.019695 0.020801
0.156619 0.023563 0.024855
0.182740 0.027418 0.028884
0.208926 0.031264 0.032893
0.235192 0.035103 0.036885
0.261549 0.038938 0.040864
0.288006 0.042771 0.044831
0.314567 0.046602 0.048787
0.341235 0.050433 0.052735
0.368014 0.054265 0.056676
0.394903 0.058099 0.060609
0.421902 0.061934 0.064537
0.449012 0.065771 0.068459
0.476232 0.069611 0.072376
0.503559 0.073453 0.076289
0.530992 0.077298 0.080198
0.558530 0.081147 0.084104
0.581273 0.084288 0.087270
0.583496 0.084453 0.087349
0.585683 0.084615 0.087427
0.587833 0.084774 0.087504
0.589949 0.084931 0.087579
0.000022 0.000007 0.000000
0.000027 0.000009 0.000000
0.000032 0.000010 0.000000
0.000038 0.000012 0.000000
0.000044 0.000014 0.000000
0.000050 0.000016 0.000000
0.000057 0.000018 0.000000
0.025775 0.003904 0.004110
0.053015 0.007998 0.008428
0.079792 0.012000 0.012637
0.106374 0.015952 0.016783
0.132879 0.019872 0.020884
0.159368 0.023770 0.024953
0.185881 0.027654 0.028996
0.212442 0.031527 0.033019
0.239068 0.035393 0.037024
0.265772 0.039253 0.041015
0.292561 0.043110 0.044994
0.319441 0.046965 0.048962
0.346416 0.050819 0.052921
0.373487 0.054672 0.056871
0.400657 0.058526 0.060815
0.427925 0.062381 0.064752
0.455292 0.066237 0.068683
0.482757 0.070095 0.072609
0.510318 0.073954 0.076530
0.537974 0.077816 0.080447
0.565725 0.081680 0.084360
0.588608 0.084831 0.087531
0.590710 0.084987 0.087606
0.592777 0.085141 0.087679
0.594810 0.085292 0.087751
0.596808 0.085441 0.087822
0.000040 0.000013 0.000000
0.000046 0.000015 0.000000
0.000053 0.000017 0.000000
0.000060 0.000019 0.000000
0.000067 0.000022 0.000000
0.000075 0.000024 0.000000
0.000084 0.000027 0.000000
0.026265 0.003947 0.004127
0.053976 0.008075 0.008462
0.081197 0.012109 0.012687
0.108202 0.016092 0.016848
0.135111 0.020042 0.020964
0.161987 0.023969 0.025046
0.188870 0.027880 0.029103
0.215787 0.031779 0.033138
0.242755 0.035670 0.037156
0.269786 0.039554 0.041158
0.296889 0.043434 0.045148
0.324070 0.047311 0.049127
0.351333 0.051186 0.053096
0.378680 0.055060 0.057056
0.406113 0.058933 0.061009
0.433634 0.062806 0.064955
0.461242 0.066680 0.068895
0.488936 0.070555 0.072829
0.516716 0.074430 0.076758
0.544581 0.078307 0.080682
0.572528 0.082185 0.084602
0.595541 0.085346 0.087777
0.597526 0.085494 0.087847
0.599478 0.085640 0.087916
0.601396 0.085783 0.087984
0.603280 0.085923 0.088050
0.000062 0.000020 0.000000
0.000070 0.000022 0.000000
0.000078 0.000025 0.000000
0.000087 0.000028 0.000000
0.000096 0.000031 0.000000
0.000105 0.000034 0.000000
0.000115 0.000037 0.000000
0.026736 0.003989 0.004143
0.054896 0.008150 0.008494
0.082539 0.012216 0.012734
0.109945 0.016228 0.016909
0.137237 0.020206 0.021039
0.164479 0.024160 0.025135
0.191714 0.028096 0.029204
0.218967 0.032020 0.033251
0.246258 0.035934 0.037280
0.273598 0.039841 0.041294
0.300996 0.043743 0.045294
0.328460 0.047641 0.049283
0.355994 0.051536 0.053262
0.383600 0.055428 0.057231
0.411281 0.059320 0.061193
0.439038 0.063210 0.065147
0.466871 0.067101 0.069095
0.494780 0.070991 0.073036
0.522764 0.074881 0.076972
0.550822 0.078772 0.080903
0.578954 0.082664 0.084829
0.602086 0.085834 0.088008
0.603958 0.085974 0.088074
0.605797 0.086111 0.088139
0.607604 0.086246 0.088203
0.609379 0.086379 0.088265
0.000090 0.000029 0.000000
0.000099 0.000032 0.000000
0.000109 0.000035 0.000000
0.000119 0.000038 0.000000
0.000129 0.000041 0.000000
0.000140 0.000045 0.000000
0.000151 0.000048 0.000000
0.027191 0.004031 0.004158
0.055776 0.008224 0.008524
0.083819 0.012318 0.012779
0.111605 0.016359 0.016968
0.139260 0.020363 0.021110
0.166849 0.024342 0.025219
0.194416 0.028303 0.029299
0.221986 0.032250 0.033358
0.249581 0.036187 0.037398
0.277212 0.040115 0.041422
0.304889 0.044038 0.045432
0.332619 0.047955 0.049430
0.360407 0.051868 0.053418
0.388257 0.055779 0.057396
0.416170 0.059687 0.061366
0.444147 0.063594 0.065328
0.472190 0.067500 0.069283
0.500299 0.071404 0.073231
0.528473 0.075309 0.077173
0.556711 0.079213 0.081110
0.585013 0.083117 0.085042
0.608254 0.086295 0.088225
0.610017 0.086427 0.088287
0.611748 0.086557 0.088348
0.613448 0.086685 0.088407
0.615116 0.086810 0.088465
0.012264 0.038431 0.013932
0.012332 0.038523 0.013947
0.012400 0.038615 0.013962
0.012468 0.038705 0.013977
0.012535 0.038794 0.013992
0.012602 0.038882 0.014007
0.012668 0.038969 0.014021
0.040158 0.043062 0.018207
0.069197 0.047364 0.022601
0.097670 0.051565 0.026883
0.125867 0.055709 0.031098
0.153913 0.059814 0.035266
0.181879 0.063893 0.039399
0.209806 0.067950 0.043503
0.237723 0.071991 0.047585
0.265650 0.076020 0.051647
0.293600 0.080038 0.055692
0.321584 0.084048 0.059724
0.349608 0.088051 0.063742
0.377677 0.092048 0.067750
0.405796 0.096040 0.071747
0.433967 0.100028 0.075735
0.462192 0.104012 0.079715
0.490471 0.107993 0.083687
0.518805 0.111972 0.087652
0.547194 0.115949 0.091611
0.575636 0.119923 0.095563
0.604133 0.123895 0.099510
0.627510 0.127137 0.102706
0.629203 0.127316 0.102773
0.630865 0.127492 0.102839
0.632495 0.127665 0.102904
0.634095 0.127835 0.102967
0.025417 0.079284 0.028638
0.025542 0.079461 0.028667
0.025665 0.079636 0.028697
0.025787 0.079808 0.028726
0.025908 0.079978 0.028754
0.026027 0.080145 0.028782
0.026146 0.080310 0.028810
0.054061 0.084507 0.033022
0.083530 0.088911 0.037443
0.112409 0.093212 0.041751
0.140993 0.097453 0.045990
0.169410 0.101653 0.050182
0.197730 0.105824 0.054337
0.225996 0.109971 0.058464
0.254239 0.114100 0.062567
0.282478 0.118215 0.066650
0.310728 0.122316 0.070716
0.338998 0.126408 0.074766
0.367297 0.130490 0.078804
0.395629 0.134565 0.082829
0.424000 0.138632 0.086844
0.452412 0.142694 0.090849
0.480866 0.146750 0.094846
0.509364 0.150801 0.098834
0.537907 0.154848 0.102814
0.566494 0.158891 0.106788
0.595125 0.162930 0.110755
0.623801 0.166965 0.114715
0.647303 0.170264 0.117923
0.648927 0.170486 0.117994
0.650520 0.170704 0.118065
0.652082 0.170918 0.118134
0.653614 0.171128 0.118201
0.038585 0.119585 0.043036
0.038759 0.119835 0.043079
0.038930 0.120082 0.043120
0.039099 0.120325 0.043161
0.039266 0.120564 0.043201
0.039431 0.120799 0.043241
0.039594 0.121030 0.043280
0.067907 0.125319 0.047516
0.097779 0.129813 0.051961
0.127038 0.134202 0.056291
0.155983 0.138528 0.060553
0.184744 0.142811 0.064766
0.213393 0.147062 0.068942
0.241976 0.151288 0.073088
0.270521 0.155494 0.077210
0.299049 0.159683 0.081311
0.327575 0.163857 0.085395
0.356110 0.168019 0.089463
0.384662 0.172170 0.093517
0.413237 0.176311 0.097558
0.441839 0.180444 0.101589
0.470471 0.184569 0.105609
0.499135 0.188687 0.109620
0.527833 0.192798 0.113621
0.556566 0.196903 0.117615
0.585334 0.201002 0.121601
0.614136 0.205095 0.125580
0.642973 0.209184 0.129553
0.666585 0.212531 0.132770
0.668139 0.212788 0.132845
0.669661 0.213040 0.132919
0.671154 0.213287 0.132990
0.672617 0.213529 0.133061
0.051863 0.159695 0.057271
0.052078 0.160009 0.057324
0.052291 0.160317 0.057376
0.052501 0.160621 0.057427
0.052708 0.160919 0.057478
0.052912 0.161213 0.057527
0.053114 0.161502 0.057576
0.081799 0.165871 0.061834
0.112048 0.170445 0.066300
0.141661 0.174910 0.070651
0.170942 0.179311 0.074932
0.200025 0.183667 0.079163
0.228981 0.187988 0.083358
0.257856 0.192283 0.087522
0.286681 0.196555 0.091661
0.315477 0.200808 0.095778
0.344259 0.205046 0.099878
0.373039 0.209268 0.103961
0.401824 0.213479 0.108029
0.430621 0.217678 0.112085
0.459435 0.221866 0.116129
0.488269 0.226045 0.120162
0.517125 0.230216 0.124185
0.546005 0.234378 0.128199
0.574910 0.238532 0.132204
0.603841 0.242679 0.136201
0.632798 0.246819 0.140191
0.661781 0.250952 0.144173
0.685491 0.254340 0.147399
0.686972 0.254625 0.147476
0.688424 0.254904 0.147551
0.689846 0.255176 0.147625
0.691239 0.255444 0.147697
0.065275 0.199753 0.071401
0.065527 0.200120 0.071463
0.065776 0.200482 0.071524
0.066021 0.200837 0.071584
0.066263 0.201186 0.071643
0.066501 0.201530 0.071701
0.066736 0.201868 0.071758
0.095769 0.206307 0.076035
0.126369 0.210951 0.080521
0.156313 0.215484 0.084890
0.185908 0.219950 0.089188
0.215288 0.224368 0.093437
0.244529 0.228751 0.097647
0.273676 0.233105 0.101827
0.302760 0.237435 0.105981
0.331803 0.241744 0.110113
0.360822 0.246035 0.114226
0.389826 0.250310 0.118322
0.418826 0.254571 0.122403
0.447827 0.258819 0.126471
0.476834 0.263055 0.130527
0.505852 0.267280 0.134571
0.534883 0.271495 0.138605
0.563929 0.275700 0.142629
0.592990 0.279896 0.146644
0.622069 0.284083 0.150651
0.651165 0.288262 0.154649
0.680279 0.292432 0.158640
0.704074 0.295854 0.161872
0.705483 0.296159 0.161950
0.706863 0.296459 0.162027
0.708215 0.296752 0.162101
0.709537 0.297039 0.162174
0.078828 0.239818 0.085458
0.079112 0.240232 0.085528
0.079391 0.240638 0.085596
0.079666 0.241037 0.085663
0.079937 0.241429 0.085730
0.080204 0.241815 0.085794
0.080467 0.242193 0.085858
0.109825 0.246694 0.090152
0.140752 0.251399 0.094655
0.171003 0.255990 0.099040
0.200890 0.260512 0.103355
0.230547 0.264985 0.107618
0.260052 0.269420 0.111843
0.289450 0.273825 0.116036
0.318773 0.278204 0.120203
0.348045 0.282560 0.124348
0.377280 0.286897 0.128473
0.406491 0.291217 0.132581
0.435687 0.295521 0.136673
0.464874 0.299810 0.140751
0.494059 0.304086 0.144817
0.523244 0.308350 0.148871
0.552434 0.312602 0.152914
0.581629 0.316842 0.156947
0.610832 0.321072 0.160970
0.640043 0.325293 0.164984
0.669263 0.329503 0.168990
0.698493 0.333704 0.172988
0.722363 0.337152 0.176225
0.723700 0.337474 0.176304
0.725009 0.337788 0.176380
0.726289 0.338096 0.176455
0.727542 0.338396 0.176528
0.092516 0.279920 0.099459
0.092826 0.280371 0.099535
0.093131 0.280814 0.099610
0.093431 0.281250 0.099683
0.093727 0.281677 0.099755
0.094018 0.282097 0.099825
0.094304 0.282509 0.099895
0.123965 0.287063 0.104204
0.155197 0.291820 0.108722
0.185733 0.296461 0.113122
0.215890 0.301031 0.117450
0.245804 0.305551 0.121727
0.275552 0.310030 0.125964
0.305182 0.314478 0.130169
0.334726 0.318898 0.134348
0.364206 0.323295 0.138503
0.393641 0.327670 0.142638
0.423041 0.332027 0.146756
0.452416 0.336366 0.150858
0.481774 0.340690 0.154945
0.511119 0.344999 0.159019
0.540456 0.349294 0.163081
0.569788 0.353576 0.167132
0.599118 0.357845 0.171172
0.628448 0.362103 0.175202
0.657778 0.366350 0.179223
0.687109 0.370586 0.183234
0.716443 0.374811 0.187238
0.740376 0.378280 0.190480
0.741642 0.378612 0.190558
0.742879 0.378937 0.190633
0.744089 0.379254 0.190707
0.745271 0.379563 0.190779
0.106330 0.320065 0.113415
0.106661 0.320548 0.113496
0.106987 0.321021 0.113576
0.107308 0.321486 0.113654
0.107624 0.321941 0.113730
0.107935 0.322389 0.113806
0.108241 0.322828 0.113879
0.138182 0.327426 0.118202
0.169696 0.332228 0.122734
0.200498 0.336911 0.127146
0.230904 0.341522 0.131486
0.261055 0.346080 0.135774
0.291027 0.350597 0.140022
0.320870 0.355080 0.144238
0.350616 0.359535 0.148426
0.380289 0.363964 0.152591
0.409906 0.368371 0.156735
0.439478 0.372758 0.160861
0.469017 0.377126 0.164971
0.498528 0.381477 0.169066
0.528019 0.385813 0.173147
0.557493 0.390133 0.177215
0.586954 0.394439 0.181272
0.616405 0.398731 0.185318
0.645848 0.403011 0.189353
0.675283 0.407278 0.193379
0.704713 0.411533 0.197396
0.734137 0.415776 0.201404
0.758125 0.419261 0.204649
0.759319 0.419599 0.204725
0.760486 0.419929 0.204800
0.761626 0.420251 0.204872
0.762739 0.420565 0.204943
0.120256 0.360254 0.127333
0.120605 0.360761 0.127418
0.120948 0.361258 0.127501
0.121286 0.361745 0.127583
0.121618 0.362223 0.127663
0.121944 0.362692 0.127742
0.122265 0.363151 0.127818
0.152467 0.367787 0.132153
0.184243 0.372625 0.136697
0.215289 0.377344 0.141120
0.245926 0.381988 0.145470
0.276294 0.386578 0.149768
0.306473 0.391125 0.154025
0.336512 0.395638 0.158250
0.366443 0.400120 0.162446
0.396291 0.404575 0.166619
0.426073 0.409008 0.170771
0.455803 0.413418 0.174904
0.485489 0.417809 0.179020
0.515140 0.422182 0.183121
0.544762 0.426537 0.187208
0.574359 0.430876 0.191281
0.603935 0.435200 0.195343
0.633494 0.439510 0.199394
0.663036 0.443806 0.203433
0.692565 0.448088 0.207463
0.722081 0.452357 0.211483
0.751585 0.456614 0.215494
0.775619 0.460108 0.218741
0.776742 0.460448 0.218816
0.777839 0.460779 0.218888
0.778910 0.461102 0.218959
0.779955 0.461417 0.219027
0.134281 0.400480 0.141216
0.134644 0.401004 0.141304
0.135000 0.401518 0.141390
0.135351 0.402022 0.141475
0.135695 0.402516 0.141557
0.136034 0.403001 0.141638
0.136366 0.403475 0.141717
0.166809 0.408141 0.146062
0.198827 0.413010 0.150616
0.230098 0.417756 0.155048
0.260947 0.422427 0.159407
0.291515 0.427042 0.163714
0.321883 0.431614 0.167979
0.352100 0.436149 0.172210
0.382201 0.440653 0.176414
0.412208 0.445129 0.180593
0.442141 0.449580 0.184751
0.472012 0.454008 0.188889
0.501832 0.458416 0.193011
0.531608 0.462804 0.197117
0.561347 0.467175 0.201208
0.591054 0.471528 0.205286
0.620733 0.475865 0.209351
0.650387 0.480186 0.213405
0.680018 0.484493 0.217448
0.709628 0.488785 0.221481
0.739219 0.493063 0.225503
0.768792 0.497328 0.229517
0.792863 0.500828 0.232765
0.793917 0.501166 0.232837
0.794945 0.501495 0.232907
0.795948 0.501815 0.232974
0.796927 0.502127 0.233040
0.148393 0.440731 0.155068
0.148765 0.441268 0.155158
0.149131 0.441794 0.155245
0.149491 0.442309 0.155331
0.149844 0.442813 0.155415
0.150191 0.443307 0.155498
0.150532 0.443791 0.155578
0.181197 0.448481 0.159932
0.213437 0.453373 0.164494
0.244915 0.458142 0.168934
0.275958 0.462834 0.173301
0.306710 0.467468 0.177614
0.337251 0.472058 0.181885
0.367631 0.476610 0.186123
0.397885 0.481129 0.190332
0.428037 0.485620 0.194516
0.458105 0.490085 0.198679
0.488104 0.494526 0.202822
0.518044 0.498945 0.206947
0.547932 0.503344 0.211057
0.577776 0.507724 0.215152
0.607580 0.512086 0.219233
0.637350 0.516431 0.223301
0.667087 0.520760 0.227357
0.696796 0.525072 0.231402
0.726477 0.529370 0.235437
0.756133 0.533653 0.239461
0.785764 0.537922 0.243475
0.809866 0.541424 0.246723
0.810851 0.541756 0.246792
0.811812 0.542079 0.246859
0.812749 0.542394 0.246924
0.813663 0.542700 0.246986
0.162576 0.480995 0.168888
0.162956 0.481539 0.168979
0.163328 0.482071 0.169068
0.163694 0.482592 0.169154
0.164053 0.483102 0.169239
0.164405 0.483601 0.169322
0.164751 0.484089 0.169402
0.195619 0.488798 0.173763
0.228064 0.493708 0.178332
0.259732 0.498493 0.182780
0.290953 0.503199 0.187152
0.321871 0.507848 0.191471
0.352569 0.512450 0.195748
0.383097 0.517013 0.199990
0.413489 0.521543 0.204203
0.443772 0.526044 0.208392
0.473963 0.530517 0.212558
0.504076 0.534966 0.216704
0.534123 0.539392 0.220833
0.564111 0.543797 0.224945
0.594047 0.548182 0.229042
0.623938 0.552549 0.233125
0.653787 0.556897 0.237195
0.683597 0.561228 0.241252
0.713373 0.565543 0.245299
0.743115 0.569842 0.249334
0.772826 0.574126 0.253359
0.802507 0.578395 0.257373
0.826632 0.581895 0.260621
0.827552 0.582219 0.260686
0.828447 0.582533 0.260750
0.829320 0.582839 0.260811
0.830169 0.583136 0.260870
0.176819 0.521259 0.182678
0.177201 0.521805 0.182769
0.177577 0.522339 0.182858
0.177946 0.522861 0.182944
0.178308 0.523372 0.183028
0.178662 0.523871 0.183111
0.179011 0.524359 0.183191
0.210066 0.529080 0.187558
0.242697 0.534002 0.192133
0.274539 0.538798 0.196586
0.305921 0.543514 0.200963
0.336992 0.548171 0.205286
0.367831 0.552781 0.209567
0.398493 0.557352 0.213813
0.429010 0.561887 0.218029
0.459410 0.566392 0.222220
0.489710 0.570870 0.226389
0.519926 0.575322 0.230538
0.550067 0.579751 0.234668
0.580143 0.584157 0.238782
0.610162 0.588543 0.242880
0.640128 0.592910 0.246964
0.670045 0.597258 0.251035
0.699919 0.601588 0.255093
0.729752 0.605901 0.259140
0.759546 0.610198 0.263175
0.789304 0.614479 0.267200
0.819027 0.618745 0.271214
0.842717 0.622239 0.274460
0.843531 0.622552 0.274522
0.844322 0.622856 0.274581
0.845090 0.623150 0.274638
0.845836 0.623436 0.274694
0.191107 0.561508 0.196438
0.191490 0.562051 0.196527
0.191867 0.562582 0.196615
0.192236 0.563101 0.196701
0.192597 0.563609 0.196784
0.192952 0.564104 0.196865
0.193300 0.564588 0.196945
0.224525 0.569317 0.201317
0.257327 0.574246 0.205896
0.289326 0.579048 0.210353
0.320856 0.583769 0.214734
0.352063 0.588430 0.219060
0.383032 0.593043 0.223343
0.413813 0.597616 0.227592
0.444443 0.602153 0.231811
0.474947 0.606659 0.236004
0.505345 0.611136 0.240174
0.535651 0.615587 0.244324
0.565876 0.620014 0.248455
0.596030 0.624419 0.252570
0.626119 0.628802 0.256669
0.656150 0.633166 0.260753
0.686128 0.637510 0.264824
0.716056 0.641835 0.268882
0.745937 0.646144 0.272928
0.775775 0.650435 0.276962
0.805571 0.654710 0.280986
0.835220 0.658969 0.284999
0.858272 0.662455 0.288244
0.859009 0.662755 0.288301
0.859724 0.663045 0.288356
0.860417 0.663326 0.288409
0.861089 0.663599 0.288460
0.205429 0.601729 0.210165
0.205811 0.602265 0.210254
0.206185 0.602789 0.210340
0.206551 0.603301 0.210424
0.206911 0.603801 0.210506
0.207263 0.604289 0.210585
0.207608 0.604765 0.210663
0.238989 0.609497 0.215038
0.271946 0.614428 0.219621
0.304087 0.619232 0.224081
0.335750 0.623954 0.228464
0.367081 0.628615 0.232793
0.398164 0.633227 0.237078
0.429053 0.637797 0.241328
0.459783 0.642332 0.245548
0.490380 0.646834 0.249742
0.520864 0.651308 0.253913
0.551249 0.655755 0.258064
0.581548 0.660177 0.262195
0.611769 0.664576 0.266310
0.641921 0.668953 0.270408
0.672008 0.673310 0.274492
0.702036 0.677647 0.278562
0.732010 0.681965 0.282619
0.761932 0.686265 0.286664
0.791806 0.690548 0.290697
0.821634 0.694814 0.294719
0.850552 0.699064 0.298730
0.873518 0.702540 0.301973
0.874179 0.702825 0.302025
0.874820 0.703100 0.302076
0.875440 0.703367 0.302125
0.876040 0.703625 0.302172
0.219773 0.641906 0.223861
0.220150 0.642433 0.223948
0.220520 0.642946 0.224032
0.220882 0.643447 0.224113
0.221237 0.643936 0.224193
0.221584 0.644413 0.224270
0.221925 0.644878 0.224345
0.253446 0.649608 0.228723
0.286543 0.654539 0.233308
0.318814 0.659340 0.237770
0.350595 0.664058 0.242155
0.382037 0.668715 0.246485
0.413224 0.673322 0.250771
0.444208 0.677888 0.255022
0.475027 0.682416 0.259243
0.505706 0.686912 0.263437
0.536265 0.691379 0.267607
0.566721 0.695818 0.271757
0.597083 0.700232 0.275888
0.627363 0.704623 0.280002
0.657567 0.708991 0.284099
0.687703 0.713338 0.288182
0.717774 0.717665 0.292250
0.747786 0.721973 0.296306
0.777742 0.726263 0.300349
0.807646 0.730535 0.304380
0.837311 0.734790 0.308400
0.865587 0.739029 0.312410
0.888458 0.742493 0.315649
0.889047 0.742761 0.315697
0.889615 0.743020 0.315743
0.890164 0.743270 0.315787
0.890695 0.743512 0.315830
0.234129 0.682028 0.237525
0.234500 0.682541 0.237608
0.234863 0.683041 0.237689
0.235219 0.683528 0.237768
0.235567 0.684003 0.237845
0.235907 0.684466 0.237919
0.236241 0.684916 0.237991
0.267889 0.689642 0.242371
0.301113 0.694567 0.246957
0.333499 0.699362 0.251420
0.365388 0.704074 0.255806
0.396928 0.708723 0.260136
0.428206 0.713322 0.264423
0.459275 0.717879 0.268673
0.490172 0.722399 0.272893
0.520923 0.726885 0.277087
0.551549 0.731342 0.281257
0.582065 0.735771 0.285406
0.612483 0.740174 0.289536
0.642812 0.744553 0.293648
0.673062 0.748910 0.297743
0.703237 0.753246 0.301824
0.733345 0.757561 0.305891
0.763388 0.761857 0.309944
0.793372 0.766134 0.313985
0.823299 0.770393 0.318014
0.852155 0.774635 0.322031
0.880328 0.778861 0.326038
0.903099 0.782310 0.329274
0.903617 0.782561 0.329317
0.904115 0.782803 0.329359
0.904596 0.783036 0.329398
0.905059 0.783261 0.329436
0.248485 0.722083 0.251154
0.248848 0.722579 0.251234
0.249203 0.723062 0.251312
0.249551 0.723533 0.251387
0.249891 0.723991 0.251461
0.250223 0.724437 0.251532
0.250548 0.724870 0.251601
0.282311 0.729587 0.255981
0.315648 0.734504 0.260568
0.348138 0.739290 0.265031
0.380121 0.743991 0.269417
0.411750 0.748631 0.273747
0.443108 0.753219 0.278033
0.474252 0.757764 0.282282
0.505217 0.762272 0.286501
0.536031 0.766747 0.290694
0.566714 0.771191 0.294862
0.597282 0.775607 0.299009
0.627747 0.779997 0.303137
0.658119 0.784363 0.307247
0.688407 0.788707 0.311341
0.718616 0.793028 0.315419
0.748753 0.797330 0.319483
0.778822 0.801611 0.323534
0.808828 0.805874 0.327572
0.838542 0.810119 0.331598
0.866719 0.814347 0.335613
0.894781 0.818558 0.339616
0.917446 0.821992 0.342849
0.917895 0.822225 0.342888
0.918327 0.822449 0.342924
0.918741 0.822664 0.342959
0.919139 0.822872 0.342993
0.262835 0.762057 0.264749
0.263188 0.762534 0.264825
0.263533 0.762998 0.264899
0.263870 0.763450 0.264971
0.264201 0.763889 0.265041
0.264523 0.764316 0.265108
0.264839 0.764730 0.265173
0.296704 0.769436 0.269553
0.330142 0.774341 0.274140
0.362724 0.779115 0.278603
0.394791 0.783804 0.282988
0.426497 0.788430 0.287316
0.457927 0.793005 0.291601
0.489136 0.797537 0.295849
0.520161 0.802031 0.300067
0.551029 0.806491 0.304257
0.581761 0.810921 0.308423
0.612374 0.815322 0.312568
0.642879 0.819698 0.316694
0.673287 0.824049 0.320801
0.703606 0.828377 0.324893
0.733843 0.832684 0.328968
0.764004 0.836969 0.333029
0.794093 0.841236 0.337077
0.824116 0.845483 0.341112
0.852945 0.849713 0.345135
0.881009 0.853925 0.349146
0.908952 0.858120 0.353147
0.931505 0.861539 0.356376
0.931889 0.861752 0.356410
0.932256 0.861958 0.356442
0.932608 0.862156 0.356472
0.932944 0.862346 0.356501
0.277168 0.801942 0.278308
0.277510 0.802398 0.278380
0.277844 0.802841 0.278450
0.278170 0.803271 0.278518
0.278489 0.803689 0.278583
0.278801 0.804095 0.278647
0.279106 0.804488 0.278708
0.311061 0.809180 0.283087
0.344590 0.814072 0.287673
0.377253 0.818831 0.292134
0.409395 0.823505 0.296518
0.441169 0.828116 0.300845
0.472661 0.832676 0.305128
0.503926 0.837192 0.309374
0.535003 0.841670 0.313589
0.565918 0.846115 0.317777
0.596692 0.850528 0.321941
0.627342 0.854913 0.326083
0.657881 0.859272 0.330206
0.688319 0.863607 0.334311
