library/cube/Sin_City_003.cube
# CINEGRADE LAB — Premium Cinematic LUT
# Title: Sin City
# Category: Neo Noir
# Description: Dramatic shadows, high contrast, moody lighting inspired by noir cinema
# Mood: Mysterious, dramatic, dark
# Variant: 4
# Generated: 2026-05-21T16:12:30.742046
TITLE "Sin City"
LUT_3D_SIZE 9
0.000000 0.000000 0.000000
0.000004 0.000001 0.000000
0.049874 0.007755 0.008316
0.150715 0.023123 0.024643
0.252452 0.038264 0.040537
0.356192 0.053391 0.056251
0.462102 0.068567 0.071870
0.565349 0.083113 0.086700
0.575021 0.083826 0.087047
0.000040 0.000013 0.000000
0.000067 0.000022 0.000000
0.053976 0.008075 0.008462
0.161987 0.023969 0.025046
0.269786 0.039554 0.041158
0.378680 0.055060 0.057056
0.488936 0.070555 0.072829
0.595541 0.085346 0.087777
0.603280 0.085923 0.088050
0.025417 0.079284 0.028638
0.025908 0.079978 0.028754
0.083530 0.088911 0.037443
0.197730 0.105824 0.054337
0.310728 0.122316 0.070716
0.424000 0.138632 0.086844
0.537907 0.154848 0.102814
0.647303 0.170264 0.117923
0.653614 0.171128 0.118201
0.078828 0.239818 0.085458
0.079937 0.241429 0.085730
0.140752 0.251399 0.094655
0.260052 0.269420 0.111843
0.377280 0.286897 0.128473
0.494059 0.304086 0.144817
0.610832 0.321072 0.160970
0.722363 0.337152 0.176225
0.727542 0.338396 0.176528
0.134281 0.400480 0.141216
0.135695 0.402516 0.141557
0.198827 0.413010 0.150616
0.321883 0.431614 0.167979
0.442141 0.449580 0.184751
0.561347 0.467175 0.201208
0.680018 0.484493 0.217448
0.792863 0.500828 0.232765
0.796927 0.502127 0.233040
0.191107 0.561508 0.196438
0.192597 0.563609 0.196784
0.257327 0.574246 0.205896
0.383032 0.593043 0.223343
0.505345 0.611136 0.240174
0.626119 0.628802 0.256669
0.745937 0.646144 0.272928
0.858272 0.662455 0.288244
0.861089 0.663599 0.288460
0.248485 0.722083 0.251154
0.249891 0.723991 0.251461
0.315648 0.734504 0.260568
0.443108 0.753219 0.278033
0.566714 0.771191 0.294862
0.688407 0.788707 0.311341
0.808828 0.805874 0.327572
0.917446 0.821992 0.342849
0.919139 0.822872 0.342993
0.303218 0.874044 0.302765
0.304430 0.875589 0.303002
0.370776 0.885801 0.312065
0.499308 0.904257 0.329500
0.623645 0.921959 0.346289
0.745804 0.939067 0.362720
0.864396 0.955093 0.378898
0.969648 0.970015 0.394118
0.970407 0.970461 0.394190
0.306869 0.878525 0.303433
0.307742 0.879500 0.303567
0.374289 0.889223 0.312550
0.503345 0.907257 0.329919
0.627995 0.924569 0.346642
0.750317 0.941199 0.363008
0.868301 0.956720 0.379124
0.971567 0.971178 0.394286
0.971863 0.971377 0.394304
0.000000 0.000000 0.000000
0.000006 0.000002 0.000000
0.050320 0.007789 0.008332
0.151952 0.023215 0.024687
0.254360 0.038405 0.040605
0.358675 0.053574 0.056340
0.465074 0.068786 0.071976
0.568703 0.083360 0.086821
0.578169 0.084058 0.087159
0.000048 0.000015 0.000000
0.000078 0.000025 0.000000
0.054352 0.008106 0.008475
0.163008 0.024047 0.025083
0.271349 0.039672 0.041214
0.380699 0.055211 0.057128
0.491335 0.070734 0.072914
0.598230 0.085547 0.087872
0.605787 0.086110 0.088139
0.025586 0.079524 0.028678
0.026070 0.080204 0.028792
0.083978 0.089145 0.037489
0.198685 0.106082 0.054399
0.312101 0.122592 0.070790
0.425717 0.138921 0.086929
0.539903 0.155146 0.102907
0.649501 0.170565 0.118020
0.655648 0.171406 0.118290
0.079212 0.240378 0.085552
0.080299 0.241951 0.085817
0.141324 0.251900 0.094745
0.261002 0.269916 0.111940
0.378535 0.287382 0.128575
0.495556 0.304557 0.144923
0.612515 0.321527 0.161077
0.724173 0.337587 0.176332
0.729199 0.338794 0.176624
0.134772 0.401190 0.141335
0.136154 0.403172 0.141667
0.199431 0.413625 0.150722
0.322759 0.432201 0.168086
0.443227 0.450136 0.184858
0.562592 0.467699 0.201313
0.681377 0.484984 0.217550
0.794288 0.501285 0.232862
0.798217 0.502538 0.233126
0.191626 0.562243 0.196559
0.193077 0.564279 0.196894
0.257902 0.574864 0.205999
0.383790 0.593619 0.223444
0.506237 0.611668 0.240270
0.627105 0.629291 0.256759
0.746984 0.646590 0.273012
0.859267 0.662860 0.288321
0.861969 0.663956 0.288526
0.248976 0.722753 0.251262
0.250340 0.724593 0.251557
0.316152 0.735049 0.260656
0.443727 0.753714 0.278114
0.567411 0.771638 0.294937
0.689151 0.789107 0.311408
0.809596 0.806230 0.327632
0.918052 0.822306 0.342901
0.919655 0.823142 0.343035
0.303643 0.874591 0.302850
0.304816 0.876071 0.303075
0.371188 0.886227 0.312129
0.499785 0.904634 0.329557
0.624163 0.922289 0.346338
0.746342 0.939341 0.362762
0.864872 0.955309 0.378932
0.969927 0.970178 0.394145
0.970624 0.970591 0.394210
0.307175 0.878872 0.303482
0.308020 0.879799 0.303607
0.374581 0.889482 0.312583
0.503677 0.907481 0.329946
0.628351 0.924761 0.346663
0.750688 0.941354 0.363024
0.868615 0.956831 0.379135
0.971677 0.971251 0.394294
0.971946 0.971435 0.394308
0.002218 0.002588 0.055310
0.002290 0.002625 0.055644
0.053099 0.010476 0.064308
0.155562 0.025989 0.080989
0.258682 0.041256 0.097212
0.363609 0.056494 0.113232
0.470532 0.071766 0.129134
0.574577 0.086390 0.144224
0.583881 0.087097 0.144773
0.002474 0.002713 0.056362
0.002558 0.002751 0.056638
0.057240 0.010885 0.065384
0.166574 0.026897 0.082258
0.275487 0.042584 0.098635
0.385323 0.058177 0.114778
0.496367 0.073748 0.130775
0.603578 0.088600 0.145928
0.610989 0.089169 0.146358
0.028333 0.082542 0.085942
0.028852 0.083231 0.086275
0.087080 0.092200 0.095187
0.202319 0.109180 0.112306
0.316176 0.125726 0.128889
0.430160 0.142084 0.145204
0.544645 0.158333 0.161343
0.654467 0.173770 0.176602
0.660477 0.174602 0.176994
0.082301 0.243777 0.143558
0.083399 0.245331 0.143991
0.144660 0.255277 0.153082
0.264737 0.273301 0.170434
0.382591 0.290771 0.187211
0.499870 0.307945 0.203687
0.617033 0.324910 0.219957
0.728831 0.340962 0.235315
0.733727 0.342141 0.235692
0.138069 0.404789 0.199902
0.139444 0.406730 0.200356
0.202886 0.417157 0.209530
0.326500 0.435717 0.227007
0.447190 0.453632 0.243878
0.566726 0.471172 0.260422
0.685637 0.488432 0.276737
0.798626 0.504707 0.292117
0.802437 0.505922 0.292434
0.195028 0.565905 0.255530
0.196461 0.567888 0.255951
0.261393 0.578431 0.265137
0.387474 0.597152 0.282657
0.510065 0.615166 0.299548
0.631036 0.632753 0.316093
0.750982 0.650016 0.332393
0.863077 0.666250 0.347742
0.865664 0.667303 0.347977
0.252408 0.726381 0.310509
0.253746 0.728161 0.310858
0.319621 0.738566 0.320007
0.447318 0.757188 0.337511
0.571085 0.775069 0.354371
0.692879 0.792497 0.370873
0.813354 0.809581 0.387121
0.921462 0.825619 0.402409
0.922970 0.826415 0.402555
0.307051 0.878116 0.362266
0.308196 0.879537 0.362521
0.374600 0.889642 0.371602
0.503268 0.908005 0.389053
0.627689 0.925619 0.405852
0.749894 0.942466 0.422288
0.868141 0.958370 0.438467
0.972989 0.973177 0.453685
0.973615 0.973549 0.453752
0.310496 0.882217 0.362980
0.311320 0.883100 0.363120
0.377900 0.892746 0.372107
0.507039 0.910714 0.389479
0.631740 0.927966 0.406201
0.754095 0.944335 0.422564
0.871693 0.959759 0.438677
0.974538 0.974130 0.453835
0.974767 0.974290 0.453847
0.006600 0.007662 0.163326
0.006794 0.007763 0.164292
0.058143 0.015707 0.173569
0.161473 0.031333 0.190841
0.265338 0.046700 0.207618
0.370910 0.062029 0.224157
0.478388 0.077383 0.240544
0.582879 0.092079 0.256085
0.592060 0.092813 0.257037
0.007241 0.007991 0.166369
0.007427 0.008083 0.167163
0.062552 0.016292 0.176410
0.172591 0.032396 0.193763
0.282103 0.048164 0.210587
0.392449 0.063830 0.227145
0.503926 0.079465 0.243527
0.611475 0.094373 0.259034
0.618771 0.094962 0.259778
0.033564 0.088213 0.197610
0.034156 0.088930 0.198359
0.092732 0.097946 0.207668
0.208524 0.114986 0.225164
0.322843 0.131583 0.242095
0.437211 0.147985 0.258731
0.552014 0.164270 0.275163
0.662076 0.179737 0.290691
0.667974 0.180573 0.291316
0.087985 0.249883 0.256573
0.089125 0.251433 0.257326
0.150643 0.261390 0.266720
0.271133 0.279436 0.284358
0.389323 0.296921 0.301396
0.506875 0.314106 0.318108
0.624254 0.331077 0.334591
0.736205 0.347129 0.350141
0.740990 0.348290 0.350681
0.144048 0.411136 0.313942
0.145440 0.413050 0.314634
0.209064 0.423462 0.324030
0.332974 0.442015 0.341714
0.453896 0.459919 0.358770
0.573612 0.477445 0.375479
0.692658 0.494689 0.391940
0.805733 0.510945 0.407448
0.809441 0.512127 0.407872
0.201179 0.572348 0.370320
0.202610 0.574287 0.370908
0.267662 0.584797 0.380249
0.393944 0.603491 0.397908
0.516684 0.621477 0.414922
0.637764 0.639035 0.431573
0.757785 0.656268 0.447965
0.869546 0.672471 0.463391
0.872017 0.673486 0.463688
0.258638 0.732813 0.425816
0.259963 0.734541 0.426275
0.325910 0.744903 0.435522
0.453733 0.763487 0.453112
0.577588 0.781331 0.470045
0.699440 0.798722 0.486608
0.819949 0.815770 0.502905
0.927521 0.831775 0.518232
0.928928 0.832535 0.518407
0.313292 0.884464 0.477900
0.314418 0.885832 0.478220
0.380861 0.895891 0.487355
0.509602 0.914215 0.504851
0.634070 0.931791 0.521686
0.756303 0.948282 0.538150
0.874047 0.964113 0.554349
0.978673 0.978851 0.569580
0.979219 0.979174 0.569655
0.316677 0.888402 0.478788
0.317486 0.889245 0.478960
0.384089 0.898857 0.487972
0.513272 0.916797 0.505362
0.638004 0.934024 0.522097
0.760380 0.949980 0.538468
0.877375 0.965342 0.554584
0.979989 0.979656 0.569743
0.980168 0.979781 0.569755
0.010905 0.012593 0.267819
0.011212 0.012755 0.269370
0.063085 0.020786 0.279215
0.167258 0.036519 0.297034
0.271847 0.051983 0.314324
0.378044 0.067398 0.331342
0.486059 0.082829 0.348176
0.590979 0.097592 0.364133
0.600034 0.098351 0.365452
0.011903 0.013112 0.272702
0.012182 0.013253 0.273975
0.067736 0.021533 0.283684
0.178460 0.037725 0.301479
0.288553 0.053570 0.318714
0.399393 0.069305 0.335653
0.511285 0.085000 0.352388
0.619159 0.099959 0.368219
0.626338 0.100566 0.369248
0.038662 0.093709 0.305477
0.039321 0.094452 0.306606
0.098232 0.103511 0.316279
0.214559 0.120606 0.334121
0.329324 0.137251 0.351370
0.444063 0.153693 0.368297
0.559171 0.170013 0.384997
0.669462 0.185507 0.400768
0.675245 0.186344 0.401604
0.093510 0.255795 0.365674
0.094687 0.257339 0.366719
0.156452 0.267305 0.376389
0.277341 0.285370 0.394286
0.395854 0.302868 0.411559
0.513666 0.320060 0.428484
0.631251 0.337034 0.445160
0.743346 0.353085 0.460881
0.748018 0.354227 0.461567
0.149848 0.417275 0.423976
0.151253 0.419161 0.424883
0.215050 0.429555 0.434479
0.339243 0.448099 0.452348
0.460388 0.465990 0.469569
0.580275 0.483501 0.486425
0.699448 0.500727 0.503015
0.812602 0.516962 0.518635
0.816206 0.518113 0.519152
0.207135 0.578573 0.481029
0.208562 0.580467 0.481766
0.273727 0.590942 0.491243
0.400199 0.609609 0.509026
0.523081 0.627565 0.526147
0.644263 0.645093 0.542891
0.764353 0.662295 0.559361
0.875770 0.678467 0.574853
0.878126 0.679446 0.575200
0.264662 0.739020 0.536982
0.265970 0.740695 0.537537
0.331985 0.751013 0.546869
0.459926 0.769560 0.564533
0.583863 0.787365 0.581528
0.705770 0.804720 0.598141
0.826309 0.821733 0.614479
0.933337 0.837704 0.629837
0.934645 0.838429 0.630033
0.319319 0.890583 0.589349
0.320424 0.891898 0.589722
0.386903 0.901912 0.598903
0.515711 0.920196 0.616437
0.640224 0.937674 0.633300
0.762482 0.953868 0.649784
0.879718 0.969629 0.665998
0.984121 0.984299 0.681238
0.984592 0.984574 0.681317
0.322641 0.894359 0.590381
0.323435 0.895163 0.590577
0.390059 0.904743 0.599608
0.519284 0.922656 0.617012
0.644045 0.939699 0.633755
0.766441 0.955401 0.650130
0.882833 0.970704 0.666247
0.985216 0.984961 0.681405
0.985348 0.985053 0.681415
0.015200 0.017466 0.370571
0.015613 0.017684 0.372673
0.067996 0.025798 0.383051
0.172992 0.041634 0.401386
0.278286 0.057190 0.419157
0.385090 0.072688 0.436624
0.493625 0.088192 0.453876
0.598960 0.103019 0.470220
0.607886 0.103799 0.471882
0.016534 0.018162 0.377183
0.016901 0.018350 0.378905
0.072872 0.026698 0.389045
0.184262 0.042973 0.407254
0.294918 0.058892 0.424873
0.406236 0.074691 0.442167
0.518531 0.090444 0.459229
0.626717 0.105452 0.475362
0.633776 0.106074 0.476654
0.043708 0.099119 0.411392
0.044429 0.099885 0.412875
0.103665 0.108985 0.422887
0.220511 0.126132 0.441050
0.335707 0.142822 0.458595
0.450804 0.159302 0.475792
0.566204 0.175653 0.492738
0.676713 0.191172 0.508732
0.682381 0.192009 0.509760
0.098963 0.261605 0.472739
0.100172 0.263142 0.474053
0.162175 0.273114 0.483977
0.283449 0.291195 0.502113
0.402273 0.308704 0.519602
0.520335 0.325902 0.536722
0.638115 0.342878 0.553573
0.750346 0.358926 0.569449
0.754907 0.360047 0.570266
0.155559 0.423300 0.531902
0.156974 0.425155 0.533005
0.220936 0.435531 0.542783
0.345402 0.454065 0.560820
0.466759 0.471943 0.578191
0.586808 0.489437 0.595179
0.706100 0.506644 0.611884
0.819329 0.522858 0.627604
0.822829 0.523976 0.628202
0.212989 0.584673 0.589570
0.214410 0.586523 0.590441
0.279682 0.596963 0.600040
0.406336 0.615601 0.617934
0.529352 0.633528 0.635150
0.650630 0.651025 0.651974
0.770783 0.668196 0.668513
0.881841 0.684337 0.684060
0.884084 0.685279 0.684451
0.270574 0.745097 0.645934
0.271865 0.746720 0.646572
0.337943 0.756994 0.655978
0.465996 0.775503 0.673706
0.590010 0.793271 0.690754
0.711966 0.810590 0.707409
0.832533 0.827568 0.723779
0.939003 0.843506 0.739162
0.940216 0.844198 0.739375
0.325229 0.896570 0.698547
0.326313 0.897833 0.698965
0.392823 0.907803 0.708183
0.521696 0.926048 0.725747
0.646249 0.943197 0.742632
0.768532 0.959320 0.759132
0.885248 0.975011 0.775355
0.989427 0.989614 0.790600
0.989824 0.989842 0.790680
0.328486 0.900188 0.699696
0.329265 0.900955 0.699911
0.395908 0.910503 0.708956
0.525173 0.928389 0.726368
0.649961 0.945052 0.743116
0.772379 0.960693 0.759493
0.888158 0.975937 0.775609
0.990311 0.990138 0.790765
0.990399 0.990200 0.790773
0.019508 0.022308 0.472229
0.020023 0.022579 0.474851
0.072902 0.030773 0.485734
0.178701 0.046709 0.504555
0.284681 0.062353 0.522779
0.392076 0.077929 0.540669
0.501115 0.093504 0.558314
0.606851 0.108391 0.575022
0.615646 0.109191 0.577004
0.021161 0.023173 0.480472
0.021611 0.023404 0.482616
0.077986 0.031817 0.493163
0.190025 0.048172 0.511761
0.301229 0.064161 0.529739
0.413010 0.080022 0.547365
0.525693 0.095829 0.564734
0.634180 0.110883 0.581146
0.641118 0.111519 0.582682
0.048731 0.104476 0.516029
0.049509 0.105263 0.517844
0.109060 0.114401 0.528172
0.226410 0.131598 0.546636
0.342023 0.148329 0.564455
0.457465 0.164845 0.581903
0.573146 0.181225 0.599077
0.683864 0.196766 0.615276
0.689416 0.197602 0.616480
0.104375 0.267347 0.578452
0.105613 0.268874 0.580015
0.167845 0.278851 0.590175
0.289491 0.296947 0.608532
0.408614 0.314465 0.626220
0.526915 0.331667 0.643519
0.644882 0.348643 0.660528
0.757241 0.364687 0.676546
0.761690 0.365787 0.677481
0.161213 0.429244 0.638413
0.162635 0.431069 0.639694
0.226756 0.441426 0.649640
0.351484 0.459948 0.667830
0.473044 0.477810 0.685337
0.593247 0.495287 0.702443
0.712652 0.512474 0.719252
0.825948 0.528666 0.735060
0.829347 0.529752 0.735728
0.218775 0.590685 0.696643
0.220187 0.592490 0.697635
0.285561 0.602895 0.707343
0.412388 0.621504 0.725335
0.535531 0.639401 0.742635
0.656899 0.656867 0.759531
0.777110 0.674006 0.776128
0.887795 0.690116 0.791723
0.889926 0.691022 0.792149
0.276408 0.751080 0.753375
0.277682 0.752652 0.754086
0.343819 0.762882 0.763557
0.471978 0.781353 0.781340
0.596064 0.799085 0.798432
0.718066 0.816367 0.815122
0.838479 0.833312 0.831518
0.944555 0.849217 0.846920
0.945675 0.849876 0.847144
0.331056 0.902461 0.806202
0.332119 0.903674 0.806657
0.398659 0.913600 0.815906
0.527592 0.931807 0.833493
0.652183 0.948620 0.850395
0.774488 0.964672 0.866906
0.890672 0.980293 0.883135
0.994625 0.994831 0.898382
0.994952 0.995014 0.898461
0.334248 0.905925 0.807445
0.335012 0.906655 0.807674
0.401673 0.916173 0.816728
0.530977 0.934033 0.834146
0.655792 0.950309 0.850896
0.778230 0.965889 0.867271
0.893386 0.981075 0.883385
0.995307 0.995223 0.898538
0.995354 0.995256 0.898544
0.023642 0.026907 0.568336
0.024248 0.027227 0.571425
0.077606 0.035495 0.582761
0.184184 0.051524 0.602019
0.290829 0.067251 0.620651
0.398794 0.082901 0.638919
0.508319 0.098541 0.656914
0.614439 0.113483 0.673946
0.623099 0.114300 0.676210
0.025582 0.027924 0.578040
0.026106 0.028194 0.580560
0.082870 0.036667 0.591470
0.195537 0.053096 0.610416
0.307270 0.069151 0.628715
0.419496 0.085070 0.646637
0.532552 0.100927 0.664276
0.641326 0.116023 0.680936
0.648139 0.116670 0.682685
0.053517 0.109554 0.614801
0.054346 0.110359 0.616909
0.114198 0.119530 0.627518
0.232035 0.136773 0.646247
0.348049 0.153543 0.664309
0.463821 0.170090 0.681977
0.579771 0.186496 0.699351
0.690685 0.202057 0.715729
0.696120 0.202889 0.717085
0.109522 0.272790 0.678178
0.110784 0.274306 0.679960
0.173234 0.284285 0.690326
0.295237 0.302392 0.708876
0.414647 0.319915 0.726737
0.533176 0.337119 0.744191
0.651318 0.354094 0.761338
0.763797 0.370132 0.777476
0.768133 0.371209 0.778509
0.166581 0.434875 0.738838
0.168007 0.436667 0.740274
0.232277 0.447002 0.750364
0.357255 0.465511 0.768686
0.479007 0.483357 0.786308
0.599356 0.500814 0.803514
0.718865 0.517980 0.820409
0.832223 0.534149 0.836291
0.835408 0.535202 0.837016
0.224258 0.596373 0.797554
0.225659 0.598132 0.798647
0.291128 0.608500 0.808447
0.418119 0.627079 0.826521
0.541382 0.644945 0.843890
0.662833 0.662379 0.860843
0.783098 0.679488 0.877486
0.893404 0.695566 0.893119
0.895426 0.696436 0.893571
0.281929 0.756732 0.854595
0.283183 0.758252 0.855365
0.349374 0.768438 0.864886
0.477632 0.786871 0.882713
0.601786 0.804566 0.899839
0.723829 0.821813 0.916555
0.843895 0.838724 0.932970
0.949770 0.854598 0.948383
0.950799 0.855225 0.948613
0.336562 0.908019 0.907592
0.337602 0.909180 0.908075
0.404170 0.919063 0.917345
0.533158 0.937197 0.934949
0.657785 0.953715 0.951862
0.780110 0.969697 0.968377
0.895768 0.985252 0.984608
0.999495 0.999725 0.999854
0.999755 0.999866 0.999928
0.339686 0.911330 0.908902
0.340435 0.912024 0.909139
0.407113 0.921513 0.918197
0.536453 0.939221 0.935617
0.661294 0.955245 0.952365
0.783754 0.970767 0.968737
0.898297 0.985897 0.984847
0.999989 0.999994 0.999997
1.000000 1.000000 1.000000
0.023851 0.027018 0.569405
0.024448 0.027333 0.572434
0.078182 0.035623 0.583725
0.185436 0.051697 0.602952
0.292650 0.067461 0.621549
0.401094 0.083141 0.639781
0.511020 0.098806 0.657740
0.617446 0.113767 0.674734
0.625908 0.114565 0.676942
0.025762 0.028017 0.578914
0.026279 0.028283 0.581380
0.083349 0.036774 0.592249
0.196558 0.053239 0.611163
0.308740 0.069322 0.629429
0.421340 0.085264 0.647317
0.534699 0.101140 0.664922
0.643697 0.116248 0.681546
0.650338 0.116880 0.683246
0.053804 0.109834 0.615534
0.054618 0.110620 0.617591
0.114703 0.119792 0.628160
0.232958 0.137050 0.646857
0.349310 0.153829 0.664886
0.465354 0.170381 0.682520
0.581519 0.186789 0.699860
0.692582 0.202348 0.716204
0.697862 0.203156 0.717516
0.109959 0.273318 0.678799
0.111194 0.274794 0.680532
0.173810 0.284750 0.690859
0.296116 0.302845 0.709375
0.415763 0.320353 0.727203
0.534475 0.337540 0.744622
0.652753 0.354494 0.761735
0.765316 0.370510 0.777840
0.769513 0.371551 0.778833
0.167077 0.435501 0.739341
0.168467 0.437241 0.740732
0.232847 0.447536 0.750783
0.358035 0.466014 0.769072
0.479943 0.483828 0.786661
0.600404 0.501252 0.803835
0.719989 0.518385 0.820698
0.833352 0.534521 0.836548
0.836406 0.535532 0.837240
0.224747 0.596990 0.797939
0.226108 0.598689 0.798990
0.291644 0.609008 0.808756
0.418769 0.627546 0.826798
0.542125 0.645371 0.844137
0.663637 0.662765 0.861061
0.783935 0.679835 0.877676
0.894123 0.695875 0.893282
0.896048 0.696704 0.893706
0.282368 0.757269 0.854868
0.283583 0.758728 0.855603
0.349808 0.768862 0.865093
0.478145 0.787251 0.882893
0.602348 0.804903 0.899992
0.724419 0.822109 0.916683
0.844458 0.838983 0.933076
0.950143 0.854822 0.948468
0.951102 0.855415 0.948678
0.336927 0.908432 0.907766
0.337932 0.909538 0.908220
0.404514 0.919374 0.917465
0.533546 0.937456 0.935047
0.658197 0.953919 0.951939
0.780535 0.969848 0.968437
0.896075 0.985352 0.984651
0.999597 0.999781 0.999883
0.999817 0.999900 0.999946
0.339948 0.911579 0.908989
0.340674 0.912235 0.909206
0.407361 0.921693 0.918247
0.536730 0.939369 0.935653
0.661592 0.955350 0.952389
0.784070 0.970834 0.968751
0.898507 0.985930 0.984854
0.999995 0.999997 0.999999
1.000000 1.000000 1.000000
