library/cube/Skip_Bath_002.cube
# CINEGRADE LAB — Premium Cinematic LUT
# Title: Skip Bath
# Category: Bleach Bypass
# Description: Silver retention, high contrast, desaturated bleach bypass film process
# Mood: Gritty, stark, intense
# Variant: 3
# Generated: 2026-05-21T16:12:56.700894
TITLE "Skip Bath"
LUT_3D_SIZE 5
0.000000 0.000000 0.000000
0.119640 0.013210 0.011065
0.349564 0.038525 0.032229
0.572446 0.062973 0.052624
0.672565 0.073856 0.061654
0.050364 0.160267 0.037222
0.171341 0.173690 0.048287
0.403504 0.199242 0.069451
0.628333 0.223903 0.089846
0.729157 0.234936 0.098876
0.148021 0.468307 0.108422
0.270209 0.481975 0.119486
0.504309 0.507778 0.140651
0.730790 0.532655 0.161045
0.832209 0.543840 0.170076
0.243512 0.766473 0.177030
0.366632 0.780228 0.188095
0.602221 0.806115 0.209259
0.829921 0.831042 0.229654
0.930718 0.842227 0.238684
0.287137 0.899444 0.207408
0.410849 0.913086 0.218473
0.647425 0.938858 0.239637
0.875860 0.963650 0.260032
0.972967 0.974669 0.269062
0.005034 0.004483 0.131177
0.124819 0.017704 0.142241
0.354988 0.043033 0.163406
0.578083 0.067494 0.183800
0.678283 0.078384 0.192831
0.055506 0.164824 0.168399
0.176606 0.178252 0.179463
0.408972 0.203812 0.200628
0.633976 0.228479 0.221023
0.734861 0.239513 0.230053
0.153284 0.472950 0.239598
0.275569 0.486614 0.250663
0.509830 0.512415 0.271828
0.736445 0.537288 0.292222
0.837903 0.548465 0.301252
0.248857 0.771148 0.308207
0.372048 0.784890 0.319271
0.607756 0.810766 0.340436
0.835549 0.835679 0.360830
0.936040 0.846848 0.369861
0.292501 0.904082 0.338585
0.416262 0.917706 0.349649
0.652918 0.943461 0.370814
0.881407 0.968233 0.391208
0.977919 0.979231 0.400239
0.014678 0.013062 0.382094
0.134621 0.026299 0.393159
0.365044 0.051647 0.414324
0.588363 0.076126 0.434718
0.688653 0.087026 0.443748
0.065302 0.173491 0.419317
0.186534 0.186929 0.430381
0.419112 0.212500 0.451546
0.644298 0.237176 0.471940
0.745251 0.248214 0.480971
0.163238 0.481714 0.490516
0.285627 0.495376 0.501581
0.520055 0.521177 0.522745
0.746809 0.546048 0.543140
0.848311 0.557220 0.552170
0.258920 0.779950 0.559124
0.382189 0.793681 0.570189
0.618019 0.819546 0.591354
0.845907 0.844447 0.611748
0.945818 0.855600 0.620778
0.302607 0.912852 0.589502
0.426420 0.926458 0.600567
0.663155 0.952195 0.621732
0.891699 0.976948 0.642126
0.987206 0.987924 0.651156
0.023994 0.021337 0.623881
0.144090 0.034589 0.634946
0.374761 0.059955 0.656110
0.598298 0.084449 0.676505
0.698675 0.095360 0.685535
0.074762 0.181850 0.661103
0.196123 0.195295 0.672168
0.428907 0.220877 0.693333
0.654269 0.245562 0.713727
0.755288 0.256603 0.722757
0.172847 0.490163 0.732303
0.295338 0.503824 0.743367
0.529927 0.529624 0.764532
0.756814 0.554492 0.784926
0.858358 0.565657 0.793957
0.268632 0.788434 0.800911
0.391975 0.802153 0.811976
0.627922 0.828007 0.833140
0.855901 0.852895 0.853535
0.955198 0.864031 0.862565
0.312356 0.921300 0.831289
0.436218 0.934889 0.842354
0.673029 0.960608 0.863518
0.901623 0.985340 0.883913
0.996087 0.996295 0.892943
0.028143 0.025009 0.730938
0.148375 0.038269 0.742003
0.379275 0.063648 0.763167
0.603011 0.088153 0.783562
0.703459 0.099068 0.792592
0.079003 0.185587 0.768160
0.200476 0.199035 0.779225
0.433449 0.224623 0.800389
0.658972 0.249312 0.820784
0.760043 0.260352 0.829814
0.177191 0.493973 0.839360
0.299769 0.507628 0.850424
0.534505 0.533424 0.871589
0.761513 0.558287 0.891983
0.863087 0.569443 0.901014
0.273041 0.792265 0.907968
0.396446 0.805970 0.919033
0.632499 0.831810 0.940197
0.860557 0.856683 0.960592
0.959490 0.867801 0.969622
0.316773 0.925088 0.938346
0.440675 0.938657 0.949411
0.677551 0.964357 0.970575
0.906185 0.989068 0.990970
1.000000 1.000000 1.000000
