library/cube/Skip_Bath_002.cube
# CINEGRADE LAB — Premium Cinematic LUT
# Title: Skip Bath
# Category: Bleach Bypass
# Description: Silver retention, high contrast, desaturated bleach bypass film process
# Mood: Gritty, stark, intense
# Variant: 3
# Generated: 2026-05-21T16:12:56.700894
TITLE "Skip Bath"
LUT_3D_SIZE 33
0.000000 0.000000 0.000000
0.000000 0.000000 0.000000
0.000000 0.000000 0.000000
0.000001 0.000000 0.000000
0.000001 0.000000 0.000000
0.028292 0.003126 0.002620
0.059485 0.006571 0.005506
0.089821 0.009920 0.008310
0.119640 0.013210 0.011065
0.149093 0.016458 0.013783
0.178264 0.019674 0.016473
0.207208 0.022863 0.019141
0.235963 0.026029 0.021789
0.264557 0.029177 0.024420
0.293011 0.032307 0.027036
0.321343 0.035423 0.029639
0.349564 0.038525 0.032229
0.377688 0.041614 0.034809
0.405723 0.044693 0.037379
0.433677 0.047761 0.039940
0.461557 0.050820 0.042492
0.489369 0.053870 0.045036
0.517118 0.056912 0.047572
0.544809 0.059946 0.050101
0.572446 0.062973 0.052624
0.600032 0.065993 0.055140
0.627571 0.069006 0.057650
0.655065 0.072014 0.060155
0.671628 0.073818 0.061654
0.671864 0.073828 0.061654
0.672099 0.073838 0.061654
0.672333 0.073847 0.061654
0.672565 0.073856 0.061654
0.000001 0.000000 0.000000
0.000001 0.000000 0.000000
0.000002 0.000000 0.000000
0.000003 0.000000 0.000000
0.000004 0.000000 0.000000
0.028333 0.003128 0.002620
0.059567 0.006575 0.005506
0.089943 0.009925 0.008310
0.119801 0.013217 0.011065
0.149291 0.016467 0.013783
0.178500 0.019684 0.016473
0.207480 0.022874 0.019141
0.236271 0.026042 0.021789
0.264900 0.029191 0.024420
0.293388 0.032323 0.027036
0.321753 0.035440 0.029639
0.350008 0.038543 0.032229
0.378165 0.041634 0.034809
0.406232 0.044714 0.037379
0.434217 0.047784 0.039940
0.462128 0.050844 0.042492
0.489971 0.053895 0.045036
0.517750 0.056938 0.047572
0.545471 0.059973 0.050101
0.573137 0.063001 0.052624
0.600751 0.066022 0.055140
0.628318 0.069037 0.057650
0.655840 0.072045 0.060155
0.672417 0.073850 0.061654
0.672649 0.073860 0.061654
0.672880 0.073869 0.061654
0.673109 0.073878 0.061654
0.673337 0.073887 0.061654
0.000003 0.000000 0.000000
0.000004 0.000000 0.000000
0.000005 0.000000 0.000000
0.000007 0.000000 0.000000
0.000008 0.000000 0.000000
0.028375 0.003129 0.002620
0.059650 0.006578 0.005506
0.090064 0.009930 0.008310
0.119961 0.013223 0.011065
0.149488 0.016475 0.013783
0.178733 0.019693 0.016473
0.207749 0.022885 0.019141
0.236575 0.026055 0.021789
0.265238 0.029205 0.024420
0.293760 0.032338 0.027036
0.322158 0.035456 0.029639
0.350445 0.038561 0.032229
0.378634 0.041653 0.034809
0.406732 0.044735 0.037379
0.434749 0.047805 0.039940
0.462690 0.050867 0.042492
0.490563 0.053919 0.045036
0.518371 0.056963 0.047572
0.546121 0.060000 0.050101
0.573815 0.063029 0.052624
0.601458 0.066051 0.055140
0.629052 0.069067 0.057650
0.656601 0.072076 0.060155
0.673193 0.073882 0.061654
0.673420 0.073891 0.061654
0.673646 0.073900 0.061654
0.673872 0.073909 0.061654
0.674095 0.073917 0.061654
0.000007 0.000000 0.000000
0.000009 0.000000 0.000000
0.000010 0.000000 0.000000
0.000012 0.000000 0.000000
0.000014 0.000000 0.000000
0.028417 0.003131 0.002620
0.059732 0.006581 0.005506
0.090186 0.009935 0.008310
0.120119 0.013230 0.011065
0.149683 0.016483 0.013783
0.178963 0.019703 0.016473
0.208014 0.022896 0.019141
0.236874 0.026067 0.021789
0.265571 0.029218 0.024420
0.294126 0.032353 0.027036
0.322556 0.035473 0.029639
0.350876 0.038579 0.032229
0.379095 0.041672 0.034809
0.407224 0.044755 0.037379
0.435271 0.047827 0.039940
0.463242 0.050889 0.042492
0.491144 0.053943 0.045036
0.518982 0.056988 0.047572
0.546759 0.060025 0.050101
0.574481 0.063056 0.052624
0.602151 0.066079 0.055140
0.629772 0.069095 0.057650
0.657347 0.072106 0.060155
0.673953 0.073912 0.061654
0.674176 0.073921 0.061654
0.674398 0.073929 0.061654
0.674619 0.073938 0.061654
0.674839 0.073947 0.061654
0.000013 0.000000 0.000000
0.000015 0.000000 0.000000
0.000017 0.000000 0.000000
0.000019 0.000000 0.000000
0.000022 0.000000 0.000000
0.028461 0.003132 0.002620
0.059815 0.006584 0.005506
0.090306 0.009940 0.008310
0.120276 0.013236 0.011065
0.149876 0.016490 0.013783
0.179191 0.019712 0.016473
0.208276 0.022907 0.019141
0.237170 0.026079 0.021789
0.265899 0.029232 0.024420
0.294487 0.032368 0.027036
0.322949 0.035488 0.029639
0.351299 0.038596 0.032229
0.379549 0.041690 0.034809
0.407708 0.044774 0.037379
0.435785 0.047847 0.039940
0.463785 0.050911 0.042492
0.491715 0.053966 0.045036
0.519581 0.057012 0.047572
0.547386 0.060050 0.050101
0.575135 0.063082 0.052624
0.602832 0.066106 0.055140
0.630479 0.069123 0.057650
0.658080 0.072135 0.060155
0.674699 0.073941 0.061654
0.674918 0.073950 0.061654
0.675136 0.073958 0.061654
0.675352 0.073967 0.061654
0.675567 0.073975 0.061654
0.011888 0.037891 0.008812
0.011895 0.037897 0.008812
0.011902 0.037902 0.008812
0.011909 0.037907 0.008812
0.011916 0.037913 0.008812
0.040396 0.041052 0.011432
0.071793 0.044510 0.014318
0.102325 0.047872 0.017123
0.132335 0.051175 0.019877
0.161974 0.054436 0.022596
0.191327 0.057664 0.025286
0.220450 0.060865 0.027953
0.249381 0.064044 0.030601
0.278146 0.067203 0.033232
0.306769 0.070345 0.035848
0.335267 0.073472 0.038451
0.363652 0.076585 0.041042
0.391936 0.079686 0.043622
0.420128 0.082775 0.046192
0.448237 0.085854 0.048752
0.476270 0.088923 0.051304
0.504232 0.091984 0.053848
0.532129 0.095036 0.056384
0.559965 0.098080 0.058914
0.587744 0.101116 0.061436
0.615470 0.104146 0.063953
0.643147 0.107169 0.066463
0.670777 0.110185 0.068967
0.687413 0.111997 0.070466
0.687631 0.112009 0.070466
0.687848 0.112022 0.070466
0.688064 0.112034 0.070466
0.688278 0.112046 0.070466
0.025004 0.079675 0.018521
0.025016 0.079686 0.018521
0.025028 0.079697 0.018521
0.025040 0.079708 0.018521
0.025052 0.079718 0.018521
0.053571 0.082864 0.021141
0.085010 0.086330 0.024027
0.115583 0.089699 0.026832
0.145633 0.093009 0.029586
0.175310 0.096276 0.032305
0.204702 0.099511 0.034995
0.233862 0.102718 0.037662
0.262829 0.105903 0.040310
0.291630 0.109069 0.042941
0.320289 0.112217 0.045557
0.348820 0.115350 0.048160
0.377239 0.118469 0.050751
0.405557 0.121576 0.053331
0.433782 0.124672 0.055901
0.461924 0.127757 0.058461
0.489988 0.130832 0.061013
0.517982 0.133898 0.063557
0.545909 0.136956 0.066093
0.573776 0.140005 0.068623
0.601585 0.143048 0.071145
0.629340 0.146083 0.073661
0.657046 0.149111 0.076172
0.684704 0.152133 0.078676
0.701357 0.153949 0.080175
0.701575 0.153966 0.080175
0.701791 0.153983 0.080175
0.702006 0.153999 0.080175
0.702220 0.154015 0.080175
0.037782 0.120315 0.027956
0.037798 0.120331 0.027956
0.037815 0.120347 0.027956
0.037832 0.120363 0.027956
0.037849 0.120379 0.027956
0.066406 0.123531 0.030575
0.097887 0.127004 0.033461
0.128499 0.130379 0.036266
0.158587 0.133695 0.039020
0.188303 0.136969 0.041739
0.217731 0.140209 0.044429
0.246927 0.143423 0.047097
0.275930 0.146614 0.049744
0.304766 0.149785 0.052375
0.333459 0.152939 0.054992
0.362024 0.156078 0.057594
0.390476 0.159203 0.060185
0.418826 0.162316 0.062765
0.447084 0.165417 0.065335
0.475257 0.168507 0.067896
0.503352 0.171588 0.070447
0.531376 0.174659 0.072991
0.559333 0.177722 0.075528
0.587229 0.180777 0.078057
0.615067 0.183824 0.080580
0.642851 0.186865 0.083096
0.670584 0.189898 0.085606
0.698270 0.192925 0.088111
0.714938 0.194745 0.089610
0.715156 0.194766 0.089610
0.715371 0.194786 0.089610
0.715586 0.194806 0.089610
0.715799 0.194826 0.089610
0.050364 0.160267 0.037222
0.050385 0.160288 0.037222
0.050406 0.160309 0.037222
0.050428 0.160330 0.037222
0.050449 0.160350 0.037222
0.079043 0.163509 0.039842
0.110564 0.166987 0.042728
0.141215 0.170368 0.045532
0.171341 0.173690 0.048287
0.201094 0.176969 0.051005
0.230558 0.180216 0.053696
0.259789 0.183435 0.056363
0.288826 0.186632 0.059011
0.317696 0.189808 0.061642
0.346422 0.192968 0.064258
0.375020 0.196112 0.066861
0.403504 0.199242 0.069451
0.431886 0.202360 0.072031
0.460174 0.205466 0.074601
0.488378 0.208562 0.077162
0.516503 0.211647 0.079714
0.544557 0.214724 0.082258
0.572543 0.217791 0.084794
0.600467 0.220851 0.087323
0.628333 0.223903 0.089846
0.656145 0.226948 0.092362
0.683905 0.229986 0.094872
0.711617 0.233017 0.097377
0.728301 0.234842 0.098876
0.728517 0.234866 0.098876
0.728732 0.234889 0.098876
0.728945 0.234913 0.098876
0.729157 0.234936 0.098876
0.062811 0.199731 0.046367
0.062837 0.199756 0.046367
0.062863 0.199781 0.046367
0.062889 0.199807 0.046367
0.062914 0.199831 0.046367
0.091545 0.202995 0.048987
0.123105 0.206479 0.051873
0.153794 0.209866 0.054677
0.183956 0.213194 0.057432
0.213744 0.216478 0.060150
0.243243 0.219730 0.062841
0.272509 0.222955 0.065508
0.301580 0.226156 0.068156
0.330483 0.229338 0.070787
0.359241 0.232503 0.073403
0.387871 0.235652 0.076006
0.416386 0.238787 0.078597
0.444799 0.241910 0.081177
0.473117 0.245020 0.083746
0.501350 0.248121 0.086307
0.529505 0.251211 0.088859
0.557587 0.254292 0.091403
0.585601 0.257364 0.093939
0.613553 0.260428 0.096469
0.641446 0.263484 0.098991
0.669284 0.266534 0.101507
0.697070 0.269576 0.104018
0.724808 0.272611 0.106522
0.741507 0.274440 0.108021
0.741722 0.274466 0.108021
0.741935 0.274493 0.108021
0.742147 0.274519 0.108021
0.742358 0.274545 0.108021
0.075160 0.238818 0.055418
0.075189 0.238848 0.055418
0.075219 0.238877 0.055418
0.075249 0.238906 0.055418
0.075279 0.238935 0.055418
0.103945 0.242104 0.058037
0.135543 0.245594 0.060924
0.166269 0.248986 0.063728
0.196467 0.252318 0.066482
0.226290 0.255608 0.069201
0.255823 0.258865 0.071891
0.285122 0.262094 0.074559
0.314225 0.265301 0.077206
0.343161 0.268487 0.079837
0.371950 0.271656 0.082454
0.400611 0.274810 0.085056
0.429157 0.277950 0.087647
0.457599 0.281077 0.090227
0.485947 0.284192 0.092797
0.514209 0.287297 0.095358
0.542391 0.290391 0.097910
0.570501 0.293476 0.100453
0.598542 0.296552 0.102990
0.626521 0.299621 0.105519
0.654440 0.302681 0.108042
0.682304 0.305734 0.110558
0.710115 0.308780 0.113068
0.737878 0.311819 0.115573
0.754591 0.313651 0.117072
0.754804 0.313680 0.117072
0.755016 0.313709 0.117072
0.755227 0.313738 0.117072
0.755437 0.313767 0.117072
0.087430 0.277601 0.064391
0.087464 0.277635 0.064391
0.087498 0.277668 0.064391
0.087531 0.277701 0.064391
0.087565 0.277733 0.064391
0.116265 0.280908 0.067010
0.147901 0.284402 0.069897
0.178662 0.287799 0.072701
0.208895 0.291136 0.075456
0.238752 0.294430 0.078174
0.268319 0.297692 0.080864
0.297650 0.300926 0.083532
0.326785 0.304136 0.086180
0.355752 0.307328 0.088810
0.384572 0.310501 0.091427
0.413263 0.313659 0.094029
0.441838 0.316803 0.096620
0.470309 0.319934 0.099200
0.498685 0.323053 0.101770
0.526975 0.326162 0.104331
0.555185 0.329260 0.106883
0.583321 0.332349 0.109426
0.611389 0.335429 0.111963
0.639393 0.338501 0.114492
0.667338 0.341565 0.117015
0.695226 0.344621 0.119531
0.723062 0.347671 0.122041
0.750849 0.350714 0.124546
0.767575 0.352548 0.126045
0.767787 0.352580 0.126045
0.767998 0.352612 0.126045
0.768207 0.352643 0.126045
0.768414 0.352673 0.126045
0.099638 0.316130 0.073298
0.099675 0.316167 0.073298
0.099713 0.316204 0.073298
0.099750 0.316240 0.073298
0.099787 0.316276 0.073298
0.128521 0.319455 0.075918
0.160193 0.322953 0.078804
0.190989 0.326355 0.081608
0.221256 0.329696 0.084363
0.251146 0.332995 0.087081
0.280745 0.336261 0.089772
0.310108 0.339499 0.092439
0.339274 0.342714 0.095087
0.368271 0.345909 0.097718
0.397121 0.349086 0.100334
0.425841 0.352248 0.102937
0.454445 0.355396 0.105528
0.482943 0.358531 0.108108
0.511347 0.361654 0.110677
0.539664 0.364766 0.113238
0.567900 0.367867 0.115790
0.596063 0.370960 0.118334
0.624156 0.374043 0.120870
0.652185 0.377119 0.123400
0.680154 0.380186 0.125922
0.708067 0.383246 0.128438
0.735927 0.386298 0.130949
0.763736 0.389344 0.133453
0.780475 0.391181 0.134952
0.780685 0.391215 0.134952
0.780894 0.391249 0.134952
0.781101 0.391282 0.134952
0.781307 0.391315 0.134952
0.111794 0.354440 0.082149
0.111834 0.354481 0.082149
0.111875 0.354520 0.082149
0.111916 0.354560 0.082149
0.111957 0.354599 0.082149
0.140724 0.357782 0.084769
0.172431 0.361285 0.087655
0.203261 0.364690 0.090459
0.233561 0.368036 0.093214
0.263483 0.371339 0.095932
0.293113 0.374608 0.098623
0.322507 0.377850 0.101290
0.351703 0.381069 0.103938
0.380729 0.384267 0.106569
0.409608 0.387449 0.109185
0.438356 0.390614 0.111788
0.466988 0.393765 0.114378
0.495514 0.396903 0.116958
0.523944 0.400030 0.119528
0.552287 0.403145 0.122089
0.580549 0.406250 0.124641
0.608736 0.409346 0.127185
0.636854 0.412432 0.129721
0.664908 0.415510 0.132250
0.692901 0.418581 0.134773
0.720836 0.421643 0.137289
0.748719 0.424699 0.139799
0.776550 0.427748 0.142304
0.793302 0.429587 0.143803
0.793510 0.429623 0.143803
0.793717 0.429658 0.143803
0.793922 0.429693 0.143803
0.794126 0.429727 0.143803
0.123905 0.392560 0.090950
0.123950 0.392603 0.090950
0.123994 0.392645 0.090950
0.124038 0.392688 0.090950
0.124082 0.392729 0.090950
0.152881 0.395916 0.093569
0.184622 0.399423 0.096455
0.215486 0.402832 0.099260
0.245818 0.406182 0.102014
0.275771 0.409488 0.104733
0.305431 0.412761 0.107423
0.334855 0.416007 0.110091
0.364080 0.419229 0.112738
0.393135 0.422431 0.115369
0.422042 0.425615 0.117986
0.450817 0.428784 0.120588
0.479476 0.431938 0.123179
0.508028 0.435080 0.125759
0.536484 0.438209 0.128329
0.564852 0.441327 0.130890
0.593139 0.444435 0.133441
0.621351 0.447534 0.135985
0.649492 0.450623 0.138522
0.677569 0.453704 0.141051
0.705585 0.456777 0.143574
0.733543 0.459842 0.146090
0.761447 0.462900 0.148600
0.789300 0.465951 0.151105
0.806063 0.467793 0.152604
0.806269 0.467830 0.152604
0.806474 0.467867 0.152604
0.806677 0.467903 0.152604
0.806878 0.467939 0.152604
0.135980 0.430510 0.099706
0.136027 0.430555 0.099706
0.136074 0.430601 0.099706
0.136121 0.430645 0.099706
0.136168 0.430690 0.099706
0.164998 0.433880 0.102325
0.196773 0.437390 0.105212
0.227669 0.440803 0.108016
0.258032 0.444156 0.110770
0.288016 0.447466 0.113489
0.317706 0.450742 0.116179
0.347158 0.453991 0.118847
0.376412 0.457216 0.121494
0.405494 0.460421 0.124125
0.434428 0.463608 0.126742
0.463230 0.466780 0.129344
0.491914 0.469937 0.131935
0.520492 0.473081 0.134515
0.548973 0.476213 0.137085
0.577366 0.479334 0.139646
0.605676 0.482445 0.142198
0.633911 0.485545 0.144741
0.662076 0.488637 0.147278
0.690175 0.491720 0.149807
0.718213 0.494796 0.152330
0.746192 0.497863 0.154846
0.774117 0.500923 0.157356
0.801991 0.503977 0.159861
0.818765 0.505820 0.161360
0.818969 0.505858 0.161360
0.819171 0.505896 0.161360
0.819372 0.505934 0.161360
0.819571 0.505970 0.161360
0.148021 0.468307 0.108422
0.148071 0.468355 0.108422
0.148122 0.468403 0.108422
0.148172 0.468450 0.108422
0.148221 0.468496 0.108422
0.177082 0.471690 0.111041
0.208889 0.475204 0.113927
0.239816 0.478619 0.116732
0.270209 0.481975 0.119486
0.300222 0.485288 0.122205
0.329941 0.488567 0.124895
0.359422 0.491819 0.127562
0.388702 0.495047 0.130210
0.417812 0.498255 0.132841
0.446772 0.501445 0.135457
0.475600 0.504619 0.138060
0.504309 0.507778 0.140651
0.532911 0.510925 0.143231
0.561417 0.514059 0.145801
0.589833 0.517182 0.148361
0.618166 0.520295 0.150913
0.646424 0.523398 0.153457
0.674611 0.526492 0.155994
0.702731 0.529577 0.158523
0.730790 0.532655 0.161045
0.758790 0.535724 0.163562
0.786736 0.538786 0.166072
0.814629 0.541841 0.168576
0.831414 0.543686 0.170076
0.831615 0.543725 0.170076
0.831815 0.543764 0.170076
0.832013 0.543802 0.170076
0.832209 0.543840 0.170076
0.160034 0.505967 0.117101
0.160087 0.506017 0.117101
0.160140 0.506066 0.117101
0.160192 0.506115 0.117101
0.160245 0.506163 0.117101
0.189134 0.509360 0.119720
0.220973 0.512876 0.122606
0.251930 0.516295 0.125411
0.282353 0.519654 0.128165
0.312395 0.522969 0.130884
0.342142 0.526251 0.133574
0.371649 0.529505 0.136241
0.400956 0.532735 0.138889
0.430092 0.535946 0.141520
0.459077 0.539138 0.144136
0.487930 0.542314 0.146739
0.516663 0.545476 0.149330
0.545290 0.548625 0.151910
0.573818 0.551761 0.154480
0.602257 0.554886 0.157040
0.630613 0.558001 0.159592
0.658892 0.561106 0.162136
0.687100 0.564202 0.164672
0.715241 0.567289 0.167202
0.743320 0.570368 0.169724
0.771340 0.573439 0.172241
0.799305 0.576502 0.174751
0.827217 0.579559 0.177255
0.844012 0.581405 0.178755
0.844211 0.581445 0.178755
0.844407 0.581484 0.178755
0.844603 0.581523 0.178755
0.844796 0.581561 0.178755
0.172020 0.543499 0.125746
0.172076 0.543551 0.125746
0.172131 0.543602 0.125746
0.172187 0.543652 0.125746
0.172242 0.543702 0.125746
0.201160 0.546901 0.128365
0.233029 0.550421 0.131251
0.264016 0.553842 0.134056
0.294467 0.557203 0.136810
0.324536 0.560521 0.139529
0.354310 0.563805 0.142219
0.383844 0.567061 0.144887
0.413177 0.570294 0.147534
0.442337 0.573506 0.150165
0.471347 0.576700 0.152781
0.500224 0.579878 0.155384
0.528981 0.583042 0.157975
0.557630 0.586192 0.160555
0.586181 0.589331 0.163125
0.614641 0.592458 0.165685
0.643018 0.595574 0.168237
0.671319 0.598680 0.170781
0.699547 0.601777 0.173318
0.727708 0.604866 0.175847
0.755807 0.607946 0.178370
0.783846 0.611018 0.180886
0.811829 0.614083 0.183396
0.839759 0.617141 0.185900
0.856563 0.618988 0.187400
0.856759 0.619028 0.187400
0.856953 0.619068 0.187400
0.857145 0.619107 0.187400
0.857336 0.619145 0.187400
0.183984 0.580914 0.134360
0.184042 0.580967 0.134360
0.184100 0.581020 0.134360
0.184157 0.581072 0.134360
0.184214 0.581123 0.134360
0.213160 0.584324 0.136979
0.245060 0.587846 0.139865
0.276075 0.591269 0.142670
0.306553 0.594632 0.145424
0.336649 0.597952 0.148143
0.366449 0.601238 0.150833
0.396008 0.604496 0.153500
0.425366 0.607731 0.156148
0.454551 0.610945 0.158779
0.483584 0.614141 0.161395
0.512484 0.617321 0.163998
0.541263 0.620486 0.166589
0.569935 0.623638 0.169169
0.598507 0.626777 0.171739
0.626988 0.629905 0.174299
0.655386 0.633023 0.176851
0.683707 0.636131 0.179395
0.711955 0.639229 0.181932
0.740135 0.642319 0.184461
0.768252 0.645400 0.186984
0.796309 0.648473 0.189500
0.824310 0.651539 0.192010
0.852257 0.654597 0.194514
0.869071 0.656445 0.196014
0.869263 0.656485 0.196014
0.869454 0.656525 0.196014
0.869643 0.656564 0.196014
0.869831 0.656602 0.196014
0.195926 0.618220 0.142945
0.195986 0.618274 0.142945
0.196046 0.618328 0.142945
0.196106 0.618381 0.142945
0.196165 0.618433 0.142945
0.225138 0.621636 0.145564
0.257066 0.625160 0.148450
0.288109 0.628585 0.151255
0.318614 0.631950 0.154009
0.348736 0.635272 0.156728
0.378561 0.638559 0.159418
0.408145 0.641819 0.162085
0.437526 0.645055 0.164733
0.466734 0.648270 0.167364
0.495791 0.651468 0.169980
0.524713 0.654649 0.172583
0.553514 0.657815 0.175174
0.582206 0.660968 0.177754
0.610799 0.664109 0.180324
0.639301 0.667238 0.182884
0.667718 0.670357 0.185436
0.696058 0.673465 0.187980
0.724325 0.676565 0.190517
0.752523 0.679655 0.193046
0.780658 0.682737 0.195569
0.808732 0.685811 0.198085
0.836750 0.688877 0.200595
0.864714 0.691936 0.203099
0.881535 0.693784 0.204599
0.881725 0.693824 0.204599
0.881912 0.693863 0.204599
0.882098 0.693902 0.204599
0.882282 0.693940 0.204599
0.207848 0.655423 0.151503
0.207911 0.655478 0.151503
0.207973 0.655533 0.151503
0.208035 0.655587 0.151503
0.208096 0.655640 0.151503
0.237094 0.658845 0.154122
0.269051 0.662370 0.157008
0.300120 0.665797 0.159813
0.330651 0.669163 0.162567
0.360798 0.672486 0.165286
0.390647 0.675775 0.167976
0.420255 0.679036 0.170643
0.449659 0.682273 0.173291
0.478890 0.685489 0.175922
0.507968 0.688688 0.178538
0.536911 0.691870 0.181141
0.565734 0.695037 0.183732
0.594446 0.698191 0.186312
0.623059 0.701333 0.188882
0.651580 0.704463 0.191442
0.680016 0.707582 0.193994
0.708374 0.710691 0.196538
0.736659 0.713791 0.199075
0.764875 0.716882 0.201604
0.793027 0.719964 0.204126
0.821118 0.723038 0.206643
0.849151 0.726105 0.209153
0.877130 0.729164 0.211657
0.893960 0.731012 0.213157
0.894146 0.731052 0.213157
0.894330 0.731091 0.213157
0.894512 0.731129 0.213157
0.894693 0.731166 0.213157
0.219753 0.692529 0.160035
0.219817 0.692585 0.160035
0.219881 0.692641 0.160035
0.219945 0.692695 0.160035
0.220008 0.692749 0.160035
0.249031 0.695955 0.162655
0.281015 0.699481 0.165541
0.312110 0.702909 0.168345
0.342666 0.706277 0.171100
0.372837 0.709601 0.173818
0.402709 0.712891 0.176509
0.432340 0.716153 0.179176
0.461767 0.719391 0.181824
0.491019 0.722608 0.184455
0.520118 0.725807 0.187071
0.549082 0.728990 0.189674
0.577924 0.732158 0.192265
0.606656 0.735313 0.194844
0.635288 0.738455 0.197414
0.663827 0.741585 0.199975
0.692282 0.744705 0.202527
0.720657 0.747814 0.205071
0.748959 0.750914 0.207607
0.777191 0.754005 0.210136
0.805359 0.757088 0.212659
0.833466 0.760162 0.215175
0.861515 0.763229 0.217685
0.889509 0.766288 0.220190
0.906345 0.768135 0.221689
0.906527 0.768174 0.221689
0.906708 0.768212 0.221689
0.906887 0.768250 0.221689
0.907064 0.768286 0.221689
0.231640 0.729545 0.168544
0.231706 0.729601 0.168544
0.231772 0.729656 0.168544
0.231837 0.729711 0.168544
0.231902 0.729765 0.168544
0.260950 0.732972 0.171163
0.292959 0.736500 0.174050
0.324079 0.739929 0.176854
0.354659 0.743297 0.179608
0.384853 0.746622 0.182327
0.414748 0.749913 0.185017
0.444401 0.753175 0.187685
0.473849 0.756414 0.190332
0.503122 0.759632 0.192963
0.532241 0.762831 0.195580
0.561225 0.766014 0.198182
0.590086 0.769183 0.200773
0.618837 0.772337 0.203353
0.647487 0.775480 0.205923
0.676044 0.778610 0.208484
0.704516 0.781730 0.211036
0.732908 0.784839 0.213579
0.761225 0.787939 0.216116
0.789474 0.791030 0.218645
0.817657 0.794112 0.221168
0.845778 0.797186 0.223684
0.873841 0.800253 0.226194
0.901849 0.803311 0.228699
0.918369 0.805158 0.230198
0.918537 0.805196 0.230198
0.918703 0.805233 0.230198
0.918867 0.805270 0.230198
0.919029 0.805305 0.230198
0.243512 0.766473 0.177030
0.243579 0.766529 0.177030
0.243647 0.766585 0.177030
0.243713 0.766639 0.177030
0.243780 0.766693 0.177030
0.272851 0.769901 0.179650
0.304885 0.773429 0.182536
0.336029 0.776859 0.185340
0.366632 0.780228 0.188095
0.396849 0.783553 0.190813
0.426765 0.786844 0.193503
0.456439 0.790107 0.196171
0.485907 0.793346 0.198819
0.515200 0.796564 0.201450
0.544339 0.799764 0.204066
0.573341 0.802947 0.206668
0.602221 0.806115 0.209259
0.630990 0.809270 0.211839
0.659657 0.812412 0.214409
0.688231 0.815542 0.216970
0.716719 0.818662 0.219522
0.745127 0.821771 0.222066
0.773460 0.824870 0.224602
0.801723 0.827961 0.227131
0.829921 0.831042 0.229654
0.858056 0.834116 0.232170
0.886133 0.837182 0.234680
0.914024 0.840240 0.237185
0.930116 0.842085 0.238684
0.930270 0.842122 0.238684
0.930421 0.842158 0.238684
0.930571 0.842193 0.238684
0.930718 0.842227 0.238684
0.255368 0.803317 0.185495
0.255437 0.803373 0.185495
0.255505 0.803429 0.185495
0.255573 0.803483 0.185495
0.255641 0.803537 0.185495
0.284734 0.806745 0.188114
0.316793 0.810274 0.191000
0.347960 0.813703 0.193805
0.378585 0.817073 0.196559
0.408823 0.820398 0.199278
0.438761 0.823689 0.201968
0.468455 0.826952 0.204635
0.497943 0.830191 0.207283
0.527255 0.833409 0.209914
0.556412 0.836608 0.212530
0.585432 0.839791 0.215133
0.614330 0.842959 0.217724
0.643115 0.846114 0.220304
0.671799 0.849255 0.222874
0.700389 0.852385 0.225434
0.728892 0.855504 0.227986
0.757315 0.858613 0.230530
0.785663 0.861711 0.233067
0.813940 0.864801 0.235596
0.842151 0.867882 0.238119
0.870300 0.870955 0.240635
0.898389 0.874019 0.243145
0.925720 0.877077 0.245649
0.941760 0.878921 0.247149
0.941899 0.878956 0.247149
0.942036 0.878991 0.247149
0.942170 0.879024 0.247149
0.942303 0.879057 0.247149
0.267209 0.840081 0.193939
0.267279 0.840137 0.193939
0.267349 0.840192 0.193939
0.267418 0.840246 0.193939
0.267487 0.840299 0.193939
0.296602 0.843507 0.196559
0.328684 0.847036 0.199445
0.359873 0.850466 0.202249
0.390520 0.853835 0.205004
0.420778 0.857160 0.207722
0.450736 0.860451 0.210413
0.480449 0.863714 0.213080
0.509956 0.866952 0.215728
0.539286 0.870170 0.218359
0.568461 0.873369 0.220975
0.597498 0.876551 0.223578
0.626412 0.879719 0.226168
0.655214 0.882872 0.228748
0.683913 0.886013 0.231318
0.712518 0.889142 0.233879
