library/cube/Skip_Bath_002.cube
# CINEGRADE LAB — Premium Cinematic LUT
# Title: Skip Bath
# Category: Bleach Bypass
# Description: Silver retention, high contrast, desaturated bleach bypass film process
# Mood: Gritty, stark, intense
# Variant: 3
# Generated: 2026-05-21T16:12:56.700894
TITLE "Skip Bath"
LUT_3D_SIZE 9
0.000000 0.000000 0.000000
0.000001 0.000000 0.000000
0.119640 0.013210 0.011065
0.235963 0.026029 0.021789
0.349564 0.038525 0.032229
0.461557 0.050820 0.042492
0.572446 0.062973 0.052624
0.671628 0.073818 0.061654
0.672565 0.073856 0.061654
0.000013 0.000000 0.000000
0.000022 0.000000 0.000000
0.120276 0.013236 0.011065
0.237170 0.026079 0.021789
0.351299 0.038596 0.032229
0.463785 0.050911 0.042492
0.575135 0.063082 0.052624
0.674699 0.073941 0.061654
0.675567 0.073975 0.061654
0.050364 0.160267 0.037222
0.050449 0.160350 0.037222
0.171341 0.173690 0.048287
0.288826 0.186632 0.059011
0.403504 0.199242 0.069451
0.516503 0.211647 0.079714
0.628333 0.223903 0.089846
0.728301 0.234842 0.098876
0.729157 0.234936 0.098876
0.099638 0.316130 0.073298
0.099787 0.316276 0.073298
0.221256 0.329696 0.084363
0.339274 0.342714 0.095087
0.454445 0.355396 0.105528
0.567900 0.367867 0.115790
0.680154 0.380186 0.125922
0.780475 0.391181 0.134952
0.781307 0.391315 0.134952
0.148021 0.468307 0.108422
0.148221 0.468496 0.108422
0.270209 0.481975 0.119486
0.388702 0.495047 0.130210
0.504309 0.507778 0.140651
0.618166 0.520295 0.150913
0.730790 0.532655 0.161045
0.831414 0.543686 0.170076
0.832209 0.543840 0.170076
0.195926 0.618220 0.142945
0.196165 0.618433 0.142945
0.318614 0.631950 0.154009
0.437526 0.645055 0.164733
0.553514 0.657815 0.175174
0.667718 0.670357 0.185436
0.780658 0.682737 0.195569
0.881535 0.693784 0.204599
0.882282 0.693940 0.204599
0.243512 0.766473 0.177030
0.243780 0.766693 0.177030
0.366632 0.780228 0.188095
0.485907 0.793346 0.198819
0.602221 0.806115 0.209259
0.716719 0.818662 0.219522
0.829921 0.831042 0.229654
0.930116 0.842085 0.238684
0.930718 0.842227 0.238684
0.286219 0.898807 0.207408
0.286500 0.899014 0.207408
0.409695 0.912544 0.218473
0.529275 0.925652 0.229197
0.645857 0.938409 0.239637
0.760591 0.950938 0.249900
0.873999 0.963298 0.260032
0.971665 0.974316 0.269062
0.972026 0.974425 0.269062
0.287137 0.899444 0.207408
0.287394 0.899600 0.207408
0.410849 0.913086 0.218473
0.530652 0.926149 0.229197
0.647425 0.938858 0.239637
0.762320 0.951339 0.249900
0.875860 0.963650 0.260032
0.972731 0.974616 0.269062
0.972967 0.974669 0.269062
0.000000 0.000000 0.000000
0.000002 0.000000 0.000000
0.119705 0.013213 0.011065
0.236088 0.026035 0.021789
0.349744 0.038532 0.032229
0.461789 0.050830 0.042492
0.572726 0.062985 0.052624
0.671948 0.073831 0.061654
0.672879 0.073869 0.061654
0.000015 0.000000 0.000000
0.000025 0.000000 0.000000
0.120339 0.013239 0.011065
0.237288 0.026083 0.021789
0.351468 0.038602 0.032229
0.464002 0.050919 0.042492
0.575396 0.063092 0.052624
0.674996 0.073953 0.061654
0.675857 0.073986 0.061654
0.050393 0.160296 0.037222
0.050479 0.160378 0.037222
0.171425 0.173719 0.048287
0.288959 0.186662 0.059011
0.403684 0.199273 0.069451
0.516725 0.211679 0.079714
0.628594 0.223935 0.089846
0.728594 0.234874 0.098876
0.729443 0.234966 0.098876
0.099689 0.316180 0.073298
0.099838 0.316324 0.073298
0.221356 0.329745 0.084363
0.339418 0.342762 0.095087
0.454630 0.355444 0.105528
0.568123 0.367915 0.115790
0.680412 0.380233 0.125922
0.780760 0.391228 0.134952
0.781584 0.391359 0.134952
0.148089 0.468372 0.108422
0.148289 0.468559 0.108422
0.270321 0.482037 0.119486
0.388853 0.495107 0.130210
0.504496 0.507837 0.140651
0.618386 0.520352 0.150913
0.731040 0.532710 0.161045
0.831687 0.543739 0.170076
0.832473 0.543890 0.170076
0.196008 0.618293 0.142945
0.196246 0.618503 0.142945
0.318733 0.632018 0.154009
0.437680 0.645120 0.164733
0.553699 0.657878 0.175174
0.667931 0.670417 0.185436
0.780896 0.682795 0.195569
0.881792 0.693838 0.204599
0.882530 0.693991 0.204599
0.243604 0.766549 0.177030
0.243869 0.766765 0.177030
0.366755 0.780297 0.188095
0.486060 0.793411 0.198819
0.602400 0.806177 0.209259
0.716921 0.818719 0.219522
0.830143 0.831096 0.229654
0.930324 0.842135 0.238684
0.930916 0.842272 0.238684
0.286315 0.898879 0.207408
0.286594 0.899081 0.207408
0.409818 0.912606 0.218473
0.529422 0.925711 0.229197
0.646025 0.938462 0.239637
0.760777 0.950987 0.249900
0.874201 0.963342 0.260032
0.971792 0.974355 0.269062
0.972140 0.974458 0.269062
0.287225 0.899498 0.207408
0.287479 0.899649 0.207408
0.410958 0.913130 0.218473
0.530782 0.926189 0.229197
0.647571 0.938894 0.239637
0.762480 0.951370 0.249900
0.876032 0.963675 0.260032
0.972815 0.974636 0.269062
0.973040 0.974683 0.269062
0.005034 0.004483 0.131177
0.005044 0.004485 0.131177
0.124819 0.017704 0.142241
0.241269 0.030531 0.152965
0.354988 0.043033 0.163406
0.467091 0.055335 0.173668
0.578083 0.067494 0.183800
0.677352 0.078345 0.192831
0.678283 0.078384 0.192831
0.005078 0.004492 0.131177
0.005096 0.004494 0.131177
0.125476 0.017738 0.142241
0.242487 0.030587 0.152965
0.356724 0.043110 0.163406
0.469312 0.055432 0.173668
0.580756 0.067608 0.183800
0.680399 0.078472 0.192831
0.681260 0.078507 0.192831
0.055506 0.164824 0.168399
0.055599 0.164907 0.168399
0.176606 0.178252 0.179463
0.294196 0.191198 0.190187
0.408972 0.203812 0.200628
0.522062 0.216221 0.210890
0.633976 0.228479 0.221023
0.734014 0.239420 0.230053
0.734861 0.239513 0.230053
0.104846 0.320737 0.204475
0.105001 0.320881 0.204475
0.226574 0.334304 0.215540
0.344687 0.347323 0.226264
0.459944 0.360006 0.236704
0.573481 0.372479 0.246967
0.685809 0.384797 0.257099
0.786190 0.395793 0.266129
0.787011 0.395923 0.266129
0.153284 0.472950 0.239598
0.153489 0.473136 0.239598
0.275569 0.486614 0.250663
0.394147 0.499685 0.261387
0.509830 0.512415 0.271828
0.623758 0.524930 0.282090
0.736445 0.537288 0.292222
0.837120 0.548316 0.301252
0.837903 0.548465 0.301252
0.201235 0.622885 0.274121
0.201476 0.623093 0.274121
0.324007 0.636607 0.285186
0.442993 0.649709 0.295910
0.559047 0.662465 0.306351
0.673311 0.675003 0.316613
0.786304 0.687378 0.326745
0.887224 0.698420 0.335775
0.887956 0.698570 0.335775
0.248857 0.771148 0.308207
0.249125 0.771361 0.308207
0.372048 0.784890 0.319271
0.491387 0.798003 0.329995
0.607756 0.810766 0.340436
0.722304 0.823306 0.350698
0.835549 0.835679 0.360830
0.935474 0.846715 0.369861
0.936040 0.846848 0.369861
0.291588 0.903478 0.338585
0.291868 0.903676 0.338585
0.415123 0.917197 0.349649
0.534755 0.930298 0.360373
0.651383 0.943046 0.370814
0.766156 0.955566 0.381076
0.879598 0.967917 0.391208
0.976808 0.978925 0.400239
0.977125 0.979023 0.400239
0.292501 0.904082 0.338585
0.292757 0.904229 0.338585
0.416262 0.917706 0.349649
0.536109 0.930761 0.360373
0.652918 0.943461 0.370814
0.767842 0.955932 0.381076
0.881407 0.968233 0.391208
0.977727 0.979188 0.400239
0.977919 0.979231 0.400239
0.009918 0.008829 0.258315
0.009937 0.008834 0.258315
0.129782 0.022058 0.269379
0.246298 0.034890 0.280103
0.360079 0.047397 0.290544
0.472240 0.059704 0.300807
0.583287 0.071867 0.310939
0.682602 0.082721 0.319969
0.683532 0.082762 0.319969
0.009990 0.008847 0.258315
0.010015 0.008852 0.258315
0.130462 0.022100 0.269379
0.247533 0.034954 0.280103
0.361827 0.047481 0.290544
0.474468 0.059806 0.300807
0.585962 0.071986 0.310939
0.685647 0.082854 0.319969
0.686506 0.082890 0.319969
0.060467 0.169215 0.295537
0.060567 0.169300 0.295537
0.181633 0.182647 0.306602
0.299279 0.195596 0.317326
0.414106 0.208214 0.327766
0.527244 0.220624 0.338029
0.639202 0.232885 0.348161
0.739276 0.243828 0.357191
0.740121 0.243921 0.357191
0.109850 0.325156 0.331613
0.110010 0.325300 0.331613
0.231637 0.338725 0.342678
0.349800 0.351745 0.353402
0.465103 0.364430 0.363843
0.578681 0.376903 0.374105
0.691048 0.389223 0.384237
0.791461 0.400219 0.393267
0.792279 0.400348 0.393267
0.158325 0.477390 0.366736
0.158534 0.477574 0.366736
0.280663 0.491053 0.377801
0.399284 0.504124 0.388525
0.515008 0.516854 0.398966
0.628972 0.529369 0.409228
0.741693 0.541726 0.419360
0.842395 0.552753 0.428390
0.843173 0.552900 0.428390
0.206306 0.627338 0.401260
0.206551 0.627544 0.401260
0.329124 0.641057 0.412324
0.448149 0.654157 0.423048
0.564237 0.666912 0.433489
0.678533 0.679448 0.443751
0.791554 0.691822 0.453883
0.892495 0.702861 0.462914
0.893223 0.703008 0.462914
0.253953 0.775607 0.435345
0.254224 0.775817 0.435345
0.377184 0.789344 0.446409
0.496555 0.802454 0.457133
0.612954 0.815214 0.467574
0.727527 0.827751 0.477836
0.840795 0.840122 0.487969
0.940459 0.851154 0.496999
0.940999 0.851282 0.496999
0.296703 0.907936 0.465723
0.296984 0.908129 0.465723
0.420270 0.921648 0.476787
0.539930 0.934744 0.487511
0.656581 0.947488 0.497952
0.771375 0.960004 0.508215
0.884833 0.972351 0.518347
0.981657 0.983354 0.527377
0.981944 0.983447 0.527377
0.297620 0.908526 0.465723
0.297876 0.908667 0.465723
0.421407 0.922141 0.476787
0.541276 0.935191 0.487511
0.658103 0.947887 0.497952
0.773044 0.960354 0.508215
0.886621 0.972649 0.518347
0.982473 0.983600 0.527377
0.982633 0.983636 0.527377
0.014678 0.013062 0.382094
0.014706 0.013071 0.382094
0.134621 0.026299 0.393159
0.251202 0.039136 0.403883
0.365044 0.051647 0.414324
0.477262 0.063958 0.424586
0.588363 0.076126 0.434718
0.687724 0.086984 0.443748
0.688653 0.087026 0.443748
0.014777 0.013089 0.382094
0.014810 0.013096 0.382094
0.135322 0.026349 0.393159
0.252453 0.039207 0.403883
0.366803 0.051738 0.414324
0.479496 0.064067 0.424586
0.591039 0.076251 0.434718
0.690765 0.087121 0.443748
0.691623 0.087159 0.443748
0.065302 0.173491 0.419317
0.065409 0.173577 0.419317
0.186534 0.186929 0.430381
0.304235 0.199880 0.441105
0.419112 0.212500 0.451546
0.532296 0.224913 0.461808
0.644298 0.237176 0.471940
0.744409 0.248121 0.480971
0.745251 0.248214 0.480971
0.114727 0.329460 0.455393
0.114893 0.329604 0.455393
0.236573 0.343030 0.466457
0.354784 0.356053 0.477181
0.470133 0.368738 0.487622
0.583752 0.381213 0.497884
0.696157 0.393533 0.508017
0.796602 0.404530 0.517047
0.797416 0.404658 0.517047
0.163238 0.481714 0.490516
0.163451 0.481897 0.490516
0.285627 0.495376 0.501581
0.404292 0.508447 0.512305
0.520055 0.521177 0.522745
0.634055 0.533692 0.533008
0.746809 0.546048 0.543140
0.847537 0.557075 0.552170
0.848311 0.557220 0.552170
0.211249 0.631675 0.525039
0.211497 0.631878 0.525039
0.334112 0.645390 0.536104
0.453174 0.658489 0.546828
0.569296 0.671243 0.557268
0.683622 0.683777 0.567531
0.796671 0.696149 0.577663
0.897634 0.707186 0.586693
0.898355 0.707330 0.586693
0.258920 0.779950 0.559124
0.259193 0.780157 0.559124
0.382189 0.793681 0.570189
0.501592 0.806788 0.580913
0.618019 0.819546 0.591354
0.732617 0.832080 0.601616
0.845907 0.844447 0.611748
0.945303 0.855475 0.620778
0.945818 0.855600 0.620778
0.301687 0.912277 0.589502
0.301969 0.912466 0.589502
0.425286 0.925981 0.600567
0.544972 0.939074 0.611291
0.661646 0.951813 0.621732
0.776459 0.964325 0.631994
0.889935 0.976667 0.642126
0.986365 0.987666 0.651156
0.986623 0.987753 0.651156
0.302607 0.912852 0.589502
0.302864 0.912989 0.589502
0.426420 0.926458 0.600567
0.546310 0.939504 0.611291
0.663155 0.952195 0.621732
0.778111 0.964658 0.631994
0.891699 0.976948 0.642126
0.987078 0.987893 0.651156
0.987206 0.987924 0.651156
0.019363 0.017225 0.503759
0.019398 0.017236 0.503759
0.139383 0.030470 0.514824
0.256029 0.043311 0.525548
0.369931 0.055827 0.535989
0.482205 0.068142 0.546251
0.593359 0.080313 0.556383
0.692765 0.091175 0.565413
0.693693 0.091219 0.565413
0.019488 0.017259 0.503759
0.019529 0.017269 0.503759
0.140104 0.030526 0.514824
0.257295 0.043389 0.525548
0.371700 0.055924 0.535989
0.484444 0.068257 0.546251
0.596036 0.080443 0.556383
0.695802 0.091317 0.565413
0.696659 0.091356 0.565413
0.070060 0.177697 0.540981
0.070173 0.177784 0.540981
0.191357 0.191138 0.552046
0.309111 0.204093 0.562770
0.424038 0.216715 0.573211
0.537268 0.229130 0.583473
0.649313 0.241396 0.593605
0.749459 0.252342 0.602635
0.750300 0.252435 0.602635
0.119525 0.333692 0.577058
0.119697 0.333836 0.577058
0.241430 0.347264 0.588122
0.359689 0.360288 0.598846
0.475081 0.372975 0.609287
0.588742 0.385450 0.619549
0.701184 0.397771 0.629682
0.801660 0.408768 0.638712
0.802470 0.408895 0.638712
0.168071 0.485965 0.612181
0.168288 0.486147 0.612181
0.290511 0.499627 0.623246
0.409219 0.512697 0.633970
0.525020 0.525427 0.644410
0.639056 0.537941 0.654673
0.751842 0.550297 0.664805
0.852596 0.561323 0.673835
0.853365 0.561465 0.673835
0.216111 0.635938 0.646704
0.216362 0.636139 0.646704
0.339018 0.649651 0.657769
0.458117 0.662748 0.668493
0.574273 0.675500 0.678933
0.688629 0.688033 0.689196
0.801704 0.700402 0.699328
0.902688 0.711437 0.708358
0.903404 0.711577 0.708358
0.263805 0.784219 0.680789
0.264080 0.784422 0.680789
0.387111 0.797944 0.691854
0.506546 0.811049 0.702578
0.623001 0.823803 0.713019
0.737624 0.836334 0.723281
0.850935 0.848698 0.733413
0.950055 0.859723 0.742443
0.950544 0.859843 0.742443
0.306589 0.916543 0.711167
0.306873 0.916728 0.711167
0.430219 0.930239 0.722232
0.549930 0.943328 0.732956
0.666627 0.956064 0.743397
0.781460 0.968571 0.753659
0.894951 0.980909 0.763791
0.990979 0.991902 0.772821
0.991206 0.991984 0.772821
0.307512 0.917103 0.711167
0.307769 0.917236 0.711167
0.431349 0.930701 0.722232
0.551260 0.943743 0.732956
0.668123 0.956429 0.743397
0.783092 0.968886 0.753659
0.896693 0.981172 0.763791
0.991588 0.992112 0.772821
0.991684 0.992137 0.772821
0.023994 0.021337 0.623881
0.024037 0.021350 0.623881
0.144090 0.034589 0.634946
0.260800 0.047435 0.645670
0.374761 0.059955 0.656110
0.487092 0.072274 0.666373
0.598298 0.084449 0.676505
0.697748 0.095314 0.685535
0.698675 0.095360 0.685535
0.024144 0.021379 0.623881
0.024192 0.021391 0.623881
0.144830 0.034652 0.634946
0.262080 0.047519 0.645670
0.376540 0.060058 0.656110
0.489335 0.072394 0.666373
0.600974 0.084584 0.676505
0.700781 0.095461 0.685535
0.701636 0.095501 0.685535
0.074762 0.181850 0.661103
0.074881 0.181938 0.661103
0.196123 0.195295 0.672168
0.313930 0.208253 0.682892
0.428907 0.220877 0.693333
0.542182 0.233295 0.703595
0.654269 0.245562 0.713727
0.754451 0.256510 0.722757
0.755288 0.256603 0.722757
0.124268 0.337871 0.697179
0.124444 0.338015 0.697179
0.246229 0.351445 0.708244
0.364536 0.364470 0.718968
0.479972 0.377158 0.729409
0.593672 0.389634 0.739671
0.706152 0.401956 0.749803
0.806657 0.412952 0.758833
0.807464 0.413079 0.758833
0.172847 0.490163 0.732303
0.173068 0.490344 0.732303
0.295338 0.503824 0.743367
0.414087 0.516895 0.754091
0.529927 0.529624 0.764532
0.643997 0.542138 0.774794
0.756814 0.554492 0.784926
0.857594 0.565517 0.793957
0.858358 0.565657 0.793957
0.220915 0.640148 0.766826
0.221169 0.640347 0.766826
0.343866 0.653857 0.777890
0.463001 0.666953 0.788614
0.579189 0.679704 0.799055
0.693575 0.692234 0.809317
0.806677 0.704602 0.819450
0.907681 0.715634 0.828480
0.908391 0.715771 0.828480
0.268632 0.788434 0.800911
0.268909 0.788634 0.800911
0.391975 0.802153 0.811976
0.511440 0.815255 0.822700
0.627922 0.828007 0.833140
0.742569 0.840534 0.843403
0.855901 0.852895 0.853535
0.954735 0.863915 0.862565
0.955198 0.864031 0.862565
0.311432 0.920756 0.831289
0.311716 0.920936 0.831289
0.435091 0.934443 0.842354
0.554828 0.947528 0.853078
0.671546 0.960260 0.863518
0.786398 0.972763 0.873781
0.899905 0.985095 0.883913
0.995519 0.996084 0.892943
0.995717 0.996161 0.892943
0.312356 0.921300 0.831289
0.312614 0.921428 0.831289
0.436218 0.934889 0.842354
0.556149 0.947926 0.853078
0.673029 0.960608 0.863518
0.788012 0.973060 0.873781
0.901623 0.985340 0.883913
0.996024 0.996275 0.892943
0.996087 0.996295 0.892943
0.028127 0.025004 0.730938
0.028176 0.025019 0.730938
0.148297 0.038262 0.742003
0.265070 0.051112 0.752727
0.379089 0.063636 0.763167
0.491474 0.075959 0.773430
0.602732 0.088138 0.783562
0.702225 0.099006 0.792592
0.703150 0.099053 0.792592
0.028299 0.025052 0.730938
0.028353 0.025066 0.730938
0.149054 0.038331 0.742003
0.266362 0.051202 0.752727
0.380875 0.063745 0.763167
0.493720 0.076084 0.773430
0.605406 0.088277 0.783562
0.705251 0.099157 0.792592
0.706104 0.099198 0.792592
0.078961 0.185556 0.768160
0.079085 0.185645 0.768160
0.200383 0.199005 0.779225
0.318243 0.211964 0.789949
0.433267 0.224591 0.800389
0.546587 0.237011 0.810652
0.658715 0.249280 0.820784
0.758931 0.260229 0.829814
0.759765 0.260322 0.829814
0.128504 0.341602 0.804236
0.128684 0.341746 0.804236
0.250520 0.355177 0.815301
0.368873 0.368203 0.826025
0.484352 0.380891 0.836466
0.598091 0.393368 0.846728
0.710607 0.405690 0.856860
0.811142 0.416687 0.865890
0.811944 0.416812 0.865890
0.177115 0.493912 0.839360
0.177339 0.494091 0.839360
0.299653 0.507571 0.850424
0.418444 0.520641 0.861148
0.534321 0.533370 0.871589
0.648424 0.545883 0.881851
0.761273 0.558237 0.891983
0.862077 0.569260 0.901014
0.862835 0.569398 0.901014
0.225208 0.643907 0.873883
0.225465 0.644104 0.873883
0.348201 0.657612 0.884947
0.467372 0.670707 0.895671
0.583591 0.683456 0.906112
0.698005 0.695984 0.916374
0.811132 0.708349 0.926507
0.912108 0.719379 0.935537
0.912788 0.719512 0.935537
0.272946 0.792197 0.907968
0.273224 0.792393 0.907968
0.396324 0.805910 0.919033
0.515819 0.819009 0.929757
0.632327 0.831758 0.940197
0.746997 0.844282 0.950460
0.860349 0.856639 0.960592
0.958912 0.867656 0.969622
0.959350 0.867767 0.969622
0.315760 0.924516 0.938346
0.316044 0.924691 0.938346
0.439448 0.938195 0.949411
0.559209 0.951276 0.960135
0.675948 0.964002 0.970575
0.790817 0.976501 0.980838
0.904339 0.988829 0.990970
0.999560 0.999812 1.000000
0.999728 0.999884 1.000000
0.316685 0.925044 0.938346
0.316942 0.925167 0.938346
0.440569 0.938624 0.949411
0.560520 0.951657 0.960135
0.677415 0.964334 0.970575
0.792411 0.976781 0.980838
0.906032 0.989056 0.990970
0.999965 0.999985 1.000000
0.999998 0.999999 1.000000
0.028143 0.025009 0.730938
0.028194 0.025024 0.730938
0.148375 0.038269 0.742003
0.265204 0.051122 0.752727
0.379275 0.063648 0.763167
0.491709 0.075973 0.773430
0.603011 0.088153 0.783562
0.702542 0.099022 0.792592
0.703459 0.099068 0.792592
0.028318 0.025057 0.730938
0.028372 0.025070 0.730938
0.149129 0.038338 0.742003
0.266488 0.051210 0.752727
0.381049 0.063755 0.763167
0.493938 0.076096 0.773430
0.605664 0.088290 0.783562
0.705543 0.099171 0.792592
0.706389 0.099212 0.792592
0.079003 0.185587 0.768160
0.079127 0.185674 0.768160
0.200476 0.199035 0.779225
0.318382 0.211995 0.789949
0.433449 0.224623 0.800389
0.546808 0.237043 0.810652
0.658972 0.249312 0.820784
0.759217 0.260261 0.829814
0.760043 0.260352 0.829814
0.128565 0.341652 0.804236
0.128745 0.341793 0.804236
0.250626 0.355224 0.815301
0.369021 0.368249 0.826025
0.484537 0.380938 0.836466
0.598311 0.393414 0.846728
0.710857 0.405735 0.856860
0.811417 0.416730 0.865890
0.812211 0.416853 0.865890
0.177191 0.493973 0.839360
0.177414 0.494149 0.839360
0.299769 0.507628 0.850424
0.418596 0.520697 0.861148
0.534505 0.533424 0.871589
0.648638 0.545935 0.881851
0.761513 0.558287 0.891983
0.862337 0.569308 0.901014
0.863087 0.569443 0.901014
0.225296 0.643975 0.873883
0.225551 0.644168 0.873883
0.348322 0.657674 0.884947
0.467524 0.670766 0.895671
0.583771 0.683512 0.906112
0.698210 0.696037 0.916374
0.811358 0.708399 0.926507
0.912342 0.719426 0.935537
0.913013 0.719555 0.935537
0.273041 0.792265 0.907968
0.273317 0.792457 0.907968
0.396446 0.805970 0.919033
0.515968 0.819065 0.929757
0.632499 0.831810 0.940197
0.747188 0.844330 0.950460
0.860557 0.856683 0.960592
0.959065 0.867695 0.969622
0.959490 0.867801 0.969622
0.315857 0.924577 0.938346
0.316139 0.924747 0.938346
0.439567 0.938246 0.949411
0.559350 0.951322 0.960135
0.676107 0.964044 0.970575
0.790990 0.976538 0.980838
0.904524 0.988860 0.990970
0.999622 0.999839 1.000000
0.999776 0.999904 1.000000
0.316773 0.925088 0.938346
0.317027 0.925206 0.938346
0.440675 0.938657 0.949411
0.560642 0.951685 0.960135
0.677551 0.964357 0.970575
0.792557 0.976799 0.980838
0.906185 0.989068 0.990970
0.999980 0.999992 1.000000
1.000000 1.000000 1.000000
