library/cube/Snow_Whisper_004.cube
# CINEGRADE LAB — Premium Cinematic LUT
# Title: Snow Whisper
# Category: Minimal Scandinavian
# Description: Clean, bright, muted, airy aesthetic inspired by Scandinavian design
# Mood: Calm, airy, minimal
# Variant: 5
# Generated: 2026-05-21T16:12:27.261612
TITLE "Snow Whisper"
LUT_3D_SIZE 33
0.254508 0.255379 0.272995
0.266144 0.257792 0.275374
0.278028 0.260257 0.277803
0.290142 0.262769 0.280280
0.302469 0.265325 0.282802
0.314997 0.267923 0.285364
0.327713 0.270558 0.287965
0.340606 0.273231 0.290603
0.353668 0.275938 0.293276
0.366891 0.278678 0.295982
0.380268 0.281449 0.298719
0.393791 0.284251 0.301486
0.407455 0.287081 0.304282
0.421254 0.289940 0.307106
0.435184 0.292824 0.309957
0.449240 0.295735 0.312834
0.463417 0.298671 0.315735
0.477712 0.301630 0.318660
0.492121 0.304613 0.321609
0.506641 0.307619 0.324580
0.521268 0.310646 0.327574
0.536000 0.313695 0.330588
0.550833 0.316765 0.333624
0.565766 0.319855 0.336679
0.580795 0.322964 0.339754
0.595918 0.326093 0.342849
0.611134 0.329241 0.345962
0.626439 0.332407 0.349093
0.641832 0.335591 0.352243
0.654218 0.338153 0.354767
0.654263 0.338163 0.354727
0.654307 0.338174 0.354687
0.654352 0.338185 0.354647
0.262640 0.272750 0.280996
0.274280 0.275164 0.283374
0.286167 0.277630 0.285804
0.298285 0.280143 0.288281
0.310616 0.282700 0.290802
0.323147 0.285297 0.293364
0.335866 0.287934 0.295965
0.348763 0.290607 0.298603
0.361829 0.293315 0.301276
0.375055 0.296056 0.303981
0.388435 0.298828 0.306719
0.401962 0.301630 0.309486
0.415629 0.304461 0.312282
0.429432 0.307320 0.315106
0.443365 0.310206 0.317957
0.457424 0.313117 0.320833
0.471605 0.316053 0.323735
0.485903 0.319014 0.326660
0.500315 0.321997 0.329609
0.514838 0.325003 0.332580
0.529469 0.328032 0.335574
0.544204 0.331081 0.338588
0.559040 0.334151 0.341624
0.573976 0.337242 0.344679
0.589008 0.340352 0.347754
0.604134 0.343482 0.350849
0.619353 0.346630 0.353962
0.634661 0.349797 0.357094
0.650057 0.352981 0.360243
0.662445 0.355543 0.362767
0.662489 0.355555 0.362728
0.662533 0.355566 0.362689
0.662577 0.355576 0.362650
0.270947 0.290493 0.289169
0.282590 0.292908 0.291547
0.294481 0.295374 0.293977
0.306602 0.297888 0.296454
0.318936 0.300445 0.298975
0.331470 0.303044 0.301537
0.344193 0.305681 0.304138
0.357093 0.308355 0.306776
0.370163 0.311064 0.309449
0.383392 0.313805 0.312154
0.396776 0.316578 0.314892
0.410306 0.319381 0.317659
0.423976 0.322213 0.320455
0.437782 0.325072 0.323279
0.451719 0.327959 0.326130
0.465781 0.330871 0.329006
0.479965 0.333808 0.331908
0.494266 0.336769 0.334833
0.508682 0.339753 0.337782
0.523208 0.342760 0.340753
0.537842 0.345788 0.343747
0.552579 0.348839 0.346761
0.567419 0.351910 0.349797
0.582358 0.355001 0.352853
0.597393 0.358112 0.355928
0.612522 0.361242 0.359023
0.627743 0.364390 0.362136
0.643055 0.367558 0.365268
0.658454 0.370743 0.368417
0.670843 0.373306 0.370942
0.670887 0.373317 0.370903
0.670930 0.373328 0.370865
0.670973 0.373339 0.370827
0.279414 0.308579 0.297502
0.291060 0.310995 0.299880
0.302955 0.313462 0.302309
0.315079 0.315977 0.304786
0.327417 0.318535 0.307307
0.339954 0.321134 0.309870
0.352680 0.323772 0.312471
0.365584 0.326447 0.315109
0.378656 0.329156 0.317782
0.391890 0.331898 0.320487
0.405276 0.334672 0.323224
0.418809 0.337475 0.325992
0.432483 0.340308 0.328788
0.446292 0.343168 0.331612
0.460232 0.346055 0.334463
0.474297 0.348967 0.337339
0.488484 0.351905 0.340241
0.502789 0.354867 0.343166
0.517208 0.357851 0.346115
0.531737 0.360859 0.349087
0.546373 0.363888 0.352080
0.561114 0.366939 0.355095
0.575956 0.370011 0.358131
0.590898 0.373102 0.361186
0.605936 0.376214 0.364262
0.621068 0.379344 0.367357
0.636292 0.382494 0.370470
0.651606 0.385661 0.373602
0.667008 0.388847 0.376752
0.679399 0.391410 0.379277
0.679442 0.391422 0.379239
0.679484 0.391433 0.379201
0.679526 0.391445 0.379164
0.288031 0.326986 0.305983
0.299680 0.329402 0.308361
0.311578 0.331870 0.310791
0.323706 0.334385 0.313268
0.336046 0.336944 0.315789
0.348587 0.339544 0.318351
0.361317 0.342183 0.320952
0.374224 0.344858 0.323590
0.387299 0.347568 0.326263
0.400535 0.350310 0.328969
0.413925 0.353085 0.331706
0.427461 0.355889 0.334473
0.441138 0.358722 0.337270
0.454951 0.361583 0.340094
0.468894 0.364470 0.342944
0.482962 0.367384 0.345821
0.497152 0.370322 0.348723
0.511459 0.373284 0.351648
0.525881 0.376269 0.354597
0.540413 0.379277 0.357569
0.555052 0.382307 0.360563
0.569796 0.385359 0.363578
0.584641 0.388431 0.366613
0.599585 0.391523 0.369669
0.614626 0.394635 0.372745
0.629761 0.397766 0.375840
0.644988 0.400916 0.378954
0.660304 0.404084 0.382086
0.675708 0.407270 0.385236
0.688102 0.409834 0.387761
0.688144 0.409846 0.387723
0.688185 0.409857 0.387686
0.688227 0.409869 0.387650
0.296789 0.345691 0.314603
0.308441 0.348108 0.316981
0.320342 0.350577 0.319411
0.332472 0.353093 0.321888
0.344816 0.355652 0.324409
0.357360 0.358253 0.326971
0.370093 0.360892 0.329573
0.383003 0.363568 0.332211
0.396081 0.366278 0.334883
0.409321 0.369022 0.337589
0.422713 0.371797 0.340326
0.436253 0.374601 0.343094
0.449933 0.377435 0.345890
0.463748 0.380297 0.348715
0.477694 0.383185 0.351565
0.491765 0.386098 0.354442
0.505958 0.389037 0.357344
0.520268 0.392000 0.360270
0.534693 0.394986 0.363219
0.549227 0.397995 0.366191
0.563869 0.401025 0.369184
0.578616 0.404077 0.372200
0.593464 0.407150 0.375235
0.608411 0.410242 0.378292
0.623454 0.413355 0.381368
0.638591 0.416486 0.384463
0.653820 0.419637 0.387577
0.669139 0.422805 0.390709
0.684546 0.425992 0.393859
0.696941 0.428556 0.396385
0.696982 0.428568 0.396348
0.697023 0.428580 0.396312
0.697064 0.428591 0.396276
0.305678 0.364678 0.323353
0.317333 0.367096 0.325732
0.329237 0.369565 0.328161
0.341370 0.372082 0.330639
0.353718 0.374642 0.333160
0.366265 0.377243 0.335722
0.379000 0.379883 0.338324
0.391913 0.382559 0.340962
0.404995 0.385270 0.343635
0.418237 0.388014 0.346341
0.431632 0.390790 0.349078
0.445175 0.393595 0.351846
0.458858 0.396429 0.354642
0.472676 0.399291 0.357466
0.486624 0.402180 0.360318
0.500699 0.405095 0.363194
0.514894 0.408034 0.366096
0.529207 0.410997 0.369022
0.543634 0.413984 0.371972
0.558172 0.416993 0.374944
0.572816 0.420024 0.377938
0.587565 0.423076 0.380953
0.602416 0.426149 0.383989
0.617365 0.429242 0.387045
0.632411 0.432355 0.390122
0.647551 0.435487 0.393217
0.662782 0.438638 0.396331
0.678103 0.441807 0.399464
0.693512 0.444994 0.402614
0.705909 0.447559 0.405140
0.705950 0.447571 0.405104
0.705990 0.447583 0.405069
0.706029 0.447595 0.405034
0.314692 0.383932 0.332227
0.326350 0.386350 0.334606
0.338257 0.388820 0.337036
0.350393 0.391337 0.339513
0.362743 0.393897 0.342034
0.375293 0.396499 0.344597
0.388031 0.399140 0.347198
0.400947 0.401817 0.349837
0.414032 0.404528 0.352510
0.427277 0.407273 0.355216
0.440675 0.410049 0.357953
0.454220 0.412855 0.360721
0.467906 0.415690 0.363518
0.481727 0.418552 0.366342
0.495678 0.421441 0.369194
0.509755 0.424356 0.372071
0.523953 0.427296 0.374973
0.538269 0.430260 0.377899
0.552699 0.433247 0.380848
0.567239 0.436256 0.383821
0.581886 0.439288 0.386815
0.596637 0.442341 0.389830
0.611490 0.445414 0.392867
0.626442 0.448508 0.395923
0.641490 0.451621 0.399000
0.656632 0.454754 0.402096
0.671866 0.457905 0.405210
0.687189 0.461074 0.408343
0.702600 0.464262 0.411494
0.714999 0.466827 0.414020
0.715038 0.466839 0.413985
0.715077 0.466851 0.413950
0.715116 0.466863 0.413916
0.323824 0.403437 0.341219
0.335485 0.405856 0.343597
0.347395 0.408326 0.346027
0.359534 0.410844 0.348504
0.371886 0.413405 0.351026
0.384439 0.416008 0.353589
0.397180 0.418649 0.356191
0.410099 0.421326 0.358829
0.423186 0.424038 0.361502
0.436434 0.426783 0.364208
0.449835 0.429560 0.366946
0.463383 0.432366 0.369714
0.477071 0.435201 0.372511
0.490895 0.438064 0.375336
0.504849 0.440954 0.378187
0.518928 0.443869 0.381064
0.533129 0.446810 0.383967
0.547447 0.449774 0.386893
0.561879 0.452761 0.389843
0.576422 0.455771 0.392815
0.591071 0.458803 0.395810
0.605825 0.461857 0.398826
0.620680 0.464931 0.401862
0.635634 0.468025 0.404919
0.650685 0.471138 0.407996
0.665829 0.474271 0.411092
0.681065 0.477423 0.414207
0.696390 0.480593 0.417340
0.711803 0.483781 0.420491
0.724203 0.486346 0.423018
0.724242 0.486358 0.422984
0.724280 0.486370 0.422950
0.724318 0.486382 0.422917
0.333069 0.423183 0.350321
0.344732 0.425602 0.352700
0.356645 0.428073 0.355130
0.368786 0.430591 0.357608
0.381142 0.433153 0.360129
0.393697 0.435756 0.362692
0.406441 0.438397 0.365294
0.419362 0.441075 0.367933
0.432452 0.443788 0.370606
0.445703 0.446533 0.373312
0.459107 0.449310 0.376050
0.472657 0.452117 0.378819
0.486348 0.454953 0.381616
0.500174 0.457817 0.384441
0.514130 0.460707 0.387293
0.528212 0.463622 0.390170
0.542415 0.466563 0.393073
0.556736 0.469528 0.395999
0.571170 0.472516 0.398949
0.585715 0.475526 0.401922
0.600367 0.478558 0.404917
0.615123 0.481612 0.407933
0.629980 0.484686 0.410970
0.644936 0.487781 0.414028
0.659989 0.490895 0.417105
0.675135 0.494028 0.420201
0.690373 0.497180 0.423316
0.705700 0.500350 0.426450
0.721115 0.503538 0.429601
0.733517 0.506104 0.432128
0.733554 0.506116 0.432095
0.733592 0.506128 0.432062
0.733629 0.506140 0.432030
0.342421 0.443158 0.359530
0.354087 0.445578 0.361909
0.366002 0.448049 0.364339
0.378146 0.450567 0.366817
0.390504 0.453130 0.369339
0.403062 0.455733 0.371902
0.415808 0.458375 0.374505
0.428732 0.461053 0.377143
0.441825 0.463767 0.379817
0.455078 0.466512 0.382524
0.468484 0.469290 0.385262
0.482037 0.472097 0.388030
0.495730 0.474933 0.390828
0.509559 0.477797 0.393653
0.523517 0.480688 0.396505
0.537602 0.483604 0.399383
0.551807 0.486545 0.402286
0.566130 0.489510 0.405213
0.580567 0.492498 0.408163
0.595114 0.495509 0.411136
0.609768 0.498542 0.414131
0.624526 0.501596 0.417148
0.639385 0.504670 0.420185
0.654343 0.507765 0.423243
0.669398 0.510880 0.426320
0.684546 0.514013 0.429417
0.699786 0.517165 0.432533
0.715115 0.520336 0.435667
0.730532 0.523524 0.438819
0.742934 0.526090 0.441347
0.742971 0.526102 0.441314
0.743007 0.526114 0.441282
0.743043 0.526126 0.441250
0.351875 0.463352 0.368841
0.363544 0.465772 0.371220
0.375461 0.468244 0.373651
0.387608 0.470763 0.376129
0.399969 0.473325 0.378651
0.412529 0.475929 0.381215
0.425278 0.478572 0.383817
0.438204 0.481251 0.386456
0.451299 0.483964 0.389130
0.464555 0.486710 0.391837
0.477963 0.489488 0.394575
0.491518 0.492296 0.397344
0.505214 0.495132 0.400142
0.519045 0.497997 0.402967
0.533006 0.500888 0.405820
0.547092 0.503804 0.408698
0.561300 0.506746 0.411601
0.575625 0.509711 0.414529
0.590064 0.512699 0.417479
0.604613 0.515711 0.420453
0.619269 0.518744 0.423448
0.634029 0.521798 0.426465
0.648890 0.524873 0.429503
0.663850 0.527968 0.432561
0.678906 0.531083 0.435639
0.694056 0.534216 0.438736
0.709298 0.537369 0.441852
0.724629 0.540540 0.444987
0.740047 0.543728 0.448139
0.752451 0.546294 0.450668
0.752487 0.546306 0.450636
0.752522 0.546318 0.450605
0.752557 0.546330 0.450574
0.361429 0.483756 0.378250
0.373100 0.486177 0.380629
0.385019 0.488649 0.383060
0.397169 0.491168 0.385539
0.409532 0.493731 0.388061
0.422094 0.496335 0.390625
0.434845 0.498978 0.393228
0.447774 0.501657 0.395867
0.460871 0.504371 0.398541
0.474129 0.507118 0.401248
0.487540 0.509896 0.403987
0.501097 0.512704 0.406756
0.514795 0.515541 0.409554
0.528628 0.518406 0.412380
0.542591 0.521297 0.415233
0.556679 0.524214 0.418112
0.570889 0.527156 0.421015
0.585216 0.530121 0.423943
0.599657 0.533110 0.426894
0.614208 0.536122 0.429868
0.628866 0.539155 0.432864
0.643628 0.542209 0.435881
0.658491 0.545285 0.438920
0.673453 0.548380 0.441978
0.688511 0.551495 0.445056
0.703662 0.554629 0.448154
0.718905 0.557782 0.451271
0.734238 0.560953 0.454406
0.749658 0.564141 0.457559
0.762062 0.566708 0.460088
0.762097 0.566720 0.460057
0.762132 0.566732 0.460027
0.762166 0.566743 0.459997
0.371076 0.504362 0.387753
0.382749 0.506783 0.390133
0.394671 0.509256 0.392564
0.406823 0.511775 0.395042
0.419188 0.514339 0.397565
0.431753 0.516943 0.400129
0.444506 0.519586 0.402732
0.457437 0.522266 0.405372
0.470537 0.524980 0.408047
0.483797 0.527727 0.410754
0.497210 0.530506 0.413493
0.510769 0.533314 0.416263
0.524469 0.536151 0.419061
0.538304 0.539016 0.421888
0.552269 0.541908 0.424741
0.566359 0.544825 0.427620
0.580571 0.547767 0.430524
0.594900 0.550733 0.433452
0.609343 0.553722 0.436404
0.623895 0.556734 0.439378
0.638555 0.559767 0.442374
0.653319 0.562822 0.445392
0.668184 0.565897 0.448431
0.683147 0.568993 0.451490
0.698207 0.572108 0.454569
0.713360 0.575242 0.457667
0.728604 0.578395 0.460784
0.743938 0.581566 0.463920
0.759360 0.584755 0.467073
0.771765 0.587321 0.469603
0.771799 0.587334 0.469573
0.771832 0.587345 0.469544
0.771865 0.587357 0.469515
0.380815 0.525162 0.397346
0.392490 0.527584 0.399726
0.404414 0.530057 0.402158
0.416568 0.532577 0.404637
0.428935 0.535140 0.407160
0.441503 0.537745 0.409725
0.454258 0.540389 0.412328
0.467191 0.543069 0.414968
0.480292 0.545783 0.417643
0.493554 0.548530 0.420351
0.506969 0.551309 0.423091
0.520531 0.554118 0.425861
0.534232 0.556955 0.428660
0.548069 0.559821 0.431486
0.562036 0.562712 0.434340
0.576129 0.565630 0.437220
0.590342 0.568572 0.440124
0.604673 0.571538 0.443053
0.619117 0.574527 0.446005
0.633672 0.577539 0.448980
0.648333 0.580573 0.451976
0.663098 0.583628 0.454995
0.677965 0.586704 0.458034
0.692930 0.589799 0.461094
0.707990 0.592915 0.464173
0.723145 0.596049 0.467272
0.738391 0.599202 0.470389
0.753726 0.602373 0.473525
0.769149 0.605562 0.476680
0.781555 0.608129 0.479210
0.781588 0.608141 0.479181
0.781620 0.608152 0.479153
0.781652 0.608164 0.479125
0.390641 0.546150 0.407028
0.402318 0.548572 0.409408
0.414244 0.551045 0.411840
0.426400 0.553565 0.414319
0.438770 0.556129 0.416843
0.451339 0.558734 0.419408
0.464096 0.561378 0.422012
0.477031 0.564058 0.424652
0.490135 0.566773 0.427328
0.503398 0.569521 0.430036
0.516815 0.572300 0.432776
0.530378 0.575109 0.435547
0.544082 0.577946 0.438346
0.557921 0.580812 0.441173
0.571890 0.583704 0.444027
0.585984 0.586621 0.446907
0.600199 0.589564 0.449812
0.614531 0.592530 0.452741
0.628977 0.595519 0.455694
0.643533 0.598531 0.458669
0.658196 0.601565 0.461667
0.672963 0.604620 0.464686
0.687830 0.607696 0.467726
0.702797 0.610792 0.470786
0.717859 0.613907 0.473866
0.733015 0.617042 0.476965
0.748262 0.620195 0.480083
0.763599 0.623366 0.483220
0.779022 0.626556 0.486375
0.791429 0.629122 0.488906
0.791461 0.629134 0.488878
0.791492 0.629145 0.488851
0.791523 0.629157 0.488824
0.400551 0.567319 0.416794
0.412231 0.569741 0.419175
0.424159 0.572214 0.421607
0.436316 0.574735 0.424087
0.448688 0.577299 0.426611
0.461259 0.579904 0.429176
0.474018 0.582548 0.431781
0.486955 0.585229 0.434422
0.500060 0.587944 0.437097
0.513326 0.590691 0.439806
0.526745 0.593471 0.442547
0.540310 0.596280 0.445318
0.554015 0.599118 0.448118
0.567855 0.601983 0.450945
0.581826 0.604875 0.453800
0.595921 0.607793 0.456680
0.610138 0.610735 0.459586
0.624472 0.613702 0.462516
0.638919 0.616692 0.465469
0.653477 0.619704 0.468445
0.668141 0.622738 0.471443
0.682909 0.625793 0.474462
0.697778 0.628869 0.477503
0.712746 0.631965 0.480564
0.727809 0.635080 0.483644
0.742966 0.638215 0.486744
0.758215 0.641368 0.489863
0.773552 0.644539 0.493000
0.788977 0.647729 0.496156
0.801384 0.650295 0.498687
0.801415 0.650306 0.498661
0.801445 0.650318 0.498635
0.801474 0.650329 0.498609
0.410543 0.588662 0.426642
0.422225 0.591084 0.429023
0.434155 0.593558 0.431456
0.446314 0.596079 0.433936
0.458687 0.598643 0.436461
0.471260 0.601249 0.439027
0.484021 0.603893 0.441632
0.496960 0.606574 0.444273
0.510067 0.609289 0.446949
0.523334 0.612037 0.449659
0.536754 0.614816 0.452400
0.550321 0.617625 0.455171
0.564028 0.620463 0.457972
0.577870 0.623329 0.460800
0.591842 0.626221 0.463655
0.605939 0.629139 0.466536
0.620157 0.632082 0.469442
0.634493 0.635048 0.472373
0.648941 0.638038 0.475327
0.663500 0.641050 0.478303
0.678165 0.644084 0.481302
0.692935 0.647139 0.484322
0.707805 0.650215 0.487363
0.722774 0.653311 0.490424
0.737838 0.656427 0.493506
0.752996 0.659561 0.496606
0.768246 0.662715 0.499726
0.783584 0.665886 0.502864
0.799010 0.669075 0.506020
0.811417 0.671641 0.508553
0.811447 0.671653 0.508527
0.811476 0.671664 0.508502
0.811504 0.671675 0.508477
0.420614 0.610175 0.436570
0.432297 0.612597 0.438952
0.444229 0.615071 0.441385
0.456390 0.617592 0.443866
0.468765 0.620157 0.446391
0.481340 0.622762 0.448957
0.494102 0.625407 0.451563
0.507043 0.628087 0.454205
0.520151 0.630803 0.456882
0.533420 0.633551 0.459592
0.546842 0.636330 0.462333
0.560410 0.639140 0.465105
0.574119 0.641978 0.467906
0.587962 0.644843 0.470735
0.601935 0.647736 0.473591
0.616034 0.650654 0.476473
0.630253 0.653596 0.479379
0.644590 0.656563 0.482310
0.659040 0.659553 0.485265
0.673600 0.662565 0.488242
0.688266 0.665599 0.491241
0.703037 0.668654 0.494262
0.717908 0.671730 0.497304
0.732878 0.674826 0.500366
0.747943 0.677942 0.503448
0.763102 0.681076 0.506549
0.778352 0.684229 0.509670
0.793691 0.687401 0.512808
0.809118 0.690590 0.515965
0.821526 0.693156 0.518499
0.821554 0.693167 0.518474
0.821582 0.693178 0.518450
0.821609 0.693189 0.518426
0.430762 0.631852 0.446575
0.442446 0.634274 0.448958
0.454380 0.636748 0.451391
0.466543 0.639269 0.453873
0.478919 0.641834 0.456399
0.491495 0.644440 0.458965
0.504259 0.647084 0.461571
0.517201 0.649765 0.464214
0.530311 0.652480 0.466891
0.543582 0.655229 0.469602
0.557005 0.658008 0.472344
0.570575 0.660818 0.475117
0.584284 0.663656 0.477919
0.598129 0.666521 0.480748
0.612104 0.669414 0.483605
0.626203 0.672332 0.486487
0.640424 0.675274 0.489394
0.654762 0.678241 0.492326
0.669213 0.681231 0.495281
0.683774 0.684243 0.498259
0.698441 0.687277 0.501259
0.713213 0.690332 0.504281
0.728085 0.693408 0.507323
0.743055 0.696504 0.510386
0.758122 0.699620 0.513469
0.773281 0.702754 0.516571
0.788532 0.705907 0.519692
0.803872 0.709078 0.522832
0.819299 0.712267 0.525989
0.831707 0.714833 0.528523
0.831734 0.714844 0.528500
0.831760 0.714855 0.528477
0.831786 0.714865 0.528455
0.440983 0.653688 0.456656
0.452670 0.656110 0.459039
0.464604 0.658584 0.461473
0.476769 0.661105 0.463955
0.489147 0.663670 0.466482
0.501724 0.666276 0.469049
0.514490 0.668921 0.471656
0.527433 0.671602 0.474299
0.540545 0.674317 0.476977
0.553816 0.677065 0.479688
0.567241 0.679845 0.482431
0.580812 0.682654 0.485205
0.594523 0.685492 0.488007
0.608369 0.688358 0.490837
0.622344 0.691250 0.493694
0.636445 0.694168 0.496577
0.650667 0.697111 0.499485
0.665005 0.700078 0.502418
0.679457 0.703067 0.505373
0.694019 0.706080 0.508352
0.708688 0.709114 0.511353
0.723460 0.712169 0.514375
0.738333 0.715244 0.517419
0.753304 0.718340 0.520482
0.768371 0.721456 0.523566
0.783532 0.724590 0.526669
0.798783 0.727743 0.529791
0.814123 0.730914 0.532931
0.829551 0.734103 0.536090
0.841959 0.736669 0.538625
0.841985 0.736679 0.538603
0.842010 0.736689 0.538581
0.842034 0.736700 0.538559
0.451277 0.675678 0.466810
0.462964 0.678101 0.469194
0.474901 0.680575 0.471629
0.487066 0.683096 0.474111
0.499446 0.685661 0.476638
0.512025 0.688267 0.479207
0.524791 0.690911 0.481814
0.537736 0.693592 0.484458
0.550849 0.696308 0.487136
0.564121 0.699056 0.489848
0.577547 0.701835 0.492592
0.591119 0.704645 0.495366
0.604831 0.707483 0.498169
0.618678 0.710349 0.501000
0.632655 0.713241 0.503858
0.646757 0.716159 0.506741
0.660979 0.719102 0.509650
0.675319 0.722068 0.512583
0.689772 0.725058 0.515540
0.704334 0.728070 0.518520
0.719004 0.731104 0.521521
0.733777 0.734159 0.524544
0.748650 0.737234 0.527588
0.763622 0.740330 0.530653
0.778690 0.743445 0.533737
0.793850 0.746579 0.536841
0.809102 0.749732 0.539964
0.824443 0.752903 0.543105
0.839871 0.756092 0.546265
0.852279 0.758657 0.548801
0.852303 0.758667 0.548780
0.852327 0.758677 0.548759
0.852350 0.758687 0.548739
0.461640 0.697819 0.477036
0.473329 0.700242 0.479420
0.485266 0.702716 0.481856
0.497433 0.705237 0.484339
0.509814 0.707802 0.486867
0.522394 0.710408 0.489436
0.535162 0.713052 0.492044
0.548108 0.715733 0.494688
0.561221 0.718448 0.497368
0.574495 0.721197 0.500080
0.587922 0.723976 0.502825
0.601495 0.726785 0.505599
0.615208 0.729623 0.508403
0.629056 0.732489 0.511235
0.643034 0.735381 0.514093
0.657136 0.738299 0.516978
0.671360 0.741242 0.519888
0.685700 0.744208 0.522822
0.700154 0.747197 0.525779
0.714717 0.750209 0.528759
0.729387 0.753243 0.531762
0.744160 0.756298 0.534786
0.759035 0.759373 0.537831
0.774007 0.762469 0.540896
0.789075 0.765584 0.543981
0.804236 0.768718 0.547086
0.819488 0.771870 0.550210
0.834829 0.775041 0.553352
0.850257 0.778230 0.556512
0.862665 0.780795 0.559050
0.862688 0.780804 0.559030
0.862710 0.780814 0.559010
0.862732 0.780823 0.558991
0.472070 0.720106 0.487331
0.483761 0.722529 0.489716
0.495699 0.725003 0.492153
0.507868 0.727524 0.494637
0.520249 0.730089 0.497165
0.532830 0.732695 0.499735
0.545600 0.735339 0.502344
0.558546 0.738020 0.504989
0.571661 0.740735 0.507669
0.584936 0.743483 0.510383
0.598364 0.746262 0.513128
0.611938 0.749072 0.515903
0.625652 0.751909 0.518708
0.639500 0.754775 0.521540
0.653479 0.757667 0.524400
0.667582 0.760585 0.527285
0.681806 0.763527 0.530196
0.696147 0.766493 0.533130
0.710601 0.769482 0.536089
0.725165 0.772494 0.539070
0.739836 0.775528 0.542073
0.754609 0.778582 0.545098
0.769484 0.781658 0.548144
0.784457 0.784753 0.551210
0.799525 0.787868 0.554296
0.814686 0.791001 0.557402
0.829938 0.794154 0.560527
0.845280 0.797324 0.563670
0.860707 0.800512 0.566831
0.873115 0.803077 0.569370
0.873137 0.803086 0.569351
0.873158 0.803095 0.569333
0.873178 0.803104 0.569315
0.482567 0.742535 0.497695
0.494258 0.744958 0.500081
0.506198 0.747432 0.502518
0.518367 0.749953 0.505003
0.530750 0.752518 0.507532
0.543332 0.755123 0.510103
0.556102 0.757768 0.512712
0.569050 0.760448 0.515358
0.582166 0.763163 0.518039
0.595441 0.765911 0.520754
0.608870 0.768690 0.523500
0.622445 0.771499 0.526276
0.636159 0.774337 0.529081
0.650009 0.777203 0.531915
0.663988 0.780094 0.534775
0.678092 0.783012 0.537661
0.692316 0.785954 0.540573
0.706658 0.788920 0.543508
0.721112 0.791909 0.546467
0.735677 0.794920 0.549449
0.750347 0.797954 0.552454
0.765122 0.801008 0.555480
0.779996 0.804083 0.558526
0.794969 0.807178 0.561594
0.810038 0.810292 0.564681
0.825199 0.813426 0.567788
0.840451 0.816578 0.570913
0.855792 0.819748 0.574057
0.871220 0.822936 0.577220
0.883628 0.825500 0.579759
0.883648 0.825509 0.579742
0.883667 0.825518 0.579725
0.883687 0.825526 0.579708
0.493128 0.765103 0.508126
0.504820 0.767526 0.510513
0.516761 0.769999 0.512951
0.528931 0.772520 0.515436
0.541314 0.775085 0.517966
0.553897 0.777690 0.520537
0.566668 0.780335 0.523148
0.579617 0.783015 0.525795
0.592733 0.785730 0.528477
0.606010 0.788478 0.531192
0.619439 0.791257 0.533939
0.633014 0.794065 0.536716
0.646730 0.796903 0.539522
0.660580 0.799768 0.542356
0.674559 0.802660 0.545217
0.688664 0.805577 0.548105
0.702889 0.808519 0.551017
0.717231 0.811484 0.553954
0.731685 0.814473 0.556914
0.746250 0.817484 0.559897
0.760921 0.820517 0.562902
0.775695 0.823572 0.565929
0.790570 0.826646 0.568977
0.805543 0.829741 0.572045
0.820611 0.832855 0.575133
0.835773 0.835988 0.578241
0.851025 0.839140 0.581368
0.866366 0.842309 0.584513
0.881793 0.845497 0.587676
0.894200 0.848061 0.590217
0.894219 0.848069 0.590201
0.894237 0.848077 0.590185
0.894255 0.848085 0.590170
0.503751 0.787806 0.518622
0.515444 0.790229 0.521010
0.527385 0.792702 0.523449
0.539556 0.795223 0.525935
0.551941 0.797787 0.528466
0.564524 0.800392 0.531038
0.577296 0.803036 0.533649
0.590245 0.805717 0.536297
0.603362 0.808431 0.538980
0.616639 0.811179 0.541696
0.630069 0.813958 0.544443
0.643645 0.816766 0.547221
0.657361 0.819603 0.550029
0.671211 0.822468 0.552864
0.685191 0.825360 0.555726
0.699296 0.828276 0.558614
0.713521 0.831218 0.561527
0.727863 0.834183 0.564465
0.742318 0.837172 0.567426
