library/cube/Snow_Whisper_004.cube
# CINEGRADE LAB — Premium Cinematic LUT
# Title: Snow Whisper
# Category: Minimal Scandinavian
# Description: Clean, bright, muted, airy aesthetic inspired by Scandinavian design
# Mood: Calm, airy, minimal
# Variant: 5
# Generated: 2026-05-21T16:12:27.261612
TITLE "Snow Whisper"
LUT_3D_SIZE 5
0.254508 0.255379 0.272995
0.353668 0.275938 0.293276
0.463417 0.298671 0.315735
0.580795 0.322964 0.339754
0.654352 0.338185 0.354647
0.323824 0.403437 0.341219
0.423186 0.424038 0.361502
0.533129 0.446810 0.383967
0.650685 0.471138 0.407996
0.724318 0.486382 0.422917
0.400551 0.567319 0.416794
0.500060 0.587944 0.437097
0.610138 0.610735 0.459586
0.727809 0.635080 0.483644
0.801474 0.650329 0.498609
0.482567 0.742535 0.497695
0.582166 0.763163 0.518039
0.692316 0.785954 0.540573
0.810038 0.810292 0.564681
0.883687 0.825526 0.579708
0.533970 0.852183 0.548131
0.633592 0.872785 0.568542
0.743746 0.895546 0.591146
0.861446 0.919850 0.615330
0.935027 0.935044 0.630442
0.261497 0.262360 0.359291
0.360681 0.282922 0.379531
0.470452 0.305657 0.401952
0.587850 0.329953 0.425936
0.661417 0.345175 0.440797
0.330830 0.410433 0.427389
0.430209 0.431035 0.447641
0.540168 0.453807 0.470077
0.657738 0.478137 0.494080
0.731377 0.493380 0.508979
0.407566 0.574323 0.502869
0.507087 0.594947 0.523151
0.617174 0.617739 0.545621
0.734853 0.642082 0.569663
0.808518 0.657329 0.584615
0.489583 0.749541 0.583708
0.589187 0.770167 0.604040
0.699341 0.792955 0.626564
0.817063 0.817290 0.650666
0.890707 0.832520 0.665690
0.540974 0.859181 0.634116
0.640596 0.879779 0.654523
0.750748 0.902535 0.677127
0.868442 0.926835 0.701315
0.942014 0.942024 0.716432
0.269222 0.270077 0.454694
0.368428 0.290642 0.474890
0.478221 0.313380 0.497270
0.595640 0.337678 0.521216
0.669217 0.352901 0.536044
0.338572 0.418165 0.522657
0.437968 0.438768 0.542876
0.547943 0.461542 0.565282
0.665527 0.485872 0.589258
0.739170 0.501114 0.604133
0.415317 0.582064 0.598038
0.514849 0.602688 0.618297
0.624946 0.625478 0.640747
0.742632 0.649820 0.664772
0.816297 0.665065 0.679710
0.497334 0.757284 0.678811
0.596943 0.777907 0.699131
0.707100 0.800692 0.721646
0.824823 0.825024 0.745741
0.898462 0.840250 0.760762
0.548714 0.866914 0.729191
0.648335 0.887508 0.749596
0.758484 0.910261 0.772201
0.876173 0.934556 0.796392
0.949735 0.949739 0.811517
0.277474 0.278323 0.556614
0.376703 0.298890 0.576765
0.486518 0.321631 0.599104
0.603957 0.345932 0.623011
0.677543 0.361156 0.637804
0.346841 0.426425 0.624439
0.446254 0.447030 0.644625
0.556244 0.469804 0.666999
0.673842 0.494135 0.690948
0.747490 0.509377 0.705799
0.423596 0.590333 0.699718
0.523138 0.610956 0.719955
0.633244 0.633745 0.742385
0.750937 0.658086 0.766393
0.824602 0.673329 0.781319
0.505613 0.765553 0.780427
0.605226 0.786174 0.800735
0.715386 0.808956 0.823241
0.833108 0.833285 0.847331
0.906742 0.848508 0.862351
0.556982 0.875175 0.830781
0.656601 0.895765 0.851186
0.766746 0.918513 0.873793
0.884428 0.942803 0.897990
0.957981 0.957982 0.913124
0.282656 0.283488 0.620237
0.381905 0.304057 0.640364
0.491739 0.326799 0.662680
0.609197 0.351102 0.686566
0.682790 0.366326 0.701342
0.352034 0.431602 0.687989
0.451461 0.452206 0.708157
0.561465 0.474981 0.730516
0.679074 0.499311 0.754451
0.752725 0.514553 0.769293
0.428792 0.595515 0.763217
0.528343 0.616136 0.783444
0.638456 0.638924 0.805866
0.756154 0.663263 0.829869
0.829818 0.678504 0.844793
0.510805 0.770734 0.843902
0.610421 0.791352 0.864207
0.720582 0.814131 0.886713
0.838303 0.838456 0.910805
0.911931 0.853675 0.925829
0.562159 0.880345 0.894257
0.661776 0.900931 0.914667
0.771916 0.923674 0.937276
0.889591 0.947960 0.961479
0.963133 0.963133 0.976633
