library/cube/Snow_Whisper_004.cube
# CINEGRADE LAB — Premium Cinematic LUT
# Title: Snow Whisper
# Category: Minimal Scandinavian
# Description: Clean, bright, muted, airy aesthetic inspired by Scandinavian design
# Mood: Calm, airy, minimal
# Variant: 5
# Generated: 2026-05-21T16:12:27.261612
TITLE "Snow Whisper"
LUT_3D_SIZE 9
0.254508 0.255379 0.272995
0.302469 0.265325 0.282802
0.353668 0.275938 0.293276
0.407455 0.287081 0.304282
0.463417 0.298671 0.315735
0.521268 0.310646 0.327574
0.580795 0.322964 0.339754
0.641832 0.335591 0.352243
0.654352 0.338185 0.354647
0.288031 0.326986 0.305983
0.336046 0.336944 0.315789
0.387299 0.347568 0.326263
0.441138 0.358722 0.337270
0.497152 0.370322 0.348723
0.555052 0.382307 0.360563
0.614626 0.394635 0.372745
0.675708 0.407270 0.385236
0.688227 0.409869 0.387650
0.323824 0.403437 0.341219
0.371886 0.413405 0.351026
0.423186 0.424038 0.361502
0.477071 0.435201 0.372511
0.533129 0.446810 0.383967
0.591071 0.458803 0.395810
0.650685 0.471138 0.407996
0.711803 0.483781 0.420491
0.724318 0.486382 0.422917
0.361429 0.483756 0.378250
0.409532 0.493731 0.388061
0.460871 0.504371 0.398541
0.514795 0.515541 0.409554
0.570889 0.527156 0.421015
0.628866 0.539155 0.432864
0.688511 0.551495 0.445056
0.749658 0.564141 0.457559
0.762166 0.566743 0.459997
0.400551 0.567319 0.416794
0.448688 0.577299 0.426611
0.500060 0.587944 0.437097
0.554015 0.599118 0.448118
0.610138 0.610735 0.459586
0.668141 0.622738 0.471443
0.727809 0.635080 0.483644
0.788977 0.647729 0.496156
0.801474 0.650329 0.498609
0.440983 0.653688 0.456656
0.489147 0.663670 0.466482
0.540545 0.674317 0.476977
0.594523 0.685492 0.488007
0.650667 0.697111 0.499485
0.708688 0.709114 0.511353
0.768371 0.721456 0.523566
0.829551 0.734103 0.536090
0.842034 0.736700 0.538559
0.482567 0.742535 0.497695
0.530750 0.752518 0.507532
0.582166 0.763163 0.518039
0.636159 0.774337 0.529081
0.692316 0.785954 0.540573
0.750347 0.797954 0.552454
0.810038 0.810292 0.564681
0.871220 0.822936 0.577220
0.883687 0.825526 0.579708
0.525177 0.833604 0.539806
0.573372 0.843583 0.549656
0.624798 0.854225 0.560178
0.678799 0.865395 0.571234
0.734961 0.877007 0.582741
0.792994 0.889001 0.594639
0.852682 0.901333 0.606883
0.913859 0.913969 0.619440
0.926305 0.916551 0.621949
0.533970 0.852183 0.548131
0.582166 0.862153 0.558001
0.633592 0.872785 0.568542
0.687590 0.883944 0.579618
0.743746 0.895546 0.591146
0.801770 0.907529 0.603064
0.861446 0.919850 0.615330
0.922608 0.932475 0.627909
0.935027 0.935044 0.630442
0.257890 0.258757 0.314747
0.305857 0.268704 0.324543
0.357062 0.279317 0.335007
0.410854 0.290461 0.346004
0.466822 0.302051 0.357447
0.524678 0.314027 0.369277
0.584210 0.326346 0.381449
0.645252 0.338973 0.393930
0.657772 0.341567 0.396327
0.291418 0.330367 0.347701
0.339438 0.340326 0.357498
0.390696 0.350950 0.367964
0.444540 0.362105 0.378962
0.500558 0.373705 0.390407
0.558463 0.385691 0.402239
0.618041 0.398019 0.414414
0.679127 0.410655 0.426898
0.691645 0.413253 0.429306
0.327214 0.406822 0.382908
0.375281 0.416790 0.392708
0.426585 0.427424 0.403176
0.480474 0.438587 0.414178
0.536536 0.450196 0.425627
0.594482 0.462190 0.437464
0.654099 0.474525 0.449644
0.715221 0.487167 0.462133
0.727735 0.489768 0.464554
0.364822 0.487144 0.419914
0.412928 0.497119 0.429719
0.464271 0.507759 0.440193
0.518198 0.518929 0.451200
0.574296 0.530543 0.462655
0.632275 0.542543 0.474499
0.691923 0.554882 0.486686
0.753072 0.567529 0.499184
0.765579 0.570130 0.501618
0.403946 0.570708 0.458437
0.452085 0.580688 0.468249
0.503461 0.591333 0.478730
0.557418 0.602506 0.489746
0.613544 0.614124 0.501209
0.671549 0.626126 0.513062
0.731219 0.638468 0.525260
0.792388 0.651116 0.537768
0.804884 0.653716 0.540218
0.444379 0.657078 0.498282
0.492544 0.667060 0.508103
0.543944 0.677706 0.518595
0.597924 0.688881 0.529621
0.654070 0.700500 0.541096
0.712092 0.712502 0.552961
0.771776 0.724843 0.565171
0.832956 0.737490 0.577693
0.845439 0.740086 0.580161
0.485962 0.745925 0.539308
0.534146 0.755907 0.549142
0.585563 0.766552 0.559646
0.639558 0.777726 0.570686
0.695716 0.789342 0.582175
0.753747 0.801341 0.594054
0.813438 0.813679 0.606280
0.874620 0.826321 0.618818
0.887084 0.828910 0.621305
0.528571 0.836994 0.581409
0.576766 0.846972 0.591258
0.628193 0.857613 0.601777
0.682194 0.868781 0.612833
0.738356 0.880392 0.624339
0.796388 0.892385 0.636236
0.856076 0.904717 0.648480
0.917252 0.917352 0.661037
0.929695 0.919932 0.663547
0.537359 0.855569 0.589730
0.585556 0.865538 0.599599
0.636981 0.876169 0.610139
0.690979 0.887327 0.621215
0.747134 0.898928 0.632743
0.805157 0.910910 0.644662
0.864832 0.923230 0.656928
0.925991 0.935853 0.669509
0.938408 0.938421 0.672043
0.261497 0.262360 0.359291
0.309470 0.272308 0.369077
0.360681 0.282922 0.379531
0.414478 0.294066 0.390518
0.470452 0.305657 0.401952
0.528313 0.317634 0.413772
0.587850 0.329953 0.425936
0.648898 0.342580 0.438407
0.661417 0.345175 0.440797
0.295030 0.333975 0.392212
0.343055 0.343934 0.402000
0.394318 0.354559 0.412456
0.448167 0.365714 0.423446
0.504190 0.377314 0.434882
0.562099 0.389301 0.446707
0.621682 0.401629 0.458874
0.682772 0.414265 0.471350
0.695290 0.416864 0.473752
0.330830 0.410433 0.427389
0.378901 0.420401 0.437180
0.430209 0.431035 0.447641
0.484103 0.442199 0.458635
0.540168 0.453807 0.470077
0.598118 0.465801 0.481907
0.657738 0.478137 0.494080
0.718863 0.490779 0.506564
0.731377 0.493380 0.508979
0.368440 0.490757 0.464369
0.416550 0.500732 0.474166
0.467897 0.511373 0.484634
0.521827 0.522542 0.495635
0.577928 0.534157 0.507084
0.635910 0.546156 0.518922
0.695560 0.558496 0.531104
0.756712 0.571142 0.543596
0.769218 0.573743 0.546027
0.407566 0.574323 0.502869
0.455709 0.584303 0.512675
0.507087 0.594947 0.523151
0.561047 0.606121 0.534162
0.617174 0.617739 0.545621
0.675181 0.629740 0.557469
0.734853 0.642082 0.569663
0.796024 0.654730 0.582167
0.808518 0.657329 0.584615
0.448000 0.660694 0.542696
0.496167 0.670676 0.552513
0.547569 0.681322 0.563000
0.601551 0.692496 0.574023
0.657698 0.704114 0.585494
0.715722 0.716116 0.597356
0.775407 0.728456 0.609563
0.836588 0.741103 0.622083
0.849068 0.743698 0.624549
0.489583 0.749541 0.583708
0.537768 0.759523 0.593539
0.589187 0.770167 0.604040
0.643182 0.781340 0.615077
0.699341 0.792955 0.626564
0.757373 0.804953 0.638442
0.817063 0.817290 0.650666
0.878245 0.829932 0.663203
0.890707 0.832520 0.665690
0.532190 0.840608 0.625799
0.580386 0.850586 0.635646
0.631813 0.861226 0.646164
0.685815 0.872394 0.657218
0.741976 0.884004 0.668724
0.800008 0.895996 0.680620
0.859695 0.908326 0.692864
0.920870 0.920960 0.705421
0.933310 0.923539 0.707931
0.540974 0.859181 0.634116
0.589171 0.869148 0.643984
0.640596 0.879779 0.654523
0.694593 0.890936 0.665600
0.750748 0.902535 0.677127
0.808769 0.914516 0.689047
0.868442 0.926835 0.701315
0.929600 0.939457 0.713896
0.942014 0.942024 0.716432
0.265284 0.266143 0.406061
0.313263 0.276092 0.415835
0.364479 0.286706 0.426279
0.418282 0.297852 0.437256
0.474261 0.309443 0.448679
0.532128 0.321420 0.460491
0.591670 0.333740 0.472645
0.652722 0.346368 0.485107
0.665242 0.348962 0.487489
0.298821 0.337762 0.438946
0.346852 0.347722 0.448724
0.398119 0.358347 0.459171
0.451973 0.369503 0.470152
0.508001 0.381104 0.481580
0.565915 0.393090 0.493396
0.625501 0.405419 0.505555
0.686595 0.418055 0.518024
0.699113 0.420654 0.520419
0.334625 0.414224 0.474092
0.382701 0.424192 0.483875
0.434013 0.434826 0.494327
0.487911 0.445990 0.505314
0.543980 0.457599 0.516748
0.601933 0.469593 0.528571
0.661557 0.481929 0.540738
0.722685 0.494571 0.553215
0.735198 0.497172 0.555625
0.372238 0.494550 0.511045
0.420352 0.504526 0.520835
0.471702 0.515166 0.531296
0.525636 0.526336 0.542290
0.581740 0.537950 0.553733
0.639725 0.549949 0.565566
0.699377 0.562289 0.577742
0.760532 0.574935 0.590230
0.773036 0.577536 0.592656
0.411366 0.578118 0.549522
0.459512 0.588098 0.559323
0.510892 0.598742 0.569793
0.564855 0.609916 0.580798
0.620985 0.621533 0.592253
0.678994 0.633534 0.604097
0.738667 0.645876 0.616286
0.799839 0.658523 0.628787
0.812333 0.661121 0.631232
0.451801 0.664490 0.589331
0.499970 0.674471 0.599143
0.551374 0.685117 0.609626
0.605358 0.696291 0.620645
0.661506 0.707908 0.632113
0.719531 0.719909 0.643972
0.779217 0.732250 0.656176
0.840398 0.744895 0.668693
0.852877 0.747489 0.671158
0.493383 0.753337 0.630329
0.541570 0.763318 0.640156
0.592989 0.773961 0.650655
0.646986 0.785133 0.661689
0.703145 0.796748 0.673174
0.761177 0.808746 0.685050
0.820868 0.821082 0.697272
0.882049 0.833723 0.709808
0.894510 0.836310 0.712295
0.535988 0.844403 0.672410
0.584185 0.854380 0.682255
0.635612 0.865019 0.692772
0.689614 0.876186 0.703825
0.745776 0.887795 0.715329
0.803807 0.899786 0.727225
0.863493 0.912115 0.739468
0.924667 0.924748 0.752026
0.937105 0.927326 0.754537
0.544769 0.862972 0.680722
0.592966 0.872939 0.690589
0.644390 0.883568 0.701129
0.698387 0.894724 0.712205
0.754541 0.906322 0.723733
0.812561 0.918302 0.735653
0.872232 0.930620 0.747922
0.933388 0.943241 0.760505
0.945800 0.945806 0.763043
0.269222 0.270077 0.454694
0.317206 0.280027 0.464458
0.368428 0.290642 0.474890
0.422237 0.301788 0.485857
0.478221 0.313380 0.497270
0.536093 0.325358 0.509072
0.595640 0.337678 0.521216
0.656697 0.350307 0.533670
0.669217 0.352901 0.536044
0.302764 0.341700 0.487544
0.350799 0.351660 0.497312
0.402071 0.362286 0.507749
0.455930 0.373442 0.518721
0.511963 0.385044 0.530140
0.569881 0.397031 0.541947
0.629472 0.409360 0.554099
0.690570 0.421997 0.566560
0.703087 0.424595 0.568948
0.338572 0.418165 0.522657
0.386651 0.428134 0.532432
0.437968 0.438768 0.542876
0.491869 0.449933 0.553855
0.547943 0.461542 0.565282
0.605900 0.473536 0.577098
0.665527 0.485872 0.589258
0.726658 0.498514 0.601729
0.739170 0.501114 0.604133
0.376187 0.498494 0.559583
0.424305 0.508470 0.569366
0.475658 0.519110 0.579820
0.529595 0.530280 0.590808
0.585702 0.541894 0.602245
0.643690 0.553894 0.614071
0.703345 0.566233 0.626243
0.764501 0.578879 0.638725
0.777005 0.581479 0.641148
0.415317 0.582064 0.598038
0.463465 0.592044 0.607832
0.514849 0.602688 0.618297
0.568813 0.613861 0.629297
0.624946 0.625478 0.640747
0.682957 0.637479 0.652586
0.742632 0.649820 0.664772
0.803805 0.662467 0.677269
0.816297 0.665065 0.679710
0.455752 0.668436 0.637827
0.503924 0.678418 0.647635
0.555330 0.689063 0.658114
0.609315 0.700236 0.669129
0.665465 0.711853 0.680594
0.723491 0.723854 0.692449
0.783177 0.736193 0.704651
0.844359 0.748838 0.717166
0.856836 0.751432 0.719629
0.497334 0.757284 0.678811
0.545522 0.767264 0.688635
0.596943 0.777907 0.699131
0.650940 0.789078 0.710163
0.707100 0.800692 0.721646
0.765132 0.812689 0.733520
0.824823 0.825024 0.745741
0.886004 0.837664 0.758276
0.898462 0.840250 0.760762
0.539938 0.848348 0.720883
0.588135 0.858324 0.730726
0.639563 0.868963 0.741241
0.693565 0.880129 0.752293
0.749726 0.891736 0.763796
0.807756 0.903727 0.775692
0.867441 0.916055 0.787936
0.928614 0.928687 0.800494
0.941049 0.931263 0.803006
0.548714 0.866914 0.729191
0.596911 0.876880 0.739057
0.648335 0.887508 0.749596
0.702332 0.898664 0.760673
0.758484 0.910261 0.772201
0.816503 0.922239 0.784123
0.876173 0.934556 0.796392
0.937326 0.947176 0.808977
0.949735 0.949739 0.811517
0.273290 0.274142 0.504941
0.321280 0.284092 0.514693
0.372507 0.294708 0.525114
0.426322 0.305855 0.536070
0.482312 0.317447 0.547474
0.540189 0.329426 0.559265
0.599741 0.341747 0.571400
0.660803 0.354376 0.583845
0.673322 0.356971 0.586211
0.306837 0.345769 0.537754
0.354877 0.355730 0.547512
0.406154 0.366356 0.557940
0.460018 0.377513 0.568902
0.516055 0.389114 0.580312
0.573978 0.401102 0.592111
0.633573 0.413432 0.604254
0.694674 0.426069 0.616708
0.707191 0.428667 0.619090
0.342648 0.422237 0.572835
0.390732 0.432207 0.582601
0.442053 0.442841 0.593037
0.495959 0.454006 0.604008
0.552036 0.465615 0.615427
0.609996 0.477610 0.627236
0.669626 0.489945 0.639390
0.730761 0.502588 0.651854
0.743272 0.505188 0.654253
0.380267 0.502569 0.609733
0.428388 0.512545 0.619509
0.479745 0.523185 0.629956
0.533685 0.534355 0.640937
0.589795 0.545969 0.652368
0.647785 0.557968 0.664189
0.707443 0.570308 0.676355
0.768601 0.582954 0.688833
0.781104 0.585554 0.691251
0.419399 0.586140 0.648165
0.467549 0.596120 0.657953
0.518935 0.606764 0.668412
0.572903 0.617937 0.679407
0.629037 0.629554 0.690852
0.687050 0.641554 0.702687
0.746727 0.653895 0.714869
0.807901 0.666542 0.727363
0.820392 0.669139 0.729801
0.459834 0.672514 0.687936
0.508008 0.682495 0.697739
0.559416 0.693139 0.708214
0.613402 0.704312 0.719225
0.669554 0.715929 0.730686
0.727580 0.727929 0.742539
0.787268 0.740268 0.754738
0.848450 0.752912 0.767251
0.860925 0.755505 0.769712
0.501416 0.761361 0.728906
0.549605 0.771340 0.738727
0.601027 0.781983 0.749220
0.655025 0.793153 0.760249
0.711185 0.804766 0.771730
0.769218 0.816762 0.783602
0.828908 0.829097 0.795822
0.890089 0.841736 0.808356
0.902545 0.844321 0.810843
0.544018 0.852424 0.770968
0.592216 0.862399 0.780809
0.643643 0.873037 0.791323
0.697645 0.884202 0.802374
0.753806 0.895809 0.813877
0.811836 0.907798 0.825772
0.871520 0.920125 0.838016
0.932691 0.932756 0.850574
0.945124 0.935331 0.853088
0.552790 0.870987 0.779272
0.600987 0.880952 0.789138
0.652411 0.891579 0.799677
0.706406 0.902733 0.810754
0.762558 0.914329 0.822283
0.820575 0.926307 0.834205
0.880243 0.938622 0.846477
0.941394 0.951241 0.859063
0.953800 0.953803 0.861606
0.277474 0.278323 0.556614
0.325469 0.288274 0.566355
0.376703 0.298890 0.576765
0.430523 0.310038 0.587710
0.486518 0.321631 0.599104
0.544400 0.333610 0.610885
0.603957 0.345932 0.623011
0.665023 0.358561 0.635446
0.677543 0.361156 0.637804
0.311025 0.349954 0.589390
0.359070 0.359915 0.599138
0.410353 0.370542 0.609557
0.464221 0.381699 0.620509
0.520263 0.393301 0.631911
0.578190 0.405289 0.643701
0.637789 0.417619 0.655836
0.698894 0.430256 0.668282
0.711411 0.432854 0.670657
0.346841 0.426425 0.624439
0.394929 0.436395 0.634197
0.446254 0.447030 0.644625
0.500163 0.458195 0.655587
0.556244 0.469804 0.666999
0.614208 0.481799 0.678801
0.673842 0.494135 0.690948
0.734979 0.506777 0.703406
0.747490 0.509377 0.705799
0.384463 0.506760 0.661310
0.432587 0.516735 0.671078
0.483947 0.527376 0.681518
0.537890 0.538546 0.692493
0.594003 0.550160 0.703918
0.651996 0.562159 0.715733
0.711656 0.574499 0.727894
0.772817 0.587144 0.740367
0.785319 0.589744 0.742781
0.423596 0.590333 0.699718
0.471749 0.600312 0.709501
0.523138 0.610956 0.719955
0.577108 0.622129 0.730944
0.633244 0.633745 0.742385
0.691259 0.645746 0.754215
0.750937 0.658086 0.766393
0.812113 0.670732 0.778883
0.824602 0.673329 0.781319
0.464032 0.676707 0.739471
0.512208 0.686687 0.749270
0.563617 0.697331 0.759741
0.617605 0.708504 0.770748
0.673758 0.720120 0.782206
0.731786 0.732119 0.794055
0.791474 0.744458 0.806252
0.852656 0.757102 0.818763
0.865130 0.759693 0.821223
0.505613 0.765553 0.780427
0.553804 0.775532 0.790245
0.605226 0.786174 0.800735
0.659225 0.797344 0.811762
0.715386 0.808956 0.823241
0.773419 0.820952 0.835112
0.833108 0.833285 0.847331
0.894289 0.845924 0.859865
0.906742 0.848508 0.862351
0.548213 0.856616 0.822481
0.596411 0.866590 0.832320
0.647839 0.877226 0.842832
0.701841 0.888390 0.853882
0.758002 0.899996 0.865385
0.816031 0.911985 0.877280
0.875714 0.924311 0.889524
0.936883 0.936940 0.902084
0.949314 0.939514 0.904598
0.556982 0.875175 0.830781
0.605178 0.885139 0.840647
0.656601 0.895765 0.851186
0.710596 0.906918 0.862263
0.766746 0.918513 0.873793
0.824762 0.930489 0.885717
0.884428 0.942803 0.897990
0.945578 0.955421 0.910579
0.957981 0.957982 0.913124
0.281762 0.282608 0.609571
0.329763 0.292559 0.619300
0.381002 0.303176 0.629700
0.434828 0.314325 0.640634
0.490828 0.325918 0.652017
0.548716 0.337898 0.663788
0.608277 0.350221 0.675904
0.669348 0.362851 0.688331
0.681868 0.365445 0.690681
0.315318 0.354243 0.642310
0.363368 0.364204 0.652048
0.414656 0.374831 0.662456
0.468529 0.385989 0.673400
0.524575 0.397592 0.684793
0.582506 0.409580 0.696574
0.642109 0.421911 0.708701
0.703218 0.434548 0.721139
0.715735 0.437146 0.723508
0.351138 0.430718 0.677327
0.399230 0.440688 0.687075
0.450559 0.451323 0.697495
0.504472 0.462488 0.708450
0.560557 0.474097 0.719854
0.618524 0.486092 0.731649
0.678161 0.498428 0.743789
0.739301 0.511071 0.756241
0.751811 0.513670 0.758629
0.388762 0.511054 0.714169
0.436890 0.521030 0.723931
0.488253 0.531671 0.734364
0.542200 0.542841 0.745332
0.598315 0.554455 0.756751
0.656311 0.566454 0.768560
0.715973 0.578793 0.780716
0.777136 0.591439 0.793184
0.789637 0.594038 0.795594
0.427897 0.594629 0.752555
0.476053 0.604608 0.762332
0.527444 0.615252 0.772780
0.581416 0.626424 0.783765
0.637555 0.638040 0.795200
0.695571 0.650041 0.807027
0.755251 0.662381 0.819201
0.816428 0.675027 0.831688
0.828916 0.677623 0.834121
0.468334 0.681004 0.792289
0.516512 0.690984 0.802084
0.567923 0.701627 0.812551
0.621912 0.712800 0.823554
0.678066 0.724415 0.835009
0.736095 0.736414 0.846856
0.795784 0.748752 0.859051
0.856966 0.761395 0.871559
0.869438 0.763986 0.874018
0.509914 0.769850 0.833233
0.558106 0.779828 0.843047
0.609530 0.790469 0.853535
0.663529 0.801639 0.864560
0.719690 0.813250 0.876037
0.777723 0.825245 0.887907
0.837412 0.837578 0.900125
0.898592 0.850215 0.912658
0.911044 0.852798 0.915144
0.552512 0.860911 0.875278
0.600711 0.870884 0.885115
0.652139 0.881520 0.895626
0.706141 0.892683 0.906676
0.762301 0.904288 0.918178
0.820329 0.916275 0.930073
0.880011 0.928600 0.942297
0.941179 0.941229 0.954843
0.953607 0.943801 0.957370
0.561277 0.879467 0.883575
0.609473 0.889430 0.893440
0.660895 0.900055 0.903980
0.714889 0.911207 0.915058
0.771038 0.922801 0.926589
0.829053 0.934776 0.938510
0.888717 0.947089 0.950782
0.949864 0.959705 0.963376
0.962264 0.962264 0.965928
0.282656 0.283488 0.620237
0.330662 0.293440 0.629965
0.381905 0.304057 0.640364
0.435735 0.315205 0.651297
0.491739 0.326799 0.662680
0.549631 0.338779 0.674450
0.609197 0.351102 0.686566
0.670271 0.363732 0.698992
0.682790 0.366326 0.701342
0.316213 0.355125 0.652974
0.364267 0.365087 0.662711
0.415558 0.375714 0.673119
0.469435 0.386872 0.684062
0.525484 0.398474 0.695454
0.583419 0.410463 0.707236
0.643025 0.422793 0.719363
0.704137 0.435431 0.731801
0.716653 0.438028 0.734170
0.352034 0.431602 0.687989
0.400129 0.441572 0.697737
0.451461 0.452206 0.708157
0.505377 0.463371 0.719112
0.561465 0.474981 0.730516
0.619435 0.486976 0.742311
0.679074 0.499311 0.754451
0.740216 0.511954 0.766903
0.752725 0.514553 0.769293
0.389658 0.511940 0.724831
0.437788 0.521915 0.734593
0.489154 0.532555 0.745026
0.543103 0.543725 0.755995
0.599220 0.555339 0.767414
0.657218 0.567337 0.779224
0.716882 0.579676 0.791381
0.778046 0.592322 0.803850
0.790545 0.594920 0.806261
0.428792 0.595515 0.763217
0.476950 0.605494 0.772995
0.528343 0.616136 0.783444
0.582316 0.627309 0.794430
0.638456 0.638924 0.805866
0.696474 0.650924 0.817694
0.756154 0.663263 0.829869
0.817332 0.675909 0.842357
0.829818 0.678504 0.844793
0.469227 0.681889 0.802955
0.517406 0.691868 0.812750
0.568818 0.702511 0.823218
0.622809 0.713683 0.834223
0.678963 0.725298 0.845679
0.736992 0.737296 0.857528
0.796681 0.749633 0.869724
0.857863 0.762275 0.882234
0.870333 0.764865 0.884696
0.510805 0.770734 0.843902
0.558997 0.780712 0.853718
0.610421 0.791352 0.864207
0.664421 0.802520 0.875234
0.720582 0.814131 0.886713
0.778614 0.826124 0.898585
0.838303 0.838456 0.910805
0.899482 0.851093 0.923340
0.911931 0.853675 0.925829
0.553399 0.861793 0.885952
0.601598 0.871765 0.895792
0.653026 0.882400 0.906305
0.707027 0.893562 0.917357
0.763186 0.905166 0.928861
0.821213 0.917152 0.940737
0.880894 0.929475 0.952965
0.942060 0.942103 0.965524
0.954485 0.944674 0.968059
0.562159 0.880345 0.894257
0.610354 0.890307 0.904125
0.661776 0.900931 0.914667
0.715769 0.912082 0.925747
0.771916 0.923674 0.937276
0.829929 0.935648 0.949198
0.889591 0.947960 0.961479
0.950735 0.960574 0.974078
0.963133 0.963133 0.976633
