library/cube/Stage_Blaze_003.cube
# CINEGRADE LAB — Premium Cinematic LUT
# Title: Stage Blaze
# Category: Music Video Looks
# Description: Stylized, dramatic, high-impact looks inspired by music video grading
# Mood: Dynamic, stylized, intense
# Variant: 4
# Generated: 2026-05-21T16:12:40.430270
TITLE "Stage Blaze"
LUT_3D_SIZE 9
0.000000 0.000000 0.000000
0.003218 0.000000 0.000000
0.174662 0.000000 0.000000
0.348558 0.000000 0.000000
0.524832 0.000000 0.000000
0.703410 0.000000 0.000000
0.884217 0.000000 0.000000
1.000000 0.000000 0.000000
1.000000 0.000000 0.000000
0.000000 0.003243 0.000000
0.002966 0.003132 0.000000
0.178459 0.000000 0.000000
0.356238 0.000000 0.000000
0.536229 0.000000 0.000000
0.718359 0.000000 0.000000
0.902556 0.000000 0.000000
1.000000 0.000000 0.000000
1.000000 0.000000 0.000000
0.000000 0.175307 0.000000
0.000000 0.175436 0.000000
0.158151 0.168825 0.000000
0.339505 0.162130 0.000000
0.522910 0.155354 0.000000
0.708294 0.148498 0.000000
0.895586 0.141566 0.000000
1.000000 0.134759 0.000000
1.000000 0.134680 0.000000
0.000000 0.348929 0.000000
0.000000 0.349256 0.000000
0.137521 0.342708 0.000000
0.322186 0.336076 0.000000
0.508742 0.329362 0.000000
0.697117 0.322569 0.000000
0.886986 0.315709 0.000000
1.000000 0.309090 0.000000
1.000000 0.309200 0.000000
0.000000 0.523898 0.000000
0.000000 0.524382 0.000000
0.116603 0.517866 0.000000
0.304315 0.511265 0.000000
0.493760 0.504582 0.000000
0.684866 0.497820 0.000000
0.876530 0.491022 0.000000
1.000000 0.484581 0.000000
1.000000 0.484838 0.000000
0.000000 0.700004 0.000000
0.000000 0.700604 0.000000
0.095430 0.694088 0.000000
0.285927 0.687488 0.000000
0.477999 0.680805 0.000000
0.671574 0.674043 0.000000
0.864406 0.667288 0.000000
1.000000 0.661020 0.000000
1.000000 0.661384 0.000000
0.000000 0.877039 0.000000
0.000000 0.877712 0.000000
0.074030 0.871166 0.000000
0.267051 0.864534 0.000000
0.461487 0.857820 0.000000
0.657268 0.851027 0.000000
0.850668 0.844297 0.000000
1.000000 0.838198 0.000000
1.000000 0.838626 0.000000
0.000000 1.000000 0.000000
0.000000 1.000000 0.000000
0.052873 1.000000 0.000000
0.248193 1.000000 0.000000
0.444770 1.000000 0.000000
0.642532 1.000000 0.000000
0.836006 1.000000 0.000000
1.000000 1.000000 0.000000
1.000000 1.000000 0.000000
0.000000 1.000000 0.000000
0.000000 1.000000 0.000000
0.055713 1.000000 0.000000
0.253048 1.000000 0.000000
0.451476 1.000000 0.000000
0.650925 1.000000 0.000000
0.844013 1.000000 0.000000
1.000000 1.000000 0.000000
1.000000 1.000000 0.000000
0.000000 0.000000 0.003844
0.003183 0.000000 0.003714
0.175049 0.000000 0.000000
0.349350 0.000000 0.000000
0.526012 0.000000 0.000000
0.704960 0.000000 0.000000
0.886122 0.000000 0.000000
1.000000 0.000000 0.000000
1.000000 0.000000 0.000000
0.000000 0.003199 0.003359
0.002947 0.003088 0.003222
0.178833 0.000000 0.000000
0.356989 0.000000 0.000000
0.537340 0.000000 0.000000
0.719814 0.000000 0.000000
0.904339 0.000000 0.000000
1.000000 0.000000 0.000000
1.000000 0.000000 0.000000
0.000000 0.175347 0.000000
0.000000 0.175473 0.000000
0.158502 0.168848 0.000000
0.340206 0.162139 0.000000
0.523945 0.155348 0.000000
0.709646 0.148479 0.000000
0.897238 0.141534 0.000000
1.000000 0.134727 0.000000
1.000000 0.134650 0.000000
0.000000 0.349038 0.000000
0.000000 0.349361 0.000000
0.137853 0.342797 0.000000
0.322840 0.336149 0.000000
0.509702 0.329420 0.000000
0.698368 0.322613 0.000000
0.888449 0.315742 0.000000
1.000000 0.309124 0.000000
1.000000 0.309233 0.000000
0.000000 0.524062 0.000000
0.000000 0.524540 0.000000
0.116917 0.518007 0.000000
0.304925 0.511389 0.000000
0.494649 0.504691 0.000000
0.686019 0.497914 0.000000
0.877831 0.491104 0.000000
1.000000 0.484665 0.000000
1.000000 0.484920 0.000000
0.000000 0.700209 0.000000
0.000000 0.700801 0.000000
0.095728 0.694267 0.000000
0.286494 0.687649 0.000000
0.478819 0.680949 0.000000
0.672631 0.674171 0.000000
0.865549 0.667405 0.000000
1.000000 0.661141 0.000000
1.000000 0.661501 0.000000
0.000000 0.877270 0.000000
0.000000 0.877934 0.000000
0.074315 0.871368 0.000000
0.267578 0.864718 0.000000
0.462240 0.857986 0.000000
0.658231 0.851175 0.000000
0.851658 0.844435 0.000000
1.000000 0.838341 0.000000
1.000000 0.838763 0.000000
0.000000 1.000000 0.000000
0.000000 1.000000 0.000000
0.053159 1.000000 0.000000
0.248695 1.000000 0.000000
0.445471 1.000000 0.000000
0.643416 1.000000 0.000000
0.836868 1.000000 0.000000
1.000000 1.000000 0.000000
1.000000 1.000000 0.000000
0.000000 1.000000 0.000000
0.000000 1.000000 0.000000
0.055996 1.000000 0.000000
0.253519 1.000000 0.000000
0.452119 1.000000 0.000000
0.651722 1.000000 0.000000
0.844752 1.000000 0.000000
1.000000 1.000000 0.000000
1.000000 1.000000 0.000000
0.000000 0.000000 0.207459
0.000618 0.000000 0.207013
0.172907 0.000000 0.200089
0.347614 0.000000 0.193073
0.524665 0.000000 0.185966
0.703985 0.000000 0.178771
0.885503 0.000000 0.171492
1.000000 0.000000 0.164182
1.000000 0.000000 0.163491
0.000000 0.000634 0.205910
0.000412 0.000527 0.205456
0.176693 0.000000 0.198377
0.355226 0.000000 0.191212
0.535938 0.000000 0.183962
0.718757 0.000000 0.176631
0.903611 0.000000 0.169222
1.000000 0.000000 0.161857
1.000000 0.000000 0.161190
0.000000 0.172877 0.180405
0.000000 0.173006 0.179913
0.156353 0.166370 0.172658
0.338407 0.159650 0.165324
0.522480 0.152850 0.157913
0.708499 0.145972 0.150428
0.896393 0.139019 0.142872
1.000000 0.132216 0.135471
1.000000 0.132144 0.134804
0.000000 0.346650 0.154677
0.000000 0.346973 0.154151
0.135696 0.340398 0.146738
0.321007 0.333738 0.139252
0.508177 0.326999 0.131696
0.697134 0.320181 0.124073
0.887425 0.313303 0.116401
1.000000 0.306690 0.109005
1.000000 0.306803 0.108345
0.000000 0.521741 0.128754
0.000000 0.522218 0.128203
0.114756 0.515672 0.120646
0.303061 0.509042 0.113025
0.493066 0.502331 0.105340
0.684700 0.495543 0.097596
0.876659 0.488726 0.089842
1.000000 0.482294 0.082490
1.000000 0.482551 0.081845
0.000000 0.697942 0.102668
0.000000 0.698530 0.102097
0.093565 0.691982 0.094414
0.284601 0.685350 0.086673
0.477180 0.678638 0.078876
0.671230 0.671847 0.071026
0.864231 0.665075 0.063220
1.000000 0.658820 0.055956
1.000000 0.659178 0.055330
0.000000 0.875043 0.076449
0.000000 0.875701 0.075864
0.072151 0.869120 0.068071
0.265658 0.862455 0.060226
0.460547 0.855709 0.052333
0.656748 0.848885 0.044394
0.850202 0.842138 0.036564
1.000000 0.836054 0.029429
1.000000 0.836473 0.028830
0.000000 1.000000 0.050517
0.000000 1.000000 0.049960
0.051010 1.000000 0.042111
0.246763 1.000000 0.034220
0.443740 1.000000 0.026288
0.641868 1.000000 0.018319
0.835299 1.000000 0.010536
1.000000 1.000000 0.003618
1.000000 1.000000 0.003096
0.000000 1.000000 0.048696
0.000000 1.000000 0.048159
0.053858 1.000000 0.040254
0.251569 1.000000 0.032311
0.450341 1.000000 0.024335
0.650101 1.000000 0.016327
0.843073 1.000000 0.008585
1.000000 1.000000 0.001894
1.000000 1.000000 0.001422
0.000000 0.000000 0.410860
0.000000 0.000000 0.410097
0.170767 0.000000 0.402841
0.345876 0.000000 0.395493
0.523313 0.000000 0.388055
0.703004 0.000000 0.380530
0.884874 0.000000 0.372921
1.000000 0.000000 0.365287
1.000000 0.000000 0.364282
0.000000 0.000000 0.408246
0.000000 0.000000 0.407475
0.174553 0.000000 0.400065
0.353461 0.000000 0.392568
0.534532 0.000000 0.384989
0.717694 0.000000 0.377328
0.902873 0.000000 0.369591
1.000000 0.000000 0.361905
1.000000 0.000000 0.360925
0.000000 0.170410 0.381665
0.000000 0.170541 0.380855
0.154204 0.163894 0.373270
0.336607 0.157164 0.365607
0.521011 0.150354 0.357867
0.707345 0.143467 0.350055
0.895539 0.136505 0.342171
1.000000 0.129708 0.334456
1.000000 0.129642 0.333476
0.000000 0.344264 0.354861
0.000000 0.344587 0.354019
0.133541 0.338000 0.346277
0.319173 0.331329 0.338464
0.506648 0.324579 0.330581
0.695894 0.317751 0.322632
0.886388 0.310866 0.314637
1.000000 0.304258 0.306930
1.000000 0.304375 0.305958
0.000000 0.519422 0.327866
0.000000 0.519897 0.326999
0.112597 0.513337 0.319116
0.301196 0.506695 0.311169
0.491479 0.499973 0.303159
0.683376 0.493173 0.295090
0.875474 0.486350 0.287016
1.000000 0.479925 0.279358
1.000000 0.480183 0.278401
0.000000 0.695676 0.300712
0.000000 0.696260 0.299825
0.091403 0.689698 0.291818
0.282708 0.683053 0.283752
0.475538 0.676327 0.275632
0.669822 0.669524 0.267459
0.862902 0.662746 0.259336
1.000000 0.656499 0.251770
1.000000 0.656857 0.250834
0.000000 0.872815 0.273427
0.000000 0.873467 0.272528
0.069990 0.866871 0.264411
0.263737 0.860191 0.256245
0.458851 0.853431 0.248030
0.655260 0.846594 0.239769
0.848735 0.839841 0.231626
1.000000 0.833767 0.224193
1.000000 0.834184 0.223283
0.000000 1.000000 0.246445
0.000000 1.000000 0.245576
0.048864 1.000000 0.237406
0.244830 1.000000 0.229194
0.442005 1.000000 0.220942
0.640314 1.000000 0.212654
0.833720 1.000000 0.204560
1.000000 1.000000 0.197348
1.000000 1.000000 0.196517
0.000000 1.000000 0.243573
0.000000 1.000000 0.242723
0.051721 1.000000 0.234498
0.249619 1.000000 0.226236
0.448561 1.000000 0.217941
0.648473 1.000000 0.209615
0.841385 1.000000 0.201563
1.000000 1.000000 0.194581
1.000000 1.000000 0.193799
0.000000 0.000000 0.614046
0.000000 0.000000 0.612966
0.168628 0.000000 0.605378
0.344138 0.000000 0.597699
0.521958 0.000000 0.589929
0.702015 0.000000 0.582074
0.884236 0.000000 0.574135
1.000000 0.000000 0.566177
1.000000 0.000000 0.564859
0.000000 0.000000 0.610367
0.000000 0.000000 0.609279
0.172415 0.000000 0.601537
0.351696 0.000000 0.593710
0.533122 0.000000 0.585800
0.716623 0.000000 0.577811
0.902126 0.000000 0.569744
1.000000 0.000000 0.561740
1.000000 0.000000 0.560446
0.000000 0.167945 0.582709
0.000000 0.168079 0.581582
0.152058 0.161421 0.573668
0.334805 0.154681 0.565675
0.519538 0.147861 0.557607
0.706185 0.140965 0.549467
0.894675 0.133995 0.541256
1.000000 0.127203 0.533227
1.000000 0.127143 0.531935
0.000000 0.341879 0.554831
0.000000 0.342203 0.553673
0.131388 0.335604 0.545602
0.317338 0.328922 0.537461
0.505115 0.322161 0.529251
0.694647 0.315323 0.520976
0.885338 0.308431 0.512659
1.000000 0.301829 0.504641
1.000000 0.301950 0.503358
0.000000 0.517104 0.526764
0.000000 0.517577 0.525582
0.110440 0.511004 0.517372
0.299330 0.504350 0.509099
0.489889 0.497616 0.500764
0.682045 0.490805 0.492371
0.874276 0.483976 0.483977
1.000000 0.477558 0.476013
1.000000 0.477818 0.474745
0.000000 0.693409 0.498541
0.000000 0.693990 0.497340
0.089244 0.687414 0.489008
0.280813 0.680755 0.480618
0.473892 0.674017 0.472174
0.668409 0.667202 0.463679
0.861560 0.660417 0.455240
1.000000 0.654179 0.447372
1.000000 0.654537 0.446125
0.000000 0.870587 0.470192
0.000000 0.871233 0.468978
0.067830 0.864621 0.460539
0.261815 0.857927 0.452049
0.457151 0.851154 0.443513
0.653765 0.844303 0.434931
0.847256 0.837544 0.426474
1.000000 0.831480 0.418744
1.000000 0.831895 0.417524
0.000000 1.000000 0.442160
0.000000 1.000000 0.440978
0.046720 1.000000 0.432487
0.242897 1.000000 0.423955
0.440267 1.000000 0.415384
0.638755 1.000000 0.406776
0.832130 1.000000 0.398371
1.000000 1.000000 0.390866
1.000000 1.000000 0.389725
0.000000 1.000000 0.438236
0.000000 1.000000 0.437075
0.049587 1.000000 0.428529
0.247668 1.000000 0.419948
0.446777 1.000000 0.411334
0.646839 1.000000 0.402690
0.839688 1.000000 0.394328
1.000000 1.000000 0.387055
1.000000 1.000000 0.385963
0.000000 0.000000 0.817017
0.000000 0.000000 0.815621
0.166490 0.000000 0.807701
0.342398 0.000000 0.799689
0.520598 0.000000 0.791589
0.701020 0.000000 0.783403
0.883588 0.000000 0.775135
1.000000 0.000000 0.766854
1.000000 0.000000 0.765221
0.000000 0.000000 0.812273
0.000000 0.000000 0.810868
0.170279 0.000000 0.802795
0.349929 0.000000 0.794637
0.531709 0.000000 0.786398
0.715546 0.000000 0.778079
0.901369 0.000000 0.769683
1.000000 0.000000 0.761361
1.000000 0.000000 0.759754
0.000000 0.165482 0.783538
0.000000 0.165619 0.782095
0.149913 0.158950 0.773851
0.333002 0.152200 0.765529
0.518062 0.145371 0.757133
0.705019 0.138466 0.748664
0.893800 0.131488 0.740127
1.000000 0.124701 0.731785
1.000000 0.124647 0.730180
0.000000 0.339496 0.754586
0.000000 0.339820 0.753112
0.129237 0.333209 0.744713
0.315503 0.326516 0.736244
0.503579 0.319745 0.727708
0.693394 0.312897 0.719107
0.884276 0.305999 0.710467
1.000000 0.299403 0.702140
1.000000 0.299527 0.700544
0.000000 0.514786 0.725448
0.000000 0.515257 0.723950
0.108285 0.508672 0.715414
0.297464 0.502006 0.706815
0.488295 0.495260 0.698155
0.680707 0.488438 0.689437
0.873066 0.481603 0.680725
1.000000 0.475193 0.672455
1.000000 0.475455 0.670876
0.000000 0.691143 0.696157
0.000000 0.691720 0.694641
0.087087 0.685130 0.685984
0.278918 0.678458 0.677270
0.472242 0.671707 0.668503
0.666989 0.664880 0.659686
0.860206 0.658090 0.650930
1.000000 0.651861 0.642761
1.000000 0.652219 0.641204
0.000000 0.868357 0.666743
0.000000 0.868998 0.665215
0.065673 0.862371 0.656453
0.259893 0.855663 0.647641
0.455447 0.848876 0.638783
0.652265 0.842012 0.629881
0.845765 0.835247 0.621110
1.000000 0.829194 0.613083
1.000000 0.829606 0.611552
0.000000 1.000000 0.637663
0.000000 1.000000 0.636167
0.044578 1.000000 0.627356
0.240964 1.000000 0.618503
0.438525 1.000000 0.609612
0.637189 1.000000 0.600686
0.830530 1.000000 0.591970
1.000000 1.000000 0.584172
1.000000 1.000000 0.582721
0.000000 1.000000 0.632687
0.000000 1.000000 0.631213
0.047455 1.000000 0.622347
0.245717 1.000000 0.613447
0.444989 1.000000 0.604514
0.645198 1.000000 0.595552
0.837982 1.000000 0.586880
1.000000 1.000000 0.579317
1.000000 1.000000 0.577914
0.000000 0.000000 1.000000
0.000000 0.000000 1.000000
0.164354 0.000000 1.000000
0.340656 0.000000 1.000000
0.519235 0.000000 0.993034
0.700017 0.000000 0.984518
0.882930 0.000000 0.975920
1.000000 0.000000 0.967316
1.000000 0.000000 0.965370
0.000000 0.000000 1.000000
0.000000 0.000000 1.000000
0.168144 0.000000 1.000000
0.348161 0.000000 0.995349
0.530291 0.000000 0.986780
0.714462 0.000000 0.978132
0.900603 0.000000 0.969408
1.000000 0.000000 0.960768
1.000000 0.000000 0.958847
0.000000 0.163022 0.984152
0.000000 0.163161 0.982393
0.147770 0.156481 0.973819
0.331199 0.149721 0.965168
0.516581 0.142883 0.956443
0.703846 0.135969 0.947647
0.892873 0.128985 0.938785
1.000000 0.122203 0.930130
1.000000 0.122154 0.928212
0.000000 0.337114 0.954126
0.000000 0.337439 0.952336
0.127088 0.330816 0.943609
0.313666 0.324112 0.934813
0.502039 0.317330 0.925950
0.692135 0.310473 0.917023
0.883200 0.303569 0.908061
1.000000 0.296979 0.899425
1.000000 0.297107 0.897518
0.000000 0.512469 0.923917
0.000000 0.512939 0.922104
0.106132 0.506341 0.913241
0.295597 0.499662 0.904317
0.486698 0.492905 0.895332
0.679364 0.486073 0.886291
0.871842 0.479232 0.877259
1.000000 0.472830 0.868685
1.000000 0.473093 0.866795
0.000000 0.688877 0.893559
0.000000 0.689450 0.891728
0.084932 0.682846 0.882746
0.277022 0.676161 0.873709
0.470589 0.669398 0.864619
0.665563 0.662559 0.855479
0.858839 0.655763 0.846408
1.000000 0.649544 0.837938
1.000000 0.649901 0.836070
0.000000 0.866128 0.863080
0.000000 0.866762 0.861238
0.063518 0.860121 0.852153
0.257970 0.853398 0.843020
0.453741 0.846597 0.833840
0.650758 0.839721 0.824617
0.844264 0.832951 0.815533
1.000000 0.826909 0.807209
1.000000 0.827318 0.805368
0.000000 1.000000 0.832952
0.000000 1.000000 0.831144
0.042438 1.000000 0.822011
0.239030 1.000000 0.812839
0.436780 1.000000 0.803628
0.635617 1.000000 0.794383
0.828920 1.000000 0.785356
0.997938 0.999452 0.777266
1.000000 0.999526 0.775505
0.000000 1.000000 0.826925
0.000000 1.000000 0.825138
0.045326 1.000000 0.815953
0.243765 1.000000 0.806733
0.443199 1.000000 0.797482
0.643552 1.000000 0.788201
0.836268 1.000000 0.779219
0.999626 1.000000 0.771367
1.000000 1.000000 0.769653
0.000000 0.000000 1.000000
0.000000 0.000000 1.000000
0.162220 0.000000 1.000000
0.338913 0.000000 1.000000
0.517867 0.000000 1.000000
0.699008 0.000000 1.000000
0.882263 0.000000 1.000000
1.000000 0.000000 1.000000
1.000000 0.000000 1.000000
0.000000 0.000000 1.000000
0.000000 0.000000 1.000000
0.166011 0.000000 1.000000
0.346391 0.000000 1.000000
0.528869 0.000000 1.000000
0.713371 0.000000 1.000000
0.899827 0.000000 1.000000
1.000000 0.000000 1.000000
1.000000 0.000000 1.000000
0.000000 0.160564 1.000000
0.000000 0.160705 1.000000
0.145628 0.154015 1.000000
0.329394 0.147245 1.000000
0.515097 0.140398 1.000000
0.702666 0.133475 1.000000
0.891934 0.126485 1.000000
1.000000 0.119708 1.000000
1.000000 0.119665 1.000000
0.000000 0.334734 1.000000
0.000000 0.335059 1.000000
0.124940 0.328425 1.000000
0.311828 0.321710 1.000000
0.500495 0.314918 1.000000
0.690869 0.308051 1.000000
0.882112 0.301141 1.000000
1.000000 0.294558 1.000000
1.000000 0.294690 1.000000
0.000000 0.510153 1.000000
0.000000 0.510621 1.000000
0.103980 0.504011 1.000000
0.293728 0.497320 1.000000
0.485097 0.490552 1.000000
0.678014 0.483708 1.000000
0.870607 0.476862 1.000000
1.000000 0.470468 1.000000
1.000000 0.470733 1.000000
0.000000 0.686611 1.000000
0.000000 0.687180 1.000000
0.082778 0.680562 1.000000
0.275125 0.673864 1.000000
0.468933 0.667089 1.000000
0.664131 0.660238 1.000000
0.857461 0.653437 1.000000
1.000000 0.647228 1.000000
1.000000 0.647584 1.000000
0.000000 0.863898 1.000000
0.000000 0.864526 1.000000
0.061364 0.857870 1.000000
0.256046 0.851133 1.000000
0.452030 0.844319 1.000000
0.649244 0.837429 1.000000
0.842751 0.830654 1.000000
1.000000 0.824624 1.000000
1.000000 0.825030 0.998972
0.000000 1.000000 1.000000
0.000000 1.000000 1.000000
0.040301 1.000000 1.000000
0.237096 1.000000 1.000000
0.435033 1.000000 0.997432
0.634038 1.000000 0.987868
0.827300 1.000000 0.978530
0.995790 0.997067 0.970147
0.999678 0.997133 0.968076
0.000000 1.000000 1.000000
0.000000 1.000000 1.000000
0.043199 1.000000 1.000000
0.241813 1.000000 0.999807
0.441404 1.000000 0.990237
0.641898 1.000000 0.980638
0.834546 1.000000 0.971345
0.997288 1.000000 0.963203
1.000000 1.000000 0.961179
0.000000 0.000000 1.000000
0.000000 0.000000 1.000000
0.162606 0.000000 1.000000
0.339684 0.000000 1.000000
0.519006 0.000000 1.000000
0.700499 0.000000 1.000000
0.884089 0.000000 1.000000
1.000000 0.000000 1.000000
1.000000 0.000000 1.000000
0.000000 0.000000 1.000000
0.000000 0.000000 1.000000
0.166385 0.000000 1.000000
0.347123 0.000000 1.000000
0.529941 0.000000 1.000000
0.714768 0.000000 1.000000
0.901533 0.000000 1.000000
1.000000 0.000000 1.000000
1.000000 0.000000 1.000000
0.000000 0.160608 1.000000
0.000000 0.160748 1.000000
0.145981 0.154044 1.000000
0.330077 0.147260 1.000000
0.516094 0.140400 1.000000
0.703961 0.133465 1.000000
0.893459 0.126464 1.000000
1.000000 0.119689 1.000000
1.000000 0.119648 1.000000
0.000000 0.334843 1.000000
0.000000 0.335165 1.000000
0.125274 0.328515 1.000000
0.312465 0.321786 1.000000
0.501419 0.314979 1.000000
0.692064 0.308098 1.000000
0.883475 0.301179 1.000000
1.000000 0.294599 1.000000
1.000000 0.294731 1.000000
0.000000 0.510312 1.000000
0.000000 0.510774 1.000000
0.104297 0.504148 1.000000
0.294322 0.497441 1.000000
0.485951 0.490658 1.000000
0.679112 0.483800 1.000000
0.871809 0.476944 1.000000
1.000000 0.470555 1.000000
1.000000 0.470818 1.000000
0.000000 0.686806 1.000000
0.000000 0.687367 1.000000
0.083080 0.680732 1.000000
0.275677 0.674017 1.000000
0.469718 0.667225 1.000000
0.665134 0.660359 1.000000
0.858507 0.653549 1.000000
1.000000 0.647346 1.000000
1.000000 0.647699 1.000000
0.000000 0.864114 1.000000
0.000000 0.864733 1.000000
0.061653 0.858059 1.000000
0.256558 0.851304 1.000000
0.452749 0.844472 1.000000
0.650153 0.837566 1.000000
0.843651 0.830781 1.000000
1.000000 0.824759 1.000000
1.000000 0.825159 1.000000
0.000000 1.000000 1.000000
0.000000 1.000000 1.000000
0.040593 1.000000 1.000000
0.237584 1.000000 1.000000
0.435700 1.000000 1.000000
0.634869 1.000000 0.990836
0.828081 1.000000 0.981496
0.996030 0.997088 0.973130
0.999847 0.997142 0.971058
0.000000 1.000000 1.000000
0.000000 1.000000 1.000000
0.043487 1.000000 1.000000
0.242270 1.000000 1.000000
0.442012 1.000000 0.993205
0.642640 1.000000 0.983597
0.835213 1.000000 0.974303
0.997328 1.000000 0.966181
1.000000 1.000000 0.964155
