library/cube/Stage_Blaze_003.cube
# CINEGRADE LAB — Premium Cinematic LUT
# Title: Stage Blaze
# Category: Music Video Looks
# Description: Stylized, dramatic, high-impact looks inspired by music video grading
# Mood: Dynamic, stylized, intense
# Variant: 4
# Generated: 2026-05-21T16:12:40.430270
TITLE "Stage Blaze"
LUT_3D_SIZE 5
0.000000 0.000000 0.000000
0.174662 0.000000 0.000000
0.524832 0.000000 0.000000
0.884217 0.000000 0.000000
1.000000 0.000000 0.000000
0.000000 0.175307 0.000000
0.158151 0.168825 0.000000
0.522910 0.155354 0.000000
0.895586 0.141566 0.000000
1.000000 0.134680 0.000000
0.000000 0.523898 0.000000
0.116603 0.517866 0.000000
0.493760 0.504582 0.000000
0.876530 0.491022 0.000000
1.000000 0.484838 0.000000
0.000000 0.877039 0.000000
0.074030 0.871166 0.000000
0.461487 0.857820 0.000000
0.850668 0.844297 0.000000
1.000000 0.838626 0.000000
0.000000 1.000000 0.000000
0.055713 1.000000 0.000000
0.451476 1.000000 0.000000
0.844013 1.000000 0.000000
1.000000 1.000000 0.000000
0.000000 0.000000 0.207459
0.172907 0.000000 0.200089
0.524665 0.000000 0.185966
0.885503 0.000000 0.171492
1.000000 0.000000 0.163491
0.000000 0.172877 0.180405
0.156353 0.166370 0.172658
0.522480 0.152850 0.157913
0.896393 0.139019 0.142872
1.000000 0.132144 0.134804
0.000000 0.521741 0.128754
0.114756 0.515672 0.120646
0.493066 0.502331 0.105340
0.876659 0.488726 0.089842
1.000000 0.482551 0.081845
0.000000 0.875043 0.076449
0.072151 0.869120 0.068071
0.460547 0.855709 0.052333
0.850202 0.842138 0.036564
1.000000 0.836473 0.028830
0.000000 1.000000 0.048696
0.053858 1.000000 0.040254
0.450341 1.000000 0.024335
0.843073 1.000000 0.008585
1.000000 1.000000 0.001422
0.000000 0.000000 0.614046
0.168628 0.000000 0.605378
0.521958 0.000000 0.589929
0.884236 0.000000 0.574135
1.000000 0.000000 0.564859
0.000000 0.167945 0.582709
0.152058 0.161421 0.573668
0.519538 0.147861 0.557607
0.894675 0.133995 0.541256
1.000000 0.127143 0.531935
0.000000 0.517104 0.526764
0.110440 0.511004 0.517372
0.489889 0.497616 0.500764
0.874276 0.483976 0.483977
1.000000 0.477818 0.474745
0.000000 0.870587 0.470192
0.067830 0.864621 0.460539
0.457151 0.851154 0.443513
0.847256 0.837544 0.426474
1.000000 0.831895 0.417524
0.000000 1.000000 0.438236
0.049587 1.000000 0.428529
0.446777 1.000000 0.411334
0.839688 1.000000 0.394328
1.000000 1.000000 0.385963
0.000000 0.000000 1.000000
0.164354 0.000000 1.000000
0.519235 0.000000 0.993034
0.882930 0.000000 0.975920
1.000000 0.000000 0.965370
0.000000 0.163022 0.984152
0.147770 0.156481 0.973819
0.516581 0.142883 0.956443
0.892873 0.128985 0.938785
1.000000 0.122154 0.928212
0.000000 0.512469 0.923917
0.106132 0.506341 0.913241
0.486698 0.492905 0.895332
0.871842 0.479232 0.877259
1.000000 0.473093 0.866795
0.000000 0.866128 0.863080
0.063518 0.860121 0.852153
0.453741 0.846597 0.833840
0.844264 0.832951 0.815533
1.000000 0.827318 0.805368
0.000000 1.000000 0.826925
0.045326 1.000000 0.815953
0.443199 1.000000 0.797482
0.836268 1.000000 0.779219
1.000000 1.000000 0.769653
0.000000 0.000000 1.000000
0.162606 0.000000 1.000000
0.519006 0.000000 1.000000
0.884089 0.000000 1.000000
1.000000 0.000000 1.000000
0.000000 0.160608 1.000000
0.145981 0.154044 1.000000
0.516094 0.140400 1.000000
0.893459 0.126464 1.000000
1.000000 0.119648 1.000000
0.000000 0.510312 1.000000
0.104297 0.504148 1.000000
0.485951 0.490658 1.000000
0.871809 0.476944 1.000000
1.000000 0.470818 1.000000
0.000000 0.864114 1.000000
0.061653 0.858059 1.000000
0.452749 0.844472 1.000000
0.843651 0.830781 1.000000
1.000000 0.825159 1.000000
0.000000 1.000000 1.000000
0.043487 1.000000 1.000000
0.442012 1.000000 0.993205
0.835213 1.000000 0.974303
1.000000 1.000000 0.964155
