library/cube/Stage_Blaze_003.cube
# CINEGRADE LAB — Premium Cinematic LUT
# Title: Stage Blaze
# Category: Music Video Looks
# Description: Stylized, dramatic, high-impact looks inspired by music video grading
# Mood: Dynamic, stylized, intense
# Variant: 4
# Generated: 2026-05-21T16:12:40.430270
TITLE "Stage Blaze"
LUT_3D_SIZE 33
0.000000 0.000000 0.000000
0.000000 0.000000 0.000000
0.000002 0.000000 0.000000
0.000004 0.000001 0.000000
0.003218 0.000000 0.000000
0.045845 0.000000 0.000000
0.088629 0.000000 0.000000
0.131568 0.000000 0.000000
0.174662 0.000000 0.000000
0.217909 0.000000 0.000000
0.261308 0.000000 0.000000
0.304859 0.000000 0.000000
0.348558 0.000000 0.000000
0.392407 0.000000 0.000000
0.436403 0.000000 0.000000
0.480545 0.000000 0.000000
0.524832 0.000000 0.000000
0.569264 0.000000 0.000000
0.613838 0.000000 0.000000
0.658554 0.000000 0.000000
0.703410 0.000000 0.000000
0.748405 0.000000 0.000000
0.793539 0.000000 0.000000
0.838810 0.000000 0.000000
0.884217 0.000000 0.000000
0.929722 0.000000 0.000000
0.975101 0.000000 0.000000
1.000000 0.000000 0.000000
1.000000 0.000000 0.000000
1.000000 0.000000 0.000000
1.000000 0.000000 0.000000
1.000000 0.000000 0.000000
1.000000 0.000000 0.000000
0.000005 0.000001 0.000000
0.000009 0.000001 0.000000
0.000013 0.000002 0.000000
0.000018 0.000003 0.000000
0.003255 0.000000 0.000000
0.046145 0.000000 0.000000
0.089190 0.000000 0.000000
0.132388 0.000000 0.000000
0.175738 0.000000 0.000000
0.219238 0.000000 0.000000
0.262888 0.000000 0.000000
0.306686 0.000000 0.000000
0.350631 0.000000 0.000000
0.394722 0.000000 0.000000
0.438958 0.000000 0.000000
0.483338 0.000000 0.000000
0.527860 0.000000 0.000000
0.572524 0.000000 0.000000
0.617328 0.000000 0.000000
0.662270 0.000000 0.000000
0.707351 0.000000 0.000000
0.752569 0.000000 0.000000
0.797922 0.000000 0.000000
0.843410 0.000000 0.000000
0.889031 0.000000 0.000000
0.934703 0.000000 0.000000
0.980206 0.000000 0.000000
1.000000 0.000000 0.000000
1.000000 0.000000 0.000000
1.000000 0.000000 0.000000
1.000000 0.000000 0.000000
1.000000 0.000000 0.000000
1.000000 0.000000 0.000000
0.000020 0.000003 0.000000
0.000027 0.000005 0.000000
0.000034 0.000006 0.000000
0.000043 0.000007 0.000000
0.003301 0.000000 0.000000
0.046451 0.000000 0.000000
0.089753 0.000000 0.000000
0.133205 0.000000 0.000000
0.176806 0.000000 0.000000
0.220555 0.000000 0.000000
0.264450 0.000000 0.000000
0.308492 0.000000 0.000000
0.352678 0.000000 0.000000
0.397008 0.000000 0.000000
0.441479 0.000000 0.000000
0.486092 0.000000 0.000000
0.530845 0.000000 0.000000
0.575737 0.000000 0.000000
0.620766 0.000000 0.000000
0.665932 0.000000 0.000000
0.711233 0.000000 0.000000
0.756669 0.000000 0.000000
0.802237 0.000000 0.000000
0.847938 0.000000 0.000000
0.893769 0.000000 0.000000
0.939585 0.000000 0.000000
0.985196 0.000000 0.000000
1.000000 0.000000 0.000000
1.000000 0.000000 0.000000
1.000000 0.000000 0.000000
1.000000 0.000000 0.000000
1.000000 0.000000 0.000000
1.000000 0.000000 0.000000
0.000046 0.000008 0.000000
0.000055 0.000009 0.000000
0.000066 0.000011 0.000000
0.000077 0.000013 0.000000
0.003358 0.000000 0.000000
0.046763 0.000000 0.000000
0.090316 0.000000 0.000000
0.134018 0.000000 0.000000
0.177866 0.000000 0.000000
0.221859 0.000000 0.000000
0.265997 0.000000 0.000000
0.310277 0.000000 0.000000
0.354700 0.000000 0.000000
0.399264 0.000000 0.000000
0.443967 0.000000 0.000000
0.488809 0.000000 0.000000
0.533788 0.000000 0.000000
0.578904 0.000000 0.000000
0.624154 0.000000 0.000000
0.669539 0.000000 0.000000
0.715056 0.000000 0.000000
0.760705 0.000000 0.000000
0.806485 0.000000 0.000000
0.852394 0.000000 0.000000
0.898431 0.000000 0.000000
0.944366 0.000000 0.000000
0.990071 0.000000 0.000000
1.000000 0.000000 0.000000
1.000000 0.000000 0.000000
1.000000 0.000000 0.000000
1.000000 0.000000 0.000000
1.000000 0.000000 0.000000
1.000000 0.000000 0.000000
0.000000 0.003243 0.000000
0.000000 0.003247 0.000000
0.000000 0.003250 0.000000
0.000000 0.003254 0.000000
0.002966 0.003132 0.000000
0.046621 0.001464 0.000000
0.090422 0.000000 0.000000
0.134369 0.000000 0.000000
0.178459 0.000000 0.000000
0.222692 0.000000 0.000000
0.267067 0.000000 0.000000
0.311583 0.000000 0.000000
0.356238 0.000000 0.000000
0.401031 0.000000 0.000000
0.445961 0.000000 0.000000
0.491028 0.000000 0.000000
0.536229 0.000000 0.000000
0.581563 0.000000 0.000000
0.627031 0.000000 0.000000
0.672630 0.000000 0.000000
0.718359 0.000000 0.000000
0.764217 0.000000 0.000000
0.810204 0.000000 0.000000
0.856317 0.000000 0.000000
0.902556 0.000000 0.000000
0.948583 0.000000 0.000000
0.994367 0.000000 0.000000
1.000000 0.000000 0.000000
1.000000 0.000000 0.000000
1.000000 0.000000 0.000000
1.000000 0.000000 0.000000
1.000000 0.000000 0.000000
1.000000 0.000000 0.000000
0.000000 0.046102 0.000000
0.000000 0.046121 0.000000
0.000000 0.046141 0.000000
0.000000 0.046161 0.000000
0.000000 0.046054 0.000000
0.040860 0.044393 0.000000
0.084902 0.042726 0.000000
0.129087 0.041054 0.000000
0.173414 0.039376 0.000000
0.217881 0.037693 0.000000
0.262487 0.036005 0.000000
0.307231 0.034312 0.000000
0.352112 0.032614 0.000000
0.397128 0.030910 0.000000
0.442279 0.029202 0.000000
0.487564 0.027488 0.000000
0.532981 0.025769 0.000000
0.578529 0.024046 0.000000
0.624207 0.022317 0.000000
0.670014 0.020584 0.000000
0.715949 0.018846 0.000000
0.762011 0.017103 0.000000
0.808198 0.015355 0.000000
0.854510 0.013603 0.000000
0.900945 0.011846 0.000000
0.947034 0.010103 0.000000
0.992878 0.008368 0.000000
1.000000 0.006633 0.000000
1.000000 0.004896 0.000000
1.000000 0.004737 0.000000
1.000000 0.004707 0.000000
1.000000 0.004678 0.000000
1.000000 0.004649 0.000000
0.000000 0.089068 0.000000
0.000000 0.089103 0.000000
0.000000 0.089138 0.000000
0.000000 0.089173 0.000000
0.000000 0.089081 0.000000
0.035090 0.087426 0.000000
0.079369 0.085765 0.000000
0.123789 0.084099 0.000000
0.168347 0.082428 0.000000
0.213043 0.080751 0.000000
0.257876 0.079069 0.000000
0.302844 0.077382 0.000000
0.347947 0.075690 0.000000
0.393183 0.073992 0.000000
0.438551 0.072290 0.000000
0.484050 0.070582 0.000000
0.529678 0.068870 0.000000
0.575436 0.067152 0.000000
0.621320 0.065430 0.000000
0.667332 0.063703 0.000000
0.713468 0.061971 0.000000
0.759729 0.060234 0.000000
0.806113 0.058493 0.000000
0.852619 0.056746 0.000000
0.899245 0.054996 0.000000
0.945366 0.053264 0.000000
0.991257 0.051541 0.000000
1.000000 0.049818 0.000000
1.000000 0.048093 0.000000
1.000000 0.047948 0.000000
1.000000 0.047933 0.000000
1.000000 0.047918 0.000000
1.000000 0.047904 0.000000
0.000000 0.132137 0.000000
0.000000 0.132187 0.000000
0.000000 0.132237 0.000000
0.000000 0.132287 0.000000
0.000000 0.132209 0.000000
0.029311 0.130560 0.000000
0.073823 0.128905 0.000000
0.118473 0.127244 0.000000
0.163259 0.125578 0.000000
0.208181 0.123907 0.000000
0.253236 0.122231 0.000000
0.298424 0.120550 0.000000
0.343745 0.118863 0.000000
0.389196 0.117171 0.000000
0.434776 0.115474 0.000000
0.480485 0.113772 0.000000
0.526321 0.112066 0.000000
0.572283 0.110354 0.000000
0.618371 0.108637 0.000000
0.664582 0.106916 0.000000
0.710916 0.105189 0.000000
0.757372 0.103458 0.000000
0.803949 0.101722 0.000000
0.850644 0.099982 0.000000
0.897459 0.098236 0.000000
0.943580 0.096518 0.000000
0.989501 0.094806 0.000000
1.000000 0.093094 0.000000
1.000000 0.091381 0.000000
1.000000 0.091251 0.000000
1.000000 0.091250 0.000000
1.000000 0.091249 0.000000
1.000000 0.091249 0.000000
0.000000 0.175307 0.000000
0.000000 0.175372 0.000000
0.000000 0.175436 0.000000
0.000000 0.175500 0.000000
0.000000 0.175436 0.000000
0.023524 0.173791 0.000000
0.068265 0.172141 0.000000
0.113141 0.170486 0.000000
0.158151 0.168825 0.000000
0.203293 0.167159 0.000000
0.248567 0.165488 0.000000
0.293971 0.163812 0.000000
0.339505 0.162130 0.000000
0.385167 0.160444 0.000000
0.430956 0.158752 0.000000
0.476871 0.157055 0.000000
0.522910 0.155354 0.000000
0.569074 0.153647 0.000000
0.615359 0.151935 0.000000
0.661767 0.150219 0.000000
0.708294 0.148498 0.000000
0.754941 0.146772 0.000000
0.801706 0.145041 0.000000
0.848588 0.143306 0.000000
0.895586 0.141566 0.000000
0.941675 0.139860 0.000000
0.987611 0.138160 0.000000
1.000000 0.136460 0.000000
1.000000 0.134759 0.000000
1.000000 0.134641 0.000000
1.000000 0.134654 0.000000
1.000000 0.134667 0.000000
1.000000 0.134680 0.000000
0.000000 0.218575 0.000000
0.000000 0.218653 0.000000
0.000000 0.218731 0.000000
0.000000 0.218809 0.000000
0.000000 0.218757 0.000000
0.017730 0.217117 0.000000
0.062695 0.215472 0.000000
0.107793 0.213821 0.000000
0.153022 0.212165 0.000000
0.198381 0.210504 0.000000
0.243870 0.208837 0.000000
0.289486 0.207166 0.000000
0.335229 0.205489 0.000000
0.381097 0.203807 0.000000
0.427091 0.202120 0.000000
0.473207 0.200428 0.000000
0.519446 0.198731 0.000000
0.565806 0.197029 0.000000
0.612287 0.195322 0.000000
0.658886 0.193610 0.000000
0.705603 0.191893 0.000000
0.752436 0.190172 0.000000
0.799386 0.188446 0.000000
0.846450 0.186715 0.000000
0.893627 0.184980 0.000000
0.939649 0.183288 0.000000
0.985586 0.181600 0.000000
1.000000 0.179911 0.000000
1.000000 0.178221 0.000000
1.000000 0.178117 0.000000
1.000000 0.178142 0.000000
1.000000 0.178168 0.000000
1.000000 0.178193 0.000000
0.000000 0.261937 0.000000
0.000000 0.262028 0.000000
0.000000 0.262119 0.000000
0.000000 0.262209 0.000000
0.000000 0.262169 0.000000
0.011928 0.260534 0.000000
0.057114 0.258892 0.000000
0.102429 0.257246 0.000000
0.147874 0.255594 0.000000
0.193446 0.253937 0.000000
0.239144 0.252275 0.000000
0.284968 0.250607 0.000000
0.330916 0.248935 0.000000
0.376988 0.247257 0.000000
0.423181 0.245574 0.000000
0.469496 0.243886 0.000000
0.515930 0.242193 0.000000
0.562483 0.240495 0.000000
0.609153 0.238793 0.000000
0.655940 0.237085 0.000000
0.702842 0.235373 0.000000
0.749859 0.233655 0.000000
0.796988 0.231933 0.000000
0.844230 0.230207 0.000000
0.891582 0.228476 0.000000
0.937504 0.226799 0.000000
0.983425 0.225121 0.000000
1.000000 0.223444 0.000000
1.000000 0.221766 0.000000
1.000000 0.221674 0.000000
1.000000 0.221712 0.000000
1.000000 0.221749 0.000000
1.000000 0.221787 0.000000
0.000000 0.305389 0.000000
0.000000 0.305493 0.000000
0.000000 0.305596 0.000000
0.000000 0.305699 0.000000
0.000000 0.305670 0.000000
0.006120 0.304038 0.000000
0.051522 0.302401 0.000000
0.097051 0.300758 0.000000
0.142707 0.299110 0.000000
0.188487 0.297456 0.000000
0.234392 0.295798 0.000000
0.280419 0.294134 0.000000
0.326569 0.292465 0.000000
0.372839 0.290791 0.000000
0.419228 0.289111 0.000000
0.465736 0.287427 0.000000
0.512361 0.285738 0.000000
0.559103 0.284044 0.000000
0.605959 0.282345 0.000000
0.652930 0.280641 0.000000
0.700014 0.278932 0.000000
0.747209 0.277219 0.000000
0.794515 0.275500 0.000000
0.841930 0.273777 0.000000
0.889337 0.272054 0.000000
0.935237 0.270388 0.000000
0.981128 0.268722 0.000000
1.000000 0.267056 0.000000
1.000000 0.265390 0.000000
1.000000 0.265310 0.000000
1.000000 0.265359 0.000000
1.000000 0.265408 0.000000
1.000000 0.265457 0.000000
0.000000 0.348929 0.000000
0.000000 0.349044 0.000000
0.000000 0.349159 0.000000
0.000000 0.349273 0.000000
0.000000 0.349256 0.000000
0.000306 0.347627 0.000000
0.045920 0.345993 0.000000
0.091659 0.344353 0.000000
0.137521 0.342708 0.000000
0.183506 0.341058 0.000000
0.229612 0.339402 0.000000
0.275839 0.337742 0.000000
0.322186 0.336076 0.000000
0.368650 0.334405 0.000000
0.415232 0.332729 0.000000
0.461929 0.331048 0.000000
0.508742 0.329362 0.000000
0.555668 0.327671 0.000000
0.602706 0.325975 0.000000
0.649857 0.324274 0.000000
0.697117 0.322569 0.000000
0.744487 0.320858 0.000000
0.791965 0.319143 0.000000
0.839550 0.317423 0.000000
0.886986 0.315709 0.000000
0.932850 0.314054 0.000000
0.978695 0.312399 0.000000
1.000000 0.310744 0.000000
1.000000 0.309090 0.000000
1.000000 0.309021 0.000000
1.000000 0.309080 0.000000
1.000000 0.309140 0.000000
1.000000 0.309200 0.000000
0.000000 0.392553 0.000000
0.000000 0.392680 0.000000
0.000000 0.392805 0.000000
0.000000 0.392930 0.000000
0.000000 0.392923 0.000000
0.000000 0.391297 0.000000
0.040308 0.389665 0.000000
0.086252 0.388028 0.000000
0.132317 0.386386 0.000000
0.178503 0.384739 0.000000
0.224807 0.383086 0.000000
0.271229 0.381428 0.000000
0.317768 0.379765 0.000000
0.364423 0.378097 0.000000
0.411193 0.376423 0.000000
0.458076 0.374745 0.000000
0.505071 0.373062 0.000000
0.552178 0.371373 0.000000
0.599394 0.369680 0.000000
0.646720 0.367982 0.000000
0.694154 0.366279 0.000000
0.741694 0.364571 0.000000
0.789340 0.362859 0.000000
0.837091 0.361142 0.000000
0.884530 0.359436 0.000000
0.930342 0.357792 0.000000
0.976126 0.356148 0.000000
1.000000 0.354505 0.000000
1.000000 0.352862 0.000000
1.000000 0.352803 0.000000
1.000000 0.352873 0.000000
1.000000 0.352943 0.000000
1.000000 0.353012 0.000000
0.000000 0.436258 0.000000
0.000000 0.436395 0.000000
0.000000 0.436531 0.000000
0.000000 0.436667 0.000000
0.000000 0.436669 0.000000
0.000000 0.435045 0.000000
0.034687 0.433415 0.000000
0.080832 0.431781 0.000000
0.127096 0.430141 0.000000
0.173478 0.428495 0.000000
0.219976 0.426845 0.000000
0.266589 0.425189 0.000000
0.313317 0.423528 0.000000
0.360158 0.421862 0.000000
0.407112 0.420191 0.000000
0.454176 0.418515 0.000000
0.501350 0.416834 0.000000
0.548633 0.415148 0.000000
0.596024 0.413457 0.000000
0.643521 0.411761 0.000000
0.691124 0.410060 0.000000
0.738831 0.408355 0.000000
0.786641 0.406644 0.000000
0.834553 0.404930 0.000000
0.881968 0.403233 0.000000
0.927713 0.401599 0.000000
0.973421 0.399967 0.000000
1.000000 0.398335 0.000000
1.000000 0.396704 0.000000
1.000000 0.396654 0.000000
1.000000 0.396734 0.000000
1.000000 0.396813 0.000000
1.000000 0.396892 0.000000
0.000000 0.480041 0.000000
0.000000 0.480188 0.000000
0.000000 0.480333 0.000000
0.000000 0.480478 0.000000
0.000000 0.480489 0.000000
0.000000 0.478867 0.000000
0.029057 0.477239 0.000000
0.075399 0.475607 0.000000
0.121858 0.473968 0.000000
0.168432 0.472325 0.000000
0.215119 0.470676 0.000000
0.261920 0.469022 0.000000
0.308833 0.467363 0.000000
0.355856 0.465698 0.000000
0.402989 0.464029 0.000000
0.450231 0.462354 0.000000
0.497580 0.460675 0.000000
0.545035 0.458991 0.000000
0.592595 0.457301 0.000000
0.640260 0.455607 0.000000
0.688028 0.453908 0.000000
0.735897 0.452205 0.000000
0.783867 0.450496 0.000000
0.831937 0.448783 0.000000
0.879302 0.447096 0.000000
0.924964 0.445473 0.000000
0.970580 0.443851 0.000000
1.000000 0.442230 0.000000
1.000000 0.440611 0.000000
1.000000 0.440571 0.000000
1.000000 0.440659 0.000000
1.000000 0.440747 0.000000
1.000000 0.440835 0.000000
0.000000 0.523898 0.000000
0.000000 0.524054 0.000000
0.000000 0.524209 0.000000
0.000000 0.524362 0.000000
0.000000 0.524382 0.000000
0.000000 0.522761 0.000000
0.023419 0.521134 0.000000
0.069954 0.519503 0.000000
0.116603 0.517866 0.000000
0.163365 0.516223 0.000000
0.210238 0.514576 0.000000
0.257222 0.512923 0.000000
0.304315 0.511265 0.000000
0.351517 0.509602 0.000000
0.398826 0.507934 0.000000
0.446240 0.506260 0.000000
0.493760 0.504582 0.000000
0.541383 0.502899 0.000000
0.589110 0.501211 0.000000
0.636938 0.499518 0.000000
0.684866 0.497820 0.000000
0.732894 0.496118 0.000000
0.781020 0.494411 0.000000
0.829243 0.492699 0.000000
0.876530 0.491022 0.000000
0.922094 0.489410 0.000000
0.967604 0.487799 0.000000
1.000000 0.486189 0.000000
1.000000 0.484581 0.000000
1.000000 0.484549 0.000000
1.000000 0.484646 0.000000
1.000000 0.484742 0.000000
1.000000 0.484838 0.000000
0.000000 0.567826 0.000000
0.000000 0.567990 0.000000
0.000000 0.568154 0.000000
0.000000 0.568316 0.000000
0.000000 0.568343 0.000000
0.000000 0.566722 0.000000
0.017773 0.565097 0.000000
0.064497 0.563466 0.000000
0.111333 0.561830 0.000000
0.158278 0.560188 0.000000
0.205333 0.558541 0.000000
0.252496 0.556889 0.000000
0.299766 0.555232 0.000000
0.347141 0.553570 0.000000
0.394621 0.551902 0.000000
0.442205 0.550230 0.000000
0.489892 0.548552 0.000000
0.537679 0.546870 0.000000
0.585567 0.545182 0.000000
0.633554 0.543490 0.000000
0.681639 0.541793 0.000000
0.729821 0.540091 0.000000
0.778099 0.538385 0.000000
0.826472 0.536674 0.000000
0.873654 0.535007 0.000000
0.919106 0.533405 0.000000
0.964494 0.531805 0.000000
1.000000 0.530207 0.000000
1.000000 0.528610 0.000000
1.000000 0.528586 0.000000
1.000000 0.528691 0.000000
1.000000 0.528794 0.000000
1.000000 0.528897 0.000000
0.000000 0.611822 0.000000
0.000000 0.611994 0.000000
0.000000 0.612165 0.000000
0.000000 0.612335 0.000000
0.000000 0.612369 0.000000
0.000000 0.610749 0.000000
0.012120 0.609124 0.000000
0.059029 0.607493 0.000000
0.106047 0.605857 0.000000
0.153172 0.604216 0.000000
0.200404 0.602569 0.000000
0.247742 0.600917 0.000000
0.295184 0.599260 0.000000
0.342729 0.597598 0.000000
0.390377 0.595931 0.000000
0.438126 0.594259 0.000000
0.485975 0.592581 0.000000
0.533923 0.590899 0.000000
0.581968 0.589212 0.000000
0.630110 0.587520 0.000000
0.678348 0.585823 0.000000
0.726680 0.584122 0.000000
0.775106 0.582416 0.000000
0.823624 0.580705 0.000000
0.870674 0.579049 0.000000
0.915998 0.577458 0.000000
0.961250 0.575868 0.000000
1.000000 0.574281 0.000000
1.000000 0.572695 0.000000
1.000000 0.572679 0.000000
1.000000 0.572790 0.000000
1.000000 0.572901 0.000000
1.000000 0.573011 0.000000
0.000000 0.655883 0.000000
0.000000 0.656062 0.000000
0.000000 0.656240 0.000000
0.000000 0.656417 0.000000
0.000000 0.656457 0.000000
0.000000 0.654837 0.000000
0.006460 0.653211 0.000000
0.053549 0.651580 0.000000
0.100745 0.649944 0.000000
0.148047 0.648303 0.000000
0.195452 0.646656 0.000000
0.242961 0.645004 0.000000
0.290571 0.643346 0.000000
0.338282 0.641684 0.000000
0.386093 0.640017 0.000000
0.434003 0.638344 0.000000
0.482010 0.636667 0.000000
0.530114 0.634984 0.000000
0.578313 0.633297 0.000000
0.626606 0.631605 0.000000
0.674993 0.629908 0.000000
0.723471 0.628206 0.000000
0.772040 0.626499 0.000000
0.820699 0.624788 0.000000
0.867591 0.623143 0.000000
0.912772 0.621563 0.000000
0.957872 0.619984 0.000000
1.000000 0.618407 0.000000
1.000000 0.616833 0.000000
1.000000 0.616824 0.000000
1.000000 0.616941 0.000000
1.000000 0.617058 0.000000
1.000000 0.617174 0.000000
0.000000 0.700004 0.000000
0.000000 0.700190 0.000000
0.000000 0.700375 0.000000
0.000000 0.700558 0.000000
0.000000 0.700604 0.000000
0.000000 0.698983 0.000000
0.000793 0.697357 0.000000
0.048059 0.695725 0.000000
0.095430 0.694088 0.000000
0.142902 0.692446 0.000000
0.190477 0.690798 0.000000
0.238152 0.689145 0.000000
0.285927 0.687488 0.000000
0.333800 0.685824 0.000000
0.381771 0.684156 0.000000
0.429837 0.682483 0.000000
0.477999 0.680805 0.000000
0.526254 0.679122 0.000000
0.574603 0.677434 0.000000
0.623043 0.675741 0.000000
0.671574 0.674043 0.000000
0.720194 0.672341 0.000000
0.768903 0.670633 0.000000
0.817698 0.668921 0.000000
0.864406 0.667288 0.000000
0.909430 0.665718 0.000000
0.954363 0.664150 0.000000
0.999202 0.662584 0.000000
1.000000 0.661020 0.000000
1.000000 0.661017 0.000000
1.000000 0.661140 0.000000
1.000000 0.661262 0.000000
1.000000 0.661384 0.000000
0.000000 0.744184 0.000000
0.000000 0.744376 0.000000
0.000000 0.744566 0.000000
0.000000 0.744755 0.000000
0.000000 0.744806 0.000000
0.000000 0.743184 0.000000
0.000000 0.741557 0.000000
0.042560 0.739924 0.000000
0.090100 0.738285 0.000000
0.137740 0.736642 0.000000
0.185480 0.734993 0.000000
0.233318 0.733339 0.000000
0.281253 0.731680 0.000000
0.329283 0.730016 0.000000
0.377409 0.728346 0.000000
0.425628 0.726672 0.000000
0.473940 0.724993 0.000000
0.522344 0.723308 0.000000
0.570837 0.721619 0.000000
0.619420 0.719925 0.000000
0.668091 0.718226 0.000000
0.716849 0.716522 0.000000
0.765693 0.714814 0.000000
0.814622 0.713100 0.000000
0.861120 0.711479 0.000000
0.905971 0.709919 0.000000
0.950723 0.708361 0.000000
0.995371 0.706806 0.000000
1.000000 0.705254 0.000000
1.000000 0.705256 0.000000
1.000000 0.705384 0.000000
1.000000 0.705511 0.000000
1.000000 0.705638 0.000000
0.000000 0.788419 0.000000
0.000000 0.788616 0.000000
0.000000 0.788811 0.000000
0.000000 0.789005 0.000000
0.000000 0.789060 0.000000
0.000000 0.787437 0.000000
0.000000 0.785808 0.000000
0.037050 0.784173 0.000000
0.084756 0.782533 0.000000
0.132560 0.780888 0.000000
0.180461 0.779237 0.000000
0.228457 0.777582 0.000000
0.276548 0.775921 0.000000
0.324733 0.774255 0.000000
0.373009 0.772584 0.000000
0.421377 0.770908 0.000000
0.469835 0.769227 0.000000
0.518382 0.767540 0.000000
0.567017 0.765849 0.000000
0.615739 0.764154 0.000000
0.664546 0.762453 0.000000
0.713438 0.760747 0.000000
0.762413 0.759037 0.000000
0.811470 0.757322 0.000000
0.857734 0.755713 0.000000
0.902398 0.754163 0.000000
0.946954 0.752616 0.000000
0.991397 0.751072 0.000000
1.000000 0.749530 0.000000
1.000000 0.749537 0.000000
1.000000 0.749670 0.000000
1.000000 0.749801 0.000000
1.000000 0.749931 0.000000
0.000000 0.832705 0.000000
0.000000 0.832906 0.000000
0.000000 0.833106 0.000000
0.000000 0.833304 0.000000
0.000000 0.833364 0.000000
0.000000 0.831738 0.000000
0.000000 0.830106 0.000000
0.031532 0.828470 0.000000
0.079399 0.826828 0.000000
0.127363 0.825180 0.000000
0.175420 0.823527 0.000000
0.223571 0.821870 0.000000
0.271814 0.820207 0.000000
0.320148 0.818538 0.000000
0.368572 0.816865 0.000000
0.417084 0.815187 0.000000
0.465684 0.813503 0.000000
0.514371 0.811815 0.000000
0.563143 0.810122 0.000000
0.611999 0.808424 0.000000
0.660938 0.806721 0.000000
0.709959 0.805013 0.000000
0.759062 0.803301 0.000000
0.808244 0.801584 0.000000
0.854249 0.799987 0.000000
0.898711 0.798447 0.000000
0.943056 0.796910 0.000000
0.987280 0.795376 0.000000
1.000000 0.793846 0.000000
1.000000 0.793857 0.000000
1.000000 0.793993 0.000000
1.000000 0.794128 0.000000
1.000000 0.794262 0.000000
0.000000 0.877039 0.000000
0.000000 0.877244 0.000000
0.000000 0.877448 0.000000
0.000000 0.877650 0.000000
0.000000 0.877712 0.000000
0.000000 0.876084 0.000000
0.000000 0.874450 0.000000
0.026004 0.872810 0.000000
0.074030 0.871166 0.000000
0.122149 0.869516 0.000000
0.170359 0.867860 0.000000
0.218660 0.866200 0.000000
0.267051 0.864534 0.000000
0.315530 0.862863 0.000000
0.364097 0.861187 0.000000
0.412749 0.859506 0.000000
0.461487 0.857820 0.000000
0.510309 0.856129 0.000000
0.559214 0.854433 0.000000
0.608201 0.852732 0.000000
0.657268 0.851027 0.000000
0.706415 0.849316 0.000000
0.755640 0.847601 0.000000
0.804942 0.845881 0.000000
0.850668 0.844297 0.000000
0.894913 0.842767 0.000000
0.939032 0.841241 0.000000
0.983021 0.839718 0.000000
1.000000 0.838198 0.000000
1.000000 0.838213 0.000000
1.000000 0.838352 0.000000
1.000000 0.838489 0.000000
1.000000 0.838626 0.000000
0.000000 0.921418 0.000000
0.000000 0.921626 0.000000
0.000000 0.921833 0.000000
0.000000 0.922039 0.000000
0.000000 0.922104 0.000000
0.000000 0.920472 0.000000
0.000000 0.918835 0.000000
0.020469 0.917192 0.000000
0.068648 0.915544 0.000000
0.116918 0.913891 0.000000
0.165277 0.912232 0.000000
0.213725 0.910568 0.000000
0.262259 0.908900 0.000000
0.310879 0.907226 0.000000
0.359585 0.905546 0.000000
0.408374 0.903862 0.000000
0.457245 0.902173 0.000000
0.506199 0.900479 0.000000
0.555232 0.898780 0.000000
0.604345 0.897076 0.000000
0.653536 0.895367 0.000000
0.702804 0.893654 0.000000
0.752148 0.891935 0.000000
0.801566 0.890212 0.000000
0.846990 0.888640 0.000000
0.891004 0.887121 0.000000
0.934883 0.885604 0.000000
0.978624 0.884092 0.000000
1.000000 0.882582 0.000000
1.000000 0.882600 0.000000
1.000000 0.882742 0.000000
1.000000 0.882882 0.000000
1.000000 0.883020 0.000000
0.000000 0.965838 0.000000
0.000000 0.966050 0.000000
0.000000 0.966259 0.000000
0.000000 0.966467 0.000000
0.000000 0.966534 0.000000
0.000000 0.964898 0.000000
0.000000 0.963257 0.000000
0.014926 0.961611 0.000000
0.063255 0.959959 0.000000
0.111672 0.958302 0.000000
0.160175 0.956640 0.000000
0.208765 0.954973 0.000000
0.257439 0.953300 0.000000
0.306196 0.951623 0.000000
0.355036 0.949940 0.000000
0.403957 0.948252 0.000000
0.452958 0.946559 0.000000
0.502039 0.944861 0.000000
0.551197 0.943159 0.000000
