library/cube/Stream_Queen_000.cube
# CINEGRADE LAB — Premium Cinematic LUT
# Title: Stream Queen
# Category: Netflix Inspired
# Description: Cinematic teal/orange with filmic qualities inspired by streaming content
# Mood: Cinematic, binge-worthy, polished
# Variant: 1
# Generated: 2026-05-21T16:12:42.809697
TITLE "Stream Queen"
LUT_3D_SIZE 5
0.000939 0.014739 0.013819
0.162784 0.015805 0.014995
0.405800 0.018509 0.017785
0.659496 0.021569 0.020907
0.845495 0.023556 0.022934
0.013196 0.219986 0.020793
0.187818 0.221377 0.022637
0.446728 0.224508 0.026143
0.713622 0.227986 0.029923
0.902173 0.230238 0.032405
0.030287 0.498454 0.033468
0.214524 0.500356 0.035896
0.485110 0.504084 0.040012
0.761389 0.508163 0.044348
0.946720 0.510829 0.047143
0.047951 0.777388 0.047433
0.239122 0.780135 0.050366
0.517874 0.784756 0.054994
0.800469 0.789717 0.059789
0.977665 0.793017 0.062762
0.061533 0.977298 0.057845
0.257454 0.980853 0.061178
0.541632 0.986010 0.066179
0.827945 0.991206 0.071276
0.994024 0.994220 0.074238
0.002222 0.015406 0.225045
0.165510 0.016547 0.225196
0.410338 0.019334 0.227011
0.665555 0.022468 0.229192
0.852073 0.024510 0.230299
0.014513 0.220658 0.228640
0.190239 0.222136 0.229588
0.450505 0.225355 0.232237
0.718504 0.228915 0.235187
0.906982 0.231225 0.236845
0.031647 0.499216 0.238358
0.216694 0.501217 0.239990
0.488248 0.505043 0.243337
0.765286 0.509213 0.246921
0.949993 0.511940 0.248956
0.049363 0.778375 0.249684
0.241100 0.781226 0.251886
0.520506 0.785948 0.255795
0.803596 0.791001 0.259876
0.979750 0.794359 0.262110
0.063000 0.978548 0.257637
0.259293 0.982105 0.260252
0.543899 0.987266 0.264531
0.830491 0.992463 0.268893
0.995356 0.995450 0.271074
0.003866 0.016447 0.493204
0.168559 0.017662 0.492064
0.415148 0.020527 0.492646
0.671840 0.023733 0.493639
0.858817 0.025828 0.493586
0.016188 0.221705 0.492564
0.192983 0.223266 0.492380
0.454561 0.226570 0.493945
0.723626 0.230209 0.495843
0.911969 0.232574 0.496463
0.033359 0.500355 0.498565
0.219188 0.502451 0.499188
0.491673 0.506371 0.501558
0.769439 0.510629 0.504185
0.953471 0.513415 0.505258
0.051123 0.779737 0.506555
0.243402 0.782689 0.507823
0.523435 0.787507 0.510813
0.806997 0.792649 0.513978
0.982075 0.796062 0.515268
0.064809 0.980135 0.511371
0.261458 0.983693 0.513061
0.546474 0.988856 0.516408
0.833344 0.994052 0.519818
0.996977 0.997011 0.520991
0.005512 0.017501 0.760434
0.171573 0.018789 0.758039
0.419875 0.021731 0.757423
0.677997 0.025008 0.757260
0.865374 0.027154 0.756077
0.017864 0.222771 0.755677
0.195698 0.224414 0.754391
0.458545 0.227803 0.754897
0.728638 0.231519 0.755769
0.916789 0.233937 0.755373
0.035074 0.501519 0.758052
0.221658 0.503708 0.757688
0.495040 0.507722 0.759099
0.773503 0.512065 0.760785
0.956812 0.514908 0.760906
0.052886 0.781129 0.762768
0.245687 0.784179 0.763113
0.526320 0.789092 0.765190
0.810334 0.794320 0.767442
0.984305 0.797785 0.767785
0.066620 0.981719 0.764465
0.263610 0.985277 0.765229
0.549023 0.990441 0.767635
0.836171 0.995636 0.770078
0.998560 0.998566 0.770221
0.006531 0.017942 0.926308
0.173965 0.019340 0.928889
0.423967 0.022394 0.932781
0.683508 0.025773 0.936659
0.871254 0.027998 0.939046
0.019033 0.223347 0.936337
0.197902 0.225099 0.938474
0.462004 0.228595 0.941974
0.733111 0.232410 0.945415
0.921029 0.234900 0.947161
0.036365 0.502281 0.948462
0.223697 0.504582 0.950116
0.497958 0.508703 0.953165
0.777103 0.513144 0.956121
0.959654 0.516053 0.957139
0.054279 0.782175 0.958433
0.247592 0.785332 0.959579
0.528807 0.790347 0.962139
0.813261 0.795665 0.964577
0.986104 0.799184 0.964805
0.068086 0.982953 0.961563
0.265410 0.986516 0.962141
0.551210 0.991684 0.964129
0.838644 0.996880 0.965950
0.999783 0.999783 0.965283
