library/cube/Stream_Queen_000.cube
# CINEGRADE LAB — Premium Cinematic LUT
# Title: Stream Queen
# Category: Netflix Inspired
# Description: Cinematic teal/orange with filmic qualities inspired by streaming content
# Mood: Cinematic, binge-worthy, polished
# Variant: 1
# Generated: 2026-05-21T16:12:42.809697
TITLE "Stream Queen"
LUT_3D_SIZE 33
0.000939 0.014739 0.013819
0.000924 0.014496 0.013591
0.000910 0.014255 0.013365
0.016915 0.014307 0.013431
0.045697 0.014595 0.013733
0.074677 0.014888 0.014039
0.103854 0.015187 0.014352
0.133224 0.015493 0.014670
0.162784 0.015805 0.014995
0.192532 0.016123 0.015324
0.222465 0.016446 0.015659
0.252580 0.016776 0.016000
0.282875 0.017111 0.016346
0.313347 0.017452 0.016698
0.343994 0.017799 0.017055
0.374812 0.018151 0.017417
0.405800 0.018509 0.017785
0.436955 0.018873 0.018157
0.468274 0.019242 0.018535
0.499754 0.019617 0.018918
0.531394 0.019997 0.019306
0.563191 0.020382 0.019699
0.595141 0.020772 0.020096
0.627244 0.021168 0.020499
0.659496 0.021569 0.020907
0.691894 0.021975 0.021319
0.724437 0.022386 0.021736
0.757028 0.022800 0.022156
0.789602 0.023217 0.022577
0.822276 0.023637 0.023003
0.841489 0.023816 0.023186
0.843505 0.023685 0.023060
0.845495 0.023556 0.022934
0.000892 0.013931 0.013060
0.000880 0.013696 0.012839
0.000869 0.013464 0.012620
0.017063 0.013529 0.012698
0.046176 0.013831 0.013013
0.075481 0.014139 0.013333
0.104977 0.014453 0.013659
0.134660 0.014773 0.013990
0.164527 0.015099 0.014327
0.194575 0.015431 0.014670
0.224803 0.015768 0.015018
0.255208 0.016112 0.015371
0.285786 0.016461 0.015730
0.316536 0.016815 0.016094
0.347454 0.017176 0.016463
0.378539 0.017541 0.016837
0.409787 0.017913 0.017217
0.441197 0.018289 0.017601
0.472765 0.018671 0.017991
0.504489 0.019058 0.018385
0.536367 0.019451 0.018785
0.568396 0.019849 0.019189
0.600575 0.020252 0.019598
0.632899 0.020659 0.020012
0.665368 0.021072 0.020430
0.697978 0.021490 0.020853
0.730727 0.021913 0.021281
0.763440 0.022338 0.021710
0.796140 0.022765 0.022141
0.828932 0.023195 0.022576
0.848170 0.023383 0.022766
0.850102 0.023258 0.022645
0.852009 0.023135 0.022525
0.000855 0.013152 0.012326
0.000846 0.012926 0.012113
0.000838 0.012703 0.011902
0.017215 0.012780 0.011990
0.046649 0.013097 0.012318
0.076270 0.013419 0.012651
0.106074 0.013747 0.012990
0.136060 0.014081 0.013335
0.166224 0.014421 0.013684
0.196564 0.014767 0.014039
0.227077 0.015118 0.014400
0.257761 0.015475 0.014766
0.288613 0.015837 0.015136
0.319631 0.016205 0.015512
0.350812 0.016579 0.015894
0.382153 0.016958 0.016280
0.413653 0.017342 0.016671
0.445308 0.017731 0.017067
0.477117 0.018126 0.017468
0.509076 0.018525 0.017874
0.541184 0.018930 0.018284
0.573437 0.019340 0.018700
0.605834 0.019755 0.019120
0.638373 0.020175 0.019544
0.671050 0.020600 0.019974
0.703863 0.021030 0.020407
0.736811 0.021464 0.020846
0.769611 0.021898 0.021283
0.802423 0.022335 0.021723
0.835316 0.022776 0.022166
0.854570 0.022971 0.022364
0.856418 0.022853 0.022248
0.858242 0.022736 0.022133
0.002745 0.045143 0.013534
0.002738 0.044915 0.013328
0.002733 0.044689 0.013124
0.019287 0.044766 0.013222
0.049032 0.045086 0.013562
0.078956 0.045411 0.013908
0.109059 0.045742 0.014259
0.139337 0.046080 0.014615
0.169788 0.046423 0.014977
0.200409 0.046771 0.015344
0.231197 0.047126 0.015716
0.262151 0.047486 0.016093
0.293267 0.047852 0.016475
0.324543 0.048223 0.016862
0.355977 0.048599 0.017255
0.387566 0.048981 0.017652
0.419307 0.049369 0.018054
0.451199 0.049761 0.018461
0.483239 0.050159 0.018872
0.515424 0.050562 0.019289
0.547752 0.050970 0.019710
0.580221 0.051384 0.020136
0.612828 0.051802 0.020566
0.645571 0.052225 0.021001
0.678448 0.052654 0.021440
0.711456 0.053087 0.021884
0.744593 0.053525 0.022332
0.777445 0.053960 0.022777
0.810352 0.054399 0.023224
0.843330 0.054841 0.023676
0.862591 0.055037 0.023880
0.864356 0.054918 0.023768
0.866097 0.054800 0.023659
0.004823 0.080201 0.014946
0.004819 0.079969 0.014746
0.004816 0.079741 0.014548
0.021542 0.079818 0.014656
0.051586 0.080141 0.015009
0.081806 0.080469 0.015366
0.112197 0.080803 0.015729
0.142758 0.081143 0.016097
0.173486 0.081489 0.016470
0.204378 0.081841 0.016849
0.235432 0.082198 0.017232
0.266646 0.082561 0.017621
0.298017 0.082930 0.018014
0.329543 0.083304 0.018412
0.361221 0.083684 0.018816
0.393048 0.084069 0.019224
0.425023 0.084459 0.019636
0.457142 0.084855 0.020054
0.489405 0.085256 0.020476
0.521807 0.085662 0.020903
0.554347 0.086074 0.021334
0.587023 0.086491 0.021770
0.619832 0.086912 0.022210
0.652772 0.087339 0.022655
0.685841 0.087770 0.023104
0.719036 0.088207 0.023557
0.752300 0.088647 0.024014
0.785220 0.089084 0.024466
0.818206 0.089525 0.024922
0.851254 0.089969 0.025381
0.870513 0.090165 0.025591
0.872196 0.090045 0.025484
0.873855 0.089927 0.025379
0.006907 0.115209 0.016377
0.006905 0.114975 0.016184
0.006904 0.114745 0.015993
0.023797 0.114824 0.016111
0.054132 0.115149 0.016475
0.084636 0.115481 0.016844
0.115306 0.115819 0.017219
0.146141 0.116163 0.017598
0.177136 0.116513 0.017983
0.208291 0.116868 0.018373
0.239602 0.117229 0.018767
0.271068 0.117596 0.019167
0.302685 0.117969 0.019571
0.334451 0.118347 0.019981
0.366363 0.118730 0.020394
0.398421 0.119119 0.020813
0.430620 0.119514 0.021236
0.462959 0.119913 0.021664
0.495436 0.120318 0.022097
0.528047 0.120729 0.022534
0.560791 0.121144 0.022975
0.593666 0.121565 0.023421
0.626669 0.121991 0.023871
0.659798 0.122422 0.024325
0.693051 0.122857 0.024784
0.726425 0.123298 0.025247
0.759766 0.123741 0.025711
0.792758 0.124180 0.026171
0.825807 0.124623 0.026634
0.858909 0.125070 0.027100
0.878158 0.125268 0.027317
0.879760 0.125148 0.027215
0.881338 0.125030 0.027114
0.008997 0.150172 0.017829
0.008998 0.149938 0.017642
0.008999 0.149706 0.017458
0.026052 0.149787 0.017586
0.056668 0.150117 0.017961
0.087448 0.150454 0.018342
0.118388 0.150796 0.018728
0.149487 0.151144 0.019119
0.180741 0.151499 0.019515
0.212149 0.151858 0.019916
0.243708 0.152224 0.020321
0.275416 0.152596 0.020732
0.307270 0.152973 0.021147
0.339268 0.153355 0.021567
0.371408 0.153744 0.021991
0.403686 0.154137 0.022421
0.436102 0.154537 0.022854
0.468652 0.154941 0.023292
0.501335 0.155351 0.023735
0.534147 0.155766 0.024182
0.567087 0.156186 0.024633
0.600153 0.156612 0.025089
0.633342 0.157043 0.025549
0.666653 0.157478 0.026013
0.700082 0.157919 0.026481
0.733628 0.158365 0.026953
0.767012 0.158810 0.027424
0.800062 0.159253 0.027892
0.833159 0.159699 0.028362
0.866298 0.160148 0.028834
0.885529 0.160348 0.029057
0.887051 0.160229 0.028959
0.888549 0.160113 0.028863
0.011093 0.185096 0.019301
0.011096 0.184861 0.019121
0.011101 0.184630 0.018943
0.028309 0.184714 0.019080
0.059197 0.185049 0.019468
0.090242 0.185391 0.019860
0.121443 0.185739 0.020257
0.152797 0.186092 0.020659
0.184301 0.186452 0.021066
0.215954 0.186817 0.021478
0.247752 0.187188 0.021894
0.279693 0.187565 0.022316
0.311776 0.187947 0.022741
0.343997 0.188336 0.023172
0.376355 0.188729 0.023607
0.408847 0.189128 0.024046
0.441470 0.189533 0.024490
0.474224 0.189943 0.024938
0.507104 0.190359 0.025391
0.540110 0.190779 0.025847
0.573238 0.191205 0.026308
0.606488 0.191636 0.026774
0.639855 0.192073 0.027243
0.673340 0.192514 0.027716
0.706938 0.192961 0.028194
0.740649 0.193412 0.028675
0.774043 0.193861 0.029153
0.807134 0.194307 0.029627
0.840263 0.194756 0.030104
0.873426 0.195209 0.030583
0.892631 0.195412 0.030811
0.894073 0.195295 0.030718
0.895493 0.195181 0.030627
0.013196 0.219986 0.020793
0.013202 0.219752 0.020620
0.013208 0.219521 0.020449
0.030567 0.219609 0.020595
0.061717 0.219951 0.020994
0.093020 0.220298 0.021397
0.124472 0.220652 0.021806
0.156073 0.221012 0.022219
0.187818 0.221377 0.022637
0.219706 0.221749 0.023059
0.251735 0.222126 0.023486
0.283901 0.222509 0.023918
0.316204 0.222898 0.024354
0.348640 0.223292 0.024795
0.381208 0.223692 0.025240
0.413905 0.224097 0.025689
0.446728 0.224508 0.026143
0.479677 0.224924 0.026601
0.512748 0.225346 0.027064
0.545939 0.225773 0.027530
0.579248 0.226206 0.028001
0.612673 0.226643 0.028475
0.646212 0.227086 0.028954
0.679862 0.227534 0.029437
0.713622 0.227986 0.029923
0.747490 0.228444 0.030414
0.780860 0.228896 0.030897
0.813978 0.229346 0.031378
0.847125 0.229800 0.031861
0.880296 0.230258 0.032346
0.899467 0.230464 0.032580
0.900831 0.230350 0.032492
0.902173 0.230238 0.032405
0.015305 0.254846 0.022306
0.015314 0.254614 0.022139
0.015323 0.254385 0.021975
0.032827 0.254478 0.022131
0.064231 0.254826 0.022540
0.095782 0.255181 0.022955
0.127477 0.255541 0.023374
0.159314 0.255908 0.023798
0.191292 0.256280 0.024227
0.223407 0.256658 0.024660
0.255658 0.257043 0.025097
0.288042 0.257432 0.025539
0.320556 0.257828 0.025986
0.353199 0.258229 0.026437
0.385969 0.258636 0.026892
0.418863 0.259049 0.027351
0.451878 0.259466 0.027815
0.485014 0.259890 0.028282
0.518267 0.260318 0.028754
0.551636 0.260753 0.029230
0.585118 0.261192 0.029710
0.618712 0.261637 0.030194
0.652414 0.262086 0.030682
0.686224 0.262541 0.031173
0.720139 0.263001 0.031669
0.754157 0.263466 0.032168
0.787468 0.263922 0.032657
0.820598 0.264377 0.033144
0.853747 0.264835 0.033633
0.886911 0.265297 0.034124
0.906041 0.265508 0.034363
0.907329 0.265397 0.034279
0.908594 0.265289 0.034197
0.017422 0.289682 0.023839
0.017433 0.289453 0.023679
0.017445 0.289227 0.023522
0.035090 0.289325 0.023686
0.066738 0.289681 0.024107
0.098528 0.290043 0.024532
0.130457 0.290411 0.024962
0.162524 0.290785 0.025397
0.194725 0.291165 0.025836
0.227059 0.291551 0.026279
0.259523 0.291943 0.026727
0.292116 0.292340 0.027179
0.324834 0.292743 0.027636
0.357676 0.293152 0.028096
0.390640 0.293567 0.028561
0.423722 0.293987 0.029031
0.456923 0.294413 0.029504
0.490238 0.294844 0.029981
0.523666 0.295280 0.030462
0.557205 0.295722 0.030947
0.590853 0.296169 0.031437
0.624608 0.296621 0.031930
0.658467 0.297079 0.032426
0.692429 0.297542 0.032927
0.726492 0.298010 0.033431
0.760654 0.298482 0.033939
0.793870 0.298941 0.034432
0.826997 0.299402 0.034925
0.860134 0.299866 0.035420
0.893277 0.300333 0.035917
0.912358 0.300548 0.036160
0.913571 0.300442 0.036082
0.914761 0.300339 0.036004
0.019546 0.324498 0.025393
0.019560 0.324273 0.025240
0.019575 0.324051 0.025088
0.037355 0.324156 0.025262
0.069239 0.324520 0.025693
0.101259 0.324890 0.026129
0.133414 0.325266 0.026570
0.165701 0.325649 0.027015
0.198118 0.326037 0.027464
0.230662 0.326431 0.027918
0.263332 0.326831 0.028376
0.296125 0.327237 0.028838
0.329039 0.327649 0.029304
0.362072 0.328066 0.029775
0.395222 0.328489 0.030249
0.428487 0.328917 0.030728
0.461864 0.329351 0.031211
0.495351 0.329791 0.031697
0.528947 0.330236 0.032188
0.562649 0.330686 0.032682
0.596456 0.331141 0.033180
0.630365 0.331602 0.033682
0.664374 0.332068 0.034188
0.698481 0.332540 0.034697
0.732685 0.333016 0.035210
0.766966 0.333497 0.035726
0.800070 0.333960 0.036223
0.833179 0.334426 0.036721
0.866290 0.334896 0.037222
0.899398 0.335369 0.037724
0.918422 0.335590 0.037972
0.919562 0.335489 0.037898
0.920679 0.335391 0.037825
0.021678 0.359300 0.026967
0.021694 0.359079 0.026820
0.021712 0.358862 0.026676
0.039622 0.358974 0.026858
0.071734 0.359347 0.027300
0.103976 0.359726 0.027746
0.136349 0.360111 0.028197
0.168848 0.360503 0.028653
0.201472 0.360900 0.029112
0.234219 0.361303 0.029576
0.267086 0.361712 0.030043
0.300072 0.362127 0.030515
0.333174 0.362548 0.030992
0.366391 0.362974 0.031472
0.399719 0.363406 0.031956
0.433158 0.363844 0.032444
0.466704 0.364287 0.032936
0.500357 0.364735 0.033431
0.534113 0.365189 0.033931
0.567971 0.365649 0.034434
0.601929 0.366113 0.034941
0.635986 0.366583 0.035452
0.670138 0.367059 0.035966
0.704384 0.367539 0.036484
0.738722 0.368024 0.037005
0.772992 0.368512 0.037527
0.806073 0.368981 0.038029
0.839150 0.369454 0.038533
0.872220 0.369930 0.039039
0.905279 0.370410 0.039546
0.924240 0.370636 0.039799
0.925307 0.370541 0.039729
0.926353 0.370449 0.039660
0.023817 0.394092 0.028561
0.023837 0.393877 0.028421
0.023857 0.393665 0.028283
0.041894 0.393785 0.028474
0.074224 0.394167 0.028927
0.106681 0.394556 0.029383
0.139262 0.394951 0.029844
0.171965 0.395352 0.030310
0.204788 0.395759 0.030779
0.237730 0.396172 0.031253
0.270787 0.396591 0.031730
0.303958 0.397015 0.032212
0.337241 0.397446 0.032697
0.370633 0.397882 0.033187
0.404133 0.398323 0.033680
0.437738 0.398771 0.034177
0.471447 0.399224 0.034678
0.505257 0.399682 0.035183
0.539167 0.400146 0.035691
0.573174 0.400615 0.036203
0.607277 0.401089 0.036719
0.641474 0.401569 0.037238
0.675762 0.402054 0.037761
0.710141 0.402544 0.038287
0.744607 0.403039 0.038816
0.778838 0.403534 0.039343
0.811882 0.404010 0.039851
0.844914 0.404490 0.040360
0.877929 0.404973 0.040870
0.910925 0.405459 0.041382
0.929816 0.405692 0.041639
0.930812 0.405604 0.041574
0.931788 0.405519 0.041510
0.025965 0.428879 0.030177
0.025988 0.428669 0.030043
0.026011 0.428464 0.029911
0.044169 0.428592 0.030111
0.076709 0.428985 0.030573
0.109372 0.429385 0.031040
0.142154 0.429790 0.031511
0.175053 0.430201 0.031986
0.208068 0.430619 0.032465
0.241197 0.431042 0.032949
0.274436 0.431471 0.033436
0.307784 0.431906 0.033927
0.341240 0.432347 0.034421
0.374801 0.432793 0.034920
0.408465 0.433245 0.035422
0.442229 0.433703 0.035929
0.476093 0.434166 0.036438
0.510055 0.434635 0.036952
0.544111 0.435109 0.037469
0.578261 0.435588 0.037990
0.612502 0.436073 0.038514
0.646833 0.436563 0.039041
0.681251 0.437059 0.039572
0.715756 0.437559 0.040106
0.750344 0.438065 0.040644
0.784510 0.438566 0.041176
0.817503 0.439050 0.041688
0.850475 0.439537 0.042201
0.883422 0.440027 0.042716
0.916341 0.440520 0.043232
0.935155 0.440761 0.043494
0.936083 0.440680 0.043433
0.936990 0.440602 0.043373
0.028122 0.463664 0.031812
0.028147 0.463462 0.031685
0.028173 0.463264 0.031560
0.046448 0.463402 0.031768
0.079191 0.463806 0.032240
0.112051 0.464216 0.032717
0.145026 0.464632 0.033198
0.178114 0.465055 0.033682
0.211313 0.465483 0.034171
0.244620 0.465917 0.034663
0.278034 0.466357 0.035160
0.311553 0.466803 0.035660
0.345175 0.467255 0.036164
0.378897 0.467712 0.036672
0.412717 0.468175 0.037183
0.446635 0.468644 0.037698
0.480647 0.469118 0.038216
0.514752 0.469598 0.038739
0.548949 0.470083 0.039264
0.583234 0.470573 0.039793
0.617607 0.471069 0.040325
0.652066 0.471570 0.040861
0.686608 0.472077 0.041400
0.721232 0.472588 0.041942
0.755937 0.473105 0.042488
0.790011 0.473614 0.043024
0.822939 0.474105 0.043540
0.855839 0.474600 0.044058
0.888705 0.475098 0.044577
0.921534 0.475598 0.045097
0.940264 0.475847 0.045363
0.941125 0.475774 0.045306
0.941965 0.475705 0.045251
0.030287 0.498454 0.033468
0.030315 0.498259 0.033347
0.030345 0.498069 0.033228
0.048731 0.498217 0.033444
0.081669 0.498633 0.033927
0.114719 0.499054 0.034413
0.147880 0.499482 0.034903
0.181149 0.499916 0.035398
0.214524 0.500356 0.035896
0.248003 0.500802 0.036397
0.281584 0.501254 0.036903
0.315266 0.501711 0.037412
0.349046 0.502174 0.037925
0.382922 0.502643 0.038441
0.416893 0.503118 0.038961
0.450956 0.503598 0.039485
0.485110 0.504084 0.040012
0.519353 0.504575 0.040542
0.553683 0.505072 0.041076
0.588098 0.505574 0.041613
0.622597 0.506081 0.042154
0.657177 0.506594 0.042698
0.691837 0.507112 0.043244
0.726575 0.507635 0.043795
0.761389 0.508163 0.044348
0.795347 0.508680 0.044887
0.828198 0.509179 0.045408
0.861010 0.509682 0.045930
0.893782 0.510188 0.046453
0.926509 0.510697 0.046977
0.945150 0.510953 0.047246
0.945944 0.510889 0.047194
0.946720 0.510829 0.047143
0.032461 0.533251 0.035144
0.032492 0.533065 0.035029
0.032525 0.532884 0.034917
0.051019 0.533042 0.035141
0.084144 0.533470 0.035633
0.117377 0.533904 0.036129
0.150715 0.534344 0.036629
0.184157 0.534790 0.037132
0.217701 0.535242 0.037639
0.251345 0.535700 0.038150
0.285087 0.536164 0.038664
0.318924 0.536634 0.039183
0.352856 0.537109 0.039704
0.386880 0.537591 0.040229
0.420994 0.538077 0.040758
0.455196 0.538570 0.041290
0.489486 0.539068 0.041825
0.523860 0.539571 0.042364
0.558317 0.540080 0.042906
0.592855 0.540594 0.043451
0.627473 0.541114 0.043999
0.662169 0.541638 0.044551
0.696940 0.542168 0.045105
0.731786 0.542703 0.045663
0.766705 0.543244 0.046224
0.800523 0.543768 0.046766
0.833282 0.544276 0.047291
0.865996 0.544788 0.047816
0.898661 0.545302 0.048343
0.931273 0.545819 0.048870
0.949817 0.546084 0.049143
0.950548 0.546030 0.049095
0.951261 0.545979 0.049048
0.034644 0.568060 0.036840
0.034679 0.567884 0.036732
0.034714 0.567712 0.036625
0.053312 0.567881 0.036858
0.086617 0.568322 0.037359
0.120024 0.568769 0.037864
0.153533 0.569222 0.038373
0.187141 0.569681 0.038886
0.220847 0.570146 0.039402
0.254648 0.570616 0.039921
0.288543 0.571093 0.040445
0.322530 0.571576 0.040971
0.356607 0.572064 0.041501
0.390771 0.572558 0.042035
0.425022 0.573057 0.042572
0.459357 0.573562 0.043112
0.493776 0.574073 0.043656
0.528275 0.574589 0.044202
0.562853 0.575110 0.044752
0.597508 0.575637 0.045305
0.632240 0.576169 0.045861
0.667045 0.576707 0.046420
0.701923 0.577249 0.046982
0.736872 0.577797 0.047547
0.771890 0.578350 0.048115
0.805544 0.578882 0.048660
0.838199 0.579400 0.049189
0.870801 0.579920 0.049718
0.903346 0.580443 0.050247
0.935831 0.580969 0.050777
0.954273 0.581243 0.051054
0.954943 0.581199 0.051010
0.955596 0.581158 0.050967
0.036837 0.602885 0.038556
0.036875 0.602719 0.038454
0.036913 0.602557 0.038354
0.055611 0.602739 0.038594
0.089087 0.603193 0.039105
0.122662 0.603653 0.039619
0.156334 0.604119 0.040137
0.190102 0.604592 0.040658
0.223962 0.605070 0.041183
0.257914 0.605554 0.041711
0.291956 0.606044 0.042243
0.326085 0.606540 0.042778
0.360300 0.607041 0.043317
0.394599 0.607548 0.043859
0.428980 0.608061 0.044404
0.463442 0.608580 0.044952
0.497983 0.609103 0.045503
0.532601 0.609633 0.046058
0.567294 0.610167 0.046615
0.602061 0.610707 0.047176
0.636901 0.611253 0.047739
0.671810 0.611803 0.048306
0.706789 0.612359 0.048875
0.741835 0.612920 0.049448
0.776946 0.613486 0.050023
0.810415 0.614026 0.050570
0.842955 0.614553 0.051101
0.875432 0.615082 0.051634
0.907846 0.615614 0.052166
0.940190 0.616149 0.052699
0.958525 0.616433 0.052979
0.959136 0.616400 0.052939
0.959730 0.616369 0.052900
0.039039 0.637730 0.040292
0.039080 0.637575 0.040196
0.039122 0.637424 0.040102
0.057915 0.637618 0.040350
0.091556 0.638086 0.040870
0.125292 0.638561 0.041393
0.159120 0.639041 0.041920
0.193040 0.639527 0.042450
0.227048 0.640019 0.042983
0.261144 0.640517 0.043520
0.295325 0.641021 0.044060
0.329590 0.641530 0.044603
0.363937 0.642046 0.045150
0.398364 0.642567 0.045700
0.432870 0.643093 0.046253
0.467453 0.643625 0.046809
0.502110 0.644163 0.047368
0.536841 0.644706 0.047930
0.571644 0.645254 0.048495
0.606517 0.645808 0.049063
0.641459 0.646367 0.049634
0.676467 0.646931 0.050208
0.711541 0.647500 0.050784
0.746679 0.648075 0.051364
0.781880 0.648654 0.051946
0.815143 0.649202 0.052494
0.847554 0.649739 0.053029
0.879895 0.650278 0.053564
0.912165 0.650820 0.054099
0.944359 0.651364 0.054634
0.962580 0.651658 0.054917
0.963134 0.651635 0.054881
0.963671 0.651616 0.054846
0.041252 0.672599 0.042048
0.041296 0.672456 0.041958
0.041341 0.672317 0.041870
0.060225 0.672524 0.042126
0.094024 0.673006 0.042654
0.127913 0.673495 0.043186
0.161891 0.673990 0.043721
0.195956 0.674490 0.044260
0.230106 0.674997 0.044802
0.264339 0.675509 0.045347
0.298654 0.676027 0.045895
0.333048 0.676551 0.046446
0.367521 0.677080 0.047001
0.402070 0.677616 0.047559
0.436694 0.678156 0.048119
0.471392 0.678703 0.048683
0.506160 0.679254 0.049250
0.540999 0.679812 0.049819
0.575905 0.680374 0.050392
0.610879 0.680942 0.050967
0.645918 0.681515 0.051545
0.681020 0.682093 0.052126
0.716185 0.682676 0.052709
0.751410 0.683265 0.053295
0.786694 0.683858 0.053884
0.819732 0.684415 0.054434
0.852003 0.684961 0.054971
0.884197 0.685510 0.055508
0.916311 0.686062 0.056046
0.948343 0.686616 0.056583
0.966446 0.686920 0.056869
0.966945 0.686909 0.056837
0.967428 0.686902 0.056806
0.043475 0.707496 0.043824
0.043522 0.707365 0.043740
0.043570 0.707238 0.043658
0.062542 0.707459 0.043921
0.096491 0.707956 0.044458
0.130527 0.708460 0.044998
0.164648 0.708969 0.045542
0.198852 0.709485 0.046088
0.233137 0.710006 0.046638
0.267501 0.710533 0.047191
0.301943 0.711066 0.047748
0.336461 0.711605 0.048307
0.371054 0.712149 0.048869
0.405719 0.712699 0.049435
0.440455 0.713254 0.050003
0.475262 0.713815 0.050574
0.510136 0.714382 0.051148
0.545076 0.714954 0.051725
0.580082 0.715531 0.052304
0.615150 0.716113 0.052887
0.650281 0.716700 0.053472
0.685472 0.717293 0.054059
0.720722 0.717891 0.054650
0.756030 0.718494 0.055242
0.791394 0.719102 0.055838
0.824190 0.719667 0.056388
0.856308 0.720223 0.056927
0.888343 0.720783 0.057467
0.920292 0.721344 0.058006
0.952150 0.721908 0.058545
0.970129 0.722223 0.058834
0.970576 0.722224 0.058806
0.971007 0.722228 0.058778
0.045707 0.742425 0.045619
0.045758 0.742306 0.045541
0.045810 0.742192 0.045465
0.064865 0.742427 0.045735
0.098959 0.742940 0.046280
0.133135 0.743459 0.046829
0.167392 0.743984 0.047381
0.201728 0.744515 0.047935
0.236141 0.745051 0.048493
0.270631 0.745594 0.049054
0.305194 0.746142 0.049618
0.339830 0.746696 0.050185
0.374536 0.747255 0.050755
0.409312 0.747820 0.051328
0.444155 0.748391 0.051903
0.479065 0.748967 0.052482
0.514039 0.749548 0.053063
0.549077 0.750135 0.053647
0.584176 0.750727 0.054233
0.619335 0.751324 0.054822
0.654553 0.751926 0.055414
0.689828 0.752534 0.056008
0.725159 0.753147 0.056605
0.760545 0.753764 0.057204
0.795984 0.754387 0.057806
0.828522 0.754961 0.058357
0.860477 0.755528 0.058898
0.892342 0.756097 0.059439
0.924113 0.756669 0.059980
0.955787 0.757242 0.060521
0.973639 0.757569 0.060812
0.974035 0.757583 0.060787
0.974416 0.757599 0.060764
0.047951 0.777388 0.047433
0.048005 0.777282 0.047361
0.048060 0.777182 0.047291
0.067195 0.777432 0.047568
0.101427 0.777961 0.048122
0.135737 0.778495 0.048678
0.170124 0.779036 0.049238
0.204586 0.779582 0.049801
0.239122 0.780135 0.050366
0.273730 0.780693 0.050935
0.308409 0.781257 0.051506
0.343156 0.781826 0.052081
0.377971 0.782401 0.052658
0.412852 0.782982 0.053238
0.447797 0.783568 0.053820
0.482805 0.784159 0.054406
0.517874 0.784756 0.054994
0.553004 0.785358 0.055585
0.588191 0.785966 0.056178
0.623436 0.786578 0.056774
0.658737 0.787196 0.057372
0.694091 0.787819 0.057973
0.729499 0.788446 0.058576
0.764959 0.789079 0.059181
0.800469 0.789717 0.059789
0.832734 0.790299 0.060340
0.864516 0.790877 0.060883
0.896201 0.791457 0.061425
0.927784 0.792039 0.061968
0.959264 0.792623 0.062509
0.976982 0.792961 0.062802
0.977330 0.792987 0.062782
0.977665 0.793017 0.062762
0.050205 0.812389 0.049266
0.050262 0.812298 0.049200
0.050321 0.812211 0.049135
0.069533 0.812476 0.049420
0.103895 0.813021 0.049981
0.138333 0.813572 0.050546
0.172844 0.814129 0.051113
0.207426 0.814692 0.051683
0.242079 0.815260 0.052257
0.276800 0.815835 0.052833
0.311589 0.816414 0.053412
0.346443 0.817000 0.053993
0.381361 0.817591 0.054577
0.416341 0.818187 0.055164
0.451383 0.818789 0.055754
0.486484 0.819397 0.056346
0.521643 0.820009 0.056941
0.556860 0.820627 0.057538
0.592131 0.821250 0.058138
0.627457 0.821878 0.058740
0.662836 0.822511 0.059345
0.698266 0.823150 0.059952
0.733747 0.823793 0.060561
0.769277 0.824441 0.061173
0.804854 0.825094 0.061787
0.836835 0.825686 0.062337
0.868432 0.826274 0.062881
0.899925 0.826865 0.063425
0.931311 0.827457 0.063968
0.962587 0.828052 0.064511
0.980168 0.828401 0.064806
0.980471 0.828441 0.064788
0.980761 0.828484 0.064772
0.052462 0.847285 0.051110
0.052523 0.847213 0.051050
0.052584 0.847146 0.050991
0.071870 0.847433 0.051283
0.106358 0.848000 0.051852
0.140917 0.848573 0.052424
0.175547 0.849151 0.053000
0.210244 0.849736 0.053578
0.245008 0.850325 0.054158
0.279837 0.850921 0.054742
0.314730 0.851522 0.055328
0.349685 0.852128 0.055917
0.384701 0.852739 0.056509
0.419777 0.853356 0.057103
0.454910 0.853979 0.057699
0.490100 0.854606 0.058298
0.525345 0.855238 0.058900
0.560644 0.855876 0.059504
0.595996 0.856519 0.060110
