library/cube/Stream_Queen_000.cube
# CINEGRADE LAB — Premium Cinematic LUT
# Title: Stream Queen
# Category: Netflix Inspired
# Description: Cinematic teal/orange with filmic qualities inspired by streaming content
# Mood: Cinematic, binge-worthy, polished
# Variant: 1
# Generated: 2026-05-21T16:12:42.809697
TITLE "Stream Queen"
LUT_3D_SIZE 9
0.000939 0.014739 0.013819
0.045697 0.014595 0.013733
0.162784 0.015805 0.014995
0.282875 0.017111 0.016346
0.405800 0.018509 0.017785
0.531394 0.019997 0.019306
0.659496 0.021569 0.020907
0.789602 0.023217 0.022577
0.845495 0.023556 0.022934
0.004823 0.080201 0.014946
0.051586 0.080141 0.015009
0.173486 0.081489 0.016470
0.298017 0.082930 0.018014
0.425023 0.084459 0.019636
0.554347 0.086074 0.021334
0.685841 0.087770 0.023104
0.818206 0.089525 0.024922
0.873855 0.089927 0.025379
0.013196 0.219986 0.020793
0.061717 0.219951 0.020994
0.187818 0.221377 0.022637
0.316204 0.222898 0.024354
0.446728 0.224508 0.026143
0.579248 0.226206 0.028001
0.713622 0.227986 0.029923
0.847125 0.229800 0.031861
0.902173 0.230238 0.032405
0.021678 0.359300 0.026967
0.071734 0.359347 0.027300
0.201472 0.360900 0.029112
0.333174 0.362548 0.030992
0.466704 0.364287 0.032936
0.601929 0.366113 0.034941
0.738722 0.368024 0.037005
0.872220 0.369930 0.039039
0.926353 0.370449 0.039660
0.030287 0.498454 0.033468
0.081669 0.498633 0.033927
0.214524 0.500356 0.035896
0.349046 0.502174 0.037925
0.485110 0.504084 0.040012
0.622597 0.506081 0.042154
0.761389 0.508163 0.044348
0.893782 0.510188 0.046453
0.946720 0.510829 0.047143
0.039039 0.637730 0.040292
0.091556 0.638086 0.040870
0.227048 0.640019 0.042983
0.363937 0.642046 0.045150
0.502110 0.644163 0.047368
0.641459 0.646367 0.049634
0.781880 0.648654 0.051946
0.912165 0.650820 0.054099
0.963671 0.651616 0.054846
0.047951 0.777388 0.047433
0.101427 0.777961 0.048122
0.239122 0.780135 0.050366
0.377971 0.782401 0.052658
0.517874 0.784756 0.054994
0.658737 0.787196 0.057372
0.800469 0.789717 0.059789
0.927784 0.792039 0.061968
0.977665 0.793017 0.062762
0.056857 0.914628 0.054701
0.111146 0.915650 0.055504
0.250668 0.918258 0.057876
0.391129 0.920920 0.060287
0.532443 0.923632 0.062734
0.674532 0.926393 0.065214
0.817288 0.929200 0.067726
0.940978 0.931692 0.069909
0.989086 0.932842 0.070736
0.061533 0.977298 0.057845
0.116469 0.978294 0.058722
0.257454 0.980853 0.061178
0.399197 0.983425 0.063664
0.541632 0.986010 0.066179
0.684696 0.988606 0.068719
0.827945 0.991206 0.071276
0.947807 0.993382 0.073420
0.994024 0.994220 0.074238
0.001400 0.014890 0.090612
0.046371 0.014762 0.090338
0.163972 0.015995 0.091423
0.284538 0.017323 0.092600
0.407901 0.018741 0.093867
0.533896 0.020248 0.095219
0.662364 0.021839 0.096654
0.792746 0.023504 0.098161
0.848631 0.023855 0.098352
0.005295 0.080364 0.091110
0.052246 0.080321 0.090998
0.174596 0.081692 0.092294
0.299542 0.083154 0.093674
0.426927 0.084704 0.095135
0.556597 0.086338 0.096675
0.688404 0.088054 0.098289
0.820935 0.089824 0.099952
0.876538 0.090239 0.100253
0.013677 0.220142 0.096369
0.062363 0.220127 0.096407
0.188855 0.221577 0.097894
0.317600 0.223121 0.099458
0.448450 0.224753 0.101096
0.581263 0.226472 0.102805
0.715902 0.228274 0.104581
0.849455 0.230104 0.106371
0.904424 0.230555 0.106767
0.022170 0.359470 0.101994
0.072369 0.359539 0.102174
0.202444 0.361118 0.103840
0.334453 0.362790 0.105575
0.468259 0.364552 0.107376
0.603731 0.366401 0.109241
0.740743 0.368334 0.111166
0.874178 0.370257 0.113057
0.928201 0.370791 0.113538
0.030791 0.498657 0.107981
0.082296 0.498859 0.108296
0.215438 0.500609 0.110125
0.350218 0.502453 0.112018
0.486513 0.504387 0.113969
0.624204 0.506408 0.115976
0.763176 0.508513 0.118037
0.895400 0.510553 0.120004
0.948202 0.511210 0.120558
0.039558 0.637983 0.114320
0.092178 0.638364 0.114761
0.227911 0.640324 0.116741
0.365015 0.642377 0.118776
0.503378 0.644519 0.120864
0.642894 0.646747 0.123000
0.783460 0.649057 0.125183
0.913481 0.651238 0.127200
0.964830 0.652051 0.127815
0.048484 0.777705 0.121000
0.102047 0.778304 0.121557
0.239941 0.780505 0.123672
0.378967 0.782798 0.125836
0.519025 0.785178 0.128045
0.660022 0.787641 0.130295
0.801871 0.790185 0.132586
0.928843 0.792522 0.134629
0.978550 0.793516 0.135291
0.057410 0.915094 0.127828
0.111770 0.916130 0.128501
0.251454 0.918753 0.130746
0.392058 0.921428 0.133030
0.533497 0.924154 0.135349
0.675694 0.926928 0.137702
0.818503 0.929745 0.140085
0.941831 0.932240 0.142130
0.989753 0.933396 0.142823
0.062096 0.977753 0.130531
0.117090 0.978750 0.131279
0.258205 0.981310 0.133607
0.400064 0.983884 0.135965
0.542600 0.986469 0.138350
0.685754 0.989067 0.140759
0.829054 0.991667 0.143183
0.948503 0.993834 0.145184
0.994529 0.994668 0.145862
0.002222 0.015406 0.225045
0.047402 0.015294 0.224436
0.165510 0.016547 0.225196
0.286544 0.017895 0.226056
0.410338 0.019334 0.227011
0.536728 0.020859 0.228058
0.665555 0.022468 0.229192
0.796201 0.024149 0.230403
0.852073 0.024510 0.230299
0.006124 0.080889 0.224426
0.053260 0.080863 0.224001
0.176054 0.082254 0.224993
0.301408 0.083737 0.226076
0.429166 0.085306 0.227246
0.559176 0.086959 0.228499
0.691289 0.088693 0.229831
0.823974 0.090478 0.231215
0.879527 0.090904 0.231238
0.014513 0.220658 0.228640
0.063361 0.220662 0.228385
0.190239 0.222136 0.229588
0.319335 0.223701 0.230873
0.450505 0.225355 0.232237
0.583607 0.227094 0.233676
0.718504 0.228915 0.235187
0.852095 0.230760 0.236712
0.906982 0.231225 0.236845
0.023015 0.359999 0.233289
0.073354 0.360089 0.233193
0.203760 0.361691 0.234592
0.336069 0.363387 0.236064
0.470145 0.365172 0.237606
0.605860 0.367043 0.239216
0.743087 0.368997 0.240889
0.876446 0.370934 0.242527
0.930356 0.371483 0.242758
0.031647 0.499216 0.238358
0.083271 0.499442 0.238413
0.216694 0.501217 0.239990
0.351727 0.503085 0.241632
0.488248 0.505043 0.243337
0.626139 0.507086 0.245101
0.765286 0.509213 0.246921
0.897329 0.511268 0.248644
0.949993 0.511940 0.248956
0.040424 0.638591 0.243831
0.093146 0.638996 0.244024
0.229115 0.640981 0.245763
0.366429 0.643059 0.247559
0.504978 0.645225 0.249409
0.644656 0.647476 0.251311
0.785363 0.649809 0.253260
0.915111 0.652004 0.255038
0.966300 0.652832 0.255417
0.049363 0.778375 0.249684
0.103010 0.778998 0.250003
0.241100 0.781226 0.251886
0.380297 0.783544 0.253817
0.520506 0.785948 0.255795
0.661634 0.788435 0.257816
0.803596 0.791001 0.259876
0.930219 0.793350 0.261682
0.979750 0.794359 0.262110
0.058306 0.915907 0.255720
0.112736 0.916956 0.256161
0.252578 0.919592 0.258176
0.393320 0.922281 0.260230
0.534880 0.925019 0.262320
0.677183 0.927805 0.264443
0.820044 0.930632 0.266594
0.943004 0.933129 0.268400
0.990737 0.934290 0.268855
0.063000 0.978548 0.257637
0.118050 0.979545 0.258154
0.259293 0.982105 0.260252
0.401264 0.984680 0.262379
0.543899 0.987266 0.264531
0.687140 0.989863 0.266706
0.830491 0.992463 0.268893
0.949523 0.994621 0.270645
0.995356 0.995450 0.271074
0.003044 0.015924 0.359242
0.048432 0.015828 0.358301
0.167039 0.017103 0.358743
0.288535 0.018471 0.359289
0.412754 0.019929 0.359937
0.539532 0.021473 0.360682
0.668713 0.023099 0.361520
0.799614 0.024796 0.362439
0.855469 0.025168 0.362043
0.006954 0.081417 0.357521
0.054272 0.081408 0.356786
0.177504 0.082821 0.357480
0.303260 0.084323 0.358270
0.431385 0.085912 0.359152
0.561729 0.087584 0.360121
0.694144 0.089335 0.361176
0.826971 0.091135 0.362283
0.882471 0.091572 0.362032
0.015350 0.221179 0.360705
0.064357 0.221202 0.360160
0.191614 0.222698 0.361083
0.321057 0.224286 0.362093
0.452542 0.225960 0.363186
0.585927 0.227720 0.364359
0.721079 0.229560 0.365607
0.854696 0.231421 0.366870
0.909496 0.231898 0.366744
0.023861 0.360533 0.364389
0.074337 0.360644 0.364022
0.205069 0.362271 0.365156
0.337673 0.363989 0.366368
0.472016 0.365797 0.367655
0.607968 0.367689 0.369012
0.745405 0.369664 0.370436
0.878678 0.371616 0.371824
0.932473 0.372179 0.371806
0.032502 0.499782 0.368552
0.084245 0.500030 0.368350
0.217944 0.501831 0.369677
0.353225 0.503723 0.371072
0.489968 0.505704 0.372533
0.628055 0.507770 0.374056
0.767374 0.509918 0.375637
0.899225 0.511988 0.377117
0.951749 0.512675 0.377189
0.041291 0.639205 0.373168
0.094113 0.639634 0.373116
0.230313 0.641646 0.374615
0.367833 0.643748 0.376174
0.506564 0.645938 0.377790
0.646401 0.648212 0.379457
0.787247 0.650567 0.381175
0.916712 0.652776 0.382714
0.967740 0.653619 0.382858
0.050242 0.779053 0.378203
0.103973 0.779700 0.378286
0.242253 0.781954 0.379936
0.381620 0.784296 0.381637
0.521976 0.786724 0.383384
0.663233 0.789234 0.385176
0.805305 0.791822 0.387007
0.931571 0.794184 0.388575
0.980924 0.795208 0.388769
0.059202 0.916723 0.383451
0.113700 0.917785 0.383660
0.253697 0.920435 0.385446
0.394576 0.923137 0.387271
0.536255 0.925887 0.389132
0.678660 0.928684 0.391025
0.821572 0.931521 0.392944
0.944159 0.934020 0.394509
0.991703 0.935185 0.394724
0.063904 0.979342 0.384584
0.119009 0.980338 0.384869
0.260377 0.982900 0.386737
0.402459 0.985475 0.388632
0.545190 0.988061 0.390551
0.688518 0.990659 0.392490
0.831921 0.993258 0.394438
0.950531 0.995407 0.395940
0.996171 0.996231 0.396118
0.003866 0.016447 0.493204
0.049458 0.016366 0.491937
0.168559 0.017662 0.492064
0.290511 0.019050 0.492301
0.415148 0.020527 0.492646
0.542310 0.022089 0.493093
0.671840 0.023733 0.493639
0.802983 0.025445 0.494269
0.858817 0.025828 0.493586
0.007784 0.081950 0.490396
0.055282 0.081957 0.489357
0.178945 0.083390 0.489756
0.305098 0.084913 0.490257
0.433585 0.086521 0.490854
0.564257 0.088211 0.491545
0.696969 0.089980 0.492325
0.829927 0.091794 0.493160
0.885370 0.092242 0.492638
0.016188 0.221705 0.492564
0.065352 0.221747 0.491734
0.192983 0.223266 0.492380
0.322767 0.224874 0.493119
0.454561 0.226570 0.493945
0.588225 0.228350 0.494854
0.723626 0.230209 0.495843
0.857258 0.232085 0.496847
0.911969 0.232574 0.496463
0.024707 0.361073 0.495297
0.075319 0.361205 0.494661
0.206372 0.362855 0.495535
0.339266 0.364597 0.496491
0.473870 0.366427 0.497524
0.610055 0.368341 0.498631
0.747698 0.370335 0.499809
0.880874 0.372303 0.500948
0.934550 0.372879 0.500683
0.033359 0.500355 0.498565
0.085217 0.500625 0.498108
0.219188 0.502451 0.499188
0.354713 0.504367 0.500339
0.491673 0.506371 0.501558
0.629952 0.508459 0.502842
0.769439 0.510629 0.504185
0.901090 0.512713 0.505424
0.953471 0.513415 0.505258
0.042159 0.639827 0.502332
0.095079 0.640279 0.502038
0.231505 0.642316 0.503300
0.369227 0.644443 0.504623
0.508137 0.646657 0.506005
0.648130 0.648954 0.507441
0.789110 0.651330 0.508927
0.918285 0.653552 0.510229
0.969151 0.654411 0.510139
0.051123 0.779737 0.506555
0.104935 0.780409 0.506404
0.243402 0.782689 0.507823
0.382934 0.785056 0.509294
0.523435 0.787507 0.510813
0.664817 0.790040 0.512376
0.806997 0.792649 0.513978
0.932901 0.795023 0.515309
0.982075 0.796062 0.515268
0.060100 0.917543 0.511020
0.114664 0.918617 0.510998
0.254813 0.921280 0.512555
0.395824 0.923995 0.514152
0.537620 0.926758 0.515783
0.680126 0.929566 0.517446
0.823088 0.932413 0.519133
0.945296 0.934913 0.520456
0.992651 0.936082 0.520430
0.064809 0.980135 0.511371
0.119967 0.981131 0.511425
0.261458 0.983693 0.513061
0.403647 0.986269 0.514724
0.546474 0.988856 0.516408
0.689888 0.991453 0.518110
0.833344 0.994052 0.519818
0.951528 0.996191 0.521067
0.996977 0.997011 0.520991
0.004689 0.016972 0.626934
0.050483 0.016908 0.625345
0.170071 0.018224 0.625162
0.292472 0.019632 0.625095
0.417522 0.021127 0.625140
0.545061 0.022708 0.625294
0.674934 0.024369 0.625552
0.806309 0.026097 0.625897
0.862119 0.026490 0.624930
0.008615 0.082486 0.623056
0.056290 0.082509 0.621715
0.180379 0.083964 0.621824
0.306922 0.085506 0.622039
0.435765 0.087133 0.622357
0.566761 0.088842 0.622772
0.699765 0.090628 0.623280
0.832842 0.092456 0.623846
0.888225 0.092915 0.623056
0.017026 0.222235 0.624221
0.066344 0.222296 0.623108
0.194344 0.223837 0.623483
0.324464 0.225468 0.623953
0.456562 0.227184 0.624514
0.590500 0.228984 0.625164
0.726145 0.230862 0.625897
0.859782 0.232752 0.626644
0.914399 0.233254 0.626006
0.025554 0.361618 0.626014
0.076299 0.361771 0.625113
0.207668 0.363445 0.625730
0.340848 0.365210 0.626432
0.475707 0.367062 0.627215
0.612121 0.368997 0.628075
0.749967 0.371012 0.629008
0.883034 0.372993 0.629900
0.936590 0.373583 0.629392
0.034216 0.500933 0.628398
0.086188 0.501226 0.627690
0.220426 0.503076 0.628524
0.356190 0.505017 0.629434
0.493364 0.507044 0.630413
0.631831 0.509154 0.631459
0.771482 0.511344 0.632568
0.902922 0.513443 0.633566
0.955158 0.514159 0.633163
0.043028 0.640455 0.631326
0.096044 0.640931 0.630791
0.232693 0.642994 0.631817
0.370613 0.645145 0.632907
0.509697 0.647382 0.634057
0.649843 0.649701 0.635261
0.790955 0.652099 0.636518
0.919832 0.654334 0.637583
0.970532 0.655208 0.637259
0.052004 0.780430 0.634744
0.105896 0.781126 0.634359
0.244547 0.783430 0.635549
0.384240 0.785822 0.636791
0.524883 0.788297 0.638081
0.666387 0.790851 0.639416
0.808673 0.793481 0.640790
0.934208 0.795867 0.641883
0.983202 0.796921 0.641607
0.060997 0.918366 0.638428
0.115627 0.919452 0.638176
0.255925 0.922129 0.639505
0.397066 0.924856 0.640873
0.538976 0.927630 0.642275
0.681581 0.930450 0.643707
0.824593 0.933307 0.645161
0.946417 0.935808 0.646241
0.993581 0.936982 0.645973
0.065714 0.980927 0.637998
0.120925 0.981922 0.637820
0.262536 0.984486 0.639226
0.404831 0.987061 0.640655
0.547752 0.989649 0.642103
0.691250 0.992246 0.643567
0.834760 0.994844 0.645031
0.952515 0.996975 0.646025
0.997773 0.997789 0.645693
0.005512 0.017501 0.760434
0.051505 0.017452 0.758528
0.171573 0.018789 0.758039
0.294418 0.020216 0.757672
0.419875 0.021731 0.757423
0.547786 0.023329 0.757287
0.677997 0.025008 0.757260
0.809593 0.026750 0.757325
0.865374 0.027154 0.756077
0.009445 0.083026 0.755500
0.057296 0.083066 0.753863
0.181804 0.084541 0.753686
0.308732 0.086103 0.753619
0.437927 0.087749 0.753660
0.569241 0.089475 0.753803
0.702532 0.091279 0.754044
0.835716 0.093121 0.754344
0.891035 0.093590 0.753289
0.017864 0.222771 0.755677
0.067335 0.222851 0.754286
0.195698 0.224414 0.754391
0.326148 0.226066 0.754596
0.458545 0.227803 0.754897
0.592753 0.229622 0.755290
0.728638 0.231519 0.755769
0.862266 0.233423 0.756263
0.916789 0.233937 0.755373
0.026401 0.362169 0.756543
0.077278 0.362343 0.755380
0.208957 0.364041 0.755742
0.342417 0.365828 0.756193
0.477529 0.367701 0.756728
0.614167 0.369657 0.757344
0.752211 0.371693 0.758036
0.885159 0.373688 0.758683
0.938591 0.374292 0.757933
0.035074 0.501519 0.758052
0.087158 0.501834 0.757096
0.221658 0.503708 0.757688
0.357658 0.505672 0.758357
0.495040 0.507722 0.759099
0.633691 0.509854 0.759910
0.773503 0.512065 0.760785
0.904723 0.514177 0.761544
0.956812 0.514908 0.760906
0.043897 0.641090 0.760149
0.097007 0.641590 0.759376
0.233875 0.643677 0.760169
0.371989 0.645853 0.761026
0.511244 0.648113 0.761945
0.651540 0.650454 0.762920
0.792781 0.652873 0.763947
0.921351 0.655121 0.764777
0.971884 0.656010 0.764219
0.052886 0.781129 0.762768
0.106857 0.781849 0.762152
0.245687 0.784179 0.763113
0.385539 0.786594 0.764127
0.526320 0.789092 0.765190
0.667944 0.791668 0.766296
0.810334 0.794320 0.767442
0.935493 0.796717 0.768297
0.984305 0.797785 0.767785
0.061896 0.919192 0.765676
0.116590 0.920290 0.765195
0.257032 0.922981 0.766296
0.398302 0.925720 0.767435
0.540323 0.928506 0.768607
0.683026 0.931336 0.769808
0.826086 0.934202 0.771027
0.947521 0.936705 0.771863
0.994495 0.937882 0.771352
0.066620 0.981719 0.764465
0.121882 0.982713 0.764056
0.263610 0.985277 0.765229
0.406009 0.987853 0.766423
0.549023 0.990441 0.767635
0.692605 0.993038 0.768858
0.836171 0.995636 0.770078
0.953493 0.997757 0.770812
0.998560 0.998566 0.770221
0.006186 0.017885 0.869930
0.052387 0.017862 0.869364
0.172939 0.019229 0.870158
0.296230 0.020685 0.871010
0.422098 0.022228 0.871916
0.550384 0.023853 0.872873
0.680935 0.025557 0.873878
0.812749 0.027322 0.874911
0.868505 0.027743 0.874569
0.010161 0.083455 0.869241
0.058194 0.083519 0.868733
0.183124 0.085023 0.869627
0.310438 0.086613 0.870571
0.439987 0.088285 0.871562
0.571621 0.090037 0.872595
0.705201 0.091865 0.873667
0.838487 0.093727 0.874737
0.893745 0.094212 0.874393
0.018616 0.223224 0.872959
0.068244 0.223330 0.872493
0.196972 0.224922 0.873468
0.327754 0.226602 0.874485
0.460452 0.228365 0.875539
0.594930 0.230210 0.876628
0.731057 0.232132 0.877749
0.864670 0.234055 0.878824
0.919098 0.234586 0.878462
0.027185 0.362663 0.876693
0.078198 0.362863 0.876260
0.210188 0.364590 0.877300
0.343930 0.366405 0.878373
0.479294 0.368305 0.879476
0.616157 0.370287 0.880606
0.754399 0.372346 0.881760
0.887221 0.374359 0.882812
0.940531 0.374980 0.882418
0.035888 0.502066 0.880429
0.088088 0.502408 0.880019
0.222849 0.504311 0.881107
0.359084 0.506303 0.882221
0.496675 0.508379 0.883356
0.635511 0.510536 0.884511
0.775483 0.512772 0.885681
0.906477 0.514900 0.886683
0.958419 0.515647 0.886242
0.044739 0.641704 0.884149
0.097945 0.642230 0.883749
0.235031 0.644346 0.884869
0.373338 0.646548 0.886006
0.512764 0.648834 0.887157
0.653208 0.651200 0.888319
0.794577 0.653643 0.889490
0.922835 0.655905 0.890412
0.973201 0.656809 0.889909
0.053751 0.781818 0.887827
0.107802 0.782564 0.887426
0.246811 0.784921 0.888559
0.386819 0.787363 0.889701
0.527738 0.789885 0.890849
0.669482 0.792485 0.892001
0.811974 0.795159 0.893153
0.936753 0.797568 0.893969
0.985384 0.798651 0.893386
0.062786 0.920013 0.891281
0.117544 0.921125 0.890869
0.258131 0.923829 0.892001
0.399527 0.926582 0.893133
0.541658 0.929381 0.894260
0.684457 0.932222 0.895382
0.827568 0.935099 0.896488
0.948609 0.937602 0.897171
0.995392 0.938784 0.896482
0.067521 0.982505 0.890140
0.122835 0.983500 0.889672
0.264680 0.986065 0.890753
0.407182 0.988643 0.891823
0.550287 0.991231 0.892880
0.693953 0.993829 0.893920
0.837577 0.996426 0.894930
0.954463 0.998538 0.895422
0.999341 0.999342 0.894573
0.006531 0.017942 0.926308
0.052936 0.017944 0.926944
0.173965 0.019340 0.928889
0.297696 0.020825 0.930835
0.423967 0.022394 0.932781
0.552621 0.024045 0.934723
0.683508 0.025773 0.936659
0.815527 0.027560 0.938568
0.871254 0.027998 0.939046
0.010545 0.083554 0.929427
0.058755 0.083643 0.929935
0.184101 0.085175 0.931796
0.311797 0.086791 0.933652
0.441692 0.088489 0.935503
0.573642 0.090266 0.937344
0.707504 0.092117 0.939172
0.840881 0.093998 0.940946
0.896073 0.094500 0.941253
0.019033 0.223347 0.936337
0.068816 0.223478 0.936709
0.197902 0.225099 0.938474
0.329011 0.226805 0.940230
0.462004 0.228595 0.941974
0.596747 0.230465 0.943703
0.733111 0.232410 0.945415
0.866698 0.234352 0.947030
0.921029 0.234900 0.947161
0.027634 0.362825 0.942677
0.078779 0.363051 0.942912
0.211075 0.364806 0.944575
0.345093 0.366649 0.946224
0.480705 0.368575 0.947855
0.617788 0.370582 0.949467
0.756225 0.372666 0.951058
0.888910 0.374696 0.952498
0.942095 0.375334 0.952449
0.036365 0.502281 0.948462
0.088678 0.502650 0.948561
0.223697 0.504582 0.950116
0.360162 0.506601 0.951651
0.497958 0.508703 0.953165
0.636973 0.510885 0.954656
0.777103 0.513144 0.956121
0.907861 0.515288 0.957370
0.959654 0.516053 0.957139
0.045242 0.641985 0.953710
0.098543 0.642538 0.953671
0.235843 0.644682 0.955112
0.374340 0.646911 0.956530
0.513932 0.649223 0.957922
0.654521 0.651613 0.959286
0.796017 0.654078 0.960621
0.923955 0.656355 0.961665
0.974153 0.657276 0.961251
0.054279 0.782175 0.958433
0.108408 0.782948 0.958257
0.247592 0.785332 0.959579
0.387754 0.787800 0.960874
0.528807 0.790347 0.962139
0.670668 0.792970 0.963374
0.813261 0.795665 0.964577
0.937655 0.798087 0.965403
0.986104 0.799184 0.964805
0.063338 0.920498 0.962495
0.118160 0.921624 0.962186
0.258888 0.924343 0.963389
0.400407 0.927109 0.964559
0.542647 0.929921 0.965696
0.685542 0.932774 0.966796
0.828703 0.935661 0.967855
0.949345 0.938166 0.968457
0.995937 0.939352 0.967667
0.068086 0.982953 0.961563
0.123451 0.983949 0.961090
0.265410 0.986516 0.962141
0.408013 0.989095 0.963154
0.551210 0.991684 0.964129
0.694959 0.994283 0.965065
0.838644 0.996880 0.965950
0.955091 0.998983 0.966293
0.999783 0.999783 0.965283
