library/cube/Street_Witness_001.cube
# CINEGRADE LAB — Premium Cinematic LUT
# Title: Street Witness
# Category: Moody Documentary
# Description: Desaturated, contrasty, journalistic style for documentary storytelling
# Mood: Raw, honest, gritty
# Variant: 2
# Generated: 2026-05-21T16:12:16.400704
TITLE "Street Witness"
LUT_3D_SIZE 9
0.000000 0.000000 0.003600
0.012430 0.000917 0.004296
0.130652 0.009631 0.012907
0.249199 0.018355 0.021520
0.368049 0.027089 0.030137
0.487183 0.035832 0.038757
0.606580 0.044583 0.047380
0.726222 0.053343 0.056008
0.777655 0.057086 0.059572
0.003058 0.014767 0.005977
0.015549 0.015694 0.006702
0.134292 0.024433 0.015332
0.253314 0.033180 0.023966
0.372595 0.041935 0.032603
0.492116 0.050698 0.041244
0.611858 0.059467 0.049889
0.731803 0.068242 0.058539
0.783276 0.071993 0.062129
0.032233 0.155281 0.035003
0.044805 0.156276 0.035748
0.164020 0.165093 0.044391
0.283470 0.173913 0.053038
0.403134 0.182737 0.061689
0.522997 0.191564 0.070344
0.643039 0.200393 0.079005
0.763243 0.209224 0.087671
0.814753 0.213020 0.091281
0.061610 0.296222 0.064072
0.074244 0.297265 0.064839
0.193851 0.306135 0.073497
0.313649 0.315005 0.082159
0.433621 0.323875 0.090827
0.553752 0.332744 0.099499
0.674024 0.341611 0.108177
0.794421 0.350476 0.116861
0.845941 0.354298 0.120493
0.091138 0.437484 0.093194
0.103818 0.438553 0.093984
0.223739 0.447455 0.102658
0.343813 0.456355 0.111338
0.464023 0.465249 0.120024
0.584355 0.474140 0.128715
0.704793 0.483026 0.137411
0.825322 0.491907 0.146114
0.876827 0.495737 0.149767
0.120769 0.578967 0.122374
0.133480 0.580043 0.123187
0.253646 0.588959 0.131880
0.373928 0.597869 0.140579
0.494312 0.606771 0.149284
0.614784 0.615665 0.157994
0.735330 0.624553 0.166711
0.855938 0.633433 0.175433
0.907410 0.637257 0.179108
0.150462 0.720581 0.151618
0.163191 0.721650 0.152454
0.283537 0.730562 0.161167
0.403966 0.739466 0.169886
0.524467 0.748360 0.178610
0.645025 0.757244 0.187340
0.765631 0.766120 0.196077
0.886271 0.774986 0.204819
0.937695 0.778793 0.208514
0.180180 0.862248 0.180929
0.192915 0.863297 0.181788
0.313384 0.872192 0.190520
0.433907 0.881077 0.199259
0.554474 0.889951 0.208003
0.675074 0.898814 0.216753
0.795697 0.907667 0.225508
0.916334 0.916510 0.234269
0.967701 0.920292 0.237983
0.192916 0.922704 0.193310
0.205644 0.923717 0.194191
0.326182 0.932578 0.202944
0.446751 0.941430 0.211702
0.567342 0.950271 0.220465
0.687945 0.959102 0.229233
0.808554 0.967924 0.238006
0.929162 0.976738 0.246783
0.980475 0.980492 0.250513
0.000307 0.000311 0.015676
0.012744 0.001229 0.016371
0.131022 0.009944 0.024979
0.249620 0.018670 0.033590
0.368517 0.027406 0.042204
0.487694 0.036150 0.050823
0.607129 0.044903 0.059445
0.726804 0.053664 0.068071
0.778243 0.057408 0.071635
0.003369 0.015082 0.018048
0.015865 0.016010 0.018773
0.134657 0.024749 0.027401
0.253722 0.033498 0.036033
0.373043 0.042254 0.044668
0.492599 0.051018 0.053308
0.612372 0.059788 0.061952
0.732344 0.068565 0.070601
0.783819 0.072315 0.074191
0.032556 0.155619 0.047068
0.045132 0.156614 0.047813
0.164387 0.165430 0.056455
0.283873 0.174251 0.065101
0.403570 0.183075 0.073751
0.523460 0.191901 0.082406
0.643526 0.200730 0.091067
0.763751 0.209561 0.099732
0.815261 0.213356 0.103343
0.061941 0.296577 0.076134
0.074578 0.297617 0.076902
0.194217 0.306487 0.085559
0.314044 0.315356 0.094221
0.434042 0.324224 0.102888
0.554194 0.333092 0.111561
0.674484 0.341958 0.120239
0.794896 0.350822 0.128923
0.846413 0.354641 0.132556
0.091473 0.437848 0.105255
0.104156 0.438913 0.106045
0.224103 0.447814 0.114720
0.344199 0.456711 0.123400
0.464428 0.465604 0.132086
0.584775 0.474492 0.140778
0.705225 0.483376 0.149475
0.825763 0.492254 0.158179
0.877264 0.496082 0.161833
0.121107 0.579333 0.134436
0.133819 0.580406 0.135250
0.254004 0.589320 0.143943
0.374302 0.598226 0.152643
0.494699 0.607125 0.161349
0.615181 0.616017 0.170060
0.735735 0.624901 0.178778
0.856347 0.633778 0.187501
0.907813 0.637599 0.191178
0.150799 0.720945 0.163682
0.163528 0.722010 0.164520
0.283888 0.730919 0.173233
0.404328 0.739819 0.181953
0.524836 0.748709 0.190679
0.645400 0.757590 0.199410
0.766009 0.766462 0.208148
0.886650 0.775325 0.216891
0.938067 0.779128 0.220588
0.180515 0.862606 0.192997
0.193249 0.863650 0.193857
0.313726 0.872542 0.202591
0.434255 0.881422 0.211331
0.554826 0.890292 0.220076
0.675428 0.899152 0.228827
0.796050 0.908001 0.237584
0.916685 0.916840 0.246346
0.968046 0.920619 0.250062
0.193245 0.923050 0.205383
0.205971 0.924057 0.206265
0.326514 0.932915 0.215019
0.447086 0.941763 0.223779
0.567677 0.950601 0.232543
0.688279 0.959429 0.241313
0.808886 0.968248 0.250087
0.929490 0.977058 0.258866
0.980798 0.980811 0.262597
0.003228 0.003268 0.131019
0.015675 0.004187 0.131673
0.134012 0.012906 0.140241
0.252665 0.021636 0.148815
0.371611 0.030374 0.157393
0.490832 0.039122 0.165977
0.610308 0.047878 0.174567
0.730019 0.056641 0.183162
0.781465 0.060386 0.186697
0.006305 0.018048 0.133262
0.018810 0.018977 0.133952
0.137652 0.027720 0.142546
0.256764 0.036471 0.151146
0.376126 0.045230 0.159751
0.495719 0.053996 0.168362
0.615525 0.062768 0.176979
0.735526 0.071547 0.185602
0.787006 0.075298 0.189169
0.035514 0.158612 0.162169
0.048097 0.159608 0.162885
0.167395 0.168426 0.171498
0.286918 0.177247 0.180118
0.406649 0.186072 0.188743
0.526569 0.194900 0.197375
0.646660 0.203729 0.206013
0.766907 0.212561 0.214658
0.818419 0.216355 0.218250
0.064916 0.299590 0.191142
0.077559 0.300629 0.191885
0.197232 0.309499 0.200519
0.317090 0.318368 0.209160
0.437114 0.327236 0.217807
0.557289 0.336103 0.226461
0.677597 0.344968 0.235122
0.798024 0.353831 0.243790
0.849541 0.357650 0.247409
0.094461 0.440873 0.220186
0.107147 0.441937 0.220957
0.227121 0.450836 0.229614
0.347240 0.459732 0.238277
0.467489 0.468623 0.246948
0.587853 0.477510 0.255626
0.708315 0.486391 0.264310
0.828864 0.495268 0.273002
0.880362 0.499094 0.276647
0.124102 0.582364 0.249307
0.136817 0.583434 0.250106
0.257022 0.592345 0.258787
0.377337 0.601249 0.267474
0.497748 0.610145 0.276168
0.618241 0.619035 0.284870
0.738802 0.627917 0.293579
0.859419 0.636791 0.302295
0.910881 0.640609 0.305964
0.153799 0.723975 0.278509
0.166528 0.725037 0.279336
0.286902 0.733943 0.288040
0.407354 0.742839 0.296751
0.527871 0.751726 0.305470
0.648440 0.760604 0.314195
0.769052 0.769473 0.322927
0.889693 0.778332 0.331666
0.941105 0.782133 0.335360
0.183514 0.865630 0.307792
0.196249 0.866671 0.308645
0.316735 0.875559 0.317373
0.437271 0.884436 0.326108
0.557845 0.893302 0.334850
0.678448 0.902158 0.343598
0.799070 0.911004 0.352352
0.919703 0.919840 0.361112
0.971059 0.923616 0.364827
0.196241 0.926063 0.320159
0.208967 0.927067 0.321038
0.329515 0.935921 0.329789
0.450089 0.944765 0.338546
0.570681 0.953600 0.347309
0.691282 0.962425 0.356078
0.811886 0.971241 0.364852
0.932487 0.980049 0.373630
0.983790 0.983799 0.377362
0.006152 0.006226 0.246333
0.018609 0.007147 0.246948
0.137005 0.015870 0.255478
0.255710 0.024602 0.264014
0.374705 0.033344 0.272558
0.493970 0.042095 0.281109
0.613485 0.050853 0.289667
0.733231 0.059619 0.298232
0.784685 0.063365 0.301739
0.009243 0.021014 0.248451
0.021757 0.021945 0.249107
0.140649 0.030691 0.257668
0.259806 0.039445 0.266237
0.379209 0.048206 0.274813
0.498838 0.056974 0.283396
0.618677 0.065749 0.291987
0.738705 0.074529 0.300586
0.790190 0.078282 0.304130
0.038475 0.161606 0.277249
0.051064 0.162602 0.277937
0.170403 0.171421 0.286523
0.289964 0.180244 0.295117
0.409727 0.189070 0.303718
0.529676 0.197898 0.312327
0.649793 0.206728 0.320945
0.770061 0.215560 0.329570
0.821574 0.219355 0.333145
0.067893 0.302603 0.306131
0.080541 0.303641 0.306852
0.200248 0.312511 0.315464
0.320135 0.321379 0.324084
0.440185 0.330247 0.332712
0.560381 0.339114 0.341349
0.680708 0.347978 0.349994
0.801151 0.356841 0.358647
0.852666 0.360658 0.362252
0.097450 0.443898 0.335102
0.110139 0.444959 0.335856
0.230140 0.453858 0.344495
0.350282 0.462752 0.353143
0.470550 0.471641 0.361799
0.590929 0.480527 0.370464
0.711404 0.489407 0.379137
0.831961 0.498282 0.387818
0.883457 0.502105 0.391453
0.127098 0.585394 0.364167
0.139815 0.586461 0.364953
0.260040 0.595370 0.373620
0.380371 0.604271 0.382296
0.500795 0.613165 0.390981
0.621298 0.622052 0.399673
0.741866 0.630931 0.408374
0.862488 0.639803 0.417083
0.913945 0.643619 0.420747
0.156798 0.727004 0.393327
0.169529 0.728062 0.394144
0.289916 0.736965 0.402840
0.410379 0.745858 0.411543
0.530903 0.754742 0.420255
0.651478 0.763617 0.428975
0.772092 0.772483 0.437703
0.892735 0.781339 0.446438
0.944141 0.785137 0.450129
0.186514 0.868654 0.422582
0.199248 0.869691 0.423429
0.319743 0.878575 0.432152
0.440285 0.887448 0.440882
0.560863 0.896311 0.449620
0.681467 0.905163 0.458365
0.802089 0.914006 0.467118
0.922719 0.922839 0.475877
0.974069 0.926612 0.479591
0.199237 0.929075 0.434931
0.211963 0.930075 0.435807
0.332514 0.938926 0.444556
0.453091 0.947767 0.453312
0.573683 0.956598 0.462074
0.694283 0.965420 0.470842
0.814884 0.974233 0.479616
0.935482 0.983039 0.488395
0.986781 0.986786 0.492127
0.009079 0.009185 0.361619
0.021546 0.010108 0.362196
0.139999 0.018834 0.370688
0.258756 0.027570 0.379189
0.377799 0.036315 0.387699
0.497107 0.045068 0.396218
0.616661 0.053829 0.404745
0.736441 0.062597 0.413282
0.787901 0.066345 0.416762
0.012184 0.023982 0.363615
0.024706 0.024914 0.364239
0.143647 0.033663 0.372769
0.262849 0.042419 0.381308
0.382291 0.051183 0.389855
0.501957 0.059953 0.398412
0.621826 0.068730 0.406978
0.741882 0.077512 0.415553
0.793371 0.081266 0.419075
0.041437 0.164601 0.392308
0.054033 0.165596 0.392969
0.173413 0.174417 0.401529
0.293010 0.183241 0.410098
0.412806 0.192067 0.418677
0.532782 0.200897 0.427265
0.652923 0.209727 0.435862
0.773212 0.218560 0.444469
0.824727 0.222354 0.448026
0.070872 0.305616 0.421104
0.083524 0.306653 0.421802
0.203264 0.315523 0.430394
0.323180 0.324391 0.438994
0.443255 0.333259 0.447605
0.563473 0.342124 0.456225
0.683817 0.350988 0.464854
0.804274 0.359850 0.473493
0.855788 0.363666 0.477086
0.100439 0.446922 0.450006
0.113132 0.447982 0.450742
0.233158 0.456879 0.459365
0.353322 0.465771 0.467998
0.473609 0.474659 0.476641
0.594003 0.483543 0.485293
0.714490 0.492421 0.493955
0.835056 0.501294 0.502626
0.886548 0.505116 0.506253
0.130095 0.588423 0.479017
0.142813 0.589487 0.479790
0.263057 0.598393 0.488445
0.383405 0.607292 0.497111
0.503841 0.616184 0.505785
0.624353 0.625068 0.514470
0.744928 0.633945 0.523163
0.865554 0.642814 0.531866
0.917006 0.646627 0.535524
0.159798 0.730033 0.508137
0.172529 0.731087 0.508946
0.292930 0.739986 0.517633
0.413403 0.748876 0.526330
0.533935 0.757757 0.535036
0.654514 0.766629 0.543751
0.775131 0.775491 0.552475
0.895773 0.784345 0.561207
0.947174 0.788139 0.564895
0.189514 0.871676 0.537366
0.202248 0.872709 0.538208
0.322750 0.881589 0.546926
0.443298 0.890459 0.555653
0.563879 0.899318 0.564388
0.684484 0.908167 0.573131
0.805105 0.917007 0.581882
0.925732 0.925836 0.590641
0.977077 0.929606 0.594354
0.202233 0.932086 0.549701
0.214958 0.933082 0.550575
0.335513 0.941929 0.559321
0.456092 0.950767 0.568076
0.576684 0.959595 0.576837
0.697282 0.968414 0.585605
0.817881 0.977224 0.594379
0.938475 0.986027 0.603159
0.989770 0.989773 0.606892
0.012009 0.012145 0.476877
0.024485 0.013071 0.477417
0.142994 0.021800 0.485873
0.261803 0.030539 0.494340
0.380893 0.039287 0.502817
0.500243 0.048043 0.511305
0.619835 0.056806 0.519803
0.739649 0.065576 0.528312
0.791116 0.069326 0.531767
0.015127 0.026950 0.478756
0.027658 0.027884 0.479348
0.146647 0.036636 0.487848
0.265892 0.045395 0.496358
0.385374 0.054161 0.504878
0.505074 0.062933 0.513409
0.624974 0.071712 0.521951
0.745056 0.080496 0.530503
0.796549 0.084250 0.534005
0.044401 0.167596 0.507348
0.057003 0.168591 0.507983
0.176423 0.177413 0.516518
0.296056 0.186238 0.525063
0.415883 0.195066 0.533620
0.535887 0.203895 0.542187
0.656052 0.212727 0.550765
0.776360 0.221559 0.559355
0.827876 0.225353 0.562896
0.073851 0.308629 0.536060
0.086509 0.309666 0.536738
0.206281 0.318535 0.545309
0.326225 0.327403 0.553891
0.446324 0.336270 0.562484
0.566562 0.345135 0.571088
0.686924 0.353998 0.579703
0.807394 0.362859 0.588329
0.858907 0.366674 0.591910
0.103430 0.449946 0.564895
0.116126 0.451004 0.565615
0.236177 0.459899 0.574224
0.356362 0.468790 0.582843
0.476667 0.477677 0.591473
0.597075 0.486559 0.600113
0.717573 0.495435 0.608765
0.838147 0.504307 0.617427
0.889636 0.508126 0.621046
0.133092 0.591451 0.593856
0.145812 0.592513 0.594617
0.266075 0.601416 0.603262
0.386437 0.610313 0.611917
0.506886 0.619202 0.620583
0.627407 0.628084 0.629260
0.747988 0.636958 0.637947
0.868617 0.645825 0.646644
0.920065 0.649635 0.650298
0.162797 0.733060 0.622940
0.175530 0.734110 0.623741
0.295943 0.743006 0.632421
0.416425 0.751893 0.641112
0.536964 0.760771 0.649813
0.657548 0.769640 0.658523
0.778167 0.778499 0.667243
0.898809 0.787349 0.675973
0.950204 0.791141 0.679659
0.192513 0.874698 0.652145
0.205247 0.875726 0.652983
0.325757 0.884603 0.661697
0.446309 0.893469 0.670420
0.566893 0.902325 0.679153
0.687499 0.911170 0.687895
0.808119 0.920006 0.696645
0.928743 0.928833 0.705403
0.980082 0.932600 0.709117
0.205228 0.935095 0.664468
0.217952 0.936088 0.665339
0.338512 0.944932 0.674085
0.459091 0.953766 0.682838
0.579683 0.962591 0.691600
0.700280 0.971407 0.700368
0.820876 0.980215 0.709143
0.941467 0.989016 0.717924
0.992758 0.992759 0.721658
0.014941 0.015107 0.592108
0.027427 0.016034 0.592612
0.145991 0.024767 0.601034
0.264851 0.033509 0.609467
0.383987 0.042259 0.617913
0.503379 0.051018 0.626371
0.623007 0.059784 0.634841
0.742854 0.068556 0.643324
0.794327 0.072307 0.646753
0.018073 0.029920 0.593874
0.030612 0.030855 0.594436
0.149648 0.039609 0.602906
0.268936 0.048371 0.611388
0.388456 0.057139 0.619882
0.508190 0.065914 0.628389
0.628120 0.074694 0.636907
0.748228 0.083480 0.645438
0.799725 0.087235 0.648920
0.047367 0.170591 0.622367
0.059976 0.171587 0.622978
0.179435 0.180410 0.631489
0.299102 0.189236 0.640012
0.418960 0.198064 0.648547
0.538991 0.206894 0.657095
0.659178 0.215726 0.665655
0.779505 0.224559 0.674228
0.831022 0.228353 0.677754
0.076832 0.311643 0.651000
0.089494 0.312678 0.651658
0.209298 0.321546 0.660210
0.329269 0.330414 0.668775
0.449392 0.339280 0.677352
0.569650 0.348145 0.685941
0.690029 0.357008 0.694543
0.810511 0.365868 0.703156
0.862023 0.369681 0.706726
0.106421 0.452970 0.679773
0.119120 0.454025 0.680477
0.239196 0.462919 0.689071
0.359402 0.471809 0.697677
0.479723 0.480694 0.706295
0.600145 0.489574 0.714925
0.720654 0.498449 0.723567
0.841236 0.507318 0.732221
0.892722 0.511135 0.735833
0.136089 0.594479 0.708686
0.148811 0.595537 0.709436
0.269092 0.604438 0.718070
0.389469 0.613332 0.726717
0.509929 0.622219 0.735375
0.630459 0.631098 0.744044
0.751045 0.639970 0.752725
0.871677 0.648834 0.761418
0.923120 0.652641 0.765068
0.165797 0.736085 0.737736
0.178530 0.737132 0.738530
0.298956 0.746026 0.747204
0.419447 0.754909 0.755889
0.539993 0.763784 0.764585
0.660581 0.772649 0.773292
0.781200 0.781506 0.782009
0.901842 0.790353 0.790737
0.953232 0.794141 0.794422
0.195512 0.877717 0.766920
0.208246 0.878742 0.767753
0.328763 0.887615 0.776464
0.449320 0.896477 0.785185
0.569906 0.905330 0.793916
0.690513 0.914172 0.802657
0.811130 0.923005 0.811407
0.931752 0.931829 0.820165
0.983086 0.935593 0.823879
0.208224 0.938104 0.779232
0.220947 0.939092 0.780102
0.341509 0.947933 0.788847
0.462090 0.956764 0.797600
0.582682 0.965585 0.806362
0.703277 0.974399 0.815131
0.823870 0.983204 0.823907
0.944457 0.992003 0.832688
0.995744 0.995745 0.836423
0.017876 0.018070 0.707313
0.030371 0.018999 0.707782
0.148990 0.027735 0.716170
0.267900 0.036480 0.724571
0.387081 0.045233 0.732987
0.506513 0.053994 0.741416
0.626178 0.062762 0.749859
0.746057 0.071537 0.758316
0.797535 0.075289 0.761722
0.021021 0.032891 0.708968
0.033568 0.033827 0.709502
0.152650 0.042584 0.717943
0.271980 0.051348 0.726399
0.391537 0.060119 0.734868
0.511305 0.068895 0.743351
0.631264 0.077677 0.751848
0.751397 0.086464 0.760358
0.802897 0.090221 0.763821
0.050334 0.173587 0.737368
0.062949 0.174583 0.737955
0.182446 0.183407 0.746443
0.302148 0.192234 0.754945
0.422036 0.201063 0.763460
0.542093 0.209894 0.771989
0.662302 0.218726 0.780532
0.782648 0.227559 0.789089
0.834165 0.231352 0.792601
0.079814 0.314656 0.765924
0.092481 0.315690 0.766564
0.212315 0.324558 0.775098
0.332313 0.333425 0.783646
0.452459 0.342291 0.792208
0.572737 0.351155 0.800783
0.693131 0.360017 0.809372
0.813626 0.368876 0.817974
0.865136 0.372688 0.821534
0.109413 0.455993 0.794638
0.122115 0.457046 0.795328
0.242214 0.465939 0.803908
0.362440 0.474827 0.812502
0.482779 0.483710 0.821109
0.603214 0.492588 0.829729
0.723733 0.501461 0.838363
0.844322 0.510329 0.847009
0.895804 0.514144 0.850614
0.139087 0.597506 0.823506
0.151811 0.598561 0.824246
0.272109 0.607460 0.832871
0.392500 0.616351 0.841509
0.512971 0.625235 0.850160
0.633508 0.634112 0.858824
0.754100 0.642981 0.867499
0.874735 0.651843 0.876187
0.926172 0.655647 0.879834
0.168797 0.739110 0.852526
0.181531 0.740154 0.853313
0.301968 0.749044 0.861981
0.422468 0.757924 0.870661
0.543019 0.766796 0.879353
0.663611 0.775658 0.888057
0.784232 0.784511 0.896772
0.904872 0.793356 0.905498
0.956256 0.797141 0.909183
0.198511 0.880736 0.881691
0.211244 0.881756 0.882521
0.331768 0.890626 0.891229
0.452329 0.899485 0.899948
0.572918 0.908334 0.908678
0.693524 0.917173 0.917418
0.814140 0.926002 0.926165
0.934759 0.934823 0.934918
0.986087 0.938585 0.938636
0.211219 0.941111 0.893994
0.223941 0.942096 0.894863
0.344506 0.950933 0.903608
0.465088 0.959761 0.912361
0.585679 0.968579 0.921123
0.706272 0.977390 0.929891
0.826862 0.986193 0.938668
0.947446 0.994990 0.947452
0.998730 0.998730 0.951189
0.019130 0.019332 0.756208
0.031632 0.020262 0.756667
0.150303 0.029000 0.765044
0.269259 0.037747 0.773436
0.388483 0.046502 0.781842
0.507953 0.055265 0.790262
0.627651 0.064035 0.798697
0.747560 0.072811 0.807147
0.799042 0.076563 0.810548
0.022280 0.034158 0.757831
0.034833 0.035095 0.758356
0.153959 0.043853 0.766789
0.273328 0.052619 0.775237
0.392921 0.061391 0.783699
0.512719 0.070169 0.792176
0.632705 0.078952 0.800667
0.752862 0.087740 0.809172
0.804364 0.091497 0.812631
0.051607 0.174876 0.786203
0.064226 0.175871 0.786784
0.183759 0.184696 0.795265
0.303492 0.193523 0.803761
0.423408 0.202352 0.812272
0.543489 0.211183 0.820797
0.663719 0.220015 0.829336
0.784081 0.228848 0.837889
0.835598 0.232640 0.841399
0.081096 0.315959 0.814739
0.093765 0.316991 0.815374
0.213628 0.325859 0.823904
0.333651 0.334725 0.832448
0.453818 0.343590 0.841007
0.574114 0.352453 0.849579
0.694522 0.361313 0.858166
0.815028 0.370171 0.866767
0.866535 0.373981 0.870325
0.110700 0.457304 0.843438
0.123404 0.458355 0.844126
0.243525 0.467245 0.852704
0.363769 0.476131 0.861296
0.484123 0.485013 0.869901
0.604570 0.493889 0.878520
0.725098 0.502760 0.887153
0.845693 0.511625 0.895799
0.897171 0.515437 0.899405
0.140376 0.598819 0.872299
0.153100 0.599871 0.873038
0.273414 0.608767 0.881662
0.393818 0.617655 0.890299
0.514299 0.626537 0.898950
0.634843 0.635411 0.907614
0.755439 0.644277 0.916290
0.876076 0.653136 0.924975
0.927508 0.656937 0.928607
0.170085 0.740420 0.901316
0.182819 0.741460 0.902103
0.303266 0.750346 0.910771
0.423774 0.759224 0.919452
0.544331 0.768092 0.928124
0.664925 0.776951 0.936796
0.785546 0.785801 0.945497
0.906186 0.794642 0.954222
0.957564 0.798425 0.957923
0.199797 0.882039 0.930443
0.212528 0.883055 0.931278
0.333058 0.891921 0.939961
0.453623 0.900776 0.948671
0.574213 0.909621 0.957404
0.694819 0.918457 0.966154
0.815433 0.927284 0.974919
0.936048 0.936102 0.983695
0.987371 0.939860 0.987428
0.212498 0.942402 0.942742
0.225219 0.943383 0.943625
0.345787 0.952217 0.952371
0.466369 0.961041 0.961133
0.586959 0.969857 0.969906
0.707550 0.978665 0.978687
0.828137 0.987466 0.987473
0.948718 0.996261 0.996262
1.000000 1.000000 1.000000
