library/cube/Street_Witness_001.cube
# CINEGRADE LAB — Premium Cinematic LUT
# Title: Street Witness
# Category: Moody Documentary
# Description: Desaturated, contrasty, journalistic style for documentary storytelling
# Mood: Raw, honest, gritty
# Variant: 2
# Generated: 2026-05-21T16:12:16.400704
TITLE "Street Witness"
LUT_3D_SIZE 5
0.000000 0.000000 0.003600
0.130652 0.009631 0.012907
0.368049 0.027089 0.030137
0.606580 0.044583 0.047380
0.777655 0.057086 0.059572
0.032233 0.155281 0.035003
0.164020 0.165093 0.044391
0.403134 0.182737 0.061689
0.643039 0.200393 0.079005
0.814753 0.213020 0.091281
0.091138 0.437484 0.093194
0.223739 0.447455 0.102658
0.464023 0.465249 0.120024
0.704793 0.483026 0.137411
0.876827 0.495737 0.149767
0.150462 0.720581 0.151618
0.283537 0.730562 0.161167
0.524467 0.748360 0.178610
0.765631 0.766120 0.196077
0.937695 0.778793 0.208514
0.192916 0.922704 0.193310
0.326182 0.932578 0.202944
0.567342 0.950271 0.220465
0.808554 0.967924 0.238006
0.980475 0.980492 0.250513
0.003228 0.003268 0.131019
0.134012 0.012906 0.140241
0.371611 0.030374 0.157393
0.610308 0.047878 0.174567
0.781465 0.060386 0.186697
0.035514 0.158612 0.162169
0.167395 0.168426 0.171498
0.406649 0.186072 0.188743
0.646660 0.203729 0.206013
0.818419 0.216355 0.218250
0.094461 0.440873 0.220186
0.227121 0.450836 0.229614
0.467489 0.468623 0.246948
0.708315 0.486391 0.264310
0.880362 0.499094 0.276647
0.153799 0.723975 0.278509
0.286902 0.733943 0.288040
0.527871 0.751726 0.305470
0.769052 0.769473 0.322927
0.941105 0.782133 0.335360
0.196241 0.926063 0.320159
0.329515 0.935921 0.329789
0.570681 0.953600 0.347309
0.811886 0.971241 0.364852
0.983790 0.983799 0.377362
0.009079 0.009185 0.361619
0.139999 0.018834 0.370688
0.377799 0.036315 0.387699
0.616661 0.053829 0.404745
0.787901 0.066345 0.416762
0.041437 0.164601 0.392308
0.173413 0.174417 0.401529
0.412806 0.192067 0.418677
0.652923 0.209727 0.435862
0.824727 0.222354 0.448026
0.100439 0.446922 0.450006
0.233158 0.456879 0.459365
0.473609 0.474659 0.476641
0.714490 0.492421 0.493955
0.886548 0.505116 0.506253
0.159798 0.730033 0.508137
0.292930 0.739986 0.517633
0.533935 0.757757 0.535036
0.775131 0.775491 0.552475
0.947174 0.788139 0.564895
0.202233 0.932086 0.549701
0.335513 0.941929 0.559321
0.576684 0.959595 0.576837
0.817881 0.977224 0.594379
0.989770 0.989773 0.606892
0.014941 0.015107 0.592108
0.145991 0.024767 0.601034
0.383987 0.042259 0.617913
0.623007 0.059784 0.634841
0.794327 0.072307 0.646753
0.047367 0.170591 0.622367
0.179435 0.180410 0.631489
0.418960 0.198064 0.648547
0.659178 0.215726 0.665655
0.831022 0.228353 0.677754
0.106421 0.452970 0.679773
0.239196 0.462919 0.689071
0.479723 0.480694 0.706295
0.720654 0.498449 0.723567
0.892722 0.511135 0.735833
0.165797 0.736085 0.737736
0.298956 0.746026 0.747204
0.539993 0.763784 0.764585
0.781200 0.781506 0.782009
0.953232 0.794141 0.794422
0.208224 0.938104 0.779232
0.341509 0.947933 0.788847
0.582682 0.965585 0.806362
0.823870 0.983204 0.823907
0.995744 0.995745 0.836423
0.019130 0.019332 0.756208
0.150303 0.029000 0.765044
0.388483 0.046502 0.781842
0.627651 0.064035 0.798697
0.799042 0.076563 0.810548
0.051607 0.174876 0.786203
0.183759 0.184696 0.795265
0.423408 0.202352 0.812272
0.663719 0.220015 0.829336
0.835598 0.232640 0.841399
0.110700 0.457304 0.843438
0.243525 0.467245 0.852704
0.484123 0.485013 0.869901
0.725098 0.502760 0.887153
0.897171 0.515437 0.899405
0.170085 0.740420 0.901316
0.303266 0.750346 0.910771
0.544331 0.768092 0.928124
0.785546 0.785801 0.945497
0.957564 0.798425 0.957923
0.212498 0.942402 0.942742
0.345787 0.952217 0.952371
0.586959 0.969857 0.969906
0.828137 0.987466 0.987473
1.000000 1.000000 1.000000
