library/cube/Street_Witness_001.cube
# CINEGRADE LAB — Premium Cinematic LUT
# Title: Street Witness
# Category: Moody Documentary
# Description: Desaturated, contrasty, journalistic style for documentary storytelling
# Mood: Raw, honest, gritty
# Variant: 2
# Generated: 2026-05-21T16:12:16.400704
TITLE "Street Witness"
LUT_3D_SIZE 33
0.000000 0.000000 0.003600
0.000000 0.000000 0.003541
0.000000 0.000000 0.003482
0.000000 0.000000 0.003423
0.012430 0.000917 0.004296
0.041954 0.003094 0.006449
0.071499 0.005272 0.008601
0.101065 0.007451 0.010754
0.130652 0.009631 0.012907
0.160259 0.011811 0.015060
0.189886 0.013991 0.017213
0.219533 0.016173 0.019366
0.249199 0.018355 0.021520
0.278883 0.020537 0.023674
0.308587 0.022720 0.025828
0.338309 0.024904 0.027982
0.368049 0.027089 0.030137
0.397807 0.029274 0.032291
0.427582 0.031459 0.034446
0.457374 0.033645 0.036601
0.487183 0.035832 0.038757
0.517008 0.038019 0.040912
0.546850 0.040206 0.043068
0.576707 0.042395 0.045224
0.606580 0.044583 0.047380
0.636468 0.046773 0.049537
0.666372 0.048962 0.051694
0.696290 0.051152 0.053851
0.726222 0.053343 0.056008
0.756168 0.055534 0.058166
0.777239 0.057073 0.059665
0.777448 0.057079 0.059618
0.777655 0.057086 0.059572
0.000000 0.000000 0.003402
0.000000 0.000000 0.003345
0.000000 0.000000 0.003288
0.000000 0.000000 0.003231
0.012445 0.000917 0.004106
0.042004 0.003096 0.006260
0.071584 0.005275 0.008414
0.101184 0.007455 0.010568
0.130804 0.009635 0.012722
0.160443 0.011817 0.014876
0.190102 0.013998 0.017031
0.219779 0.016181 0.019185
0.249475 0.018364 0.021340
0.279190 0.020547 0.023495
0.308922 0.022731 0.025651
0.338672 0.024916 0.027806
0.368439 0.027101 0.029962
0.398223 0.029287 0.032118
0.428025 0.031473 0.034274
0.457842 0.033660 0.036431
0.487676 0.035848 0.038588
0.517525 0.038036 0.040745
0.547390 0.040224 0.042902
0.577270 0.042413 0.045059
0.607165 0.044602 0.047217
0.637074 0.046792 0.049375
0.666998 0.048982 0.051533
0.696936 0.051173 0.053692
0.726888 0.053364 0.055850
0.756853 0.055556 0.058009
0.777933 0.057095 0.059510
0.778134 0.057102 0.059465
0.778332 0.057108 0.059421
0.000000 0.000000 0.003211
0.000000 0.000000 0.003156
0.000000 0.000000 0.003101
0.000000 0.000000 0.003046
0.012459 0.000918 0.003923
0.042053 0.003098 0.006078
0.071666 0.005278 0.008233
0.101298 0.007459 0.010388
0.130950 0.009640 0.012543
0.160620 0.011822 0.014699
0.190309 0.014005 0.016855
0.220017 0.016188 0.019011
0.249742 0.018372 0.021167
0.279484 0.020557 0.023324
0.309244 0.022742 0.025480
0.339021 0.024927 0.027637
0.368815 0.027113 0.029794
0.398625 0.029300 0.031952
0.428450 0.031487 0.034109
0.458292 0.033675 0.036267
0.488149 0.035863 0.038425
0.518021 0.038052 0.040584
0.547908 0.040241 0.042742
0.577810 0.042430 0.044901
0.607726 0.044620 0.047060
0.637656 0.046811 0.049220
0.667599 0.049002 0.051379
0.697556 0.051193 0.053539
0.727526 0.053385 0.055699
0.757508 0.055577 0.057860
0.778598 0.057117 0.059362
0.778790 0.057123 0.059319
0.778980 0.057129 0.059277
0.000000 0.000000 0.003027
0.000000 0.000000 0.002973
0.000000 0.000000 0.002920
0.000000 0.000000 0.002867
0.012473 0.000918 0.003746
0.042099 0.003099 0.005902
0.071745 0.005280 0.008058
0.101408 0.007462 0.010215
0.131091 0.009645 0.012371
0.160791 0.011828 0.014528
0.190509 0.014012 0.016685
0.220245 0.016196 0.018843
0.249998 0.018381 0.021000
0.279768 0.020566 0.023158
0.309554 0.022752 0.025316
0.339357 0.024938 0.027475
0.369176 0.027125 0.029633
0.399010 0.029312 0.031792
0.428860 0.031500 0.033951
0.458724 0.033689 0.036110
0.488604 0.035878 0.038270
0.518498 0.038067 0.040429
0.548406 0.040257 0.042589
0.578328 0.042447 0.044750
0.608264 0.044638 0.046910
0.638213 0.046829 0.049071
0.668175 0.049021 0.051232
0.698149 0.051213 0.053393
0.728137 0.053405 0.055555
0.758136 0.055598 0.057717
0.779235 0.057137 0.059220
0.779418 0.057143 0.059179
0.779599 0.057149 0.059139
0.003058 0.014767 0.005977
0.003059 0.014769 0.005925
0.003060 0.014772 0.005874
0.003061 0.014774 0.005823
0.015549 0.015694 0.006702
0.045208 0.017878 0.008860
0.074885 0.020063 0.011017
0.104580 0.022247 0.013175
0.134292 0.024433 0.015332
0.164023 0.026619 0.017490
0.193770 0.028805 0.019649
0.223534 0.030992 0.021807
0.253314 0.033180 0.023966
0.283111 0.035368 0.026125
0.312924 0.037556 0.028284
0.342752 0.039746 0.030443
0.372595 0.041935 0.032603
0.402454 0.044125 0.034763
0.432327 0.046315 0.036923
0.462215 0.048506 0.039083
0.492116 0.050698 0.041244
0.522032 0.052889 0.043405
0.551961 0.055081 0.045566
0.581903 0.057274 0.047727
0.611858 0.059467 0.049889
0.641826 0.061660 0.052051
0.671806 0.063854 0.054213
0.701799 0.066048 0.056376
0.731803 0.068242 0.058539
0.761819 0.070437 0.060702
0.782926 0.071979 0.062207
0.783102 0.071986 0.062168
0.783276 0.071993 0.062129
0.010330 0.049849 0.013230
0.010334 0.049856 0.013179
0.010337 0.049863 0.013129
0.010340 0.049870 0.013080
0.022843 0.050796 0.013960
0.052534 0.052985 0.016118
0.082243 0.055175 0.018276
0.111969 0.057365 0.020434
0.141712 0.059556 0.022593
0.171472 0.061747 0.024752
0.201248 0.063939 0.026911
0.231041 0.066131 0.029070
0.260849 0.068324 0.031229
0.290672 0.070517 0.033389
0.320511 0.072710 0.035549
0.350365 0.074904 0.037709
0.380233 0.077098 0.039870
0.410116 0.079293 0.042031
0.440012 0.081488 0.044192
0.469923 0.083683 0.046353
0.499846 0.085879 0.048514
0.529783 0.088075 0.050676
0.559733 0.090272 0.052838
0.589696 0.092468 0.055001
0.619670 0.094665 0.057163
0.649657 0.096863 0.059326
0.679655 0.099061 0.061489
0.709665 0.101259 0.063653
0.739687 0.103457 0.065816
0.769719 0.105656 0.067981
0.790835 0.107201 0.069487
0.791005 0.107211 0.069449
0.791171 0.107221 0.069412
0.017617 0.084963 0.020485
0.017623 0.084975 0.020436
0.017628 0.084986 0.020387
0.017633 0.084997 0.020339
0.030151 0.085928 0.021220
0.059873 0.088122 0.023379
0.089613 0.090317 0.025538
0.119368 0.092512 0.027697
0.149141 0.094708 0.029856
0.178929 0.096904 0.032016
0.208733 0.099101 0.034176
0.238552 0.101298 0.036336
0.268386 0.103495 0.038496
0.298236 0.105692 0.040656
0.328099 0.107890 0.042817
0.357977 0.110089 0.044978
0.387869 0.112287 0.047140
0.417775 0.114486 0.049301
0.447693 0.116686 0.051463
0.477625 0.118885 0.053625
0.507570 0.121085 0.055788
0.537527 0.123285 0.057951
0.567497 0.125485 0.060114
0.597478 0.127686 0.062277
0.627471 0.129887 0.064440
0.657476 0.132088 0.066604
0.687491 0.134290 0.068768
0.717518 0.136491 0.070933
0.747555 0.138693 0.073098
0.777602 0.140895 0.075263
0.798727 0.142444 0.076770
0.798890 0.142456 0.076734
0.799050 0.142469 0.076698
0.024919 0.120108 0.027743
0.024926 0.120123 0.027695
0.024933 0.120138 0.027647
0.024940 0.120154 0.027600
0.037472 0.121088 0.028483
0.067224 0.123288 0.030642
0.096993 0.125487 0.032802
0.126777 0.127687 0.034962
0.156577 0.129888 0.037122
0.186392 0.132088 0.039282
0.216222 0.134289 0.041443
0.246067 0.136490 0.043604
0.275927 0.138692 0.045765
0.305800 0.140894 0.047927
0.335688 0.143096 0.050088
0.365589 0.145298 0.052250
0.395503 0.147501 0.054413
0.425430 0.149704 0.056575
0.455370 0.151907 0.058738
0.485323 0.154110 0.060901
0.515287 0.156314 0.063064
0.545263 0.158518 0.065228
0.575251 0.160722 0.067392
0.605251 0.162926 0.069556
0.635261 0.165130 0.071721
0.665282 0.167335 0.073886
0.695313 0.169539 0.076051
0.725355 0.171744 0.078217
0.755407 0.173950 0.080382
0.785469 0.176155 0.082549
0.806601 0.177706 0.084057
0.806757 0.177721 0.084022
0.806910 0.177736 0.083988
0.032233 0.155281 0.035003
0.032242 0.155300 0.034956
0.032251 0.155319 0.034910
0.032260 0.155337 0.034864
0.044805 0.156276 0.035748
0.074586 0.158480 0.037909
0.104382 0.160684 0.040069
0.134194 0.162888 0.042230
0.164020 0.165093 0.044391
0.193861 0.167297 0.046552
0.223717 0.169502 0.048714
0.253586 0.171708 0.050875
0.283470 0.173913 0.053038
0.313366 0.176119 0.055200
0.343276 0.178325 0.057363
0.373199 0.180531 0.059525
0.403134 0.182737 0.061689
0.433082 0.184943 0.063852
0.463042 0.187150 0.066016
0.493014 0.189357 0.068180
0.522997 0.191564 0.070344
0.552991 0.193771 0.072509
0.582996 0.195978 0.074674
0.613012 0.198185 0.076839
0.643039 0.200393 0.079005
0.673075 0.202601 0.081171
0.703122 0.204808 0.083337
0.733178 0.207016 0.085504
0.763243 0.209224 0.087671
0.793318 0.211432 0.089838
0.814457 0.212986 0.091348
0.814606 0.213003 0.091314
0.814753 0.213020 0.091281
0.039561 0.190480 0.042266
0.039571 0.190503 0.042220
0.039582 0.190525 0.042176
0.039592 0.190547 0.042132
0.052150 0.191490 0.043016
0.081958 0.193697 0.045178
0.111781 0.195905 0.047339
0.141618 0.198113 0.049501
0.171470 0.200322 0.051663
0.201336 0.202530 0.053825
0.231215 0.204739 0.055987
0.261108 0.206948 0.058150
0.291014 0.209157 0.060313
0.320932 0.211366 0.062476
0.350864 0.213575 0.064640
0.380807 0.215784 0.066804
0.410762 0.217994 0.068968
0.440730 0.220204 0.071133
0.470708 0.222413 0.073297
0.500698 0.224623 0.075462
0.530698 0.226833 0.077628
0.560710 0.229043 0.079794
0.590731 0.231253 0.081960
0.620763 0.233464 0.084126
0.650804 0.235674 0.086293
0.680855 0.237884 0.088460
0.710916 0.240095 0.090627
0.740985 0.242305 0.092795
0.771063 0.244516 0.094963
0.801150 0.246726 0.097131
0.822295 0.248282 0.098642
0.822438 0.248301 0.098610
0.822578 0.248320 0.098578
0.046900 0.225705 0.049531
0.046912 0.225731 0.049488
0.046924 0.225756 0.049444
0.046936 0.225781 0.049402
0.059505 0.226727 0.050288
0.089339 0.228938 0.052450
0.119188 0.231149 0.054612
0.149050 0.233361 0.056775
0.178926 0.235573 0.058937
0.208815 0.237785 0.061101
0.238717 0.239997 0.063264
0.268631 0.242209 0.065428
0.298559 0.244421 0.067592
0.328498 0.246633 0.069756
0.358449 0.248846 0.071921
0.388412 0.251058 0.074086
0.418387 0.253270 0.076251
0.448372 0.255483 0.078416
0.478368 0.257696 0.080582
0.508375 0.259908 0.082748
0.538392 0.262121 0.084915
0.568419 0.264333 0.087082
0.598455 0.266546 0.089249
0.628502 0.268759 0.091416
0.658557 0.270972 0.093584
0.688622 0.273184 0.095752
0.718695 0.275397 0.097920
0.748776 0.277610 0.100089
0.778866 0.279822 0.102258
0.808964 0.282035 0.104428
0.830115 0.283593 0.105940
0.830251 0.283613 0.105909
0.830384 0.283634 0.105879
0.054250 0.260953 0.056800
0.054263 0.260981 0.056758
0.054276 0.261009 0.056716
0.054289 0.261037 0.056675
0.066870 0.261985 0.057562
0.096729 0.264200 0.059725
0.126602 0.266415 0.061888
0.156487 0.268630 0.064052
0.186386 0.270844 0.066215
0.216297 0.273059 0.068380
0.246221 0.275274 0.070544
0.276156 0.277489 0.072709
0.306104 0.279704 0.074874
0.336063 0.281919 0.077039
0.366033 0.284134 0.079205
0.396014 0.286350 0.081371
0.426006 0.288565 0.083537
0.456009 0.290780 0.085704
0.486022 0.292995 0.087870
0.516044 0.295210 0.090038
0.546076 0.297425 0.092205
0.576118 0.299640 0.094373
0.606169 0.301855 0.096541
0.636229 0.304070 0.098710
0.666297 0.306284 0.100879
0.696374 0.308499 0.103048
0.726459 0.310714 0.105217
0.756552 0.312929 0.107387
0.786652 0.315143 0.109558
0.816760 0.317358 0.111728
0.837916 0.318917 0.113242
0.838045 0.318939 0.113213
0.838172 0.318960 0.113184
0.061610 0.296222 0.064072
0.061625 0.296253 0.064031
0.061639 0.296283 0.063991
0.061653 0.296313 0.063951
0.074244 0.297265 0.064839
0.104127 0.299482 0.067003
0.134022 0.301700 0.069168
0.163930 0.303917 0.071332
0.193851 0.306135 0.073497
0.223783 0.308353 0.075662
0.253727 0.310570 0.077827
0.283682 0.312788 0.079993
0.313649 0.315005 0.082159
0.343626 0.317223 0.084326
0.373614 0.319440 0.086492
0.403613 0.321658 0.088659
0.433621 0.323875 0.090827
0.463640 0.326092 0.092994
0.493668 0.328310 0.095162
0.523705 0.330527 0.097331
0.553752 0.332744 0.099499
0.583807 0.334961 0.101668
0.613871 0.337178 0.103838
0.643943 0.339394 0.106007
0.674024 0.341611 0.108177
0.704112 0.343827 0.110348
0.734208 0.346044 0.112518
0.764311 0.348260 0.114689
0.794421 0.350476 0.116861
0.824539 0.352692 0.119033
0.845698 0.354253 0.120547
0.845821 0.354276 0.120520
0.845941 0.354298 0.120493
0.068980 0.331512 0.071347
0.068995 0.331545 0.071308
0.069011 0.331577 0.071269
0.069026 0.331609 0.071230
0.081627 0.332562 0.072120
0.111532 0.334783 0.074285
0.141449 0.337003 0.076450
0.171378 0.339223 0.078616
0.201319 0.341443 0.080782
0.231271 0.343663 0.082948
0.261234 0.345883 0.085114
0.291208 0.348103 0.087281
0.321192 0.350322 0.089448
0.351187 0.352542 0.091616
0.381192 0.354761 0.093784
0.411207 0.356981 0.095952
0.441231 0.359200 0.098120
0.471264 0.361419 0.100289
0.501307 0.363638 0.102458
0.531358 0.365857 0.104628
0.561418 0.368076 0.106797
0.591486 0.370295 0.108968
0.621562 0.372513 0.111138
0.651646 0.374732 0.113309
0.681737 0.376950 0.115480
0.711836 0.379168 0.117651
0.741941 0.381386 0.119823
0.772054 0.383603 0.121996
0.802173 0.385821 0.124168
0.832298 0.388038 0.126341
0.853462 0.389600 0.127857
0.853577 0.389623 0.127831
0.853691 0.389646 0.127805
0.076358 0.366820 0.078626
0.076374 0.366854 0.078588
0.076390 0.366888 0.078550
0.076406 0.366922 0.078513
0.089017 0.367877 0.079404
0.118943 0.370100 0.081570
0.148881 0.372322 0.083737
0.178830 0.374544 0.085903
0.208790 0.376767 0.088070
0.238761 0.378989 0.090237
0.268742 0.381210 0.092405
0.298733 0.383432 0.094573
0.328735 0.385654 0.096741
0.358746 0.387875 0.098910
0.388766 0.390097 0.101079
0.418796 0.392318 0.103248
0.448835 0.394539 0.105417
0.478882 0.396759 0.107587
0.508938 0.398980 0.109758
0.539002 0.401200 0.111928
0.569074 0.403421 0.114099
0.599154 0.405641 0.116270
0.629241 0.407860 0.118442
0.659335 0.410080 0.120614
0.689436 0.412299 0.122786
0.719545 0.414518 0.124959
0.749659 0.416737 0.127132
0.779780 0.418956 0.129306
0.809907 0.421175 0.131479
0.840040 0.423393 0.133653
0.861206 0.424955 0.135171
0.861315 0.424979 0.135146
0.861422 0.425003 0.135122
0.083744 0.402144 0.085908
0.083761 0.402180 0.085872
0.083778 0.402216 0.085835
0.083794 0.402251 0.085800
0.096415 0.403208 0.086692
0.126361 0.405432 0.088859
0.156318 0.407657 0.091027
0.186285 0.409881 0.093194
0.216264 0.412105 0.095362
0.246252 0.414328 0.097531
0.276250 0.416552 0.099699
0.306258 0.418775 0.101868
0.336275 0.420998 0.104038
0.366301 0.423221 0.106207
0.396336 0.425444 0.108377
0.426380 0.427667 0.110548
0.456432 0.429889 0.112719
0.486493 0.432111 0.114890
0.516561 0.434333 0.117061
0.546636 0.436554 0.119233
0.576720 0.438776 0.121405
0.606810 0.440997 0.123577
0.636907 0.443218 0.125750
0.667011 0.445438 0.127923
0.697122 0.447658 0.130097
0.727238 0.449878 0.132271
0.757361 0.452098 0.134445
0.787490 0.454318 0.136620
0.817624 0.456537 0.138795
0.847763 0.458756 0.140970
0.868932 0.460319 0.142489
0.869034 0.460343 0.142465
0.869134 0.460367 0.142443
0.091138 0.437484 0.093194
0.091155 0.437521 0.093159
0.091172 0.437558 0.093124
0.091189 0.437594 0.093090
0.103818 0.438553 0.093984
0.133783 0.440779 0.096152
0.163758 0.443004 0.098320
0.193744 0.445230 0.100489
0.223739 0.447455 0.102658
0.253744 0.449681 0.104828
0.283758 0.451905 0.106997
0.313781 0.454130 0.109168
0.343813 0.456355 0.111338
0.373853 0.458579 0.113509
0.403902 0.460803 0.115680
0.433959 0.463026 0.117852
0.464023 0.465249 0.120024
0.494095 0.467473 0.122196
0.524175 0.469695 0.124368
0.554261 0.471918 0.126541
0.584355 0.474140 0.128715
0.614455 0.476362 0.130888
0.644561 0.478583 0.133062
0.674674 0.480805 0.135237
0.704793 0.483026 0.137411
0.734917 0.485246 0.139587
0.765047 0.487467 0.141762
0.795182 0.489687 0.143938
0.825322 0.491907 0.146114
0.855467 0.494126 0.148291
0.876638 0.495689 0.149810
0.876734 0.495713 0.149789
0.876827 0.495737 0.149767
0.098537 0.472838 0.100483
0.098555 0.472876 0.100450
0.098573 0.472913 0.100416
0.098590 0.472950 0.100384
0.111227 0.473910 0.101279
0.141210 0.476137 0.103448
0.171202 0.478364 0.105618
0.201204 0.480591 0.107787
0.231215 0.482818 0.109958
0.261235 0.485044 0.112128
0.291264 0.487270 0.114299
0.321302 0.489496 0.116471
0.351347 0.491721 0.118642
0.381401 0.493946 0.120814
0.411462 0.496171 0.122987
0.441531 0.498395 0.125159
0.471607 0.500619 0.127333
0.501690 0.502843 0.129506
0.531780 0.505067 0.131680
0.561876 0.507290 0.133854
0.591979 0.509512 0.136028
0.622088 0.511735 0.138203
0.652203 0.513957 0.140378
0.682323 0.516179 0.142554
0.712449 0.518400 0.144730
0.742580 0.520621 0.146906
0.772717 0.522842 0.149083
0.802858 0.525062 0.151260
0.833003 0.527282 0.153438
0.863153 0.529502 0.155615
0.884325 0.531065 0.157136
0.884414 0.531089 0.157116
0.884501 0.531112 0.157096
0.105943 0.508204 0.107776
0.105961 0.508242 0.107744
0.105979 0.508281 0.107712
0.105997 0.508318 0.107681
0.118641 0.509278 0.108578
0.148640 0.511507 0.110748
0.178649 0.513735 0.112919
0.208666 0.515963 0.115090
0.238692 0.518190 0.117261
0.268727 0.520417 0.119433
0.298769 0.522644 0.121605
0.328820 0.524870 0.123778
0.358878 0.527096 0.125951
0.388944 0.529322 0.128124
0.419017 0.531547 0.130297
0.449097 0.533772 0.132471
0.479183 0.535997 0.134646
0.509276 0.538221 0.136820
0.539376 0.540445 0.138995
0.569481 0.542668 0.141171
0.599592 0.544892 0.143346
0.629709 0.547114 0.145522
0.659831 0.549337 0.147699
0.689959 0.551559 0.149876
0.720091 0.553780 0.152053
0.750228 0.556001 0.154230
0.780370 0.558222 0.156408
0.810516 0.560442 0.158587
0.840666 0.562662 0.160765
0.870820 0.564882 0.162944
0.891992 0.566445 0.164467
0.892075 0.566468 0.164448
0.892156 0.566491 0.164429
0.113354 0.543580 0.115073
0.113372 0.543620 0.115043
0.113390 0.543658 0.115012
0.113408 0.543696 0.114983
0.126059 0.544656 0.115880
0.156074 0.546886 0.118052
0.186097 0.549114 0.120224
0.216129 0.551343 0.122396
0.246169 0.553571 0.124569
0.276217 0.555799 0.126742
0.306272 0.558026 0.128915
0.336335 0.560253 0.131089
0.366405 0.562479 0.133263
0.396482 0.564705 0.135437
0.426566 0.566931 0.137612
0.456655 0.569156 0.139787
0.486752 0.571381 0.141963
0.516854 0.573606 0.144138
0.546962 0.575830 0.146315
0.577075 0.578053 0.148491
0.607194 0.580276 0.150668
0.637318 0.582499 0.152846
0.667447 0.584721 0.155023
0.697580 0.586943 0.157201
0.727718 0.589165 0.159380
0.757860 0.591386 0.161558
0.788007 0.593606 0.163738
0.818157 0.595827 0.165917
0.848311 0.598046 0.168097
0.878469 0.600266 0.170277
0.899641 0.601828 0.171801
0.899718 0.601851 0.171784
0.899792 0.601873 0.171767
0.120769 0.578967 0.122374
0.120787 0.579006 0.122345
0.120806 0.579044 0.122316
0.120823 0.579082 0.122288
0.133480 0.580043 0.123187
0.163510 0.582273 0.125360
0.193547 0.584502 0.127533
0.223593 0.586731 0.129706
0.253646 0.588959 0.131880
0.283706 0.591187 0.134054
0.313773 0.593415 0.136229
0.343847 0.595642 0.138404
0.373928 0.597869 0.140579
0.404015 0.600095 0.142755
0.434108 0.602320 0.144931
0.464207 0.604546 0.147107
0.494312 0.606771 0.149284
0.524422 0.608995 0.151461
0.554538 0.611219 0.153638
0.584658 0.613442 0.155816
0.614784 0.615665 0.157994
0.644914 0.617888 0.160173
0.675049 0.620110 0.162352
0.705188 0.622332 0.164531
0.735330 0.624553 0.166711
0.765477 0.626774 0.168891
0.795628 0.628994 0.171071
0.825781 0.631213 0.173252
0.855938 0.633433 0.175433
0.886099 0.635652 0.177615
0.907271 0.637214 0.179140
0.907341 0.637236 0.179124
0.907410 0.637257 0.179108
0.128188 0.614361 0.129679
0.128206 0.614400 0.129651
0.128224 0.614439 0.129624
0.128242 0.614476 0.129597
0.140905 0.615437 0.130498
0.170948 0.617667 0.132672
0.200999 0.619896 0.134846
0.231056 0.622125 0.137021
0.261121 0.624354 0.139196
0.291193 0.626582 0.141371
0.321271 0.628809 0.143547
0.351355 0.631036 0.145723
0.381446 0.633263 0.147899
0.411542 0.635489 0.150076
0.441644 0.637715 0.152254
0.471751 0.639940 0.154431
0.501864 0.642164 0.156609
0.531981 0.644388 0.158787
0.562104 0.646612 0.160966
0.592231 0.648835 0.163145
0.622362 0.651058 0.165325
0.652498 0.653280 0.167504
0.682637 0.655502 0.169685
0.712781 0.657723 0.171865
0.742928 0.659943 0.174046
0.773078 0.662163 0.176227
0.803232 0.664383 0.178409
0.833388 0.666602 0.180591
0.863548 0.668821 0.182773
0.893710 0.671039 0.184956
0.914882 0.672601 0.186482
0.914946 0.672622 0.186468
0.915008 0.672642 0.186453
0.135610 0.649762 0.136988
0.135628 0.649801 0.136962
0.135646 0.649839 0.136936
0.135664 0.649876 0.136911
0.148332 0.650837 0.137812
0.178388 0.653067 0.139988
0.208450 0.655296 0.142163
0.238519 0.657525 0.144339
0.268595 0.659753 0.146515
0.298677 0.661981 0.148692
0.328765 0.664208 0.150869
0.358859 0.666435 0.153046
0.388958 0.668661 0.155224
0.419063 0.670887 0.157402
0.449173 0.673112 0.159581
0.479288 0.675337 0.161759
0.509407 0.677561 0.163939
0.539531 0.679785 0.166118
0.569660 0.682008 0.168298
0.599792 0.684230 0.170478
0.629929 0.686452 0.172659
0.660069 0.688674 0.174840
0.690213 0.690895 0.177021
0.720360 0.693115 0.179203
0.750510 0.695335 0.181385
0.780664 0.697555 0.183568
0.810820 0.699774 0.185751
0.840979 0.701992 0.187934
0.871140 0.704210 0.190118
0.901303 0.706427 0.192302
0.922474 0.707987 0.193829
0.922532 0.708007 0.193816
0.922588 0.708027 0.193803
0.143035 0.685169 0.144301
0.143053 0.685207 0.144276
0.143071 0.685245 0.144252
0.143088 0.685282 0.144228
0.155761 0.686242 0.145131
0.185828 0.688471 0.147308
0.215902 0.690700 0.149484
0.245981 0.692929 0.151662
0.276067 0.695157 0.153839
0.306158 0.697384 0.156017
0.336255 0.699611 0.158195
0.366358 0.701837 0.160374
0.396465 0.704063 0.162553
0.426577 0.706288 0.164732
0.456694 0.708512 0.166912
0.486816 0.710736 0.169092
0.516941 0.712960 0.171272
0.547071 0.715183 0.173453
0.577205 0.717405 0.175634
0.607342 0.719627 0.177816
0.637483 0.721848 0.179998
0.667627 0.724069 0.182180
0.697775 0.726289 0.184363
0.727925 0.728509 0.186546
0.758078 0.730728 0.188729
0.788234 0.732946 0.190913
0.818392 0.735164 0.193097
0.848552 0.737381 0.195281
0.878714 0.739598 0.197466
0.908878 0.741814 0.199651
0.930047 0.743374 0.201180
0.930100 0.743392 0.201168
0.930150 0.743410 0.201157
0.150462 0.720581 0.151618
0.150480 0.720618 0.151595
0.150497 0.720655 0.151572
0.150514 0.720690 0.151550
0.163191 0.721650 0.152454
0.193269 0.723879 0.154632
0.223352 0.726107 0.156810
0.253442 0.728335 0.158988
0.283537 0.730562 0.161167
0.313637 0.732789 0.163346
0.343742 0.735015 0.165526
0.373852 0.737241 0.167705
0.403966 0.739466 0.169886
0.434085 0.741690 0.172066
0.464208 0.743914 0.174247
0.494336 0.746137 0.176428
0.524467 0.748360 0.178610
0.554601 0.750582 0.180792
0.584740 0.752803 0.182974
0.614881 0.755024 0.185157
0.645025 0.757244 0.187340
0.675173 0.759464 0.189524
0.705323 0.761683 0.191708
0.735476 0.763902 0.193892
0.765631 0.766120 0.196077
0.795788 0.768337 0.198262
0.825947 0.770554 0.200447
0.856108 0.772770 0.202633
0.886271 0.774986 0.204819
0.916436 0.777201 0.207005
0.937603 0.778759 0.208535
0.937650 0.778776 0.208524
0.937695 0.778793 0.208514
0.157891 0.755995 0.158940
0.157908 0.756032 0.158918
0.157924 0.756067 0.158896
0.157941 0.756102 0.158876
0.170622 0.757061 0.159781
0.200709 0.759289 0.161960
0.230802 0.761516 0.164139
0.260900 0.763744 0.166319
0.291003 0.765970 0.168499
0.321111 0.768196 0.170679
0.351224 0.770421 0.172860
0.381340 0.772646 0.175041
0.411461 0.774870 0.177223
0.441586 0.777093 0.179404
0.471715 0.779316 0.181587
0.501847 0.781538 0.183769
0.531983 0.783760 0.185952
0.562122 0.785980 0.188135
0.592263 0.788201 0.190319
0.622408 0.790421 0.192503
0.652556 0.792640 0.194687
0.682706 0.794858 0.196872
0.712858 0.797076 0.199057
0.743012 0.799293 0.201243
0.773169 0.801510 0.203428
0.803327 0.803726 0.205615
0.833487 0.805942 0.207801
0.863649 0.808157 0.209988
0.893811 0.810371 0.212175
0.923976 0.812585 0.214363
0.945141 0.814142 0.215894
0.945182 0.814157 0.215885
0.945221 0.814173 0.215876
0.165320 0.791412 0.166265
0.165337 0.791447 0.166245
0.165353 0.791482 0.166225
0.165369 0.791515 0.166206
0.178053 0.792473 0.167113
0.208150 0.794700 0.169293
0.238251 0.796927 0.171473
0.268357 0.799153 0.173654
0.298467 0.801378 0.175835
0.328582 0.803603 0.178017
0.358701 0.805827 0.180199
0.388823 0.808051 0.182381
0.418950 0.810273 0.184564
0.449080 0.812496 0.186747
0.479213 0.814717 0.188930
0.509350 0.816938 0.191114
0.539489 0.819159 0.193298
0.569632 0.821378 0.195483
0.599777 0.823597 0.197668
