library/cube/Synth_City_001.cube
# CINEGRADE LAB — Premium Cinematic LUT
# Title: Synth City
# Category: Cyberpunk Cinema
# Description: Cyan/magenta split with high contrast for futuristic cyberpunk visuals
# Mood: Futuristic, neon, dystopian
# Variant: 2
# Generated: 2026-05-21T16:12:28.006766
TITLE "Synth City"
LUT_3D_SIZE 5
0.000000 0.033766 0.016004
0.095585 0.025372 0.009940
0.415179 0.008429 0.000000
0.760922 0.000000 0.000000
0.983683 0.000000 0.000000
0.000000 0.147028 0.000000
0.094408 0.138190 0.000000
0.453705 0.119789 0.000000
0.832640 0.100899 0.000000
1.000000 0.088477 0.000000
0.000000 0.502989 0.000000
0.054593 0.491963 0.000000
0.443610 0.470597 0.000000
0.844031 0.449018 0.000000
1.000000 0.434943 0.000000
0.000000 0.843407 0.000000
0.015512 0.830113 0.000000
0.425720 0.805837 0.000000
0.835952 0.781661 0.000000
1.000000 0.765734 0.000000
0.000000 1.000000 0.000000
0.000668 1.000000 0.000000
0.425122 0.975858 0.000000
0.837846 0.950486 0.000000
1.000000 0.933613 0.000000
0.000000 0.030269 0.163605
0.095548 0.021935 0.156399
0.419665 0.004934 0.140615
0.769224 0.000000 0.124202
0.993002 0.000000 0.113295
0.000000 0.143628 0.135843
0.094151 0.134856 0.129546
0.456851 0.116431 0.113662
0.838586 0.097535 0.097374
1.000000 0.085228 0.087745
0.000000 0.499026 0.076403
0.054253 0.488060 0.071318
0.445726 0.466683 0.055908
0.847539 0.445127 0.040420
1.000000 0.431162 0.032643
0.000000 0.838801 0.023815
0.015142 0.825530 0.019972
0.427041 0.801221 0.005295
0.837746 0.777044 0.000000
1.000000 0.761186 0.000000
0.000000 1.000000 0.000763
0.000223 0.996488 0.000000
0.425843 0.970941 0.000000
0.838613 0.945373 0.000000
1.000000 0.928389 0.000000
0.000000 0.022867 0.604592
0.091563 0.014623 0.594131
0.420107 0.000000 0.575413
0.773393 0.000000 0.556520
0.998079 0.000000 0.543659
0.000000 0.136403 0.567856
0.090021 0.127714 0.559738
0.456033 0.109279 0.542348
0.840483 0.090388 0.524967
1.000000 0.078205 0.514750
0.000000 0.491273 0.504164
0.050073 0.480370 0.498571
0.443918 0.458984 0.482957
0.847010 0.437450 0.467661
1.000000 0.423589 0.460514
0.000000 0.830393 0.451554
0.010930 0.817135 0.448393
0.424445 0.792780 0.434684
0.835545 0.768588 0.421711
1.000000 0.752780 0.417722
0.000000 1.000000 0.432158
0.000000 0.987878 0.430973
0.422643 0.962074 0.418928
0.835421 0.936292 0.408070
1.000000 0.919176 0.406994
0.000000 0.015600 1.000000
0.087633 0.007439 1.000000
0.420477 0.000000 1.000000
0.777376 0.000000 0.983417
1.000000 0.000000 0.969014
0.000000 0.129287 0.994590
0.085930 0.120675 0.985041
0.455148 0.102228 0.966506
0.842219 0.083341 0.948375
1.000000 0.071280 0.937909
0.000000 0.483607 0.927855
0.045924 0.472761 0.922083
0.442052 0.451363 0.906590
0.846314 0.429847 0.891799
1.000000 0.416085 0.885570
0.000000 0.822043 0.876289
0.006744 0.808790 0.874083
0.421809 0.784385 0.861572
0.833236 0.760172 0.850095
1.000000 0.744409 0.847905
0.000000 0.993199 0.861259
0.000000 0.979235 0.861880
0.419444 0.953178 0.851784
0.832223 0.927184 0.843054
1.000000 0.909940 0.844295
0.000000 0.011970 1.000000
0.087110 0.003733 1.000000
0.423999 0.000000 1.000000
0.784288 0.000000 1.000000
1.000000 0.000000 1.000000
0.000000 0.125353 1.000000
0.084869 0.116729 1.000000
0.457126 0.098205 1.000000
0.846509 0.079282 1.000000
1.000000 0.067314 1.000000
0.000000 0.478901 1.000000
0.044664 0.468090 1.000000
0.442995 0.446680 1.000000
0.848342 0.425202 1.000000
1.000000 0.411576 1.000000
0.000000 0.816647 1.000000
0.005530 0.803439 1.000000
0.422142 0.779040 1.000000
0.833914 0.754877 1.000000
1.000000 0.739244 1.000000
0.000000 0.987866 1.000000
0.000000 0.973771 1.000000
0.419567 0.947567 1.000000
0.832460 0.921478 1.000000
1.000000 0.904233 1.000000
