library/cube/Synth_City_001.cube
# CINEGRADE LAB — Premium Cinematic LUT
# Title: Synth City
# Category: Cyberpunk Cinema
# Description: Cyan/magenta split with high contrast for futuristic cyberpunk visuals
# Mood: Futuristic, neon, dystopian
# Variant: 2
# Generated: 2026-05-21T16:12:28.006766
TITLE "Synth City"
LUT_3D_SIZE 33
0.000000 0.033766 0.016004
0.000000 0.033208 0.015740
0.000000 0.032655 0.015481
0.000000 0.032107 0.015226
0.000000 0.031565 0.014975
0.000000 0.031027 0.014728
0.020149 0.029478 0.013469
0.057634 0.027432 0.011712
0.095585 0.025372 0.009940
0.133994 0.023298 0.008154
0.172857 0.021212 0.006353
0.212165 0.019112 0.004538
0.251914 0.017000 0.002710
0.292096 0.014875 0.000869
0.332705 0.012738 0.000000
0.373735 0.010589 0.000000
0.415179 0.008429 0.000000
0.457032 0.006257 0.000000
0.499287 0.004073 0.000000
0.541938 0.001879 0.000000
0.584978 0.000000 0.000000
0.628403 0.000000 0.000000
0.672206 0.000000 0.000000
0.716381 0.000000 0.000000
0.760922 0.000000 0.000000
0.805823 0.000000 0.000000
0.851079 0.000000 0.000000
0.896372 0.000000 0.000000
0.941803 0.000000 0.000000
0.970792 0.000000 0.000000
0.975143 0.000000 0.000000
0.979440 0.000000 0.000000
0.983683 0.000000 0.000000
0.000000 0.031909 0.015134
0.000000 0.031368 0.014885
0.000000 0.030833 0.014640
0.000000 0.030302 0.014399
0.000000 0.029777 0.014162
0.000000 0.029257 0.013930
0.021014 0.027704 0.012664
0.059273 0.025644 0.010889
0.097983 0.023570 0.009100
0.137138 0.021484 0.007298
0.176731 0.019385 0.005482
0.216756 0.017274 0.003652
0.257207 0.015150 0.001809
0.298077 0.013015 0.000000
0.339361 0.010868 0.000000
0.381051 0.008709 0.000000
0.423142 0.006540 0.000000
0.465628 0.004359 0.000000
0.508503 0.002168 0.000000
0.551760 0.000000 0.000000
0.595394 0.000000 0.000000
0.639399 0.000000 0.000000
0.683768 0.000000 0.000000
0.728497 0.000000 0.000000
0.773580 0.000000 0.000000
0.819010 0.000000 0.000000
0.864781 0.000000 0.000000
0.910326 0.000000 0.000000
0.956103 0.000000 0.000000
0.985215 0.000000 0.000000
0.989386 0.000000 0.000000
0.993504 0.000000 0.000000
0.997570 0.000000 0.000000
0.000000 0.030111 0.014312
0.000000 0.029587 0.014077
0.000000 0.029069 0.013846
0.000000 0.028556 0.013620
0.000000 0.028048 0.013397
0.000000 0.027545 0.013179
0.021875 0.025989 0.011906
0.060884 0.023916 0.010115
0.100329 0.021830 0.008310
0.140206 0.019731 0.006492
0.180506 0.017621 0.004661
0.221225 0.015499 0.002817
0.262355 0.013365 0.000961
0.303890 0.011220 0.000000
0.345825 0.009064 0.000000
0.388154 0.006896 0.000000
0.430870 0.004718 0.000000
0.473967 0.002530 0.000000
0.517440 0.000332 0.000000
0.561282 0.000000 0.000000
0.605488 0.000000 0.000000
0.650052 0.000000 0.000000
0.694968 0.000000 0.000000
0.740231 0.000000 0.000000
0.785834 0.000000 0.000000
0.831773 0.000000 0.000000
0.877881 0.000000 0.000000
0.923739 0.000000 0.000000
0.969823 0.000000 0.000000
0.999036 0.000000 0.000000
1.000000 0.000000 0.000000
1.000000 0.000000 0.000000
1.000000 0.000000 0.000000
0.000000 0.028371 0.013538
0.000000 0.027865 0.013317
0.000000 0.027364 0.013100
0.000000 0.026868 0.012888
0.000000 0.026377 0.012679
0.000000 0.025892 0.012475
0.022733 0.024332 0.011195
0.062468 0.022247 0.009389
0.102626 0.020149 0.007569
0.143200 0.018040 0.005737
0.184184 0.015919 0.003892
0.225573 0.013787 0.002034
0.267360 0.011643 0.000165
0.309538 0.009489 0.000000
0.352103 0.007324 0.000000
0.395048 0.005149 0.000000
0.438367 0.002964 0.000000
0.482054 0.000768 0.000000
0.526104 0.000000 0.000000
0.570510 0.000000 0.000000
0.615268 0.000000 0.000000
0.660370 0.000000 0.000000
0.705813 0.000000 0.000000
0.751589 0.000000 0.000000
0.797694 0.000000 0.000000
0.844122 0.000000 0.000000
0.890461 0.000000 0.000000
0.936612 0.000000 0.000000
0.982967 0.000000 0.000000
1.000000 0.000000 0.000000
1.000000 0.000000 0.000000
1.000000 0.000000 0.000000
1.000000 0.000000 0.000000
0.000000 0.026689 0.012811
0.000000 0.026200 0.012604
0.000000 0.025716 0.012401
0.000000 0.025238 0.012202
0.000000 0.024764 0.012007
0.000000 0.024296 0.011817
0.023589 0.022734 0.010531
0.064027 0.020637 0.008710
0.104873 0.018529 0.006876
0.146122 0.016409 0.005030
0.187768 0.014278 0.003171
0.229804 0.012137 0.001301
0.272225 0.009985 0.000000
0.315025 0.007822 0.000000
0.358197 0.005650 0.000000
0.401737 0.003467 0.000000
0.445637 0.001275 0.000000
0.489894 0.000000 0.000000
0.534500 0.000000 0.000000
0.579450 0.000000 0.000000
0.624739 0.000000 0.000000
0.670360 0.000000 0.000000
0.716309 0.000000 0.000000
0.762580 0.000000 0.000000
0.809167 0.000000 0.000000
0.856065 0.000000 0.000000
0.902541 0.000000 0.000000
0.948948 0.000000 0.000000
0.995536 0.000000 0.000000
1.000000 0.000000 0.000000
1.000000 0.000000 0.000000
1.000000 0.000000 0.000000
1.000000 0.000000 0.000000
0.000000 0.025065 0.012131
0.000000 0.024593 0.011938
0.000000 0.024127 0.011748
0.000000 0.023665 0.011563
0.000000 0.023209 0.011382
0.000000 0.022757 0.011204
0.024443 0.021193 0.009913
0.065560 0.019086 0.008078
0.107072 0.016968 0.006231
0.148973 0.014839 0.004371
0.191258 0.012699 0.002501
0.233920 0.010549 0.000619
0.276953 0.008389 0.000000
0.320353 0.006219 0.000000
0.364112 0.004039 0.000000
0.408225 0.001850 0.000000
0.452687 0.000000 0.000000
0.497491 0.000000 0.000000
0.542633 0.000000 0.000000
0.588107 0.000000 0.000000
0.633907 0.000000 0.000000
0.680028 0.000000 0.000000
0.726464 0.000000 0.000000
0.773210 0.000000 0.000000
0.820261 0.000000 0.000000
0.867611 0.000000 0.000000
0.914124 0.000000 0.000000
0.960751 0.000000 0.000000
1.000000 0.000000 0.000000
1.000000 0.000000 0.000000
1.000000 0.000000 0.000000
1.000000 0.000000 0.000000
1.000000 0.000000 0.000000
0.000000 0.055666 0.006632
0.000000 0.055181 0.006456
0.000000 0.054702 0.006285
0.000000 0.054227 0.006118
0.000000 0.053758 0.005954
0.000000 0.053294 0.005795
0.020458 0.051698 0.004504
0.062236 0.049552 0.002660
0.104396 0.047394 0.000804
0.146932 0.045227 0.000000
0.189838 0.043049 0.000000
0.233109 0.040862 0.000000
0.276738 0.038665 0.000000
0.320720 0.036458 0.000000
0.365049 0.034243 0.000000
0.409720 0.032018 0.000000
0.454726 0.029785 0.000000
0.500064 0.027543 0.000000
0.545726 0.025293 0.000000
0.591709 0.023035 0.000000
0.638005 0.020769 0.000000
0.684610 0.018495 0.000000
0.731519 0.016213 0.000000
0.778726 0.013924 0.000000
0.826226 0.011628 0.000000
0.873801 0.009334 0.000000
0.920467 0.007082 0.000000
0.967281 0.004828 0.000000
1.000000 0.002573 0.000000
1.000000 0.001036 0.000000
1.000000 0.000564 0.000000
1.000000 0.000100 0.000000
1.000000 0.000000 0.000000
0.000000 0.101466 0.000000
0.000000 0.100955 0.000000
0.000000 0.100448 0.000000
0.000000 0.099947 0.000000
0.000000 0.099450 0.000000
0.000000 0.098959 0.000000
0.014195 0.097319 0.000000
0.056614 0.095119 0.000000
0.099402 0.092910 0.000000
0.142553 0.090691 0.000000
0.186061 0.088462 0.000000
0.229921 0.086224 0.000000
0.274126 0.083977 0.000000
0.318672 0.081721 0.000000
0.363553 0.079456 0.000000
0.408764 0.077183 0.000000
0.454298 0.074901 0.000000
0.500150 0.072612 0.000000
0.546316 0.070314 0.000000
0.592789 0.068009 0.000000
0.639565 0.065697 0.000000
0.686638 0.063377 0.000000
0.734003 0.061050 0.000000
0.781655 0.058716 0.000000
0.829589 0.056375 0.000000
0.877246 0.054051 0.000000
0.924088 0.051764 0.000000
0.971055 0.049476 0.000000
1.000000 0.047189 0.000000
1.000000 0.045624 0.000000
1.000000 0.045132 0.000000
1.000000 0.044646 0.000000
1.000000 0.044167 0.000000
0.000000 0.147028 0.000000
0.000000 0.146489 0.000000
0.000000 0.145956 0.000000
0.000000 0.145427 0.000000
0.000000 0.144904 0.000000
0.000000 0.144385 0.000000
0.007975 0.142702 0.000000
0.051014 0.140450 0.000000
0.094408 0.138190 0.000000
0.138152 0.135920 0.000000
0.182241 0.133641 0.000000
0.226670 0.131353 0.000000
0.271431 0.129057 0.000000
0.316521 0.126752 0.000000
0.361934 0.124439 0.000000
0.407664 0.122118 0.000000
0.453705 0.119789 0.000000
0.500054 0.117452 0.000000
0.546703 0.115108 0.000000
0.593649 0.112757 0.000000
0.640886 0.110399 0.000000
0.688408 0.108034 0.000000
0.736211 0.105662 0.000000
0.784290 0.103283 0.000000
0.832640 0.100899 0.000000
0.880288 0.098547 0.000000
0.927270 0.096227 0.000000
0.974356 0.093908 0.000000
1.000000 0.091589 0.000000
1.000000 0.089997 0.000000
1.000000 0.089484 0.000000
1.000000 0.088977 0.000000
1.000000 0.088477 0.000000
0.000000 0.192351 0.000000
0.000000 0.191785 0.000000
0.000000 0.191225 0.000000
0.000000 0.190670 0.000000
0.000000 0.190120 0.000000
0.000000 0.189575 0.000000
0.001800 0.187847 0.000000
0.045436 0.185545 0.000000
0.089415 0.183234 0.000000
0.133732 0.180915 0.000000
0.178381 0.178586 0.000000
0.223358 0.176250 0.000000
0.268655 0.173905 0.000000
0.314269 0.171552 0.000000
0.360194 0.169191 0.000000
0.406424 0.166823 0.000000
0.452954 0.164448 0.000000
0.499779 0.162065 0.000000
0.546894 0.159675 0.000000
0.594293 0.157278 0.000000
0.641973 0.154875 0.000000
0.689927 0.152465 0.000000
0.738150 0.150049 0.000000
0.786638 0.147627 0.000000
0.835387 0.145198 0.000000
0.882933 0.142824 0.000000
0.930020 0.140472 0.000000
0.977191 0.138121 0.000000
1.000000 0.135772 0.000000
1.000000 0.134154 0.000000
1.000000 0.133620 0.000000
1.000000 0.133091 0.000000
1.000000 0.132569 0.000000
0.000000 0.237437 0.000000
0.000000 0.236845 0.000000
0.000000 0.236258 0.000000
0.000000 0.235676 0.000000
0.000000 0.235099 0.000000
0.000000 0.234527 0.000000
0.000000 0.232757 0.000000
0.039881 0.230405 0.000000
0.084424 0.228044 0.000000
0.129294 0.225676 0.000000
0.174483 0.223299 0.000000
0.219987 0.220914 0.000000
0.265801 0.218522 0.000000
0.311919 0.216121 0.000000
0.358336 0.213714 0.000000
0.405047 0.211299 0.000000
0.452047 0.208878 0.000000
0.499331 0.206449 0.000000
0.546892 0.204014 0.000000
0.594728 0.201572 0.000000
0.642832 0.199125 0.000000
0.691200 0.196671 0.000000
0.739827 0.194211 0.000000
0.788707 0.191745 0.000000
0.837837 0.189273 0.000000
0.885188 0.186879 0.000000
0.932346 0.184496 0.000000
0.979566 0.182116 0.000000
1.000000 0.179737 0.000000
1.000000 0.178094 0.000000
1.000000 0.177537 0.000000
1.000000 0.176987 0.000000
1.000000 0.176443 0.000000
0.000000 0.282286 0.000000
0.000000 0.281667 0.000000
0.000000 0.281054 0.000000
0.000000 0.280445 0.000000
0.000000 0.279841 0.000000
0.000000 0.279242 0.000000
0.000000 0.277430 0.000000
0.034349 0.275029 0.000000
0.079437 0.272620 0.000000
0.124839 0.270203 0.000000
0.170548 0.267778 0.000000
0.216561 0.265346 0.000000
0.262872 0.262906 0.000000
0.309475 0.260460 0.000000
0.356366 0.258006 0.000000
0.403539 0.255545 0.000000
0.450990 0.253078 0.000000
0.498714 0.250605 0.000000
0.546705 0.248125 0.000000
0.594959 0.245639 0.000000
0.643470 0.243147 0.000000
0.692235 0.240649 0.000000
0.741248 0.238145 0.000000
0.790504 0.235636 0.000000
0.839916 0.233126 0.000000
0.887060 0.230711 0.000000
0.934254 0.228299 0.000000
0.981491 0.225890 0.000000
1.000000 0.223483 0.000000
1.000000 0.221814 0.000000
1.000000 0.221235 0.000000
1.000000 0.220662 0.000000
1.000000 0.220095 0.000000
0.000000 0.326899 0.000000
0.000000 0.326254 0.000000
0.000000 0.325613 0.000000
0.000000 0.324978 0.000000
0.000000 0.324347 0.000000
0.000000 0.323721 0.000000
0.000000 0.321867 0.000000
0.028842 0.319418 0.000000
0.074454 0.316961 0.000000
0.120368 0.314496 0.000000
0.166579 0.312024 0.000000
0.213081 0.309545 0.000000
0.259869 0.307059 0.000000
0.306939 0.304566 0.000000
0.354286 0.302066 0.000000
0.401903 0.299560 0.000000
0.449788 0.297048 0.000000
0.497934 0.294530 0.000000
0.546337 0.292006 0.000000
0.594991 0.289475 0.000000
0.643894 0.286940 0.000000
0.693038 0.284398 0.000000
0.742421 0.281852 0.000000
0.792037 0.279300 0.000000
0.841389 0.276763 0.000000
0.888556 0.274320 0.000000
0.935755 0.271879 0.000000
0.982975 0.269441 0.000000
1.000000 0.267007 0.000000
1.000000 0.265313 0.000000
1.000000 0.264711 0.000000
1.000000 0.264114 0.000000
1.000000 0.263524 0.000000
0.000000 0.371277 0.000000
0.000000 0.370604 0.000000
0.000000 0.369937 0.000000
0.000000 0.369274 0.000000
0.000000 0.368617 0.000000
0.000000 0.367963 0.000000
0.000000 0.366068 0.000000
0.023361 0.363571 0.000000
0.069477 0.361066 0.000000
0.115885 0.358554 0.000000
0.162577 0.356036 0.000000
0.209550 0.353510 0.000000
0.256797 0.350978 0.000000
0.304316 0.348440 0.000000
0.352099 0.345895 0.000000
0.400144 0.343344 0.000000
0.448444 0.340787 0.000000
0.496995 0.338224 0.000000
0.545792 0.335656 0.000000
0.594832 0.333082 0.000000
0.644108 0.330503 0.000000
0.693616 0.327918 0.000000
0.743353 0.325329 0.000000
0.793312 0.322734 0.000000
0.842527 0.320174 0.000000
0.889686 0.317702 0.000000
0.936856 0.315233 0.000000
0.984028 0.312768 0.000000
1.000000 0.310307 0.000000
1.000000 0.308587 0.000000
1.000000 0.307962 0.000000
1.000000 0.307341 0.000000
1.000000 0.306727 0.000000
0.000000 0.415418 0.000000
0.000000 0.414718 0.000000
0.000000 0.414024 0.000000
0.000000 0.413334 0.000000
0.000000 0.412649 0.000000
0.000000 0.411969 0.000000
0.000000 0.410032 0.000000
0.017905 0.407488 0.000000
0.064507 0.404936 0.000000
0.111389 0.402377 0.000000
0.158544 0.399812 0.000000
0.205969 0.397241 0.000000
0.253659 0.394663 0.000000
0.301607 0.392079 0.000000
0.349811 0.389489 0.000000
0.398264 0.386894 0.000000
0.446963 0.384292 0.000000
0.495903 0.381685 0.000000
0.545078 0.379073 0.000000
0.594485 0.376456 0.000000
0.644119 0.373833 0.000000
0.693976 0.371206 0.000000
0.744050 0.368573 0.000000
0.794339 0.365936 0.000000
0.843341 0.363355 0.000000
0.890459 0.360855 0.000000
0.937568 0.358359 0.000000
0.984659 0.355867 0.000000
1.000000 0.353380 0.000000
1.000000 0.351635 0.000000
1.000000 0.350985 0.000000
1.000000 0.350340 0.000000
1.000000 0.349700 0.000000
0.000000 0.459322 0.000000
0.000000 0.458596 0.000000
0.000000 0.457874 0.000000
0.000000 0.457156 0.000000
0.000000 0.456444 0.000000
0.000000 0.455736 0.000000
0.000000 0.453758 0.000000
0.012476 0.451167 0.000000
0.059546 0.448569 0.000000
0.106883 0.445964 0.000000
0.154484 0.443353 0.000000
0.202343 0.440736 0.000000
0.250456 0.438113 0.000000
0.298818 0.435484 0.000000
0.347424 0.432849 0.000000
0.396269 0.430209 0.000000
0.445350 0.427563 0.000000
0.494662 0.424912 0.000000
0.544199 0.422256 0.000000
0.593958 0.419595 0.000000
0.643935 0.416929 0.000000
0.694124 0.414258 0.000000
0.744521 0.411583 0.000000
0.795123 0.408903 0.000000
0.843839 0.406304 0.000000
0.890884 0.403776 0.000000
0.937901 0.401253 0.000000
0.984881 0.398736 0.000000
1.000000 0.396223 0.000000
1.000000 0.394453 0.000000
1.000000 0.393777 0.000000
1.000000 0.393106 0.000000
1.000000 0.392440 0.000000
0.000000 0.502989 0.000000
0.000000 0.502235 0.000000
0.000000 0.501486 0.000000
0.000000 0.500741 0.000000
0.000000 0.500000 0.000000
0.000000 0.499264 0.000000
0.000000 0.497246 0.000000
0.007075 0.494607 0.000000
0.054593 0.491963 0.000000
0.102369 0.489312 0.000000
0.150397 0.486655 0.000000
0.198673 0.483993 0.000000
0.247192 0.481324 0.000000
0.295950 0.478650 0.000000
0.344942 0.475971 0.000000
0.394163 0.473286 0.000000
0.443610 0.470597 0.000000
0.493278 0.467902 0.000000
0.543161 0.465202 0.000000
0.593257 0.462497 0.000000
0.643560 0.459788 0.000000
0.694067 0.457074 0.000000
0.744773 0.454356 0.000000
0.795674 0.451633 0.000000
0.844031 0.449018 0.000000
0.890973 0.446463 0.000000
0.937868 0.443914 0.000000
0.984706 0.441370 0.000000
1.000000 0.438833 0.000000
1.000000 0.437037 0.000000
1.000000 0.436334 0.000000
1.000000 0.435636 0.000000
1.000000 0.434943 0.000000
0.000000 0.546418 0.000000
0.000000 0.545636 0.000000
0.000000 0.544858 0.000000
0.000000 0.544085 0.000000
0.000000 0.543316 0.000000
0.000000 0.542551 0.000000
0.000000 0.540492 0.000000
0.001702 0.537808 0.000000
0.049652 0.535117 0.000000
0.097847 0.532420 0.000000
0.146286 0.529718 0.000000
0.194961 0.527010 0.000000
0.243870 0.524297 0.000000
0.293008 0.521578 0.000000
0.342369 0.518854 0.000000
0.391951 0.516125 0.000000
0.441748 0.513390 0.000000
0.491755 0.510651 0.000000
0.541970 0.507908 0.000000
0.592387 0.505159 0.000000
0.643003 0.502407 0.000000
0.693812 0.499649 0.000000
0.744812 0.496888 0.000000
0.795998 0.494122 0.000000
0.843928 0.491492 0.000000
0.890736 0.488911 0.000000
0.937478 0.486336 0.000000
0.984146 0.483767 0.000000
1.000000 0.481204 0.000000
1.000000 0.479383 0.000000
1.000000 0.478652 0.000000
1.000000 0.477926 0.000000
1.000000 0.477204 0.000000
0.000000 0.589607 0.000000
0.000000 0.588797 0.000000
0.000000 0.587990 0.000000
0.000000 0.587188 0.000000
0.000000 0.586390 0.000000
0.000000 0.585596 0.000000
0.000000 0.583496 0.000000
0.000000 0.580765 0.000000
0.044722 0.578029 0.000000
0.093322 0.575286 0.000000
0.142153 0.572538 0.000000
0.191212 0.569785 0.000000
0.240494 0.567026 0.000000
0.289995 0.564263 0.000000
0.339710 0.561494 0.000000
0.389636 0.558720 0.000000
0.439767 0.555941 0.000000
0.490100 0.553158 0.000000
0.540631 0.550370 0.000000
0.591355 0.547578 0.000000
0.642269 0.544781 0.000000
0.693367 0.541980 0.000000
0.744648 0.539175 0.000000
0.796105 0.536366 0.000000
0.843541 0.533724 0.000000
0.890186 0.531116 0.000000
0.936747 0.528515 0.000000
0.983215 0.525921 0.000000
1.000000 0.523333 0.000000
1.000000 0.521486 0.000000
1.000000 0.520726 0.000000
1.000000 0.519970 0.000000
1.000000 0.519219 0.000000
0.000000 0.632555 0.000000
0.000000 0.631715 0.000000
0.000000 0.630880 0.000000
0.000000 0.630048 0.000000
0.000000 0.629220 0.000000
0.000000 0.628396 0.000000
0.000000 0.626256 0.000000
0.000000 0.623478 0.000000
0.039807 0.620696 0.000000
0.088793 0.617907 0.000000
0.138001 0.615114 0.000000
0.187427 0.612315 0.000000
0.237066 0.609511 0.000000
0.286915 0.606702 0.000000
0.336969 0.603888 0.000000
0.387223 0.601070 0.000000
0.437674 0.598246 0.000000
0.488318 0.595419 0.000000
0.539151 0.592586 0.000000
0.590167 0.589750 0.000000
0.641365 0.586909 0.000000
0.692739 0.584064 0.000000
0.744287 0.581214 0.000000
0.796003 0.578361 0.000000
0.842881 0.575708 0.000000
0.889334 0.573074 0.000000
0.935685 0.570447 0.000000
0.981926 0.567827 0.000000
1.000000 0.565215 0.000000
1.000000 0.563340 0.000000
1.000000 0.562550 0.000000
1.000000 0.561763 0.000000
1.000000 0.560981 0.000000
0.000000 0.675259 0.000000
0.000000 0.674389 0.000000
0.000000 0.673524 0.000000
0.000000 0.672662 0.000000
0.000000 0.671804 0.000000
0.000000 0.670950 0.000000
0.000000 0.668767 0.000000
0.000000 0.665944 0.000000
0.034907 0.663115 0.000000
0.084263 0.660281 0.000000
0.133832 0.657441 0.000000
0.183609 0.654597 0.000000
0.233590 0.651747 0.000000
0.283772 0.648893 0.000000
0.334149 0.646033 0.000000
0.384717 0.643170 0.000000
0.435474 0.640301 0.000000
0.486414 0.637428 0.000000
0.537535 0.634551 0.000000
0.588831 0.631670 0.000000
0.640299 0.628784 0.000000
0.691936 0.625894 0.000000
0.743737 0.623000 0.000000
0.795615 0.620106 0.000000
0.841961 0.617439 0.000000
0.888194 0.614779 0.000000
0.934309 0.612126 0.000000
0.980295 0.609481 0.000000
1.000000 0.606843 0.000000
1.000000 0.604941 0.000000
1.000000 0.604118 0.000000
1.000000 0.603299 0.000000
1.000000 0.602484 0.000000
0.000000 0.717716 0.000000
0.000000 0.716817 0.000000
0.000000 0.715920 0.000000
0.000000 0.715028 0.000000
0.000000 0.714138 0.000000
0.000000 0.713253 0.000000
0.000000 0.711029 0.000000
0.000000 0.708158 0.000000
0.030023 0.705283 0.000000
0.079734 0.702402 0.000000
0.129648 0.699517 0.000000
0.179762 0.696626 0.000000
0.230070 0.693731 0.000000
0.280569 0.690830 0.000000
0.331255 0.687925 0.000000
0.382124 0.685016 0.000000
0.433172 0.682102 0.000000
0.484395 0.679183 0.000000
0.535789 0.676261 0.000000
0.587352 0.673334 0.000000
0.639078 0.670402 0.000000
0.690964 0.667467 0.000000
0.743008 0.664528 0.000000
0.794677 0.661606 0.000000
0.840793 0.658912 0.000000
0.886780 0.656226 0.000000
0.932631 0.653547 0.000000
0.978337 0.650875 0.000000
1.000000 0.648212 0.000000
1.000000 0.646281 0.000000
1.000000 0.645425 0.000000
1.000000 0.644572 0.000000
1.000000 0.643722 0.000000
0.000000 0.759925 0.000000
0.000000 0.758994 0.000000
0.000000 0.758066 0.000000
0.000000 0.757141 0.000000
0.000000 0.756220 0.000000
0.000000 0.755302 0.000000
0.000000 0.753036 0.000000
0.000000 0.750118 0.000000
0.025159 0.747196 0.000000
0.075209 0.744269 0.000000
0.125453 0.741337 0.000000
0.175888 0.738399 0.000000
0.226508 0.735457 0.000000
0.277310 0.732511 0.000000
0.328291 0.729559 0.000000
0.379446 0.726604 0.000000
0.430772 0.723643 0.000000
0.482265 0.720679 0.000000
0.533921 0.717710 0.000000
0.585737 0.714736 0.000000
0.637709 0.711759 0.000000
0.689833 0.708777 0.000000
0.742107 0.705792 0.000000
0.793532 0.702843 0.000000
0.839392 0.700121 0.000000
0.885106 0.697408 0.000000
0.930667 0.694702 0.000000
0.976068 0.692005 0.000000
1.000000 0.689316 0.000000
1.000000 0.687355 0.000000
1.000000 0.686464 0.000000
1.000000 0.685574 0.000000
1.000000 0.684688 0.000000
0.000000 0.801881 0.000000
0.000000 0.800918 0.000000
0.000000 0.799957 0.000000
0.000000 0.799000 0.000000
0.000000 0.798046 0.000000
0.000000 0.797094 0.000000
0.000000 0.794785 0.000000
0.000000 0.791820 0.000000
0.020315 0.788850 0.000000
0.070689 0.785876 0.000000
0.121249 0.782896 0.000000
0.171990 0.779912 0.000000
0.222909 0.776923 0.000000
0.274001 0.773929 0.000000
0.325263 0.770931 0.000000
0.376691 0.767928 0.000000
0.428282 0.764920 0.000000
0.480032 0.761909 0.000000
0.531937 0.758892 0.000000
0.583994 0.755872 0.000000
0.636200 0.752847 0.000000
0.688551 0.749819 0.000000
0.741043 0.746786 0.000000
0.792192 0.743809 0.000000
0.837770 0.741060 0.000000
0.883186 0.738319 0.000000
0.928433 0.735586 0.000000
0.973504 0.732862 0.000000
1.000000 0.730146 0.000000
1.000000 0.728155 0.000000
1.000000 0.727226 0.000000
1.000000 0.726299 0.000000
1.000000 0.725374 0.000000
0.000000 0.843407 0.000000
0.000000 0.842416 0.000000
0.000000 0.841428 0.000000
0.000000 0.840443 0.000000
0.000000 0.839460 0.000000
0.000000 0.838480 0.000000
0.000000 0.836132 0.000000
0.000000 0.833125 0.000000
0.015512 0.830113 0.000000
0.066196 0.827096 0.000000
0.117056 0.824073 0.000000
0.168090 0.821046 0.000000
0.219292 0.818014 0.000000
0.270660 0.814977 0.000000
0.322189 0.811935 0.000000
0.373877 0.808889 0.000000
0.425720 0.805837 0.000000
0.477714 0.802782 0.000000
0.529856 0.799722 0.000000
0.582142 0.796657 0.000000
0.634570 0.793588 0.000000
0.687135 0.790514 0.000000
0.739836 0.787436 0.000000
0.790682 0.784435 0.000000
0.835952 0.781661 0.000000
0.881045 0.778895 0.000000
0.925953 0.776138 0.000000
0.970670 0.773388 0.000000
1.000000 0.770648 0.000000
1.000000 0.768627 0.000000
1.000000 0.767662 0.000000
1.000000 0.766697 0.000000
1.000000 0.765734 0.000000
0.000000 0.882223 0.000000
0.000000 0.881298 0.000000
0.000000 0.880373 0.000000
0.000000 0.879447 0.000000
0.000000 0.878521 0.000000
0.000000 0.877596 0.000000
0.000000 0.875292 0.000000
0.000000 0.872322 0.000000
0.011001 0.869345 0.000000
0.061968 0.866360 0.000000
0.113104 0.863368 0.000000
0.164405 0.860369 0.000000
0.215868 0.857363 0.000000
0.267488 0.854350 0.000000
0.319263 0.851331 0.000000
0.371188 0.848304 0.000000
0.423262 0.845270 0.000000
0.475479 0.842230 0.000000
0.527837 0.839183 0.000000
0.580333 0.836130 0.000000
0.632964 0.833070 0.000000
0.685726 0.830004 0.000000
0.738616 0.826931 0.000000
0.789129 0.823954 0.000000
0.834061 0.821202 0.000000
0.878800 0.818456 0.000000
0.923340 0.815717 0.000000
0.967673 0.812985 0.000000
1.000000 0.810260 0.000000
1.000000 0.808248 0.000000
1.000000 0.807280 0.000000
1.000000 0.806312 0.000000
1.000000 0.805344 0.000000
0.000000 0.921429 0.000000
0.000000 0.920551 0.000000
0.000000 0.919672 0.000000
0.000000 0.918789 0.000000
0.000000 0.917904 0.000000
0.000000 0.917017 0.000000
0.000000 0.914740 0.000000
0.000000 0.911792 0.000000
0.006435 0.908834 0.000000
0.057675 0.905867 0.000000
0.109076 0.902891 0.000000
0.160634 0.899905 0.000000
0.212346 0.896910 0.000000
0.264209 0.893906 0.000000
0.316218 0.890893 0.000000
0.368372 0.887871 0.000000
0.420666 0.884841 0.000000
0.473098 0.881802 0.000000
0.525664 0.878754 0.000000
