library/cube/Synth_City_001.cube
# CINEGRADE LAB — Premium Cinematic LUT
# Title: Synth City
# Category: Cyberpunk Cinema
# Description: Cyan/magenta split with high contrast for futuristic cyberpunk visuals
# Mood: Futuristic, neon, dystopian
# Variant: 2
# Generated: 2026-05-21T16:12:28.006766
TITLE "Synth City"
LUT_3D_SIZE 9
0.000000 0.033766 0.016004
0.000000 0.031565 0.014975
0.095585 0.025372 0.009940
0.251914 0.017000 0.002710
0.415179 0.008429 0.000000
0.584978 0.000000 0.000000
0.760922 0.000000 0.000000
0.941803 0.000000 0.000000
0.983683 0.000000 0.000000
0.000000 0.026689 0.012811
0.000000 0.024764 0.012007
0.104873 0.018529 0.006876
0.272225 0.009985 0.000000
0.445637 0.001275 0.000000
0.624739 0.000000 0.000000
0.809167 0.000000 0.000000
0.995536 0.000000 0.000000
1.000000 0.000000 0.000000
0.000000 0.147028 0.000000
0.000000 0.144904 0.000000
0.094408 0.138190 0.000000
0.271431 0.129057 0.000000
0.453705 0.119789 0.000000
0.640886 0.110399 0.000000
0.832640 0.100899 0.000000
1.000000 0.091589 0.000000
1.000000 0.088477 0.000000
0.000000 0.326899 0.000000
0.000000 0.324347 0.000000
0.074454 0.316961 0.000000
0.259869 0.307059 0.000000
0.449788 0.297048 0.000000
0.643894 0.286940 0.000000
0.841389 0.276763 0.000000
1.000000 0.267007 0.000000
1.000000 0.263524 0.000000
0.000000 0.502989 0.000000
0.000000 0.500000 0.000000
0.054593 0.491963 0.000000
0.247192 0.481324 0.000000
0.443610 0.470597 0.000000
0.643560 0.459788 0.000000
0.844031 0.449018 0.000000
1.000000 0.438833 0.000000
1.000000 0.434943 0.000000
0.000000 0.675259 0.000000
0.000000 0.671804 0.000000
0.034907 0.663115 0.000000
0.233590 0.651747 0.000000
0.435474 0.640301 0.000000
0.640299 0.628784 0.000000
0.841961 0.617439 0.000000
1.000000 0.606843 0.000000
1.000000 0.602484 0.000000
0.000000 0.843407 0.000000
0.000000 0.839460 0.000000
0.015512 0.830113 0.000000
0.219292 0.818014 0.000000
0.425720 0.805837 0.000000
0.634570 0.793588 0.000000
0.835952 0.781661 0.000000
1.000000 0.770648 0.000000
1.000000 0.765734 0.000000
0.000000 1.000000 0.000000
0.000000 0.997315 0.000000
0.000000 0.988277 0.000000
0.205068 0.976292 0.000000
0.415132 0.964102 0.000000
0.627193 0.951714 0.000000
0.827149 0.939701 0.000000
0.999907 0.928673 0.000000
1.000000 0.923443 0.000000
0.000000 1.000000 0.000000
0.000000 1.000000 0.000000
0.000668 1.000000 0.000000
0.211997 0.988616 0.000000
0.425122 0.975858 0.000000
0.639895 0.962898 0.000000
0.837846 0.950486 0.000000
1.000000 0.939274 0.000000
1.000000 0.933613 0.000000
0.000000 0.033009 0.015647
0.000000 0.030836 0.014641
0.096559 0.024637 0.009595
0.254069 0.016245 0.002340
0.418423 0.007658 0.000000
0.589223 0.000000 0.000000
0.766082 0.000000 0.000000
0.947647 0.000000 0.000000
0.989363 0.000000 0.000000
0.000000 0.026026 0.012531
0.000000 0.024129 0.011749
0.105767 0.017891 0.006610
0.274151 0.009333 0.000000
0.448510 0.000612 0.000000
0.628477 0.000000 0.000000
0.813692 0.000000 0.000000
1.000000 0.000000 0.000000
1.000000 0.000000 0.000000
0.000000 0.146297 0.000000
0.000000 0.144201 0.000000
0.095253 0.137488 0.000000
0.273171 0.128345 0.000000
0.456261 0.119071 0.000000
0.644182 0.109676 0.000000
0.836604 0.100175 0.000000
1.000000 0.090887 0.000000
1.000000 0.087808 0.000000
0.000000 0.326024 0.000000
0.000000 0.323498 0.000000
0.075270 0.316115 0.000000
0.261452 0.306207 0.000000
0.452066 0.296193 0.000000
0.646799 0.286083 0.000000
0.844671 0.275915 0.000000
1.000000 0.266183 0.000000
1.000000 0.262731 0.000000
0.000000 0.501966 0.000000
0.000000 0.499001 0.000000
0.055386 0.490968 0.000000
0.248637 0.480326 0.000000
0.445642 0.469596 0.000000
0.646115 0.458786 0.000000
0.846772 0.448028 0.000000
1.000000 0.437872 0.000000
1.000000 0.434009 0.000000
0.000000 0.674079 0.000000
0.000000 0.670644 0.000000
0.035687 0.661958 0.000000
0.234918 0.650586 0.000000
0.437290 0.639138 0.000000
0.642547 0.627618 0.000000
0.844230 0.616286 0.000000
1.000000 0.605720 0.000000
1.000000 0.601381 0.000000
0.000000 0.842062 0.000000
0.000000 0.838129 0.000000
0.016290 0.828781 0.000000
0.220523 0.816674 0.000000
0.427353 0.804491 0.000000
0.636557 0.792234 0.000000
0.837834 0.780317 0.000000
1.000000 0.769331 0.000000
1.000000 0.764428 0.000000
0.000000 0.999547 0.000000
0.000000 0.996148 0.000000
0.000000 0.987059 0.000000
0.206186 0.975019 0.000000
0.416586 0.962776 0.000000
0.628943 0.950336 0.000000
0.828716 0.938289 0.000000
1.000000 0.927251 0.000000
1.000000 0.921988 0.000000
0.000000 1.000000 0.000000
0.000000 1.000000 0.000000
0.001415 0.999805 0.000000
0.213057 0.987197 0.000000
0.426462 0.974381 0.000000
0.641484 0.961365 0.000000
0.839216 0.948916 0.000000
1.000000 0.937692 0.000000
1.000000 0.931993 0.000000
0.000000 0.030269 0.163605
0.000000 0.028131 0.162020
0.095548 0.021935 0.156399
0.254230 0.013531 0.148593
0.419665 0.004934 0.140615
0.591457 0.000000 0.132480
0.769224 0.000000 0.124202
0.951450 0.000000 0.115841
0.993002 0.000000 0.113295
0.000000 0.023405 0.158690
0.000000 0.021542 0.157453
0.104697 0.015308 0.151864
0.274104 0.006741 0.143962
0.449402 0.000000 0.135919
0.630226 0.000000 0.127748
0.816219 0.000000 0.119462
1.000000 0.000000 0.111225
1.000000 0.000000 0.109071
0.000000 0.143628 0.135843
0.000000 0.141564 0.135008
0.094151 0.134856 0.129546
0.272954 0.125708 0.121661
0.456851 0.116431 0.113662
0.645504 0.107036 0.105562
0.838586 0.097535 0.097374
1.000000 0.088272 0.089441
1.000000 0.085228 0.087745
0.000000 0.323223 0.105248
0.000000 0.320727 0.104834
0.074151 0.313351 0.099555
0.261091 0.303440 0.091758
0.452392 0.293425 0.083873
0.647741 0.283315 0.075912
0.845973 0.273156 0.067922
1.000000 0.263450 0.060407
1.000000 0.260029 0.059199
0.000000 0.499026 0.076403
0.000000 0.496087 0.076395
0.054253 0.488060 0.071318
0.248145 0.477415 0.063645
0.445726 0.466683 0.055908
0.646714 0.455874 0.048118
0.847539 0.445127 0.040420
1.000000 0.434999 0.033370
1.000000 0.431162 0.032643
0.000000 0.670985 0.049262
0.000000 0.667572 0.049649
0.034544 0.658889 0.044795
0.234311 0.647512 0.037279
0.437161 0.636059 0.029722
0.642840 0.624536 0.022133
0.844529 0.613216 0.014788
1.000000 0.602678 0.008272
1.000000 0.598357 0.008022
0.000000 0.838801 0.023815
0.000000 0.834881 0.024585
0.015142 0.825530 0.019972
0.219818 0.813414 0.012644
0.427041 0.801221 0.005295
0.636588 0.788955 0.000000
0.837746 0.777044 0.000000
1.000000 0.766083 0.000000
1.000000 0.761186 0.000000
0.000000 0.996481 0.000913
0.000000 0.993039 0.001900
0.000000 0.983897 0.000000
0.205365 0.971800 0.000000
0.416090 0.959501 0.000000
0.628734 0.947006 0.000000
0.828314 0.934923 0.000000
0.999607 0.923869 0.000000
1.000000 0.918570 0.000000
0.000000 1.000000 0.000763
0.000000 1.000000 0.002082
0.000223 0.996488 0.000000
0.212169 0.983817 0.000000
0.425843 0.970941 0.000000
0.641107 0.957864 0.000000
0.838613 0.945373 0.000000
1.000000 0.934133 0.000000
1.000000 0.928389 0.000000
0.000000 0.026559 0.384398
0.000000 0.024461 0.381969
0.093556 0.018270 0.375526
0.253398 0.009858 0.366939
0.419902 0.001256 0.358238
0.592676 0.000000 0.349436
0.771339 0.000000 0.340548
0.954199 0.000000 0.331640
0.995587 0.000000 0.328629
0.000000 0.019825 0.376862
0.000000 0.017999 0.374964
0.102657 0.011772 0.368738
0.273075 0.003199 0.360240
0.449301 0.000000 0.351656
0.630970 0.000000 0.342998
0.817731 0.000000 0.334279
1.000000 0.000000 0.325676
1.000000 0.000000 0.323226
0.000000 0.140009 0.352025
0.000000 0.137978 0.350705
0.092088 0.131278 0.344784
0.271764 0.122127 0.336478
0.456457 0.112848 0.328112
0.645831 0.103454 0.319697
0.839561 0.093955 0.311244
1.000000 0.084719 0.303120
1.000000 0.081710 0.301289
0.000000 0.319478 0.320034
0.000000 0.317013 0.319302
0.072074 0.309644 0.313732
0.259762 0.299731 0.305684
0.451737 0.289715 0.297598
0.647694 0.279607 0.289486
0.846264 0.269458 0.281401
1.000000 0.259779 0.273853
1.000000 0.256388 0.272663
0.000000 0.495145 0.290347
0.000000 0.492232 0.290182
0.052165 0.484210 0.284977
0.246688 0.473563 0.277213
0.444835 0.462830 0.269433
0.646327 0.452019 0.261648
0.847301 0.441285 0.254011
1.000000 0.431185 0.247084
1.000000 0.427372 0.246520
0.000000 0.666950 0.262896
0.000000 0.663556 0.263280
0.032446 0.654876 0.258451
0.232740 0.643494 0.250998
0.436058 0.632037 0.243548
0.642151 0.620509 0.236111
0.843829 0.609199 0.228976
1.000000 0.598688 0.222729
1.000000 0.594382 0.222778
0.000000 0.834595 0.237646
0.000000 0.830686 0.238558
0.013038 0.821332 0.234115
0.218149 0.809205 0.226995
0.425754 0.797001 0.219895
0.635637 0.784722 0.212823
0.836665 0.772816 0.206230
1.000000 0.761877 0.200714
1.000000 0.756984 0.201358
0.000000 0.992448 0.215364
0.000000 0.988963 0.216637
0.000000 0.979766 0.212457
0.203578 0.967610 0.205572
0.414621 0.955253 0.198739
0.627544 0.942701 0.191963
0.826924 0.930579 0.185867
0.997462 0.919509 0.181070
1.000000 0.914170 0.182248
0.000000 1.000000 0.216330
0.000000 1.000000 0.218062
0.000000 0.992193 0.214241
0.210312 0.979458 0.207677
0.424249 0.966517 0.201171
0.639749 0.953378 0.194726
0.837025 0.940843 0.189141
0.999578 0.929583 0.185083
1.000000 0.923793 0.186740
0.000000 0.022867 0.604592
0.000000 0.020809 0.601358
0.091563 0.014623 0.594131
0.252549 0.006202 0.584801
0.420107 0.000000 0.575413
0.593848 0.000000 0.565982
0.773393 0.000000 0.556520
0.956858 0.000000 0.547100
0.998079 0.000000 0.543659
0.000000 0.016262 0.594561
0.000000 0.014472 0.592039
0.100616 0.008250 0.585213
0.272030 0.000000 0.576154
0.449168 0.000000 0.567064
0.631670 0.000000 0.557955
0.819186 0.000000 0.548837
1.000000 0.000000 0.539903
1.000000 0.000000 0.537190
0.000000 0.136403 0.567856
0.000000 0.134406 0.566085
0.090021 0.127714 0.559738
0.270557 0.118559 0.551047
0.456033 0.109279 0.542348
0.646116 0.099885 0.533651
0.840483 0.090388 0.524967
1.000000 0.081180 0.516685
1.000000 0.078205 0.514750
0.000000 0.315746 0.534582
0.000000 0.313310 0.533566
0.069995 0.305948 0.527738
0.258416 0.296034 0.519472
0.451055 0.286017 0.511217
0.647608 0.275909 0.502985
0.846497 0.265770 0.494837
1.000000 0.256118 0.487288
1.000000 0.252757 0.486146
0.000000 0.491273 0.504164
0.000000 0.488385 0.503874
0.050073 0.480370 0.498571
0.245216 0.469719 0.490748
0.443918 0.458984 0.482957
0.645904 0.448173 0.475205
0.847010 0.437450 0.467661
1.000000 0.427378 0.460886
1.000000 0.423589 0.460514
0.000000 0.662922 0.476509
0.000000 0.659547 0.476918
0.030345 0.650868 0.472144
0.231154 0.639481 0.464783
0.434931 0.628019 0.457471
0.641428 0.616486 0.450214
0.843083 0.605186 0.443317
1.000000 0.594702 0.437367
1.000000 0.590411 0.437742
0.000000 0.830393 0.451554
0.000000 0.826494 0.452637
0.010930 0.817135 0.448393
0.216465 0.804997 0.441508
0.424445 0.792780 0.434684
0.634657 0.780490 0.427930
0.835545 0.768588 0.421711
1.000000 0.757671 0.416627
1.000000 0.752780 0.417722
0.000000 0.988399 0.429989
0.000000 0.984870 0.431575
0.000000 0.975619 0.427735
0.201782 0.963404 0.421225
0.413136 0.950988 0.414805
0.626332 0.938378 0.408478
0.825506 0.926218 0.402885
0.995277 0.915131 0.398646
1.000000 0.909752 0.400392
0.000000 1.000000 0.432158
0.000000 0.997664 0.434329
0.000000 0.987878 0.430973
0.208447 0.975078 0.424904
0.422643 0.962074 0.418928
0.638375 0.948871 0.413045
0.835421 0.936292 0.408070
0.997108 0.925013 0.404676
1.000000 0.919176 0.406994
0.000000 0.019192 0.824209
0.000000 0.017173 0.820206
0.089569 0.010993 0.812232
0.251683 0.002563 0.802196
0.420280 0.000000 0.792160
0.594973 0.000000 0.782135
0.775388 0.000000 0.772134
0.959428 0.000000 0.762238
1.000000 0.000000 0.758403
0.000000 0.012713 0.811807
0.000000 0.010959 0.808696
0.098572 0.004744 0.801305
0.270968 0.000000 0.791722
0.449006 0.000000 0.782162
0.632327 0.000000 0.772635
0.820584 0.000000 0.763153
1.000000 0.000000 0.753922
1.000000 0.000000 0.750979
0.000000 0.132812 0.783351
0.000000 0.130848 0.781164
0.087951 0.124162 0.774426
0.269334 0.115004 0.765385
0.455580 0.105722 0.756386
0.646359 0.096329 0.747440
0.841353 0.086834 0.738557
1.000000 0.077653 0.730150
1.000000 0.074712 0.728144
0.000000 0.312025 0.748910
0.000000 0.309618 0.747642
0.067911 0.302264 0.741590
0.257055 0.292347 0.733138
0.450346 0.282329 0.724747
0.647483 0.272221 0.716426
0.846670 0.262093 0.708246
1.000000 0.252468 0.700728
1.000000 0.249136 0.699664
0.000000 0.487411 0.717871
0.000000 0.484548 0.717486
0.047977 0.476537 0.712117
0.243728 0.465884 0.704266
0.442975 0.455147 0.696493
0.645445 0.444333 0.688806
0.846666 0.433622 0.681383
1.000000 0.423579 0.674791
1.000000 0.419811 0.674639
0.000000 0.658901 0.690114
0.000000 0.655544 0.690580
0.028238 0.646866 0.685891
0.229554 0.635473 0.678651
0.433780 0.624005 0.671504
0.640673 0.612466 0.664456
0.842289 0.601176 0.657826
1.000000 0.590719 0.652201
1.000000 0.586441 0.652928
0.000000 0.826194 0.665554
0.000000 0.822304 0.666836
0.008817 0.812940 0.662819
0.214769 0.800789 0.656197
0.423115 0.788561 0.649677
0.633648 0.776257 0.643267
0.834386 0.764358 0.637448
1.000000 0.753462 0.632821
1.000000 0.748573 0.634392
0.000000 0.984334 0.644801
0.000000 0.980761 0.646727
0.000000 0.971455 0.643254
0.199975 0.959181 0.637143
0.411634 0.946707 0.631160
0.625098 0.934039 0.625307
0.824062 0.921840 0.620240
0.993054 0.910736 0.616583
1.000000 0.905317 0.618919
0.000000 0.997395 0.648260
0.000000 0.993390 0.650894
0.000000 0.983543 0.648027
0.206574 0.970678 0.642477
0.421024 0.957611 0.637053
0.636985 0.944345 0.631752
0.833801 0.931720 0.627408
0.994614 0.920423 0.624696
1.000000 0.914538 0.627692
0.000000 0.015600 1.000000
0.000000 0.013616 1.000000
0.087633 0.007439 1.000000
0.250858 0.000000 1.000000
0.420477 0.000000 1.000000
0.596107 0.000000 0.993837
0.777376 0.000000 0.983417
0.961961 0.000000 0.973151
1.000000 0.000000 0.969014
0.000000 0.009238 1.000000
0.000000 0.007516 1.000000
0.096580 0.001306 1.000000
0.269943 0.000000 1.000000
0.448865 0.000000 0.993066
0.632991 0.000000 0.983212
0.821978 0.000000 0.973448
1.000000 0.000000 0.963999
1.000000 0.000000 0.960901
0.000000 0.129287 0.994590
0.000000 0.127354 0.992082
0.085930 0.120675 0.985041
0.268145 0.111513 0.975728
0.455148 0.102228 0.966506
0.646611 0.092834 0.957385
0.842219 0.083341 0.948375
1.000000 0.074188 0.939916
1.000000 0.071280 0.937909
0.000000 0.308366 0.959271
0.000000 0.305988 0.957827
0.065873 0.298639 0.951623
0.255726 0.288719 0.943057
0.449657 0.278700 0.934601
0.647368 0.268591 0.926263
0.846833 0.258473 0.918123
1.000000 0.248874 0.910706
1.000000 0.245570 0.909787
0.000000 0.483607 0.927855
0.000000 0.480767 0.927448
0.045924 0.472761 0.922083
0.242271 0.462103 0.914275
0.442052 0.451363 0.906590
0.644997 0.440547 0.899035
0.846314 0.429847 0.891799
1.000000 0.419831 0.885450
1.000000 0.416085 0.885570
0.000000 0.654933 0.900235
0.000000 0.651593 0.900826
0.026173 0.642916 0.896288
0.227984 0.631516 0.889233
0.432650 0.620040 0.882309
0.639931 0.608495 0.875520
0.841495 0.597214 0.869198
1.000000 0.586783 0.863929
1.000000 0.582518 0.865026
0.000000 0.822043 0.876289
0.000000 0.818161 0.877825
0.006744 0.808790 0.874083
0.213103 0.796627 0.867761
0.421809 0.784385 0.861572
0.632656 0.772067 0.855517
0.833236 0.760172 0.850095
1.000000 0.749297 0.845903
1.000000 0.744409 0.847905
0.000000 0.980297 0.856502
0.000000 0.976680 0.858788
0.000000 0.967319 0.855688
0.198204 0.954986 0.849967
0.410162 0.942454 0.844391
0.623890 0.929730 0.838960
0.822641 0.917492 0.834345
0.990844 0.906374 0.831171
1.000000 0.900915 0.833969
0.000000 0.993199 0.861259
0.000000 0.989142 0.864318
0.000000 0.979235 0.861880
0.204742 0.966307 0.856765
0.419444 0.953178 0.851784
0.635634 0.939851 0.846931
0.832223 0.927184 0.843054
0.992156 0.915869 0.840835
1.000000 0.909940 0.844295
0.000000 0.012958 1.000000
0.000000 0.010945 1.000000
0.086506 0.004712 1.000000
0.250771 0.000000 1.000000
0.421346 0.000000 1.000000
0.597852 0.000000 1.000000
0.779919 0.000000 1.000000
0.964977 0.000000 1.000000
1.000000 0.000000 1.000000
0.000000 0.006513 1.000000
0.000000 0.004775 1.000000
0.095226 0.000000 1.000000
0.269498 0.000000 1.000000
0.449253 0.000000 1.000000
0.634138 0.000000 1.000000
0.823812 0.000000 1.000000
1.000000 0.000000 1.000000
1.000000 0.000000 1.000000
0.000000 0.126359 1.000000
0.000000 0.124420 1.000000
0.084420 0.117714 1.000000
0.267426 0.108520 1.000000
0.455149 0.099209 1.000000
0.647264 0.089793 1.000000
0.843440 0.080285 1.000000
1.000000 0.071149 1.000000
1.000000 0.068264 1.000000
0.000000 0.305196 1.000000
0.000000 0.302822 1.000000
0.064266 0.295460 1.000000
0.254801 0.285521 1.000000
0.449350 0.275489 1.000000
0.647616 0.265373 1.000000
0.847336 0.255262 1.000000
1.000000 0.245690 1.000000
1.000000 0.242418 1.000000
0.000000 0.480228 1.000000
0.000000 0.477401 1.000000
0.044267 0.469392 1.000000
0.241198 0.458729 1.000000
0.441505 0.447987 1.000000
0.644920 0.437174 1.000000
0.846326 0.426494 1.000000
1.000000 0.416518 1.000000
1.000000 0.412809 1.000000
0.000000 0.651370 1.000000
0.000000 0.648049 1.000000
0.024512 0.639379 1.000000
0.226820 0.627982 1.000000
0.431931 0.616513 1.000000
0.639607 0.604978 1.000000
0.841128 0.593726 1.000000
1.000000 0.583345 1.000000
1.000000 0.579118 1.000000
0.000000 0.818319 1.000000
0.000000 0.814459 1.000000
0.005125 0.805099 1.000000
0.211904 0.792944 1.000000
0.420986 0.780713 1.000000
0.632169 0.768409 1.000000
0.832613 0.756546 1.000000
1.000000 0.745726 1.000000
1.000000 0.740872 1.000000
0.000000 0.976733 1.000000
0.000000 0.973097 1.000000
0.000000 0.963709 1.000000
0.196999 0.951348 1.000000
0.409283 0.938793 1.000000
0.623306 0.926048 1.000000
0.821880 0.913811 0.997889
0.989324 0.902719 0.992159
1.000000 0.897264 0.992228
0.000000 0.989571 1.000000
0.000000 0.985497 1.000000
0.000000 0.975567 1.000000
0.203602 0.962615 1.000000
0.418593 0.949465 1.000000
0.635055 0.936121 1.000000
0.831462 0.923456 0.997323
0.990556 0.912173 0.992083
1.000000 0.906247 0.992374
0.000000 0.011970 1.000000
0.000000 0.009977 1.000000
0.087110 0.003733 1.000000
0.252442 0.000000 1.000000
0.423999 0.000000 1.000000
0.601403 0.000000 1.000000
0.784288 0.000000 1.000000
0.969820 0.000000 1.000000
1.000000 0.000000 1.000000
0.000000 0.005594 1.000000
0.000000 0.003877 1.000000
0.095733 0.000000 1.000000
0.270935 0.000000 1.000000
0.451539 0.000000 1.000000
0.637196 0.000000 1.000000
0.827568 0.000000 1.000000
1.000000 0.000000 1.000000
1.000000 0.000000 1.000000
0.000000 0.125353 1.000000
0.000000 0.123436 1.000000
0.084869 0.116729 1.000000
0.268676 0.107524 1.000000
0.457126 0.098205 1.000000
0.649898 0.088785 1.000000
0.846509 0.079282 1.000000
1.000000 0.070167 1.000000
1.000000 0.067314 1.000000
0.000000 0.304029 1.000000
0.000000 0.301678 1.000000
0.064682 0.294318 1.000000
0.255900 0.284373 1.000000
0.451065 0.274338 1.000000
0.649883 0.264221 1.000000
0.849843 0.254121 1.000000
1.000000 0.244578 1.000000
1.000000 0.241335 1.000000
0.000000 0.478901 1.000000
0.000000 0.476095 1.000000
0.044664 0.468090 1.000000
0.242172 0.457423 1.000000
0.442995 0.446680 1.000000
0.646867 0.435867 1.000000
0.848342 0.425202 1.000000
1.000000 0.415260 1.000000
1.000000 0.411576 1.000000
0.000000 0.649875 1.000000
0.000000 0.646572 1.000000
0.024905 0.637905 1.000000
0.227694 0.626505 1.000000
0.433233 0.615034 1.000000
0.641287 0.603498 1.000000
0.842737 0.592261 1.000000
1.000000 0.581914 1.000000
1.000000 0.577707 1.000000
0.000000 0.816647 1.000000
0.000000 0.812800 1.000000
0.005530 0.803439 1.000000
0.212707 0.791277 1.000000
0.422142 0.779040 1.000000
0.633635 0.766729 1.000000
0.833914 0.754877 1.000000
1.000000 0.744088 1.000000
1.000000 0.739244 1.000000
0.000000 0.975162 1.000000
0.000000 0.971489 1.000000
0.000000 0.962056 1.000000
0.197735 0.949646 1.000000
0.410317 0.937042 1.000000
0.624606 0.924251 1.000000
0.822970 0.911988 1.000000
0.989616 0.900893 1.000000
1.000000 0.895409 1.000000
0.000000 0.987866 1.000000
0.000000 0.983750 1.000000
0.000000 0.973771 1.000000
0.204319 0.960768 1.000000
0.419567 0.947567 1.000000
0.636266 0.934173 1.000000
0.832460 0.921478 1.000000
0.990674 0.910192 1.000000
1.000000 0.904233 1.000000
