library/cube/Teal_Drama_002.cube
# CINEGRADE LAB — Premium Cinematic LUT
# Title: Teal Drama
# Category: Netflix Inspired
# Description: Cinematic teal/orange with filmic qualities inspired by streaming content
# Mood: Cinematic, binge-worthy, polished
# Variant: 3
# Generated: 2026-05-21T16:12:43.569758
TITLE "Teal Drama"
LUT_3D_SIZE 33
0.001233 0.014658 0.013763
0.001213 0.014415 0.013535
0.001194 0.014176 0.013310
0.004502 0.014020 0.013168
0.033585 0.014494 0.013655
0.062869 0.014976 0.014150
0.092352 0.015464 0.014652
0.122031 0.015961 0.015160
0.151904 0.016464 0.015676
0.181966 0.016975 0.016198
0.212217 0.017493 0.016727
0.242652 0.018018 0.017263
0.273270 0.018550 0.017806
0.304068 0.019088 0.018355
0.335042 0.019634 0.018910
0.366191 0.020186 0.019472
0.397512 0.020745 0.020040
0.429002 0.021311 0.020615
0.460659 0.021883 0.021196
0.492479 0.022462 0.021782
0.524462 0.023047 0.022375
0.556603 0.023639 0.022974
0.588901 0.024236 0.023579
0.621352 0.024840 0.024190
0.653956 0.025450 0.024806
0.686708 0.026066 0.025428
0.719607 0.026688 0.026056
0.752480 0.027312 0.026685
0.785405 0.027940 0.027318
0.818432 0.028572 0.027955
0.823992 0.028539 0.027926
0.825962 0.028420 0.027812
0.827907 0.028303 0.027699
0.001169 0.013854 0.013006
0.001152 0.013620 0.012787
0.001136 0.013390 0.012569
0.004487 0.013244 0.012435
0.033906 0.013735 0.012939
0.063521 0.014233 0.013449
0.093328 0.014738 0.013966
0.123326 0.015251 0.014489
0.153510 0.015771 0.015020
0.183879 0.016297 0.015557
0.214429 0.016831 0.016101
0.245159 0.017372 0.016651
0.276065 0.017919 0.017208
0.307144 0.018473 0.017771
0.338396 0.019034 0.018341
0.369815 0.019601 0.018916
0.401401 0.020175 0.019498
0.433150 0.020755 0.020086
0.465061 0.021342 0.020680
0.497129 0.021935 0.021280
0.529354 0.022534 0.021886
0.561732 0.023140 0.022498
0.594262 0.023751 0.023116
0.626940 0.024369 0.023739
0.659764 0.024993 0.024368
0.692732 0.025622 0.025002
0.725841 0.026257 0.025642
0.758819 0.026892 0.026281
0.791874 0.027530 0.026923
0.825021 0.028174 0.027570
0.830521 0.028146 0.027547
0.832409 0.028034 0.027437
0.834272 0.027923 0.027329
0.001116 0.013079 0.012276
0.001103 0.012855 0.012063
0.001090 0.012633 0.011853
0.004481 0.012497 0.011728
0.034227 0.013004 0.012247
0.064162 0.013519 0.012772
0.094283 0.014040 0.013304
0.124588 0.014569 0.013843
0.155075 0.015105 0.014388
0.185739 0.015647 0.014939
0.216580 0.016196 0.015498
0.247594 0.016752 0.016062
0.278779 0.017315 0.016633
0.310131 0.017884 0.017210
0.341649 0.018459 0.017793
0.373331 0.019041 0.018382
0.405172 0.019630 0.018977
0.437172 0.020225 0.019579
0.469327 0.020825 0.020186
0.501634 0.021432 0.020799
0.534093 0.022046 0.021417
0.566699 0.022665 0.022042
0.599452 0.023290 0.022671
0.632347 0.023921 0.023307
0.665384 0.024557 0.023948
0.698558 0.025200 0.024594
0.731835 0.025847 0.025245
0.764917 0.026492 0.025893
0.798085 0.027141 0.026546
0.831335 0.027795 0.027202
0.836775 0.027774 0.027184
0.838582 0.027667 0.027079
0.840364 0.027562 0.026975
0.002344 0.028740 0.012840
0.002333 0.028519 0.012635
0.002323 0.028300 0.012432
0.005753 0.028167 0.012315
0.035815 0.028685 0.012848
0.066059 0.029210 0.013387
0.096484 0.029742 0.013934
0.127087 0.030281 0.014486
0.157865 0.030827 0.015045
0.188816 0.031380 0.015611
0.219937 0.031939 0.016183
0.251225 0.032505 0.016761
0.282679 0.033077 0.017345
0.314294 0.033656 0.017935
0.346070 0.034241 0.018531
0.378003 0.034833 0.019133
0.410091 0.035431 0.019741
0.442331 0.036035 0.020355
0.474722 0.036645 0.020974
0.507260 0.037261 0.021599
0.539943 0.037883 0.022230
0.572769 0.038512 0.022866
0.605735 0.039146 0.023508
0.638839 0.039785 0.024155
0.672079 0.040431 0.024808
0.705453 0.041082 0.025465
0.738847 0.041736 0.026126
0.772036 0.042387 0.026783
0.805301 0.043043 0.027444
0.838638 0.043703 0.028109
0.844015 0.043685 0.028095
0.845741 0.043580 0.027995
0.847442 0.043477 0.027896
0.005159 0.064797 0.015006
0.005151 0.064572 0.014808
0.005143 0.064350 0.014611
0.008610 0.064214 0.014501
0.038977 0.064737 0.015048
0.069520 0.065266 0.015601
0.100239 0.065802 0.016161
0.131129 0.066345 0.016727
0.162189 0.066895 0.017299
0.193416 0.067452 0.017878
0.224807 0.068015 0.018462
0.256360 0.068585 0.019053
0.288072 0.069162 0.019650
0.319941 0.069745 0.020252
0.351965 0.070334 0.020861
0.384140 0.070930 0.021475
0.416465 0.071532 0.022095
0.448938 0.072140 0.022721
0.481554 0.072754 0.023352
0.514313 0.073374 0.023988
0.547212 0.074001 0.024631
0.580249 0.074633 0.025278
0.613421 0.075271 0.025931
0.646725 0.075915 0.026589
0.680161 0.076565 0.027253
0.713725 0.077220 0.027921
0.747205 0.077876 0.028590
0.780483 0.078529 0.029255
0.813828 0.079187 0.029924
0.847236 0.079848 0.030597
0.852550 0.079828 0.030588
0.854195 0.079722 0.030492
0.855816 0.079617 0.030397
0.007979 0.100801 0.017191
0.007972 0.100573 0.016999
0.007967 0.100348 0.016808
0.011470 0.100212 0.016706
0.042132 0.100739 0.017266
0.072965 0.101273 0.017833
0.103967 0.101814 0.018406
0.135136 0.102362 0.018985
0.166468 0.102917 0.019570
0.197961 0.103478 0.020162
0.229613 0.104047 0.020759
0.261422 0.104622 0.021362
0.293384 0.105203 0.021971
0.325498 0.105791 0.022586
0.357761 0.106385 0.023207
0.390170 0.106986 0.023833
0.422724 0.107593 0.024464
0.455419 0.108206 0.025102
0.488254 0.108825 0.025744
0.521225 0.109450 0.026393
0.554332 0.110082 0.027046
0.587571 0.110719 0.027705
0.620940 0.111362 0.028368
0.654437 0.112011 0.029037
0.688060 0.112665 0.029711
0.721806 0.113325 0.030390
0.755339 0.113983 0.031066
0.788691 0.114639 0.031740
0.822101 0.115299 0.032417
0.855564 0.115962 0.033097
0.860812 0.115942 0.033092
0.862378 0.115835 0.033000
0.863920 0.115730 0.032909
0.010803 0.136757 0.019394
0.010799 0.136528 0.019208
0.010796 0.136301 0.019025
0.014335 0.136164 0.018929
0.045282 0.136697 0.019503
0.076395 0.137237 0.020083
0.107671 0.137784 0.020669
0.139108 0.138338 0.021261
0.170703 0.138898 0.021859
0.202454 0.139465 0.022463
0.234358 0.140039 0.023073
0.266414 0.140620 0.023688
0.298617 0.141207 0.024309
0.330967 0.141801 0.024936
0.363460 0.142401 0.025569
0.396094 0.143007 0.026206
0.428868 0.143619 0.026850
0.461778 0.144238 0.027499
0.494822 0.144863 0.028153
0.527999 0.145494 0.028812
0.561305 0.146131 0.029476
0.594738 0.146774 0.030146
0.628297 0.147422 0.030820
0.661979 0.148077 0.031500
0.695781 0.148737 0.032184
0.729702 0.149403 0.032874
0.763253 0.150062 0.033556
0.796663 0.150721 0.034237
0.830122 0.151384 0.034921
0.863624 0.152051 0.035608
0.868807 0.152031 0.035608
0.870294 0.151924 0.035520
0.871758 0.151819 0.035433
0.013632 0.172671 0.021617
0.013631 0.172441 0.021437
0.013630 0.172214 0.021260
0.017203 0.172078 0.021172
0.048426 0.172617 0.021758
0.079810 0.173163 0.022351
0.111351 0.173717 0.022950
0.143048 0.174277 0.023555
0.174897 0.174844 0.024165
0.206896 0.175418 0.024782
0.239043 0.175998 0.025404
0.271336 0.176585 0.026031
0.303772 0.177179 0.026664
0.336349 0.177779 0.027303
0.369064 0.178385 0.027947
0.401916 0.178998 0.028596
0.434901 0.179617 0.029251
0.468017 0.180242 0.029911
0.501263 0.180873 0.030576
0.534636 0.181510 0.031246
0.568134 0.182154 0.031922
0.601754 0.182803 0.032602
0.635495 0.183458 0.033287
0.669354 0.184119 0.033977
0.703328 0.184785 0.034672
0.737417 0.185458 0.035371
0.770949 0.186119 0.036059
0.804403 0.186782 0.036747
0.837895 0.187448 0.037438
0.871421 0.188118 0.038132
0.876537 0.188099 0.038136
0.877946 0.187993 0.038052
0.879333 0.187890 0.037969
0.016467 0.208548 0.023858
0.016468 0.208318 0.023685
0.016470 0.208092 0.023514
0.020076 0.207957 0.023433
0.051566 0.208503 0.024033
0.083211 0.209057 0.024638
0.115008 0.209618 0.025250
0.146955 0.210185 0.025867
0.179049 0.210759 0.026490
0.211288 0.211340 0.027118
0.243670 0.211928 0.027752
0.276192 0.212522 0.028391
0.308852 0.213123 0.029036
0.341647 0.213730 0.029687
0.374576 0.214343 0.030342
0.407636 0.214963 0.031003
0.440825 0.215589 0.031669
0.474140 0.216222 0.032340
0.507580 0.216860 0.033016
0.541141 0.217504 0.033696
0.574823 0.218155 0.034382
0.608622 0.218811 0.035073
0.642537 0.219473 0.035769
0.676565 0.220141 0.036469
0.710705 0.220815 0.037174
0.744954 0.221494 0.037883
0.778431 0.222158 0.038576
0.811912 0.222825 0.039270
0.845423 0.223495 0.039968
0.878958 0.224169 0.040667
0.884006 0.224152 0.040676
0.885339 0.224048 0.040596
0.886650 0.223947 0.040517
0.019308 0.244393 0.026118
0.019311 0.244165 0.025951
0.019316 0.243940 0.025787
0.022954 0.243807 0.025713
0.054702 0.244362 0.026326
0.086599 0.244923 0.026944
0.118643 0.245492 0.027568
0.150832 0.246067 0.028197
0.183162 0.246649 0.028832
0.215632 0.247238 0.029472
0.248240 0.247834 0.030118
0.280982 0.248436 0.030769
0.313858 0.249045 0.031425
0.346864 0.249660 0.032087
0.379998 0.250281 0.032754
0.413258 0.250909 0.033425
0.446643 0.251543 0.034102
0.480149 0.252183 0.034784
0.513774 0.252829 0.035471
0.547517 0.253481 0.036162
0.581374 0.254140 0.036859
0.615345 0.254804 0.037560
0.649427 0.255474 0.038265
0.683617 0.256150 0.038975
0.717915 0.256831 0.039690
0.752233 0.257516 0.040407
0.785703 0.258184 0.041106
0.819196 0.258855 0.041807
0.852710 0.259529 0.042510
0.886239 0.260208 0.043216
0.891219 0.260194 0.043228
0.892478 0.260093 0.043152
0.893714 0.259994 0.043078
0.022155 0.280211 0.028398
0.022161 0.279986 0.028238
0.022168 0.279763 0.028080
0.025838 0.279634 0.028013
0.057835 0.280197 0.028638
0.089975 0.280767 0.029268
0.122257 0.281345 0.029904
0.154678 0.281929 0.030545
0.187236 0.282519 0.031192
0.219929 0.283117 0.031844
0.252754 0.283721 0.032502
0.285709 0.284332 0.033164
0.318792 0.284949 0.033832
0.352000 0.285573 0.034504
0.385332 0.286203 0.035182
0.418785 0.286839 0.035865
0.452357 0.287481 0.036552
0.486046 0.288130 0.037245
0.519849 0.288785 0.037942
0.553765 0.289446 0.038644
0.587792 0.290112 0.039350
0.621927 0.290785 0.040061
0.656168 0.291464 0.040777
0.690514 0.292148 0.041497
0.724962 0.292838 0.042221
0.759291 0.293528 0.042945
0.792768 0.294201 0.043649
0.826259 0.294877 0.044356
0.859760 0.295557 0.045065
0.893268 0.296240 0.045776
0.898181 0.296230 0.045793
0.899365 0.296132 0.045721
0.900529 0.296037 0.045650
0.025009 0.316008 0.030697
0.025018 0.315786 0.030543
0.025028 0.315567 0.030392
0.028728 0.315442 0.030332
0.060964 0.316014 0.030969
0.093339 0.316594 0.031612
0.125851 0.317180 0.032259
0.158496 0.317774 0.032912
0.191273 0.318374 0.033571
0.224180 0.318981 0.034234
0.257214 0.319594 0.034903
0.290373 0.320214 0.035577
0.323656 0.320841 0.036255
0.357058 0.321474 0.036939
0.390580 0.322113 0.037628
0.424218 0.322758 0.038321
0.457970 0.323410 0.039019
0.491834 0.324068 0.039722
0.525808 0.324732 0.040429
0.559890 0.325402 0.041141
0.594079 0.326078 0.041858
0.628371 0.326760 0.042579
0.662765 0.327447 0.043304
0.697259 0.328141 0.044033
0.731851 0.328840 0.044767
0.766161 0.329536 0.045496
0.799629 0.330214 0.046207
0.833103 0.330896 0.046919
0.866579 0.331581 0.047633
0.900051 0.332269 0.048349
0.904895 0.332263 0.048370
0.906008 0.332170 0.048302
0.907099 0.332080 0.048236
0.027870 0.351788 0.033015
0.027882 0.351570 0.032868
0.027894 0.351355 0.032723
0.031624 0.351235 0.032671
0.064091 0.351818 0.033320
0.096692 0.352408 0.033974
0.129425 0.353004 0.034633
0.162286 0.353608 0.035298
0.195274 0.354218 0.035968
0.228387 0.354835 0.036643
0.261622 0.355458 0.037322
0.294978 0.356088 0.038007
0.328451 0.356725 0.038697
0.362041 0.357367 0.039391
0.395744 0.358017 0.040090
0.429559 0.358672 0.040794
0.463484 0.359334 0.041502
0.497516 0.360001 0.042215
0.531654 0.360675 0.042933
0.565895 0.361355 0.043655
0.600238 0.362041 0.044381
0.634680 0.362733 0.045111
0.669220 0.363430 0.045846
0.703855 0.364133 0.046585
0.738584 0.364842 0.047328
0.772847 0.365543 0.048062
0.806293 0.366227 0.048778
0.839735 0.366915 0.049495
0.873169 0.367606 0.050214
0.906593 0.368300 0.050935
0.911367 0.368300 0.050960
0.912409 0.368212 0.050896
0.913431 0.368127 0.050833
0.030738 0.387556 0.035353
0.030753 0.387343 0.035213
0.030769 0.387134 0.035074
0.034526 0.387020 0.035029
0.067217 0.387613 0.035689
0.100035 0.388214 0.036355
0.132980 0.388821 0.037026
0.166049 0.389435 0.037702
0.199240 0.390056 0.038383
0.232551 0.390683 0.039069
0.265980 0.391318 0.039760
0.299524 0.391958 0.040455
0.333181 0.392605 0.041155
0.366949 0.393259 0.041860
0.400827 0.393918 0.042570
0.434812 0.394584 0.043284
0.468902 0.395256 0.044002
0.503095 0.395935 0.044725
0.537389 0.396619 0.045452
0.571783 0.397309 0.046184
0.606273 0.398006 0.046920
0.640859 0.398708 0.047660
0.675538 0.399416 0.048404
0.710308 0.400129 0.049152
0.745167 0.400848 0.049904
0.779353 0.401555 0.050642
0.812762 0.402246 0.051363
0.846158 0.402940 0.052085
0.879538 0.403637 0.052808
0.912898 0.404336 0.053533
0.917603 0.404342 0.053562
0.918576 0.404261 0.053502
0.919529 0.404182 0.053444
0.033614 0.423317 0.037711
0.033632 0.423110 0.037577
0.033651 0.422907 0.037445
0.037436 0.422799 0.037406
0.070341 0.423404 0.038079
0.103369 0.424016 0.038756
0.136518 0.424635 0.039438
0.169787 0.425260 0.040125
0.203173 0.425893 0.040817
0.236674 0.426531 0.041514
0.270288 0.427177 0.042215
0.304013 0.427829 0.042921
0.337846 0.428487 0.043632
0.371786 0.429152 0.044347
0.405831 0.429822 0.045067
0.439979 0.430500 0.045791
0.474227 0.431183 0.046519
0.508574 0.431872 0.047252
0.543017 0.432568 0.047988
0.577556 0.433269 0.048730
0.612187 0.433976 0.049475
0.646909 0.434690 0.050224
0.681721 0.435408 0.050977
0.716620 0.436133 0.051734
0.751604 0.436863 0.052496
0.785684 0.437575 0.053236
0.819041 0.438273 0.053962
0.852378 0.438973 0.054688
0.885689 0.439677 0.055415
0.918973 0.440383 0.056144
0.923608 0.440396 0.056177
0.924514 0.440321 0.056122
0.925400 0.440250 0.056067
0.036499 0.459076 0.040089
0.036519 0.458876 0.039961
0.036541 0.458679 0.039835
0.040353 0.458579 0.039804
0.073464 0.459196 0.040487
0.106693 0.459820 0.041176
0.140039 0.460451 0.041869
0.173500 0.461088 0.042567
0.207073 0.461732 0.043269
0.240757 0.462383 0.043977
0.274548 0.463040 0.044689
0.308446 0.463704 0.045405
0.342449 0.464374 0.046126
0.376553 0.465051 0.046851
0.410758 0.465733 0.047580
0.445061 0.466422 0.048314
0.479460 0.467117 0.049052
0.513954 0.467818 0.049795
0.548541 0.468526 0.050541
0.583218 0.469239 0.051291
0.617983 0.469958 0.052046
0.652836 0.470682 0.052804
0.687774 0.471413 0.053566
0.722795 0.472149 0.054332
0.757897 0.472891 0.055102
0.791844 0.473608 0.055845
0.825136 0.474313 0.056574
0.858399 0.475021 0.057305
0.891629 0.475731 0.058036
0.924822 0.476445 0.058768
0.929388 0.476465 0.058805
0.930229 0.476398 0.058753
0.931050 0.476333 0.058703
0.039392 0.494837 0.042486
0.039416 0.494644 0.042365
0.039440 0.494455 0.042245
0.043278 0.494364 0.042221
0.076587 0.494993 0.042915
0.110010 0.495630 0.043615
0.143545 0.496273 0.044319
0.177189 0.496923 0.045027
0.210942 0.497580 0.045740
0.244800 0.498243 0.046458
0.278763 0.498913 0.047180
0.312827 0.499589 0.047907
0.346991 0.500271 0.048637
0.381252 0.500960 0.049372
0.415610 0.501655 0.050112
0.450062 0.502357 0.050855
0.484606 0.503064 0.051603
0.519240 0.503777 0.052354
0.553962 0.504497 0.053110
0.588772 0.505222 0.053869
0.623665 0.505953 0.054632
0.658642 0.506690 0.055399
0.693700 0.507433 0.056170
0.728837 0.508181 0.056945
0.764052 0.508935 0.057723
0.797838 0.509658 0.058468
0.831052 0.510370 0.059201
0.864228 0.511086 0.059935
0.897363 0.511803 0.060670
0.930452 0.512524 0.061405
0.934949 0.512552 0.061446
0.935726 0.512493 0.061398
0.936484 0.512437 0.061351
0.042294 0.530604 0.044904
0.042320 0.530419 0.044788
0.042348 0.530239 0.044675
0.046211 0.530157 0.044658
0.079710 0.530800 0.045363
0.113319 0.531449 0.046073
0.147035 0.532106 0.046787
0.180856 0.532769 0.047506
0.214781 0.533439 0.048230
0.248807 0.534115 0.048958
0.282933 0.534798 0.049690
0.317155 0.535487 0.050426
0.351474 0.536183 0.051167
0.385886 0.536884 0.051911
0.420390 0.537592 0.052660
0.454984 0.538307 0.053413
0.489665 0.539027 0.054170
0.524433 0.539753 0.054930
0.559286 0.540485 0.055695
0.594221 0.541223 0.056463
0.629236 0.541967 0.057235
0.664331 0.542717 0.058011
0.699503 0.543472 0.058790
0.734751 0.544233 0.059573
0.770072 0.545000 0.060360
0.803671 0.545728 0.061106
0.836793 0.546449 0.061842
0.869869 0.547172 0.062579
0.902896 0.547897 0.063317
0.935870 0.548625 0.064054
0.940298 0.548662 0.064099
0.941012 0.548612 0.064055
0.941709 0.548565 0.064012
0.045205 0.566382 0.047341
0.045235 0.566207 0.047232
0.045266 0.566036 0.047125
0.049153 0.565963 0.047114
0.082835 0.566620 0.047830
0.116621 0.567283 0.048550
0.150511 0.567953 0.049275
0.184502 0.568630 0.050004
0.218591 0.569314 0.050738
0.252778 0.570004 0.051476
0.287059 0.570700 0.052218
0.321434 0.571403 0.052964
0.355900 0.572112 0.053714
0.390456 0.572827 0.054468
0.425100 0.573549 0.055226
0.459829 0.574276 0.055988
0.494642 0.575010 0.056754
0.529537 0.575749 0.057523
0.564513 0.576495 0.058296
0.599568 0.577246 0.059073
0.634700 0.578004 0.059854
0.669907 0.578766 0.060638
0.705187 0.579535 0.061426
0.740539 0.580309 0.062217
0.775962 0.581089 0.063011
0.809348 0.581823 0.063758
0.842366 0.582551 0.064497
0.875330 0.583283 0.065237
0.908236 0.584016 0.065977
0.941081 0.584752 0.066717
0.945440 0.584798 0.066765
0.946095 0.584758 0.066725
0.946732 0.584720 0.066686
0.048125 0.602175 0.049798
0.048159 0.602009 0.049695
0.048193 0.601849 0.049595
0.052103 0.601787 0.049590
0.085960 0.602458 0.050317
0.119918 0.603135 0.051047
0.153974 0.603820 0.051782
0.188126 0.604511 0.052521
0.222374 0.605209 0.053265
0.256714 0.605913 0.054012
0.291145 0.606623 0.054763
0.325665 0.607340 0.055519
0.360272 0.608063 0.056278
0.394965 0.608793 0.057042
0.429741 0.609528 0.057809
0.464600 0.610270 0.058580
0.499538 0.611017 0.059354
0.534555 0.611771 0.060132
0.569649 0.612530 0.060914
0.604817 0.613295 0.061700
0.640059 0.614066 0.062488
0.675372 0.614843 0.063281
0.710756 0.615625 0.064077
0.746207 0.616413 0.064876
0.781726 0.617206 0.065678
0.814876 0.617945 0.066424
0.847777 0.618683 0.067166
0.880615 0.619422 0.067908
0.913388 0.620164 0.068650
0.946092 0.620908 0.069392
0.950383 0.620964 0.069444
0.950980 0.620933 0.069408
0.951561 0.620907 0.069373
0.051056 0.637987 0.052274
0.051092 0.637832 0.052178
0.051130 0.637682 0.052084
0.055063 0.637631 0.052086
0.089088 0.638317 0.052822
0.123209 0.639010 0.053563
0.157424 0.639709 0.054308
0.191731 0.640415 0.055057
0.226130 0.641127 0.055810
0.260616 0.641846 0.056567
0.295190 0.642571 0.057327
0.329849 0.643303 0.058092
0.364591 0.644040 0.058861
0.399414 0.644784 0.059633
0.434318 0.645534 0.060409
0.469299 0.646290 0.061188
0.504357 0.647052 0.061971
0.539489 0.647820 0.062758
0.574694 0.648594 0.063548
0.609971 0.649373 0.064342
0.645317 0.650158 0.065139
0.680732 0.650949 0.065939
0.716213 0.651745 0.066743
0.751759 0.652547 0.067550
0.787368 0.653355 0.068360
0.820260 0.654100 0.069105
0.853030 0.654846 0.069849
0.885732 0.655594 0.070593
0.918360 0.656344 0.071337
0.950911 0.657096 0.072081
0.955135 0.657163 0.072136
0.955676 0.657143 0.072104
0.956201 0.657127 0.072073
0.053996 0.673822 0.054771
0.054036 0.673679 0.054681
0.054078 0.673540 0.054592
0.058032 0.673502 0.054601
0.092217 0.674203 0.055348
0.126495 0.674911 0.056098
0.160862 0.675625 0.056853
0.195318 0.676346 0.057611
0.229860 0.677074 0.058373
0.264487 0.677808 0.059139
0.299197 0.678548 0.059909
0.333988 0.679295 0.060683
0.368858 0.680047 0.061460
0.403807 0.680806 0.062241
0.438831 0.681571 0.063026
0.473929 0.682342 0.063814
0.509100 0.683119 0.064605
0.544342 0.683901 0.065400
0.579654 0.684690 0.066199
0.615033 0.685484 0.067000
0.650479 0.686284 0.067805
0.685989 0.687089 0.068613
0.721562 0.687900 0.069425
0.757198 0.688716 0.070239
0.792801 0.689536 0.071054
0.825505 0.690289 0.071800
0.858134 0.691044 0.072546
0.890686 0.691801 0.073292
0.923157 0.692560 0.074037
0.955545 0.693320 0.074782
0.959701 0.693398 0.074841
0.960189 0.693390 0.074812
0.960661 0.693385 0.074785
0.056947 0.709684 0.057287
0.056991 0.709553 0.057203
0.057035 0.709427 0.057121
0.061011 0.709401 0.057136
0.095350 0.710118 0.057892
0.129777 0.710841 0.058652
0.164290 0.711572 0.059416
0.198887 0.712309 0.060184
0.233567 0.713052 0.060955
0.268328 0.713801 0.061730
0.303168 0.714557 0.062509
0.338085 0.715319 0.063291
0.373077 0.716087 0.064077
0.408144 0.716861 0.064867
0.443283 0.717642 0.065660
0.478492 0.718428 0.066456
0.513771 0.719220 0.067256
0.549118 0.720018 0.068059
0.584530 0.720821 0.068865
0.620007 0.721631 0.069675
0.655546 0.722446 0.070487
0.691148 0.723266 0.071303
0.726809 0.724092 0.072121
0.762528 0.724923 0.072943
0.798060 0.725754 0.073762
0.830617 0.726516 0.074510
0.863093 0.727281 0.075257
0.895485 0.728047 0.076004
0.927788 0.728814 0.076750
0.960000 0.729584 0.077495
0.964090 0.729672 0.077558
0.964527 0.729676 0.077533
0.964948 0.729683 0.077509
0.059909 0.745577 0.059823
0.059956 0.745459 0.059745
0.060004 0.745345 0.059669
0.064000 0.745332 0.059690
0.098486 0.746066 0.060456
0.133056 0.746806 0.061225
0.167708 0.747552 0.061998
0.202440 0.748305 0.062775
0.237251 0.749064 0.063555
0.272139 0.749830 0.064339
0.307103 0.750602 0.065127
0.342140 0.751380 0.065918
0.377249 0.752164 0.066712
0.412428 0.752954 0.067510
0.447676 0.753750 0.068311
0.482992 0.754552 0.069115
0.518373 0.755360 0.069923
0.553818 0.756173 0.070734
0.589326 0.756992 0.071548
0.624896 0.757817 0.072365
0.660524 0.758647 0.073185
0.696212 0.759483 0.074008
0.731956 0.760324 0.074834
0.767755 0.761171 0.075662
0.803204 0.762013 0.076484
0.835604 0.762785 0.077233
0.867915 0.763559 0.077982
0.900135 0.764334 0.078729
0.932259 0.765111 0.079476
0.964286 0.765889 0.080222
0.968310 0.765990 0.080288
0.968697 0.766005 0.080266
0.969071 0.766025 0.080246
0.062882 0.781505 0.062378
0.062933 0.781400 0.062306
0.062984 0.781300 0.062236
0.066999 0.781300 0.062264
0.101625 0.782050 0.063039
0.136332 0.782807 0.063817
0.171117 0.783570 0.064599
0.205978 0.784340 0.065384
0.240914 0.785115 0.066173
0.275923 0.785898 0.066966
0.311005 0.786686 0.067762
0.346156 0.787480 0.068561
0.381375 0.788280 0.069364
0.416662 0.789087 0.070170
0.452014 0.789899 0.070979
0.487430 0.790717 0.071791
0.522908 0.791541 0.072606
0.558448 0.792370 0.073425
0.594046 0.793205 0.074246
0.629703 0.794046 0.075070
0.665417 0.794892 0.075898
0.701185 0.795744 0.076728
0.737008 0.796601 0.077561
0.772883 0.797463 0.078396
0.808240 0.798316 0.079221
0.840471 0.799098 0.079971
0.872607 0.799881 0.080720
0.904644 0.800666 0.081468
0.936579 0.801452 0.082215
0.968409 0.802239 0.082961
0.972368 0.802352 0.083030
0.972709 0.802380 0.083012
0.973037 0.802412 0.082995
0.065866 0.817471 0.064953
0.065920 0.817379 0.064887
0.065975 0.817293 0.064822
0.070009 0.817308 0.064857
0.104769 0.818075 0.065640
0.139606 0.818849 0.066427
0.174517 0.819629 0.067218
0.209501 0.820415 0.068012
0.244556 0.821208 0.068810
0.279681 0.822007 0.069610
0.314874 0.822812 0.070415
0.350134 0.823623 0.071222
0.385459 0.824440 0.072032
0.420848 0.825263 0.072846
0.456298 0.826091 0.073663
0.491810 0.826926 0.074483
0.527380 0.827766 0.075306
0.563008 0.828612 0.076131
0.598693 0.829463 0.076960
0.634433 0.830320 0.077792
0.670226 0.831182 0.078626
0.706072 0.832050 0.079463
0.741969 0.832923 0.080303
0.777916 0.833801 0.081145
0.813174 0.834666 0.081972
0.845226 0.835458 0.082722
0.877175 0.836251 0.083472
0.909019 0.837045 0.084220
0.940754 0.837840 0.084967
0.972377 0.838636 0.085712
0.976273 0.838762 0.085784
0.976570 0.838803 0.085770
0.976855 0.838848 0.085757
0.068821 0.852951 0.067506
0.068880 0.852895 0.067448
0.068941 0.852843 0.067390
0.072994 0.852892 0.067432
0.107883 0.853696 0.068226
0.142845 0.854506 0.069023
0.177878 0.855321 0.069824
0.212980 0.856143 0.070627
0.248150 0.856970 0.071434
0.283387 0.857803 0.072245
0.318688 0.858641 0.073058
0.354052 0.859485 0.073874
0.389478 0.860334 0.074694
0.424964 0.861189 0.075516
0.460510 0.862049 0.076342
0.496113 0.862915 0.077170
0.531772 0.863785 0.078001
0.567485 0.864661 0.078835
0.603253 0.865541 0.079672
