library/cube/Teal_Drama_002.cube
# CINEGRADE LAB — Premium Cinematic LUT
# Title: Teal Drama
# Category: Netflix Inspired
# Description: Cinematic teal/orange with filmic qualities inspired by streaming content
# Mood: Cinematic, binge-worthy, polished
# Variant: 3
# Generated: 2026-05-21T16:12:43.569758
TITLE "Teal Drama"
LUT_3D_SIZE 9
0.001233 0.014658 0.013763
0.033585 0.014494 0.013655
0.151904 0.016464 0.015676
0.273270 0.018550 0.017806
0.397512 0.020745 0.020040
0.524462 0.023047 0.022375
0.653956 0.025450 0.024806
0.785405 0.027940 0.027318
0.827907 0.028303 0.027699
0.005159 0.064797 0.015006
0.038977 0.064737 0.015048
0.162189 0.066895 0.017299
0.288072 0.069162 0.019650
0.416465 0.071532 0.022095
0.547212 0.074001 0.024631
0.680161 0.076565 0.027253
0.813828 0.079187 0.029924
0.855816 0.079617 0.030397
0.016467 0.208548 0.023858
0.051566 0.208503 0.024033
0.179049 0.210759 0.026490
0.308852 0.213123 0.029036
0.440825 0.215589 0.031669
0.574823 0.218155 0.034382
0.710705 0.220815 0.037174
0.845423 0.223495 0.039968
0.886650 0.223947 0.040517
0.027870 0.351788 0.033015
0.064091 0.351818 0.033320
0.195274 0.354218 0.035968
0.328451 0.356725 0.038697
0.463484 0.359334 0.041502
0.600238 0.362041 0.044381
0.738584 0.364842 0.047328
0.873169 0.367606 0.050214
0.913431 0.368127 0.050833
0.039392 0.494837 0.042486
0.076587 0.494993 0.042915
0.210942 0.497580 0.045740
0.346991 0.500271 0.048637
0.484606 0.503064 0.051603
0.623665 0.505953 0.054632
0.764052 0.508935 0.057723
0.897363 0.511803 0.060670
0.936484 0.512437 0.061351
0.051056 0.637987 0.052274
0.089088 0.638317 0.052822
0.226130 0.641127 0.055810
0.364591 0.644040 0.058861
0.504357 0.647052 0.061971
0.645317 0.650158 0.065139
0.787368 0.653355 0.068360
0.918360 0.656344 0.071337
0.956201 0.657127 0.072073
0.062882 0.781505 0.062378
0.101625 0.782050 0.063039
0.240914 0.785115 0.066173
0.381375 0.788280 0.069364
0.522908 0.791541 0.072606
0.665417 0.794892 0.075898
0.808240 0.798316 0.079221
0.936579 0.801452 0.082215
0.973037 0.802412 0.082995
0.074574 0.921556 0.072477
0.113931 0.922542 0.073256
0.255085 0.926034 0.076535
0.397193 0.929579 0.079858
0.540168 0.933172 0.083223
0.683930 0.936812 0.086626
0.827154 0.940463 0.090034
0.952216 0.943698 0.093017
0.987220 0.944764 0.093825
0.079323 0.970203 0.075735
0.119158 0.971172 0.076587
0.261803 0.974642 0.079959
0.405219 0.978131 0.083364
0.549335 0.981638 0.086802
0.694092 0.985160 0.090270
0.837536 0.988650 0.093718
0.958719 0.991599 0.096636
0.992224 0.992414 0.097431
0.001748 0.014872 0.078054
0.034256 0.014725 0.077793
0.153097 0.016720 0.079671
0.274947 0.018830 0.081661
0.399634 0.021049 0.083758
0.526992 0.023373 0.085957
0.656858 0.025797 0.088255
0.788581 0.028305 0.090634
0.831042 0.028679 0.090876
0.005686 0.065030 0.078777
0.039640 0.064986 0.078675
0.163311 0.067169 0.080793
0.289616 0.069459 0.083012
0.418395 0.071852 0.085328
0.549494 0.074342 0.087737
0.682761 0.076927 0.090233
0.816588 0.079565 0.092778
0.858509 0.080006 0.093120
0.017002 0.208770 0.087141
0.052222 0.208745 0.087181
0.180103 0.211027 0.089513
0.310270 0.213416 0.091937
0.442575 0.215906 0.094448
0.576873 0.218494 0.097041
0.713024 0.221176 0.099714
0.847781 0.223872 0.102386
0.888920 0.224336 0.102813
0.028415 0.352022 0.095844
0.064742 0.352073 0.096022
0.196268 0.354501 0.098553
0.329756 0.357033 0.101165
0.465070 0.359667 0.103856
0.602076 0.362398 0.106620
0.740647 0.365222 0.109455
0.875153 0.368001 0.112223
0.915306 0.368537 0.112725
0.039950 0.495101 0.104889
0.077235 0.495281 0.105200
0.211882 0.497896 0.107913
0.348194 0.500614 0.110699
0.486044 0.503433 0.113555
0.625313 0.506346 0.116475
0.765883 0.509352 0.119458
0.899004 0.512234 0.122289
0.938001 0.512884 0.122857
0.051628 0.638300 0.114277
0.089736 0.638655 0.114712
0.227024 0.641494 0.117592
0.365704 0.644434 0.120536
0.505664 0.647472 0.123541
0.646795 0.650603 0.126603
0.788991 0.653823 0.129719
0.919698 0.656825 0.132581
0.957403 0.657624 0.133206
0.063469 0.781882 0.124000
0.102277 0.782453 0.124552
0.241769 0.785546 0.127582
0.382411 0.788738 0.130669
0.524102 0.792024 0.133808
0.666748 0.795401 0.136995
0.809622 0.798847 0.140213
0.937659 0.801995 0.143093
0.973972 0.802971 0.143763
0.075183 0.922079 0.133738
0.114593 0.923076 0.134410
0.255912 0.926581 0.137585
0.398165 0.930138 0.140804
0.541267 0.933743 0.144064
0.685139 0.937393 0.147362
0.828390 0.941053 0.150662
0.953086 0.944285 0.153528
0.987940 0.945355 0.154223
0.079942 0.970717 0.136630
0.119819 0.971686 0.137375
0.262598 0.975159 0.140641
0.406130 0.978650 0.143941
0.550350 0.982158 0.147272
0.695198 0.985682 0.150631
0.838663 0.989172 0.153969
0.959428 0.992109 0.156764
0.992784 0.992920 0.157441
0.002856 0.015682 0.212643
0.035516 0.015550 0.212045
0.154871 0.017569 0.213602
0.277196 0.019701 0.215277
0.402321 0.021941 0.217065
0.530079 0.024286 0.218960
0.660312 0.026729 0.220959
0.792296 0.029254 0.223043
0.834712 0.029637 0.222988
0.006799 0.065853 0.212247
0.040887 0.065825 0.211830
0.165009 0.068031 0.213648
0.291728 0.070343 0.215572
0.420886 0.072756 0.217598
0.552330 0.075266 0.219721
0.685909 0.077870 0.221937
0.819882 0.080522 0.224203
0.861733 0.080973 0.224266
0.018120 0.209580 0.219563
0.053457 0.209573 0.219309
0.181730 0.211879 0.221360
0.312255 0.214291 0.223506
0.444884 0.216804 0.225744
0.579475 0.219413 0.228070
0.715889 0.222116 0.230479
0.850673 0.224826 0.232885
0.891719 0.225301 0.233048
0.029539 0.352839 0.227286
0.065967 0.352911 0.227189
0.197830 0.355363 0.229454
0.331624 0.357921 0.231805
0.467213 0.360578 0.234239
0.604465 0.363332 0.236749
0.743254 0.366178 0.239334
0.877669 0.368970 0.241847
0.917711 0.369518 0.242097
0.041082 0.495946 0.235413
0.078455 0.496148 0.235463
0.213388 0.498789 0.237925
0.349957 0.501533 0.240463
0.488037 0.504375 0.243073
0.627509 0.507313 0.245752
0.768258 0.510340 0.248495
0.901178 0.513236 0.251079
0.940048 0.513899 0.251405
0.052770 0.639189 0.243933
0.090953 0.639568 0.244120
0.228480 0.642434 0.246760
0.367374 0.645400 0.249467
0.507523 0.648462 0.252236
0.648820 0.651617 0.255064
0.791101 0.654859 0.257945
0.921569 0.657873 0.260568
0.959135 0.658687 0.260956
0.064623 0.782832 0.252829
0.103493 0.783427 0.253143
0.243183 0.786547 0.255942
0.384000 0.789765 0.258797
0.525845 0.793076 0.261706
0.668625 0.796476 0.264664
0.811546 0.799943 0.267652
0.939272 0.803102 0.270293
0.975439 0.804093 0.270728
0.076354 0.923167 0.261775
0.115814 0.924173 0.262215
0.257295 0.927690 0.265160
0.399689 0.931258 0.268150
0.542914 0.934873 0.271181
0.686893 0.938532 0.274250
0.830169 0.942199 0.277318
0.954492 0.945428 0.279942
0.989194 0.946500 0.280398
0.081120 0.971789 0.263881
0.121037 0.972756 0.264394
0.263945 0.976230 0.267430
0.407592 0.979723 0.270499
0.551912 0.983231 0.273598
0.696848 0.986755 0.276723
0.840334 0.990243 0.279822
0.960675 0.993169 0.282366
0.993882 0.993974 0.282794
0.003964 0.016494 0.346994
0.036773 0.016377 0.346065
0.156636 0.018420 0.347306
0.279430 0.020574 0.348670
0.404986 0.022836 0.350152
0.533140 0.025201 0.351748
0.663732 0.027663 0.353452
0.795967 0.030205 0.355245
0.838335 0.030597 0.354898
0.007912 0.066679 0.345495
0.042133 0.066666 0.344768
0.166699 0.068895 0.346289
0.293826 0.071229 0.347923
0.423358 0.073663 0.349663
0.555142 0.076193 0.351505
0.689027 0.078815 0.353444
0.823135 0.081482 0.355434
0.864913 0.081942 0.355222
0.019237 0.210393 0.351777
0.054690 0.210404 0.351234
0.183349 0.212735 0.353006
0.314226 0.215170 0.354879
0.447175 0.217705 0.356848
0.582055 0.220336 0.358909
0.718727 0.223058 0.361057
0.853525 0.225782 0.363201
0.894477 0.226269 0.363103
0.030663 0.353661 0.358534
0.067192 0.353753 0.358165
0.199386 0.356231 0.360168
0.333480 0.358813 0.362261
0.469339 0.361494 0.364440
0.606833 0.364270 0.366699
0.745836 0.367137 0.369036
0.880148 0.369942 0.371297
0.920077 0.370503 0.371298
0.042214 0.496796 0.365753
0.079673 0.497021 0.365546
0.214887 0.499688 0.367759
0.351709 0.502457 0.370052
0.490015 0.505324 0.372420
0.629686 0.508284 0.374858
0.770610 0.511334 0.377363
0.903318 0.514241 0.379702
0.942061 0.514918 0.379788
0.053913 0.640086 0.373415
0.092168 0.640488 0.373357
0.229931 0.643380 0.375759
0.369035 0.646372 0.378230
0.509369 0.649459 0.380765
0.650829 0.652637 0.383360
0.793189 0.655899 0.386009
0.923411 0.658926 0.388392
0.960838 0.659754 0.388544
0.065777 0.783789 0.381492
0.104709 0.784408 0.381570
0.244593 0.787555 0.384137
0.385582 0.790798 0.386763
0.527577 0.794134 0.389443
0.670487 0.797556 0.392173
0.813453 0.801044 0.394930
0.940862 0.804214 0.397332
0.976881 0.805219 0.397533
0.077526 0.924257 0.389651
0.117036 0.925272 0.389858
0.258673 0.928801 0.392575
0.401206 0.932379 0.395337
0.544552 0.936004 0.398139
0.688635 0.939672 0.400978
0.831935 0.943346 0.403814
0.955879 0.946572 0.406193
0.990430 0.947645 0.406410
0.082297 0.972859 0.390971
0.122254 0.973826 0.391253
0.265289 0.977301 0.394059
0.409048 0.980794 0.396896
0.553466 0.984303 0.399762
0.698490 0.987827 0.402652
0.841997 0.991314 0.405512
0.961910 0.994227 0.407801
0.994968 0.995026 0.407979
0.005071 0.017309 0.481111
0.038029 0.017207 0.479854
0.158393 0.019273 0.480783
0.281649 0.021450 0.481841
0.407631 0.023733 0.483023
0.536174 0.026117 0.484323
0.667120 0.028599 0.485736
0.799594 0.031157 0.487241
0.841912 0.031558 0.486605
0.009026 0.067509 0.478523
0.043377 0.067511 0.477491
0.168381 0.069762 0.478720
0.295911 0.072118 0.480066
0.425811 0.074572 0.481524
0.557928 0.077122 0.483088
0.692116 0.079762 0.484755
0.826345 0.082444 0.486472
0.868048 0.082912 0.485987
0.020355 0.211211 0.483787
0.055922 0.211240 0.482957
0.184961 0.213594 0.484455
0.316184 0.216052 0.486058
0.449448 0.218609 0.487762
0.584611 0.221261 0.489561
0.721537 0.224004 0.491451
0.856338 0.226741 0.493335
0.897193 0.227239 0.492978
0.031788 0.354489 0.489590
0.068415 0.354601 0.488951
0.200935 0.357104 0.490696
0.335324 0.359710 0.492534
0.471449 0.362414 0.494461
0.609181 0.365212 0.496472
0.748394 0.368100 0.498563
0.882591 0.370918 0.500574
0.922405 0.371492 0.500328
0.043347 0.497653 0.495912
0.080891 0.497899 0.495451
0.216381 0.500592 0.497418
0.353451 0.503386 0.499468
0.491978 0.506277 0.501595
0.631845 0.509260 0.503795
0.772940 0.512331 0.506063
0.905426 0.515251 0.508159
0.944039 0.515941 0.508006
0.055056 0.640989 0.502724
0.093383 0.641414 0.502424
0.231377 0.644332 0.504590
0.370686 0.647349 0.506826
0.511202 0.650461 0.509129
0.652821 0.653662 0.511493
0.795257 0.656945 0.513910
0.925225 0.659984 0.516054
0.962511 0.660826 0.515972
0.066932 0.784753 0.509989
0.105924 0.785396 0.509832
0.245998 0.788569 0.512170
0.387155 0.791838 0.514567
0.529298 0.795197 0.517019
0.672336 0.798643 0.519521
0.815343 0.802150 0.522048
0.942429 0.805331 0.524212
0.978300 0.806349 0.524177
0.078698 0.925349 0.517365
0.118256 0.926373 0.517341
0.260048 0.929913 0.519830
0.402716 0.933502 0.522363
0.546180 0.937137 0.524936
0.690366 0.940814 0.527545
0.833688 0.944494 0.530148
0.957248 0.947717 0.532283
0.991647 0.948791 0.532258
0.083474 0.973928 0.517901
0.123471 0.974893 0.517951
0.266630 0.978370 0.520527
0.410498 0.981863 0.523132
0.555013 0.985373 0.525764
0.700124 0.988897 0.528417
0.843652 0.992383 0.531035
0.963133 0.995283 0.533069
0.996043 0.996077 0.532993
0.006178 0.018127 0.614996
0.039282 0.018040 0.613416
0.160141 0.020129 0.614038
0.283854 0.022328 0.614793
0.410255 0.024632 0.615678
0.539181 0.027036 0.616687
0.670477 0.029537 0.617814
0.803177 0.032110 0.619035
0.845442 0.032520 0.618113
0.010139 0.068341 0.611335
0.044619 0.068359 0.610001
0.170055 0.070633 0.610942
0.297982 0.073009 0.612005
0.428244 0.075484 0.613184
0.560690 0.078053 0.614474
0.695174 0.080712 0.615871
0.829514 0.083407 0.617319
0.871139 0.083884 0.616565
0.021473 0.212033 0.615593
0.057152 0.212080 0.614481
0.186565 0.214458 0.615709
0.318130 0.216939 0.617045
0.451704 0.219518 0.618486
0.587145 0.222190 0.620027
0.724320 0.224953 0.621661
0.859111 0.227703 0.623289
0.899867 0.228212 0.622676
0.032912 0.355322 0.620455
0.069637 0.355453 0.619551
0.202478 0.357982 0.621040
0.337157 0.360611 0.622625
0.473543 0.363338 0.624303
0.611507 0.366158 0.626069
0.750926 0.369067 0.627916
0.884998 0.371898 0.629679
0.924696 0.372484 0.629189
0.044481 0.498516 0.625891
0.082108 0.498783 0.625178
0.217869 0.501502 0.626902
0.355183 0.504321 0.628711
0.493927 0.507235 0.630599
0.633985 0.510241 0.632563
0.775248 0.513334 0.634597
0.907502 0.516264 0.636451
0.945984 0.516968 0.636060
0.056199 0.641898 0.631862
0.094598 0.642346 0.631322
0.232817 0.645291 0.633253
0.372329 0.648333 0.635257
0.513023 0.651468 0.637328
0.654796 0.654692 0.639463
0.797304 0.657995 0.641649
0.927011 0.661046 0.643556
0.964155 0.661902 0.643239
0.068088 0.785724 0.638322
0.107138 0.786390 0.637932
0.247400 0.789590 0.640041
0.388721 0.792883 0.642210
0.531007 0.796266 0.644434
0.674171 0.799735 0.646709
0.817217 0.803262 0.649007
0.943972 0.806452 0.650932
0.979695 0.807485 0.650662
0.079870 0.926443 0.644918
0.119476 0.927476 0.644664
0.261419 0.931027 0.646925
0.404219 0.934627 0.649230
0.547798 0.938271 0.651574
0.692085 0.941957 0.653952
0.835429 0.945644 0.656321
0.958599 0.948862 0.658211
0.992847 0.949938 0.657943
0.084652 0.974995 0.644672
0.124686 0.975960 0.644490
0.267967 0.979437 0.646834
0.411942 0.982932 0.649207
0.556553 0.986442 0.651603
0.701749 0.989966 0.654017
0.845301 0.993450 0.656393
0.964346 0.996338 0.658168
0.997110 0.997126 0.657834
0.007285 0.018948 0.748650
0.040534 0.018876 0.746752
0.161880 0.020987 0.747071
0.286043 0.023208 0.747529
0.412858 0.025533 0.748121
0.542162 0.027957 0.748842
0.673801 0.030477 0.749686
0.806717 0.033066 0.750627
0.848927 0.033484 0.749424
0.011252 0.069177 0.743932
0.045859 0.069210 0.742300
0.171721 0.071506 0.742957
0.300039 0.073904 0.743741
0.430658 0.076399 0.744645
0.563428 0.078987 0.745665
0.698204 0.081664 0.746795
0.832641 0.084372 0.747978
0.874186 0.084858 0.746957
0.022591 0.212860 0.747198
0.058381 0.212924 0.745808
0.188163 0.215326 0.746768
0.320064 0.217829 0.747842
0.453941 0.220429 0.749023
0.589657 0.223123 0.750308
0.727076 0.225905 0.751691
0.861845 0.228668 0.753063
0.902501 0.229187 0.752198
0.034037 0.356160 0.751131
0.070858 0.356311 0.749964
0.204014 0.358864 0.751201
0.338979 0.361518 0.752537
0.475621 0.364267 0.753969
0.613814 0.367109 0.755491
0.753434 0.370038 0.757097
0.887369 0.372881 0.758614
0.926949 0.373479 0.757881
0.045615 0.499384 0.755691
0.083323 0.499673 0.754729
0.219352 0.502418 0.756212
0.356904 0.505261 0.757782
0.495861 0.508199 0.759435
0.636107 0.511227 0.761164
0.777534 0.514341 0.762966
0.909546 0.517283 0.764579
0.947895 0.518000 0.763951
0.057344 0.642814 0.760831
0.095811 0.643285 0.760051
0.234253 0.646256 0.761750
0.373962 0.649322 0.763523
0.514830 0.652481 0.765365
0.656756 0.655728 0.767270
0.799332 0.659051 0.769227
0.928770 0.662113 0.770896
0.965771 0.662982 0.770346
0.069244 0.786702 0.766490
0.108352 0.787392 0.765868
0.248796 0.790617 0.767750
0.390279 0.793935 0.769693
0.532706 0.797341 0.771690
0.675992 0.800832 0.773737
0.819075 0.804379 0.775805
0.945493 0.807579 0.777491
0.981067 0.808624 0.776985
0.081043 0.927539 0.772311
0.120695 0.928581 0.771826
0.262785 0.932143 0.773860
0.405715 0.935753 0.775937
0.549408 0.939406 0.778051
0.693793 0.943101 0.780198
0.837158 0.946794 0.782333
0.959933 0.950009 0.783975
0.994030 0.951086 0.783463
0.085829 0.976061 0.771282
0.125901 0.977025 0.770868
0.269301 0.980503 0.772981
0.413382 0.983998 0.775119
0.558086 0.987509 0.777278
0.703367 0.991033 0.779453
0.846943 0.994516 0.781583
0.965548 0.997391 0.783096
0.998167 0.998173 0.782502
0.008173 0.019554 0.856118
0.041580 0.019511 0.855713
0.163423 0.021660 0.857461
0.288044 0.023916 0.859279
0.415279 0.026275 0.861161
0.544969 0.028732 0.863104
0.676957 0.031282 0.865102
0.810089 0.033897 0.867126
0.852252 0.034336 0.866936
0.012195 0.069847 0.856129
0.046941 0.069908 0.855756
0.173236 0.072238 0.857611
0.301950 0.074668 0.859525
0.432931 0.077195 0.861493
0.566030 0.079813 0.863511
0.701103 0.082518 0.865574
0.835636 0.085248 0.867621
0.877108 0.085752 0.867400
0.023581 0.213562 0.863348
0.059491 0.213655 0.862992
0.189647 0.216091 0.864928
0.321888 0.218626 0.866913
0.456074 0.221257 0.868942
0.592067 0.223980 0.871013
0.729735 0.226789 0.873119
0.864477 0.229573 0.875150
0.905038 0.230110 0.874882
0.035069 0.356909 0.870493
0.071993 0.357089 0.870147
0.205468 0.359676 0.872148
0.340721 0.362360 0.874188
0.477623 0.365140 0.876263
0.616046 0.368010 0.878370
0.755871 0.370966 0.880504
0.889663 0.373827 0.882484
0.929129 0.374443 0.882160
0.046684 0.500194 0.877562
0.084480 0.500511 0.877219
0.220777 0.503288 0.879267
0.358571 0.506161 0.881345
0.497742 0.509128 0.883450
0.638178 0.512183 0.885578
0.779769 0.515324 0.887724
0.911533 0.518280 0.889621
0.949754 0.519014 0.889230
0.058446 0.643694 0.884548
0.096987 0.644193 0.884198
0.235652 0.647194 0.886277
0.375559 0.650290 0.888376
0.516602 0.653477 0.890494
0.658681 0.656750 0.892626
0.801324 0.660096 0.894758
0.930488 0.663172 0.896550
0.967349 0.664057 0.896080
0.070375 0.787661 0.891436
0.109544 0.788378 0.891070
0.250171 0.791632 0.893161
0.391814 0.794978 0.895265
0.534383 0.798410 0.897378
0.677791 0.801925 0.899497
0.820910 0.805493 0.901592
0.946987 0.808704 0.903255
0.982413 0.809764 0.902693
0.082202 0.928624 0.897923
0.121902 0.929677 0.897535
0.264140 0.933252 0.899625
0.407198 0.936874 0.901715
0.551004 0.940538 0.903802
0.695488 0.944243 0.905885
0.838874 0.947943 0.907916
0.961250 0.951154 0.909412
0.995196 0.952233 0.908728
0.087001 0.977120 0.897042
0.127111 0.978085 0.896584
0.270629 0.981565 0.898619
0.414814 0.985062 0.900643
0.559612 0.988573 0.902656
0.704978 0.992098 0.904652
0.848579 0.995580 0.906575
0.966742 0.998442 0.907845
0.999218 0.999219 0.906994
0.008558 0.019659 0.903341
0.042116 0.019641 0.903940
0.164445 0.021823 0.906656
0.289514 0.024111 0.909393
0.417161 0.026500 0.912148
0.547226 0.028985 0.914917
0.679556 0.031563 0.917696
0.812889 0.034202 0.920455
0.854999 0.034657 0.920948
0.012621 0.070002 0.906535
0.047500 0.070088 0.907011
0.174218 0.072449 0.909678
0.303321 0.074909 0.912358
0.434656 0.077463 0.915048
0.568076 0.080108 0.917744
0.703438 0.082838 0.920442
0.838052 0.085589 0.923077
0.879447 0.086108 0.923399
0.024043 0.213741 0.916421
0.060069 0.213859 0.916765
0.190590 0.216326 0.919365
0.323164 0.218891 0.921970
0.457651 0.221550 0.924578
0.593915 0.224299 0.927185
0.731825 0.227134 0.929788
0.866527 0.229936 0.932268
0.906989 0.230489 0.932411
0.035564 0.357127 0.925742
0.072588 0.357334 0.925954
0.206375 0.359950 0.928478
0.341910 0.362665 0.931001
0.479064 0.365472 0.933520
0.617713 0.368369 0.936031
0.757736 0.371351 0.938531
0.891374 0.374228 0.940833
0.930723 0.374859 0.940795
0.047209 0.500465 0.934521
0.085091 0.500809 0.934603
0.221651 0.503616 0.937043
0.359679 0.506519 0.939475
0.499060 0.509513 0.941897
0.639680 0.512595 0.944306
0.781432 0.515760 0.946699
0.912938 0.518731 0.948799
0.951028 0.519481 0.948581
0.059000 0.644032 0.942781
0.097612 0.644557 0.942732
0.236496 0.647588 0.945081
0.376596 0.650713 0.947416
0.517810 0.653926 0.949735
0.660037 0.657224 0.952035
0.802743 0.660593 0.954304
0.931627 0.663682 0.956193
0.968347 0.664583 0.955796
0.070955 0.788075 0.950540
0.110183 0.788818 0.950361
0.250989 0.792101 0.952611
0.392790 0.795474 0.954842
0.535496 0.798932 0.957053
0.679024 0.802471 0.959240
0.822176 0.806060 0.961375
0.947907 0.809282 0.963042
0.983185 0.810356 0.962465
0.082808 0.929157 0.957532
0.122556 0.930222 0.957228
0.264937 0.933810 0.959376
0.408122 0.937443 0.961497
0.552038 0.941118 0.963591
0.696619 0.944833 0.965654
0.840028 0.948541 0.967643
0.962000 0.951749 0.969065
0.995796 0.952830 0.968294
0.087619 0.977625 0.956817
0.127768 0.978591 0.956353
0.271402 0.982074 0.958361
0.415690 0.985572 0.960336
0.560581 0.989085 0.962279
0.706031 0.992611 0.964187
0.849661 0.996093 0.966003
0.967379 0.998943 0.967141
0.999716 0.999716 0.966153
