library/cube/Teal_Fire_001.cube
# CINEGRADE LAB — Premium Cinematic LUT
# Title: Teal Fire
# Category: Teal & Orange Modern
# Description: Complementary colors with modern cinematic teal and orange grading
# Mood: Blockbuster, cinematic, contemporary
# Variant: 2
# Generated: 2026-05-21T16:12:58.386946
TITLE "Teal Fire"
LUT_3D_SIZE 5
0.000753 0.016587 0.014891
0.149190 0.016378 0.014890
0.403291 0.017704 0.016394
0.670664 0.019377 0.018216
0.846878 0.020055 0.019015
0.009224 0.211009 0.017488
0.171655 0.210976 0.018137
0.445621 0.212604 0.020358
0.729548 0.214585 0.022843
0.907644 0.215428 0.024106
0.022531 0.503420 0.025729
0.195528 0.503711 0.026950
0.484166 0.505779 0.029782
0.779199 0.508212 0.032820
0.953043 0.509365 0.034423
0.036548 0.795173 0.035331
0.217216 0.796234 0.037051
0.516213 0.799139 0.040397
0.816612 0.802371 0.043864
0.982275 0.804167 0.045701
0.046987 0.983702 0.041797
0.232999 0.986082 0.043936
0.539017 0.990000 0.047683
0.841448 0.993872 0.051447
0.995618 0.995846 0.053365
0.001635 0.016761 0.222034
0.151652 0.016628 0.220728
0.408015 0.018038 0.220982
0.677293 0.019789 0.221592
0.854007 0.020526 0.221203
0.010161 0.211157 0.220342
0.173803 0.211215 0.219828
0.449469 0.212937 0.220927
0.734789 0.215005 0.222321
0.912682 0.215913 0.222502
0.023527 0.503608 0.224748
0.197418 0.504008 0.224913
0.487280 0.506185 0.226717
0.783062 0.508717 0.228740
0.956262 0.509946 0.229327
0.037612 0.795571 0.230843
0.218911 0.796749 0.231568
0.518746 0.799767 0.233931
0.819460 0.803100 0.236412
0.984088 0.804971 0.237242
0.048129 0.984548 0.233966
0.234565 0.986930 0.235111
0.541145 0.990850 0.237854
0.843682 0.994719 0.240589
0.996562 0.996672 0.241430
0.002880 0.017311 0.510188
0.154435 0.017252 0.507071
0.412997 0.018742 0.505584
0.684123 0.020568 0.504509
0.861266 0.021359 0.502471
0.011454 0.211681 0.502572
0.176271 0.211825 0.500439
0.453582 0.213638 0.499974
0.740247 0.215790 0.499846
0.917865 0.216759 0.498523
0.024873 0.504174 0.501662
0.199628 0.504678 0.500352
0.490668 0.506960 0.500716
0.787145 0.509587 0.501320
0.959655 0.510888 0.500488
0.039020 0.796343 0.502869
0.220925 0.797634 0.502199
0.521563 0.800762 0.503177
0.822559 0.804190 0.504267
0.986118 0.806132 0.503681
0.049608 0.985724 0.501294
0.236451 0.988105 0.501033
0.543571 0.992026 0.502351
0.846207 0.995890 0.503622
0.997780 0.997820 0.502936
0.004128 0.017877 0.797061
0.157182 0.017891 0.792176
0.417883 0.019460 0.788990
0.690802 0.021359 0.786268
0.868305 0.022204 0.782617
0.012751 0.212227 0.783659
0.178708 0.212457 0.779942
0.457615 0.214359 0.777946
0.745578 0.216594 0.776324
0.922849 0.217621 0.773522
0.026224 0.504769 0.777540
0.201813 0.505377 0.774779
0.493990 0.507762 0.773724
0.791112 0.510481 0.772922
0.962886 0.511852 0.770681
0.040434 0.797150 0.773925
0.222921 0.798552 0.771867
0.524330 0.801786 0.771464
0.825578 0.805307 0.771161
0.988036 0.807316 0.769151
0.051091 0.986897 0.767659
0.238324 0.989276 0.765982
0.545966 0.993198 0.765857
0.848700 0.997056 0.765639
0.998955 0.998962 0.763388
0.004783 0.017863 0.946959
0.159333 0.017984 0.948325
0.422147 0.019664 0.950795
0.696834 0.021664 0.953135
0.874654 0.022587 0.953953
0.013562 0.212306 0.952143
0.180652 0.212646 0.952700
0.461127 0.214658 0.954430
0.750363 0.216995 0.955991
0.927237 0.218098 0.955834
0.027166 0.504981 0.958175
0.203579 0.505707 0.957891
0.496865 0.508208 0.958827
0.794595 0.511030 0.959541
0.965604 0.512480 0.958355
0.041487 0.797626 0.960947
0.224546 0.799147 0.959806
0.526703 0.802493 0.959914
0.828182 0.806110 0.959736
0.989515 0.808188 0.957485
0.052240 0.987727 0.956173
0.239853 0.990111 0.954152
0.548006 0.994036 0.953386
0.850841 0.997892 0.952263
0.999776 0.999776 0.948881
