library/cube/Teal_Fire_001.cube
# CINEGRADE LAB — Premium Cinematic LUT
# Title: Teal Fire
# Category: Teal & Orange Modern
# Description: Complementary colors with modern cinematic teal and orange grading
# Mood: Blockbuster, cinematic, contemporary
# Variant: 2
# Generated: 2026-05-21T16:12:58.386946
TITLE "Teal Fire"
LUT_3D_SIZE 33
0.000753 0.016587 0.014891
0.000741 0.016313 0.014645
0.000730 0.016042 0.014401
0.000721 0.015774 0.014160
0.027631 0.015853 0.014265
0.057659 0.015975 0.014413
0.087931 0.016104 0.014567
0.118442 0.016238 0.014726
0.149190 0.016378 0.014890
0.180171 0.016524 0.015060
0.211382 0.016675 0.015235
0.242820 0.016833 0.015416
0.274480 0.016996 0.015601
0.306361 0.017165 0.015792
0.338458 0.017339 0.015988
0.370769 0.017519 0.016188
0.403291 0.017704 0.016394
0.436020 0.017895 0.016605
0.468952 0.018091 0.016821
0.502086 0.018292 0.017041
0.535418 0.018499 0.017267
0.568945 0.018710 0.017497
0.602664 0.018928 0.017732
0.636571 0.019150 0.017972
0.670664 0.019377 0.018216
0.704941 0.019609 0.018465
0.739382 0.019846 0.018718
0.773743 0.020085 0.018973
0.808236 0.020328 0.019231
0.839734 0.020536 0.019453
0.842145 0.020373 0.019306
0.844526 0.020213 0.019159
0.846878 0.020055 0.019015
0.000718 0.015677 0.014072
0.000709 0.015413 0.013834
0.000702 0.015151 0.013599
0.000697 0.014893 0.013365
0.027979 0.014987 0.013484
0.058412 0.015124 0.013645
0.089081 0.015267 0.013812
0.119983 0.015415 0.013984
0.151113 0.015570 0.014161
0.182469 0.015730 0.014343
0.214048 0.015896 0.014531
0.245845 0.016067 0.014724
0.277859 0.016244 0.014922
0.310086 0.016427 0.015125
0.342523 0.016615 0.015333
0.375166 0.016808 0.015546
0.408013 0.017007 0.015763
0.441060 0.017211 0.015986
0.474304 0.017420 0.016213
0.507742 0.017635 0.016446
0.541372 0.017854 0.016683
0.575190 0.018079 0.016924
0.609193 0.018309 0.017170
0.643379 0.018544 0.017421
0.677744 0.018783 0.017677
0.712285 0.019028 0.017936
0.746913 0.019276 0.018200
0.781448 0.019526 0.018464
0.816102 0.019780 0.018732
0.847727 0.019998 0.018963
0.850038 0.019843 0.018821
0.852321 0.019691 0.018681
0.854573 0.019540 0.018543
0.000695 0.014800 0.013281
0.000691 0.014545 0.013051
0.000687 0.014293 0.012824
0.000686 0.014045 0.012598
0.028329 0.014153 0.012729
0.059154 0.014304 0.012904
0.090208 0.014462 0.013083
0.121487 0.014625 0.013268
0.152987 0.014793 0.013458
0.184707 0.014968 0.013652
0.216641 0.015147 0.013852
0.248788 0.015333 0.014058
0.281143 0.015523 0.014268
0.313705 0.015719 0.014483
0.346469 0.015921 0.014702
0.379433 0.016127 0.014927
0.412594 0.016339 0.015157
0.445948 0.016556 0.015391
0.479493 0.016779 0.015630
0.513225 0.017006 0.015873
0.547142 0.017238 0.016121
0.581241 0.017475 0.016374
0.615518 0.017718 0.016632
0.649971 0.017965 0.016893
0.684597 0.018217 0.017160
0.719393 0.018474 0.017430
0.754169 0.018733 0.017703
0.788858 0.018993 0.017976
0.823654 0.019258 0.018253
0.855386 0.019486 0.018494
0.857599 0.019338 0.018358
0.859783 0.019193 0.018224
0.861937 0.019050 0.018092
0.001214 0.026598 0.013045
0.001213 0.026347 0.012823
0.001213 0.026099 0.012603
0.001215 0.025854 0.012386
0.029208 0.025970 0.012529
0.060413 0.026130 0.012716
0.091839 0.026296 0.012907
0.123483 0.026467 0.013104
0.155342 0.026644 0.013306
0.187412 0.026826 0.013513
0.219690 0.027014 0.013725
0.252174 0.027208 0.013942
0.284859 0.027407 0.014164
0.317744 0.027611 0.014390
0.350824 0.027820 0.014622
0.384098 0.028035 0.014858
0.417561 0.028255 0.015099
0.451212 0.028480 0.015344
0.485046 0.028710 0.015594
0.519062 0.028945 0.015848
0.553255 0.029185 0.016108
0.587624 0.029430 0.016371
0.622165 0.029680 0.016639
0.656875 0.029934 0.016911
0.691753 0.030194 0.017188
0.726794 0.030458 0.017469
0.761675 0.030723 0.017750
0.796496 0.030990 0.018032
0.831414 0.031260 0.018318
0.863237 0.031494 0.018567
0.865352 0.031349 0.018437
0.867437 0.031207 0.018309
0.869494 0.031068 0.018182
0.002799 0.063633 0.013890
0.002802 0.063375 0.013675
0.002805 0.063119 0.013463
0.002810 0.062866 0.013252
0.031141 0.062980 0.013407
0.062713 0.063137 0.013605
0.094499 0.063301 0.013809
0.126496 0.063470 0.014017
0.158700 0.063645 0.014231
0.191109 0.063825 0.014449
0.223720 0.064011 0.014672
0.256528 0.064203 0.014900
0.289532 0.064400 0.015133
0.322728 0.064602 0.015371
0.356114 0.064810 0.015613
0.389686 0.065023 0.015860
0.423441 0.065241 0.016111
0.457376 0.065465 0.016367
0.491489 0.065694 0.016628
0.525777 0.065928 0.016893
0.560237 0.066166 0.017162
0.594865 0.066410 0.017436
0.629659 0.066659 0.017714
0.664617 0.066913 0.017996
0.699735 0.067172 0.018282
0.735011 0.067435 0.018573
0.769951 0.067697 0.018862
0.804887 0.067962 0.019152
0.839906 0.068231 0.019446
0.871802 0.068462 0.019702
0.873819 0.068314 0.019578
0.875807 0.068168 0.019455
0.877767 0.068024 0.019334
0.004393 0.100586 0.014757
0.004398 0.100320 0.014549
0.004405 0.100058 0.014344
0.004413 0.099800 0.014140
0.033071 0.099911 0.014306
0.064999 0.100068 0.014516
0.097133 0.100230 0.014731
0.129471 0.100398 0.014951
0.162010 0.100572 0.015176
0.194746 0.100751 0.015406
0.227677 0.100937 0.015640
0.260800 0.101127 0.015879
0.294111 0.101324 0.016123
0.327608 0.101525 0.016371
0.361288 0.101733 0.016624
0.395147 0.101945 0.016882
0.429183 0.102163 0.017143
0.463394 0.102387 0.017410
0.497775 0.102615 0.017681
0.532325 0.102849 0.017956
0.567041 0.103088 0.018235
0.601919 0.103332 0.018519
0.636957 0.103581 0.018807
0.672152 0.103835 0.019099
0.707502 0.104094 0.019395
0.743003 0.104358 0.019696
0.777955 0.104618 0.019991
0.812985 0.104881 0.020290
0.848087 0.105149 0.020591
0.880037 0.105379 0.020854
0.881958 0.105228 0.020735
0.883850 0.105079 0.020618
0.885714 0.104933 0.020503
0.005995 0.137461 0.015645
0.006003 0.137191 0.015445
0.006013 0.136924 0.015246
0.006024 0.136660 0.015050
0.034999 0.136771 0.015227
0.067270 0.136927 0.015449
0.099741 0.137090 0.015675
0.132409 0.137258 0.015906
0.165271 0.137432 0.016142
0.198324 0.137611 0.016383
0.231565 0.137797 0.016628
0.264991 0.137988 0.016878
0.298598 0.138185 0.017133
0.332385 0.138387 0.017392
0.366349 0.138595 0.017655
0.400485 0.138808 0.017923
0.434793 0.139027 0.018195
0.469267 0.139251 0.018472
0.503907 0.139480 0.018753
0.538709 0.139715 0.019038
0.573671 0.139955 0.019327
0.608789 0.140200 0.019621
0.644061 0.140450 0.019919
0.679484 0.140706 0.020220
0.715056 0.140966 0.020526
0.750649 0.141230 0.020834
0.785688 0.141490 0.021138
0.820793 0.141753 0.021444
0.855959 0.142021 0.021753
0.887948 0.142251 0.022023
0.889773 0.142097 0.021910
0.891571 0.141947 0.021798
0.893340 0.141799 0.021687
0.007605 0.174267 0.016556
0.007617 0.173992 0.016362
0.007630 0.173722 0.016171
0.007645 0.173455 0.015982
0.036926 0.173566 0.016170
0.069529 0.173723 0.016403
0.102325 0.173887 0.016640
0.135312 0.174056 0.016882
0.168486 0.174231 0.017129
0.201844 0.174412 0.017381
0.235384 0.174599 0.017637
0.269102 0.174791 0.017898
0.302996 0.174990 0.018163
0.337063 0.175193 0.018432
0.371299 0.175403 0.018706
0.405703 0.175618 0.018984
0.440271 0.175839 0.019267
0.475000 0.176064 0.019553
0.509889 0.176296 0.019844
0.544933 0.176533 0.020139
0.580131 0.176775 0.020438
0.615480 0.177022 0.020742
0.650976 0.177274 0.021049
0.686619 0.177532 0.021360
0.722403 0.177794 0.021675
0.758048 0.178059 0.021991
0.793155 0.178319 0.022302
0.828316 0.178584 0.022615
0.863527 0.178852 0.022931
0.895538 0.179082 0.023209
0.897269 0.178928 0.023100
0.898972 0.178777 0.022994
0.900648 0.178629 0.022889
0.009224 0.211009 0.017488
0.009240 0.210732 0.017301
0.009256 0.210459 0.017117
0.009274 0.210189 0.016935
0.038851 0.210302 0.017134
0.071775 0.210462 0.017378
0.104886 0.210627 0.017627
0.138180 0.210799 0.017880
0.171655 0.210976 0.018137
0.205308 0.211159 0.018400
0.239136 0.211349 0.018666
0.273136 0.211544 0.018937
0.307306 0.211744 0.019213
0.341642 0.211951 0.019493
0.376141 0.212163 0.019777
0.410802 0.212381 0.020065
0.445621 0.212604 0.020358
0.480596 0.212833 0.020654
0.515723 0.213067 0.020955
0.551000 0.213307 0.021260
0.586425 0.213552 0.021568
0.621995 0.213803 0.021881
0.657707 0.214058 0.022198
0.693559 0.214319 0.022519
0.729548 0.214585 0.022843
0.765202 0.214850 0.023165
0.800358 0.215112 0.023483
0.835558 0.215378 0.023804
0.870795 0.215648 0.024127
0.902811 0.215880 0.024410
0.904449 0.215727 0.024307
0.906060 0.215576 0.024206
0.907644 0.215428 0.024106
0.010853 0.247694 0.018442
0.010872 0.247416 0.018262
0.010892 0.247142 0.018085
0.010913 0.246871 0.017910
0.040776 0.246987 0.018120
0.074010 0.247149 0.018375
0.107424 0.247318 0.018634
0.141015 0.247492 0.018898
0.174781 0.247673 0.019166
0.208718 0.247860 0.019439
0.242824 0.248053 0.019716
0.277095 0.248251 0.019998
0.311530 0.248455 0.020283
0.346125 0.248666 0.020573
0.380878 0.248881 0.020867
0.415786 0.249103 0.021166
0.450846 0.249330 0.021468
0.486056 0.249563 0.021774
0.521413 0.249801 0.022085
0.556914 0.250045 0.022399
0.592557 0.250294 0.022717
0.628339 0.250549 0.023039
0.664257 0.250808 0.023365
0.700310 0.251073 0.023695
0.736495 0.251344 0.024029
0.772116 0.251611 0.024357
0.807303 0.251875 0.024682
0.842521 0.252144 0.025009
0.877767 0.252416 0.025339
0.909772 0.252650 0.025629
0.911319 0.252498 0.025531
0.912839 0.252349 0.025435
0.914332 0.252203 0.025340
0.012491 0.284329 0.019417
0.012513 0.284051 0.019245
0.012537 0.283776 0.019075
0.012561 0.283506 0.018907
0.042700 0.283625 0.019127
0.076233 0.283792 0.019393
0.109940 0.283964 0.019663
0.143817 0.284143 0.019937
0.177863 0.284329 0.020216
0.212074 0.284520 0.020499
0.246448 0.284717 0.020787
0.280981 0.284920 0.021078
0.315671 0.285129 0.021374
0.350516 0.285343 0.021674
0.385512 0.285564 0.021978
0.420658 0.285790 0.022286
0.455950 0.286022 0.022598
0.491385 0.286260 0.022914
0.526962 0.286503 0.023234
0.562678 0.286752 0.023557
0.598529 0.287006 0.023885
0.634515 0.287265 0.024216
0.670631 0.287530 0.024551
0.706876 0.287801 0.024890
0.743248 0.288076 0.025232
0.778793 0.288345 0.025566
0.813992 0.288613 0.025898
0.849212 0.288885 0.026231
0.884448 0.289160 0.026567
0.916426 0.289398 0.026863
0.917883 0.289248 0.026770
0.919314 0.289101 0.026679
0.920718 0.288958 0.026590
0.014139 0.320920 0.020415
0.014164 0.320642 0.020250
0.014191 0.320369 0.020087
0.014219 0.320100 0.019926
0.044624 0.320224 0.020156
0.078446 0.320395 0.020432
0.112435 0.320574 0.020713
0.146589 0.320758 0.020998
0.180904 0.320948 0.021287
0.215379 0.321145 0.021580
0.250010 0.321347 0.021878
0.284795 0.321556 0.022179
0.319731 0.321770 0.022485
0.354815 0.321990 0.022795
0.390046 0.322217 0.023108
0.425419 0.322449 0.023426
0.460933 0.322686 0.023747
0.496586 0.322930 0.024073
0.532374 0.323179 0.024402
0.568295 0.323433 0.024735
0.604347 0.323693 0.025071
0.640527 0.323959 0.025412
0.676833 0.324230 0.025756
0.713262 0.324506 0.026103
0.749812 0.324788 0.026454
0.785237 0.325059 0.026793
0.820431 0.325331 0.027130
0.855635 0.325607 0.027470
0.890843 0.325886 0.027812
0.922779 0.326128 0.028114
0.924148 0.325981 0.028026
0.925491 0.325838 0.027940
0.926808 0.325698 0.027856
0.015796 0.357473 0.021434
0.015826 0.357197 0.021276
0.015856 0.356926 0.021120
0.015887 0.356659 0.020966
0.046549 0.356789 0.021207
0.080649 0.356967 0.021493
0.114910 0.357151 0.021784
0.149329 0.357341 0.022079
0.183905 0.357538 0.022379
0.218633 0.357741 0.022682
0.253512 0.357949 0.022989
0.288539 0.358164 0.023301
0.323711 0.358385 0.023616
0.359026 0.358612 0.023935
0.394481 0.358845 0.024258
0.430073 0.359084 0.024585
0.465801 0.359328 0.024916
0.501661 0.359578 0.025251
0.537652 0.359834 0.025589
0.573770 0.360095 0.025931
0.610013 0.360362 0.026276
0.646379 0.360635 0.026625
0.682866 0.360913 0.026978
0.719471 0.361196 0.027334
0.756191 0.361485 0.027694
0.791454 0.361759 0.028037
0.826624 0.362035 0.028380
0.861794 0.362316 0.028726
0.896959 0.362600 0.029074
0.928837 0.362846 0.029381
0.930119 0.362704 0.029298
0.931376 0.362565 0.029217
0.932608 0.362430 0.029138
0.017464 0.393993 0.022476
0.017497 0.393721 0.022324
0.017531 0.393453 0.022175
0.017566 0.393190 0.022028
0.048475 0.393326 0.022278
0.082843 0.393511 0.022575
0.117366 0.393702 0.022876
0.152041 0.393900 0.023182
0.186866 0.394103 0.023491
0.221838 0.394313 0.023804
0.256956 0.394530 0.024121
0.292215 0.394752 0.024442
0.327614 0.394980 0.024767
0.363150 0.395214 0.025096
0.398820 0.395455 0.025428
0.434623 0.395701 0.025764
0.470555 0.395953 0.026104
0.506615 0.396210 0.026448
0.542799 0.396474 0.026795
0.579105 0.396743 0.027146
0.615532 0.397018 0.027500
0.652076 0.397298 0.027858
0.688735 0.397584 0.028219
0.725508 0.397875 0.028583
0.762310 0.398170 0.028950
0.797447 0.398449 0.029298
0.832578 0.398731 0.029647
0.867697 0.399017 0.029998
0.902800 0.399306 0.030351
0.934605 0.399558 0.030664
0.935803 0.399421 0.030586
0.936976 0.399288 0.030510
0.938125 0.399158 0.030436
0.019142 0.430488 0.023538
0.019179 0.430219 0.023394
0.019216 0.429956 0.023252
0.019255 0.429697 0.023111
0.050403 0.429841 0.023372
0.085028 0.430034 0.023679
0.119803 0.430233 0.023990
0.154724 0.430439 0.024305
0.189789 0.430650 0.024624
0.224996 0.430869 0.024946
0.260342 0.431093 0.025273
0.295825 0.431323 0.025603
0.331442 0.431560 0.025938
0.367190 0.431803 0.026276
0.403067 0.432051 0.026617
0.439071 0.432306 0.026962
0.475199 0.432566 0.027311
0.511449 0.432832 0.027664
0.547818 0.433104 0.028020
0.584305 0.433382 0.028379
0.620906 0.433665 0.028742
0.657621 0.433954 0.029108
0.694445 0.434248 0.029478
0.731377 0.434548 0.029850
0.768133 0.434850 0.030223
0.803224 0.435134 0.030576
0.838297 0.435422 0.030931
0.873348 0.435714 0.031287
0.908373 0.436010 0.031645
0.940090 0.436268 0.031963
0.941206 0.436137 0.031890
0.942297 0.436010 0.031819
0.943364 0.435887 0.031749
0.020831 0.466961 0.024623
0.020871 0.466698 0.024485
0.020913 0.466440 0.024350
0.020955 0.466187 0.024216
0.052332 0.466339 0.024486
0.087205 0.466541 0.024803
0.122222 0.466749 0.025124
0.157380 0.466964 0.025448
0.192676 0.467185 0.025777
0.228109 0.467412 0.026109
0.263674 0.467645 0.026445
0.299371 0.467885 0.026785
0.335196 0.468130 0.027128
0.371148 0.468382 0.027475
0.407223 0.468640 0.027826
0.443419 0.468903 0.028180
0.479735 0.469173 0.028537
0.516167 0.469448 0.028898
0.552714 0.469729 0.029263
0.589373 0.470016 0.029631
0.626141 0.470309 0.030002
0.663017 0.470607 0.030377
0.699999 0.470911 0.030754
0.737084 0.471220 0.031135
0.773761 0.471529 0.031513
0.808788 0.471820 0.031871
0.843787 0.472115 0.032231
0.878754 0.472414 0.032592
0.913684 0.472716 0.032955
0.945300 0.472980 0.033277
0.946335 0.472857 0.033209
0.947346 0.472737 0.033143
0.948335 0.472621 0.033078
0.022531 0.503420 0.025729
0.022575 0.503163 0.025598
0.022620 0.502912 0.025469
0.022666 0.502665 0.025342
0.054264 0.502826 0.025622
0.089375 0.503038 0.025948
0.124625 0.503256 0.026279
0.160010 0.503480 0.026613
0.195528 0.503711 0.026950
0.231176 0.503948 0.027292
0.266953 0.504191 0.027637
0.302855 0.504441 0.027986
0.338880 0.504696 0.028338
0.375026 0.504958 0.028694
0.411291 0.505225 0.029053
0.447671 0.505499 0.029416
0.484166 0.505779 0.029782
0.520773 0.506064 0.030152
0.557488 0.506355 0.030525
0.594312 0.506652 0.030901
0.631240 0.506955 0.031280
0.668270 0.507264 0.031663
0.705402 0.507578 0.032049
0.742632 0.507897 0.032438
0.779199 0.508212 0.032820
0.814145 0.508511 0.033183
0.849054 0.508814 0.033548
0.883921 0.509120 0.033914
0.918741 0.509430 0.034281
0.950241 0.509701 0.034607
0.951197 0.509585 0.034544
0.952131 0.509473 0.034483
0.953043 0.509365 0.034423
0.024242 0.539869 0.026856
0.024290 0.539620 0.026732
0.024338 0.539376 0.026610
0.024388 0.539136 0.026490
0.056198 0.539308 0.026778
0.091539 0.539530 0.027114
0.127012 0.539758 0.027454
0.162615 0.539993 0.027797
0.198345 0.540235 0.028144
0.234201 0.540482 0.028495
0.270179 0.540736 0.028849
0.306278 0.540996 0.029207
0.342494 0.541263 0.029568
0.378827 0.541535 0.029932
0.415273 0.541813 0.030300
0.451830 0.542098 0.030672
0.488496 0.542388 0.031046
0.525269 0.542685 0.031424
0.562146 0.542987 0.031805
0.599126 0.543295 0.032189
0.636206 0.543608 0.032577
0.673384 0.543927 0.032967
0.710658 0.544252 0.033361
0.748026 0.544583 0.033757
0.784453 0.544905 0.034144
0.819303 0.545212 0.034511
0.854106 0.545523 0.034881
0.888856 0.545837 0.035251
0.923550 0.546154 0.035622
0.954920 0.546434 0.035952
0.955801 0.546327 0.035894
0.956660 0.546224 0.035837
0.957497 0.546124 0.035782
0.025964 0.576314 0.028005
0.026016 0.576073 0.027887
0.026068 0.575837 0.027771
0.026122 0.575606 0.027658
0.058135 0.575789 0.027956
0.093696 0.576022 0.028301
0.129383 0.576262 0.028650
0.165196 0.576508 0.029002
0.201130 0.576761 0.029358
0.237184 0.577020 0.029718
0.273356 0.577285 0.030081
0.309642 0.577557 0.030447
0.346042 0.577835 0.030817
0.382553 0.578119 0.031190
0.419172 0.578409 0.031566
0.455897 0.578704 0.031946
0.492727 0.579006 0.032328
0.529658 0.579314 0.032714
0.566690 0.579628 0.033103
0.603819 0.579947 0.033495
0.641043 0.580272 0.033891
0.678362 0.580603 0.034289
0.715771 0.580940 0.034690
0.753271 0.581282 0.035094
0.789528 0.581612 0.035484
0.824267 0.581928 0.035856
0.858948 0.582247 0.036230
0.893567 0.582569 0.036604
0.928119 0.582895 0.036979
0.959347 0.583183 0.037313
0.960154 0.583085 0.037259
0.960940 0.582991 0.037207
0.961704 0.582902 0.037156
0.027698 0.612760 0.029174
0.027753 0.612528 0.029063
0.027810 0.612301 0.028954
0.027867 0.612079 0.028847
0.060076 0.612274 0.029154
0.095847 0.612520 0.029508
0.131741 0.612772 0.029866
0.167753 0.613030 0.030227
0.203883 0.613295 0.030592
0.240127 0.613566 0.030960
0.276484 0.613843 0.031332
0.312950 0.614127 0.031706
0.349525 0.614417 0.032085
0.386206 0.614713 0.032466
0.422991 0.615015 0.032850
0.459877 0.615323 0.033238
0.496862 0.615638 0.033629
0.533945 0.615958 0.034023
0.571123 0.616283 0.034419
0.608394 0.616615 0.034819
0.645757 0.616952 0.035222
0.683208 0.617295 0.035628
0.720747 0.617644 0.036036
0.758371 0.617998 0.036448
0.794432 0.618337 0.036841
0.829043 0.618662 0.037217
0.863587 0.618990 0.037594
0.898060 0.619321 0.037972
0.932456 0.619656 0.038351
0.963528 0.619953 0.038689
0.964264 0.619865 0.038640
0.964979 0.619781 0.038592
0.965675 0.619702 0.038545
0.029444 0.649212 0.030365
0.029503 0.648990 0.030260
0.029563 0.648773 0.030157
0.029624 0.648561 0.030057
0.062021 0.648769 0.030372
0.097994 0.649027 0.030736
0.134084 0.649292 0.031102
0.170289 0.649563 0.031472
0.206605 0.649841 0.031845
0.243031 0.650125 0.032222
0.279565 0.650415 0.032602
0.316204 0.650712 0.032985
0.352946 0.651014 0.033371
0.389789 0.651323 0.033761
0.426732 0.651638 0.034153
0.463771 0.651959 0.034549
0.500905 0.652286 0.034947
0.538132 0.652619 0.035349
0.575449 0.652958 0.035753
0.612856 0.653302 0.036161
0.650349 0.653652 0.036571
0.687928 0.654008 0.036984
0.725589 0.654370 0.037400
0.763332 0.654737 0.037818
0.799171 0.655084 0.038214
0.833640 0.655418 0.038594
0.868032 0.655756 0.038975
0.902343 0.656097 0.039356
0.936569 0.656441 0.039738
0.967473 0.656747 0.040079
0.968140 0.656670 0.040034
0.968788 0.656597 0.039991
0.969416 0.656528 0.039949
0.031202 0.685675 0.031576
0.031264 0.685463 0.031478
0.031328 0.685257 0.031381
0.031393 0.685057 0.031287
0.063969 0.685277 0.031611
0.100137 0.685549 0.031983
0.136415 0.685827 0.032358
0.172803 0.686112 0.032737
0.209298 0.686403 0.033118
0.245898 0.686701 0.033503
0.282601 0.687005 0.033891
0.319404 0.687315 0.034282
0.356306 0.687631 0.034677
0.393304 0.687953 0.035074
0.430397 0.688282 0.035474
0.467582 0.688616 0.035877
0.504858 0.688957 0.036284
0.542222 0.689303 0.036693
0.579673 0.689655 0.037105
0.617208 0.690013 0.037519
0.654826 0.690377 0.037937
0.692525 0.690746 0.038357
0.730302 0.691121 0.038780
0.768157 0.691502 0.039205
0.803751 0.691858 0.039603
0.838063 0.692202 0.039987
0.872288 0.692549 0.040371
0.906424 0.692900 0.040755
0.940466 0.693254 0.041140
0.971189 0.693570 0.041484
0.971791 0.693504 0.041443
0.972373 0.693442 0.041404
0.972937 0.693385 0.041366
0.032971 0.722153 0.032807
0.033038 0.721953 0.032715
0.033106 0.721759 0.032626
0.033175 0.721570 0.032538
0.065923 0.721804 0.032870
0.102276 0.722090 0.033250
0.138735 0.722383 0.033634
0.175298 0.722681 0.034020
0.211964 0.722987 0.034410
0.248730 0.723298 0.034803
0.285594 0.723616 0.035199
0.322554 0.723941 0.035598
0.359608 0.724271 0.036000
0.396754 0.724607 0.036405
0.433990 0.724950 0.036813
0.471315 0.725299 0.037224
0.508725 0.725653 0.037638
0.546220 0.726013 0.038054
0.583796 0.726380 0.038473
0.621454 0.726751 0.038895
0.659190 0.727129 0.039319
0.697003 0.727512 0.039746
0.734891 0.727901 0.040176
0.772853 0.728296 0.040608
0.808180 0.728661 0.041008
0.842320 0.729015 0.041395
0.876365 0.729373 0.041782
0.910312 0.729734 0.042169
0.944156 0.730098 0.042556
0.974687 0.730424 0.042902
0.975225 0.730370 0.042866
0.975745 0.730321 0.042831
0.976247 0.730275 0.042798
0.034754 0.758651 0.034059
0.034824 0.758463 0.033973
0.034896 0.758281 0.033890
0.034969 0.758105 0.033808
0.067882 0.758354 0.034148
0.104411 0.758655 0.034537
0.141043 0.758962 0.034929
0.177774 0.759276 0.035323
0.214603 0.759596 0.035721
0.251527 0.759922 0.036122
0.288545 0.760255 0.036526
0.325655 0.760594 0.036933
0.362854 0.760939 0.037342
0.400141 0.761290 0.037755
0.437514 0.761647 0.038170
0.474970 0.762010 0.038588
0.512509 0.762379 0.039009
0.550127 0.762754 0.039432
0.587824 0.763135 0.039858
0.625598 0.763521 0.040287
0.663447 0.763913 0.040718
0.701368 0.764311 0.041152
0.739361 0.764714 0.041588
0.777424 0.765123 0.042027
0.812464 0.765498 0.042428
0.846419 0.765863 0.042818
0.880271 0.766231 0.043207
0.914015 0.766603 0.043597
0.947648 0.766977 0.043986
0.977975 0.767314 0.044335
0.978453 0.767272 0.044303
0.978913 0.767235 0.044272
0.979356 0.767201 0.044243
0.036548 0.795173 0.035331
0.036623 0.794999 0.035251
0.036699 0.794830 0.035174
0.036776 0.794667 0.035098
0.069845 0.794931 0.035446
0.106544 0.795247 0.035843
0.143341 0.795569 0.036242
0.180232 0.795898 0.036645
0.217216 0.796234 0.037051
0.254292 0.796575 0.037459
0.291457 0.796923 0.037871
0.328709 0.797277 0.038285
0.366046 0.797638 0.038702
0.403467 0.798004 0.039121
0.440970 0.798376 0.039544
0.478552 0.798754 0.039969
0.516213 0.799139 0.040397
0.553949 0.799529 0.040827
0.591761 0.799924 0.041260
0.629645 0.800326 0.041695
0.667600 0.800733 0.042133
0.705624 0.801145 0.042573
0.743717 0.801563 0.043016
0.781875 0.801987 0.043461
0.816612 0.802371 0.043864
0.850368 0.802747 0.044256
0.884013 0.803127 0.044647
0.917541 0.803509 0.045039
0.950951 0.803894 0.045431
0.981063 0.804241 0.045781
0.981483 0.804213 0.045753
0.981887 0.804188 0.045727
0.982275 0.804167 0.045701
0.038356 0.831724 0.036622
0.038434 0.831563 0.036549
0.038514 0.831408 0.036477
0.038595 0.831259 0.036407
0.071815 0.831539 0.036763
0.108676 0.831871 0.037168
0.145629 0.832209 0.037575
0.182673 0.832554 0.037985
0.219806 0.832905 0.038399
0.257026 0.833262 0.038815
0.294330 0.833626 0.039233
0.331718 0.833996 0.039655
0.369187 0.834372 0.040079
0.406736 0.834754 0.040506
0.444362 0.835142 0.040935
0.482064 0.835535 0.041367
0.519840 0.835935 0.041801
0.557689 0.836340 0.042238
0.595609 0.836752 0.042678
0.633597 0.837168 0.043120
0.671654 0.837591 0.043564
0.709776 0.838018 0.044010
0.747963 0.838452 0.044459
0.786213 0.838890 0.044910
0.820630 0.839285 0.045314
0.854175 0.839672 0.045708
0.887600 0.840063 0.046102
0.920901 0.840456 0.046495
0.954074 0.840852 0.046888
0.983961 0.841210 0.047241
0.984327 0.841194 0.047217
0.984677 0.841183 0.047194
0.985012 0.841175 0.047172
0.040124 0.867053 0.037881
0.040208 0.866956 0.037815
0.040294 0.866864 0.037751
0.040381 0.866775 0.037689
0.073746 0.867117 0.038055
0.110763 0.867510 0.038469
0.147868 0.867908 0.038885
0.185060 0.868311 0.039305
0.222336 0.868720 0.039727
0.259694 0.869133 0.040152
0.297134 0.869552 0.040579
0.334652 0.869976 0.041009
0.372248 0.870404 0.041442
0.409919 0.870838 0.041877
0.447664 0.871277 0.042315
0.485482 0.871720 0.042755
0.523369 0.872168 0.043197
0.561326 0.872621 0.043642
0.599350 0.873078 0.044089
