library/cube/Teal_Fire_001.cube
# CINEGRADE LAB — Premium Cinematic LUT
# Title: Teal Fire
# Category: Teal & Orange Modern
# Description: Complementary colors with modern cinematic teal and orange grading
# Mood: Blockbuster, cinematic, contemporary
# Variant: 2
# Generated: 2026-05-21T16:12:58.386946
TITLE "Teal Fire"
LUT_3D_SIZE 9
0.000753 0.016587 0.014891
0.027631 0.015853 0.014265
0.149190 0.016378 0.014890
0.274480 0.016996 0.015601
0.403291 0.017704 0.016394
0.535418 0.018499 0.017267
0.670664 0.019377 0.018216
0.808236 0.020328 0.019231
0.846878 0.020055 0.019015
0.002799 0.063633 0.013890
0.031141 0.062980 0.013407
0.158700 0.063645 0.014231
0.289532 0.064400 0.015133
0.423441 0.065241 0.016111
0.560237 0.066166 0.017162
0.699735 0.067172 0.018282
0.839906 0.068231 0.019446
0.877767 0.068024 0.019334
0.009224 0.211009 0.017488
0.038851 0.210302 0.017134
0.171655 0.210976 0.018137
0.307306 0.211744 0.019213
0.445621 0.212604 0.020358
0.586425 0.213552 0.021568
0.729548 0.214585 0.022843
0.870795 0.215648 0.024127
0.907644 0.215428 0.024106
0.015796 0.357473 0.021434
0.046549 0.356789 0.021207
0.183905 0.357538 0.022379
0.323711 0.358385 0.023616
0.465801 0.359328 0.024916
0.610013 0.360362 0.026276
0.756191 0.361485 0.027694
0.896959 0.362600 0.029074
0.932608 0.362430 0.029138
0.022531 0.503420 0.025729
0.054264 0.502826 0.025622
0.195528 0.503711 0.026950
0.338880 0.504696 0.028338
0.484166 0.505779 0.029782
0.631240 0.506955 0.031280
0.779199 0.508212 0.032820
0.918741 0.509430 0.034281
0.953043 0.509365 0.034423
0.029444 0.649212 0.030365
0.062021 0.648769 0.030372
0.206605 0.649841 0.031845
0.352946 0.651014 0.033371
0.500905 0.652286 0.034947
0.650349 0.653652 0.036571
0.799171 0.655084 0.038214
0.936569 0.656441 0.039738
0.969416 0.656528 0.039949
0.036548 0.795173 0.035331
0.069845 0.794931 0.035446
0.217216 0.796234 0.037051
0.366046 0.797638 0.038702
0.516213 0.799139 0.040397
0.667600 0.800733 0.042133
0.816612 0.802371 0.043864
0.950951 0.803894 0.045431
0.982275 0.804167 0.045701
0.043688 0.937565 0.040444
0.077611 0.937971 0.040675
0.227308 0.939889 0.042412
0.378201 0.941850 0.044187
0.530185 0.943852 0.045997
0.683164 0.945892 0.047841
0.831891 0.947903 0.049649
0.962371 0.949703 0.051242
0.992151 0.950236 0.051563
0.046987 0.983702 0.041797
0.081413 0.984142 0.042107
0.232999 0.986082 0.043936
0.385562 0.988035 0.045795
0.539017 0.990000 0.047683
0.693292 0.991975 0.049597
0.841448 0.993872 0.051447
0.967369 0.995484 0.053025
0.995618 0.995846 0.053365
0.001013 0.016492 0.077469
0.028046 0.015774 0.076647
0.150247 0.016322 0.077086
0.276130 0.016962 0.077613
0.405487 0.017691 0.078225
0.538116 0.018506 0.078919
0.673821 0.019405 0.079693
0.811720 0.020374 0.080534
0.850294 0.020113 0.080141
0.003076 0.063556 0.075814
0.031555 0.062919 0.075146
0.159677 0.063607 0.075793
0.291027 0.064384 0.076522
0.425411 0.065247 0.077329
0.562640 0.066192 0.078211
0.702532 0.067217 0.079165
0.842882 0.068293 0.080162
0.880650 0.068099 0.079883
0.009516 0.210904 0.078793
0.039263 0.210218 0.078265
0.172558 0.210917 0.079102
0.308657 0.211710 0.080012
0.447381 0.212593 0.080995
0.588555 0.213564 0.082045
0.732012 0.214619 0.083161
0.873280 0.215700 0.084284
0.910016 0.215496 0.084104
0.016103 0.357367 0.082156
0.046962 0.356707 0.081763
0.184740 0.357483 0.082777
0.324931 0.358357 0.083857
0.467369 0.359326 0.085002
0.611894 0.360385 0.086208
0.758350 0.361532 0.087474
0.898984 0.362665 0.088698
0.934503 0.362513 0.088608
0.022855 0.503337 0.085898
0.054679 0.502770 0.085633
0.196304 0.503684 0.086810
0.339982 0.504697 0.088047
0.485561 0.505807 0.089341
0.632894 0.507010 0.090691
0.780975 0.508291 0.092081
0.920345 0.509528 0.093390
0.954504 0.509483 0.093382
0.029786 0.649174 0.090006
0.062441 0.648759 0.089862
0.207330 0.649861 0.091188
0.353943 0.651064 0.092567
0.502145 0.652364 0.093997
0.651803 0.653757 0.095475
0.800671 0.655214 0.096972
0.937800 0.656590 0.098345
0.970494 0.656698 0.098408
0.036910 0.795197 0.094463
0.070273 0.794984 0.094431
0.217897 0.796318 0.095891
0.366952 0.797752 0.097398
0.517318 0.799281 0.098949
0.668879 0.800902 0.100541
0.817880 0.802565 0.102125
0.951863 0.804106 0.103540
0.983030 0.804400 0.103661
0.044075 0.937811 0.099085
0.078053 0.938228 0.099170
0.227958 0.940157 0.100762
0.379034 0.942129 0.102392
0.531180 0.944141 0.104057
0.684301 0.946191 0.105754
0.832979 0.948208 0.107413
0.963027 0.950010 0.108850
0.992651 0.950548 0.109017
0.047391 0.983959 0.099942
0.081862 0.984399 0.100104
0.233618 0.986341 0.101787
0.386331 0.988295 0.103499
0.539920 0.990261 0.105237
0.694314 0.992237 0.107000
0.842406 0.994132 0.108695
0.967835 0.995737 0.110110
0.995934 0.996096 0.110288
0.001635 0.016761 0.222034
0.028820 0.016059 0.220744
0.151652 0.016628 0.220728
0.278119 0.017289 0.220809
0.408015 0.018038 0.220982
0.541138 0.018873 0.221244
0.677293 0.019789 0.221592
0.815505 0.020775 0.222013
0.854007 0.020526 0.221203
0.003710 0.063839 0.218828
0.032324 0.063219 0.217718
0.161000 0.063928 0.217937
0.292860 0.064726 0.218244
0.427710 0.065608 0.218636
0.565366 0.066573 0.219108
0.705643 0.067616 0.219659
0.846155 0.068707 0.220257
0.883828 0.068525 0.219580
0.010161 0.211157 0.220342
0.040026 0.210491 0.219397
0.173803 0.211215 0.219828
0.310343 0.212031 0.220339
0.449469 0.212937 0.220927
0.591007 0.213929 0.221588
0.734789 0.215005 0.222321
0.876063 0.216103 0.223061
0.912682 0.215913 0.222502
0.016761 0.357617 0.222321
0.047722 0.356980 0.221532
0.185916 0.357783 0.222160
0.326484 0.358682 0.222859
0.469263 0.359675 0.223628
0.614094 0.360758 0.224463
0.760778 0.361927 0.225359
0.901307 0.363078 0.226215
0.936693 0.362943 0.225760
0.023527 0.503608 0.224748
0.055439 0.503066 0.224106
0.197418 0.504008 0.224913
0.341415 0.505049 0.225784
0.487280 0.506185 0.226717
0.634868 0.507413 0.227707
0.783062 0.508717 0.228740
0.922248 0.509972 0.229691
0.956262 0.509946 0.229327
0.030473 0.649487 0.227598
0.063203 0.649099 0.227091
0.208390 0.650230 0.228060
0.355270 0.651461 0.229085
0.503708 0.652788 0.230163
0.653576 0.654208 0.231291
0.802482 0.655687 0.232437
0.939331 0.657082 0.233457
0.971872 0.657209 0.233168
0.037612 0.795571 0.230843
0.071039 0.795385 0.230457
0.218911 0.796749 0.231568
0.368186 0.798211 0.232727
0.518746 0.799767 0.233931
0.670477 0.801415 0.235177
0.819460 0.803100 0.236412
0.953078 0.804659 0.237474
0.984088 0.804971 0.237242
0.044799 0.938397 0.234286
0.078830 0.938822 0.234021
0.228938 0.940762 0.235267
0.380194 0.942744 0.236550
0.532498 0.944765 0.237867
0.685757 0.946823 0.239215
0.834382 0.948847 0.240520
0.963991 0.950649 0.241596
0.993457 0.951191 0.241403
0.048129 0.984548 0.233966
0.082644 0.984987 0.233779
0.234565 0.986930 0.235111
0.387425 0.988885 0.236471
0.541145 0.990850 0.237854
0.695655 0.992826 0.239259
0.843682 0.994719 0.240589
0.968613 0.996316 0.241629
0.996562 0.996672 0.241430
0.002257 0.017034 0.366272
0.029593 0.016348 0.364520
0.153048 0.016938 0.364056
0.280092 0.017620 0.363695
0.410518 0.018389 0.363434
0.544128 0.019242 0.363269
0.680727 0.020177 0.363196
0.819236 0.021179 0.363202
0.857664 0.020941 0.361978
0.004345 0.064127 0.361535
0.033091 0.063523 0.359988
0.162314 0.064253 0.359784
0.294676 0.065071 0.359673
0.429988 0.065974 0.359654
0.568062 0.066957 0.359722
0.708720 0.068019 0.359875
0.849378 0.069125 0.360077
0.886952 0.068955 0.359007
0.010807 0.211416 0.361601
0.040789 0.210770 0.360243
0.175041 0.211517 0.360273
0.312015 0.212357 0.360388
0.451536 0.213285 0.360586
0.593431 0.214299 0.360863
0.737534 0.215395 0.361215
0.878797 0.216509 0.361577
0.915298 0.216334 0.360641
0.017420 0.357874 0.362210
0.048482 0.357259 0.361030
0.187085 0.358088 0.361275
0.328024 0.359013 0.361598
0.471139 0.360031 0.361993
0.616270 0.361137 0.362459
0.763145 0.362328 0.362990
0.903585 0.363497 0.363480
0.938837 0.363378 0.362662
0.024200 0.503887 0.363335
0.056199 0.503370 0.362319
0.198526 0.504339 0.362759
0.342837 0.505407 0.363268
0.488982 0.506569 0.363841
0.636820 0.507822 0.364475
0.785119 0.509149 0.365153
0.924111 0.510422 0.365747
0.957979 0.510414 0.365029
0.031161 0.649808 0.364939
0.063965 0.649447 0.364071
0.209444 0.650607 0.364685
0.356586 0.651866 0.365358
0.505257 0.653220 0.366086
0.655329 0.654665 0.366865
0.804268 0.656167 0.367661
0.940828 0.657580 0.368328
0.973215 0.657726 0.367689
0.038316 0.795952 0.366978
0.071805 0.795795 0.366240
0.219920 0.797187 0.367004
0.369411 0.798677 0.367816
0.520161 0.800261 0.368674
0.672058 0.801934 0.369573
0.821020 0.803642 0.370459
0.954265 0.805218 0.371167
0.985117 0.805549 0.370583
0.045525 0.938985 0.369246
0.079608 0.939419 0.368633
0.229914 0.941369 0.369533
0.381346 0.943360 0.370468
0.533804 0.945391 0.371436
0.687198 0.947458 0.372434
0.835769 0.949486 0.373384
0.964932 0.951289 0.374098
0.994242 0.951834 0.373542
0.048868 0.985137 0.367751
0.083425 0.985575 0.367212
0.235510 0.987518 0.368194
0.388514 0.989473 0.369199
0.542362 0.991439 0.370226
0.696987 0.993415 0.371270
0.844949 0.995305 0.372232
0.969377 0.996895 0.372893
0.997177 0.997246 0.372313
0.002880 0.017311 0.510188
0.030365 0.016641 0.507978
0.154435 0.017252 0.507071
0.282047 0.017954 0.506274
0.412997 0.018742 0.505584
0.547086 0.019615 0.504997
0.684123 0.020568 0.504509
0.822915 0.021586 0.504104
0.861266 0.021359 0.502471
0.004980 0.064419 0.503937
0.033858 0.063831 0.501959
0.163620 0.064582 0.501335
0.296478 0.065421 0.500813
0.432242 0.066343 0.500388
0.570730 0.067345 0.500056
0.711761 0.068425 0.499813
0.852550 0.069546 0.499624
0.890024 0.069387 0.498165
0.011454 0.211681 0.502572
0.041551 0.211054 0.500806
0.176271 0.211825 0.500439
0.313673 0.212687 0.500163
0.453582 0.213638 0.499974
0.595829 0.214673 0.499870
0.740247 0.215790 0.499846
0.881483 0.216920 0.499831
0.917865 0.216759 0.498523
0.018080 0.358138 0.501826
0.049242 0.357545 0.500259
0.188247 0.358400 0.500125
0.329552 0.359350 0.500074
0.472996 0.360392 0.500100
0.618422 0.361522 0.500200
0.765479 0.362734 0.500368
0.905819 0.363920 0.500495
0.940936 0.363818 0.499316
0.024873 0.504174 0.501662
0.056959 0.503681 0.500275
0.199628 0.504678 0.500352
0.344247 0.505772 0.500500
0.490668 0.506960 0.500716
0.638751 0.508238 0.500996
0.787145 0.509587 0.501320
0.925934 0.510878 0.501559
0.959655 0.510888 0.500488
0.031849 0.650138 0.502029
0.064727 0.649803 0.500803
0.210494 0.650992 0.501064
0.357892 0.652278 0.501387
0.506791 0.653659 0.501765
0.657063 0.655129 0.502197
0.806028 0.656654 0.502644
0.942290 0.658084 0.502959
0.974522 0.658249 0.501969
0.039020 0.796343 0.502869
0.072572 0.796213 0.501782
0.220925 0.797634 0.502199
0.370628 0.799152 0.502665
0.521563 0.800762 0.503177
0.673624 0.802461 0.503730
0.822559 0.804190 0.504267
0.955423 0.805783 0.504619
0.986118 0.806132 0.503681
0.046252 0.939575 0.503967
0.080385 0.940018 0.503005
0.230887 0.941978 0.503558
0.382490 0.943979 0.504146
0.535100 0.946018 0.504765
0.688627 0.948093 0.505411
0.837141 0.950127 0.506005
0.965851 0.951930 0.506353
0.995005 0.952478 0.505432
0.049608 0.985724 0.501294
0.084207 0.986162 0.500404
0.236451 0.988105 0.501033
0.389596 0.990061 0.501684
0.543571 0.992026 0.502351
0.698310 0.994002 0.503031
0.846207 0.995890 0.503622
0.970127 0.997471 0.503901
0.997780 0.997820 0.502936
0.003504 0.017592 0.653783
0.031135 0.016937 0.651122
0.155813 0.017569 0.649777
0.283986 0.018292 0.648550
0.415452 0.019100 0.647435
0.550014 0.019991 0.646431
0.687481 0.020962 0.645532
0.826542 0.021996 0.644720
0.864813 0.021780 0.642684
0.005617 0.064715 0.646036
0.034624 0.064143 0.643632
0.164917 0.064916 0.642595
0.298264 0.065774 0.641665
0.434475 0.066716 0.640838
0.573368 0.067737 0.640110
0.714767 0.068834 0.639477
0.855671 0.069970 0.638900
0.893042 0.069822 0.637056
0.012102 0.211951 0.643257
0.042312 0.211344 0.641088
0.177493 0.212138 0.640328
0.315317 0.213023 0.639664
0.455609 0.213996 0.639094
0.598200 0.215052 0.638612
0.742928 0.216190 0.638215
0.884122 0.217335 0.637827
0.920381 0.217188 0.636150
0.018740 0.358408 0.641171
0.050001 0.357838 0.639220
0.189402 0.358719 0.638712
0.331066 0.359694 0.638290
0.474834 0.360759 0.637950
0.620550 0.361912 0.637687
0.767780 0.363145 0.637494
0.908009 0.364349 0.637260
0.942989 0.364263 0.635723
0.025548 0.504468 0.639730
0.057718 0.504000 0.637975
0.200724 0.505024 0.637691
0.345645 0.506144 0.637482
0.492337 0.507357 0.637344
0.640659 0.508660 0.637271
0.789143 0.510031 0.637243
0.927718 0.511340 0.637128
0.961290 0.511367 0.635705
0.032539 0.650476 0.638870
0.065489 0.650167 0.637288
0.211538 0.651384 0.637198
0.359188 0.652698 0.637171
0.508310 0.654105 0.637203
0.658778 0.655601 0.637288
0.807763 0.657147 0.637387
0.943718 0.658595 0.637350
0.975795 0.658778 0.636010
0.039726 0.796742 0.638518
0.073338 0.796639 0.637081
0.221925 0.798089 0.637153
0.371835 0.799634 0.637274
0.522953 0.801271 0.637440
0.675173 0.802994 0.637647
0.824078 0.804746 0.637834
0.956554 0.806354 0.637830
0.987090 0.806721 0.636537
0.046979 0.940167 0.638447
0.081163 0.940619 0.637138
0.231855 0.942589 0.637344
0.383628 0.944599 0.637583
0.536386 0.946647 0.637852
0.690043 0.948730 0.638145
0.838498 0.950770 0.638381
0.966750 0.952572 0.638362
0.995748 0.953124 0.637073
0.050349 0.986311 0.634597
0.084989 0.986747 0.633354
0.237389 0.988691 0.633630
0.390673 0.990647 0.633923
0.544772 0.992613 0.634229
0.699624 0.994588 0.634542
0.847457 0.996474 0.634759
0.970864 0.998047 0.634650
0.998372 0.998392 0.633295
0.004128 0.017877 0.797061
0.031905 0.017237 0.793954
0.157182 0.017891 0.792176
0.285909 0.018633 0.790523
0.417883 0.019460 0.788990
0.552911 0.020370 0.787573
0.690802 0.021359 0.786268
0.830116 0.022408 0.785054
0.868305 0.022204 0.782617
0.006254 0.065015 0.787836
0.035389 0.064459 0.785011
0.166207 0.065253 0.783565
0.300034 0.066131 0.782231
0.436686 0.067092 0.781007
0.575979 0.068132 0.779888
0.717738 0.069247 0.778869
0.858742 0.070397 0.777907
0.896008 0.070261 0.775682
0.012751 0.212227 0.783659
0.043073 0.211639 0.781091
0.178708 0.212457 0.779942
0.316946 0.213365 0.778895
0.457615 0.214359 0.777946
0.600546 0.215436 0.777090
0.745578 0.216594 0.776324
0.886713 0.217754 0.775566
0.922849 0.217621 0.773522
0.019402 0.358685 0.780247
0.050760 0.358137 0.777916
0.190550 0.359043 0.777036
0.332568 0.360043 0.776247
0.476654 0.361132 0.775543
0.622655 0.362308 0.774921
0.770048 0.363562 0.774370
0.910155 0.364782 0.773777
0.944997 0.364713 0.771884
0.026224 0.504769 0.777540
0.058477 0.504325 0.775420
0.201813 0.505377 0.774779
0.347032 0.506523 0.774215
0.493990 0.507762 0.773724
0.642547 0.509088 0.773301
0.791112 0.510481 0.772922
0.929463 0.511807 0.772454
0.962886 0.511852 0.770681
0.033230 0.650822 0.775462
0.066251 0.650539 0.773526
0.212576 0.651784 0.773088
0.360474 0.653125 0.772714
0.509814 0.654558 0.772399
0.660475 0.656078 0.772138
0.809473 0.657647 0.771890
0.945113 0.659112 0.771501
0.977035 0.659312 0.769810
0.040434 0.797150 0.773925
0.074105 0.797074 0.772140
0.222921 0.798552 0.771867
0.373034 0.800124 0.771643
0.524330 0.801786 0.771464
0.676707 0.803535 0.771324
0.825578 0.805307 0.771161
0.957657 0.806931 0.770800
0.988036 0.807316 0.769151
0.047708 0.940762 0.772688
0.081940 0.941222 0.771030
0.232819 0.943202 0.770889
0.384757 0.945221 0.770780
0.537661 0.947278 0.770697
0.691447 0.949369 0.770636
0.839841 0.951414 0.770511
0.967629 0.953215 0.770123
0.996471 0.953770 0.768463
0.051091 0.986897 0.767659
0.085771 0.987332 0.766062
0.238324 0.989276 0.765982
0.391745 0.991232 0.765916
0.545966 0.993198 0.765857
0.700930 0.995173 0.765801
0.848700 0.997056 0.765639
0.971590 0.998621 0.765139
0.998955 0.998962 0.763388
0.004588 0.018001 0.902516
0.032520 0.017388 0.901579
0.158400 0.018073 0.901876
0.287683 0.018846 0.902194
0.420170 0.019703 0.902531
0.555666 0.020641 0.902884
0.693983 0.021657 0.903250
0.833543 0.022730 0.903608
0.871657 0.022544 0.902643
0.006764 0.065192 0.900180
0.036035 0.064662 0.899184
0.167379 0.065485 0.899472
0.301690 0.066393 0.899775
0.438783 0.067381 0.900090
0.578478 0.068447 0.900414
0.720600 0.069588 0.900743
0.861694 0.070759 0.901033
0.898861 0.070641 0.899965
0.013304 0.212412 0.901755
0.043744 0.211851 0.900687
0.179835 0.212700 0.900948
0.318489 0.213638 0.901216
0.459535 0.214660 0.901489
0.602806 0.215765 0.901764
0.748143 0.216949 0.902038
0.889210 0.218130 0.902229
0.925226 0.218016 0.901046
0.019995 0.358898 0.903007
0.051455 0.358379 0.901861
0.191635 0.359317 0.902081
0.334006 0.360347 0.902301
0.478410 0.361465 0.902519
0.624695 0.362669 0.902733
0.772248 0.363949 0.902932
0.912228 0.365190 0.903005
0.946934 0.365141 0.901697
0.026852 0.505029 0.903926
0.059193 0.504615 0.902694
0.202859 0.505698 0.902859
0.348374 0.506875 0.903017
0.495597 0.508143 0.903167
0.644389 0.509497 0.903305
0.793030 0.510915 0.903408
0.931151 0.512261 0.903343
0.964428 0.512327 0.901900
0.033891 0.651144 0.904496
0.066985 0.650891 0.903169
0.213586 0.652168 0.903265
0.361729 0.653539 0.903347
0.511287 0.655000 0.903413
0.662139 0.656549 0.903461
0.811148 0.658141 0.903449
0.946466 0.659624 0.903224
0.978233 0.659845 0.901634
0.041123 0.797547 0.904696
0.074856 0.797500 0.903265
0.223899 0.799009 0.903274
0.374213 0.800611 0.903264
0.525687 0.802300 0.903231
0.678218 0.804075 0.903173
0.827054 0.805870 0.903027
0.958730 0.807510 0.902619
0.988952 0.807914 0.900869
0.048427 0.941349 0.904367
0.082709 0.941819 0.902830
0.233774 0.943810 0.902747
0.385875 0.945840 0.902635
0.538923 0.947906 0.902491
0.692836 0.950006 0.902312
0.841170 0.952057 0.902015
0.968487 0.953858 0.901400
0.997175 0.954416 0.899472
0.051829 0.987477 0.899492
0.086550 0.987912 0.897811
0.239254 0.989858 0.897594
0.392810 0.991815 0.897339
0.547153 0.993781 0.897044
0.702229 0.995757 0.896707
0.849936 0.997638 0.896221
0.972306 0.999194 0.895355
0.999530 0.999532 0.893211
0.004783 0.017863 0.946959
0.032863 0.017272 0.947047
0.159333 0.017984 0.948325
0.289161 0.018782 0.949575
0.422147 0.019664 0.950795
0.558101 0.020625 0.951982
0.696834 0.021664 0.953135
0.836622 0.022757 0.954231
0.874654 0.022587 0.953953
0.006993 0.065091 0.947868
0.036394 0.064582 0.947733
0.168253 0.065431 0.948840
0.303037 0.066364 0.949913
0.440561 0.067376 0.950952
0.580648 0.068465 0.951952
0.723124 0.069627 0.952913
0.864289 0.070816 0.953787
0.901351 0.070713 0.953257
0.013562 0.212306 0.952143
0.044116 0.211770 0.951778
0.180652 0.212646 0.952700
0.319713 0.213610 0.953585
0.461127 0.214658 0.954430
0.604730 0.215788 0.955232
0.750363 0.216995 0.955991
0.891344 0.218194 0.956620
0.927237 0.218098 0.955834
0.020281 0.358811 0.955573
0.051839 0.358318 0.954980
0.192401 0.359285 0.955712
0.335117 0.360343 0.956403
0.479832 0.361488 0.957049
0.626395 0.362717 0.957649
0.774096 0.364020 0.958195
0.913935 0.365281 0.958570
0.948504 0.365250 0.957527
0.027166 0.504981 0.958175
0.059591 0.504594 0.957354
0.203579 0.505707 0.957891
0.349384 0.506913 0.958383
0.496865 0.508208 0.958827
0.645886 0.509589 0.959221
0.794595 0.511030 0.959541
0.932476 0.512396 0.959653
0.965604 0.512480 0.958355
0.034231 0.651153 0.959962
0.067396 0.650928 0.958913
0.214266 0.652235 0.959252
0.362650 0.653635 0.959540
0.512420 0.655124 0.959777
0.663458 0.656698 0.959961
0.812471 0.658314 0.960050
0.947458 0.659815 0.959889
0.979071 0.660055 0.958335
0.041487 0.797626 0.960947
0.075280 0.797608 0.959672
0.224546 0.799147 0.959806
0.375056 0.800776 0.959887
0.526703 0.802493 0.959914
0.679386 0.804293 0.959885
0.828182 0.806110 0.959736
0.959449 0.807767 0.959293
0.989515 0.808188 0.957485
0.048819 0.941609 0.961013
0.083150 0.942089 0.959522
0.234396 0.944092 0.959457
0.386658 0.946132 0.959334
0.539847 0.948208 0.959151
0.693885 0.950317 0.958909
0.842157 0.952373 0.958521
0.968999 0.954175 0.957787
0.997534 0.954736 0.955723
0.052240 0.987727 0.956173
0.087000 0.988163 0.954442
0.239853 0.990111 0.954152
0.393543 0.992068 0.953800
0.548006 0.994036 0.953386
0.703194 0.996012 0.952909
0.850841 0.997892 0.952263
0.972687 0.999441 0.951215
0.999776 0.999776 0.948881
