library/cube/Teal_Drama_002.cube
# CINEGRADE LAB — Premium Cinematic LUT
# Title: Teal Drama
# Category: Netflix Inspired
# Description: Cinematic teal/orange with filmic qualities inspired by streaming content
# Mood: Cinematic, binge-worthy, polished
# Variant: 3
# Generated: 2026-05-21T16:12:43.569758
TITLE "Teal Drama"
LUT_3D_SIZE 5
0.001233 0.014658 0.013763
0.151904 0.016464 0.015676
0.397512 0.020745 0.020040
0.653956 0.025450 0.024806
0.827907 0.028303 0.027699
0.016467 0.208548 0.023858
0.179049 0.210759 0.026490
0.440825 0.215589 0.031669
0.710705 0.220815 0.037174
0.886650 0.223947 0.040517
0.039392 0.494837 0.042486
0.210942 0.497580 0.045740
0.484606 0.503064 0.051603
0.764052 0.508935 0.057723
0.936484 0.512437 0.061351
0.062882 0.781505 0.062378
0.240914 0.785115 0.066173
0.522908 0.791541 0.072606
0.808240 0.798316 0.079221
0.973037 0.802412 0.082995
0.079323 0.970203 0.075735
0.261803 0.974642 0.079959
0.549335 0.981638 0.086802
0.837536 0.988650 0.093718
0.992224 0.992414 0.097431
0.002856 0.015682 0.212643
0.154871 0.017569 0.213602
0.402321 0.021941 0.217065
0.660312 0.026729 0.220959
0.834712 0.029637 0.222988
0.018120 0.209580 0.219563
0.181730 0.211879 0.221360
0.444884 0.216804 0.225744
0.715889 0.222116 0.230479
0.891719 0.225301 0.233048
0.041082 0.495946 0.235413
0.213388 0.498789 0.237925
0.488037 0.504375 0.243073
0.768258 0.510340 0.248495
0.940048 0.513899 0.251405
0.064623 0.782832 0.252829
0.243183 0.786547 0.255942
0.525845 0.793076 0.261706
0.811546 0.799943 0.267652
0.975439 0.804093 0.270728
0.081120 0.971789 0.263881
0.263945 0.976230 0.267430
0.551912 0.983231 0.273598
0.840334 0.990243 0.279822
0.993882 0.993974 0.282794
0.005071 0.017309 0.481111
0.158393 0.019273 0.480783
0.407631 0.023733 0.483023
0.667120 0.028599 0.485736
0.841912 0.031558 0.486605
0.020355 0.211211 0.483787
0.184961 0.213594 0.484455
0.449448 0.218609 0.487762
0.721537 0.224004 0.491451
0.897193 0.227239 0.492978
0.043347 0.497653 0.495912
0.216381 0.500592 0.497418
0.491978 0.506277 0.501595
0.772940 0.512331 0.506063
0.944039 0.515941 0.508006
0.066932 0.784753 0.509989
0.245998 0.788569 0.512170
0.529298 0.795197 0.517019
0.815343 0.802150 0.522048
0.978300 0.806349 0.524177
0.083474 0.973928 0.517901
0.266630 0.978370 0.520527
0.555013 0.985373 0.525764
0.843652 0.992383 0.531035
0.996043 0.996077 0.532993
0.007285 0.018948 0.748650
0.161880 0.020987 0.747071
0.412858 0.025533 0.748121
0.673801 0.030477 0.749686
0.848927 0.033484 0.749424
0.022591 0.212860 0.747198
0.188163 0.215326 0.746768
0.453941 0.220429 0.749023
0.727076 0.225905 0.751691
0.902501 0.229187 0.752198
0.045615 0.499384 0.755691
0.219352 0.502418 0.756212
0.495861 0.508199 0.759435
0.777534 0.514341 0.762966
0.947895 0.518000 0.763951
0.069244 0.786702 0.766490
0.248796 0.790617 0.767750
0.532706 0.797341 0.771690
0.819075 0.804379 0.775805
0.981067 0.808624 0.776985
0.085829 0.976061 0.771282
0.269301 0.980503 0.772981
0.558086 0.987509 0.777278
0.846943 0.994516 0.781583
0.998167 0.998173 0.782502
0.008558 0.019659 0.903341
0.164445 0.021823 0.906656
0.417161 0.026500 0.912148
0.679556 0.031563 0.917696
0.854999 0.034657 0.920948
0.024043 0.213741 0.916421
0.190590 0.216326 0.919365
0.457651 0.221550 0.924578
0.731825 0.227134 0.929788
0.906989 0.230489 0.932411
0.047209 0.500465 0.934521
0.221651 0.503616 0.937043
0.499060 0.509513 0.941897
0.781432 0.515760 0.946699
0.951028 0.519481 0.948581
0.070955 0.788075 0.950540
0.250989 0.792101 0.952611
0.535496 0.798932 0.957053
0.822176 0.806060 0.961375
0.983185 0.810356 0.962465
0.087619 0.977625 0.956817
0.271402 0.982074 0.958361
0.560581 0.989085 0.962279
0.849661 0.996093 0.966003
0.999716 0.999716 0.966153
