library/cube/Tokyo_Midnight_003.cube
# CINEGRADE LAB — Premium Cinematic LUT
# Title: Tokyo Midnight
# Category: Night Neon
# Description: Cyberpunk-inspired with neon glow enhancement and deep shadow work
# Mood: Electric, urban, futuristic
# Variant: 4
# Generated: 2026-05-21T16:12:22.857881
TITLE "Tokyo Midnight"
LUT_3D_SIZE 33
0.000000 0.012933 0.015871
0.000000 0.012762 0.015661
0.000000 0.012592 0.015452
0.000000 0.012423 0.015245
0.000000 0.012255 0.015039
0.000000 0.012088 0.014834
0.033548 0.010773 0.013481
0.085800 0.008901 0.011571
0.138335 0.007020 0.009654
0.191149 0.005132 0.007729
0.244240 0.003236 0.005796
0.297604 0.001331 0.003855
0.351239 0.000000 0.001907
0.405142 0.000000 0.000000
0.459309 0.000000 0.000000
0.513738 0.000000 0.000000
0.568426 0.000000 0.000000
0.623369 0.000000 0.000000
0.678565 0.000000 0.000000
0.734011 0.000000 0.000000
0.789704 0.000000 0.000000
0.845641 0.000000 0.000000
0.901819 0.000000 0.000000
0.958234 0.000000 0.000000
0.991857 0.000000 0.000000
0.994155 0.000000 0.000000
0.996435 0.000000 0.000000
0.998696 0.000000 0.000000
1.000000 0.000000 0.000000
1.000000 0.000000 0.000000
1.000000 0.000000 0.000000
1.000000 0.000000 0.000000
1.000000 0.000000 0.000000
0.000000 0.012362 0.015169
0.000000 0.012194 0.014964
0.000000 0.012028 0.014760
0.000000 0.011863 0.014557
0.000000 0.011699 0.014356
0.000000 0.011536 0.014156
0.033944 0.010214 0.012797
0.086666 0.008330 0.010877
0.139664 0.006438 0.008949
0.192935 0.004539 0.007014
0.246475 0.002632 0.005071
0.300283 0.000717 0.003120
0.354355 0.000000 0.001163
0.408687 0.000000 0.000000
0.463277 0.000000 0.000000
0.518123 0.000000 0.000000
0.573221 0.000000 0.000000
0.628567 0.000000 0.000000
0.684160 0.000000 0.000000
0.739996 0.000000 0.000000
0.796072 0.000000 0.000000
0.852385 0.000000 0.000000
0.908933 0.000000 0.000000
0.965712 0.000000 0.000000
0.999515 0.000000 0.000000
1.000000 0.000000 0.000000
1.000000 0.000000 0.000000
1.000000 0.000000 0.000000
1.000000 0.000000 0.000000
1.000000 0.000000 0.000000
1.000000 0.000000 0.000000
1.000000 0.000000 0.000000
1.000000 0.000000 0.000000
0.000000 0.011803 0.014484
0.000000 0.011639 0.014283
0.000000 0.011477 0.014084
0.000000 0.011316 0.013886
0.000000 0.011156 0.013689
0.000000 0.010996 0.013494
0.034331 0.009668 0.012130
0.087512 0.007773 0.010199
0.140962 0.005870 0.008261
0.194678 0.003960 0.006316
0.248657 0.002042 0.004363
0.302896 0.000117 0.002403
0.357393 0.000000 0.000437
0.412144 0.000000 0.000000
0.467147 0.000000 0.000000
0.522398 0.000000 0.000000
0.577894 0.000000 0.000000
0.633633 0.000000 0.000000
0.689611 0.000000 0.000000
0.745825 0.000000 0.000000
0.802273 0.000000 0.000000
0.858952 0.000000 0.000000
0.915858 0.000000 0.000000
0.972989 0.000000 0.000000
1.000000 0.000000 0.000000
1.000000 0.000000 0.000000
1.000000 0.000000 0.000000
1.000000 0.000000 0.000000
1.000000 0.000000 0.000000
1.000000 0.000000 0.000000
1.000000 0.000000 0.000000
1.000000 0.000000 0.000000
1.000000 0.000000 0.000000
0.000000 0.011257 0.013814
0.000000 0.011097 0.013618
0.000000 0.010939 0.013423
0.000000 0.010781 0.013230
0.000000 0.010625 0.013038
0.000000 0.010470 0.012848
0.034709 0.009135 0.011478
0.088337 0.007229 0.009538
0.142227 0.005316 0.007590
0.196378 0.003395 0.005635
0.250784 0.001468 0.003673
0.305445 0.000000 0.001704
0.360355 0.000000 0.000000
0.415514 0.000000 0.000000
0.470917 0.000000 0.000000
0.526562 0.000000 0.000000
0.582446 0.000000 0.000000
0.638565 0.000000 0.000000
0.694917 0.000000 0.000000
0.751499 0.000000 0.000000
0.808308 0.000000 0.000000
0.865341 0.000000 0.000000
0.922595 0.000000 0.000000
0.980066 0.000000 0.000000
1.000000 0.000000 0.000000
1.000000 0.000000 0.000000
1.000000 0.000000 0.000000
1.000000 0.000000 0.000000
1.000000 0.000000 0.000000
1.000000 0.000000 0.000000
1.000000 0.000000 0.000000
1.000000 0.000000 0.000000
1.000000 0.000000 0.000000
0.000000 0.010724 0.013160
0.000000 0.010568 0.012969
0.000000 0.010414 0.012779
0.000000 0.010260 0.012590
0.000000 0.010108 0.012403
0.000000 0.009956 0.012217
0.035077 0.008615 0.010843
0.089141 0.006699 0.008893
0.143461 0.004776 0.006935
0.198035 0.002845 0.004971
0.252857 0.000907 0.003001
0.307927 0.000000 0.001023
0.363241 0.000000 0.000000
0.418796 0.000000 0.000000
0.474589 0.000000 0.000000
0.530616 0.000000 0.000000
0.586876 0.000000 0.000000
0.643365 0.000000 0.000000
0.700080 0.000000 0.000000
0.757019 0.000000 0.000000
0.814177 0.000000 0.000000
0.871553 0.000000 0.000000
0.929143 0.000000 0.000000
0.986944 0.000000 0.000000
1.000000 0.000000 0.000000
1.000000 0.000000 0.000000
1.000000 0.000000 0.000000
1.000000 0.000000 0.000000
1.000000 0.000000 0.000000
1.000000 0.000000 0.000000
1.000000 0.000000 0.000000
1.000000 0.000000 0.000000
1.000000 0.000000 0.000000
0.000000 0.010204 0.012522
0.000000 0.010052 0.012335
0.000000 0.009901 0.012150
0.000000 0.009752 0.011966
0.000000 0.009603 0.011784
0.000000 0.009455 0.011603
0.035436 0.008109 0.010223
0.089925 0.006183 0.008264
0.144664 0.004249 0.006298
0.199648 0.002309 0.004325
0.254876 0.000362 0.002346
0.310345 0.000000 0.000360
0.366050 0.000000 0.000000
0.421990 0.000000 0.000000
0.478161 0.000000 0.000000
0.534561 0.000000 0.000000
0.591185 0.000000 0.000000
0.648033 0.000000 0.000000
0.705100 0.000000 0.000000
0.762383 0.000000 0.000000
0.819880 0.000000 0.000000
0.877587 0.000000 0.000000
0.935502 0.000000 0.000000
0.993621 0.000000 0.000000
1.000000 0.000000 0.000000
1.000000 0.000000 0.000000
1.000000 0.000000 0.000000
1.000000 0.000000 0.000000
1.000000 0.000000 0.000000
1.000000 0.000000 0.000000
1.000000 0.000000 0.000000
1.000000 0.000000 0.000000
1.000000 0.000000 0.000000
0.000000 0.040780 0.008194
0.000000 0.040623 0.008013
0.000000 0.040467 0.007834
0.000000 0.040313 0.007656
0.000000 0.040160 0.007479
0.000000 0.040007 0.007304
0.024109 0.038908 0.006181
0.086990 0.036703 0.003953
0.142137 0.034752 0.001980
0.197523 0.032794 0.000000
0.253146 0.030830 0.000000
0.309002 0.028859 0.000000
0.365089 0.026882 0.000000
0.421403 0.024899 0.000000
0.477943 0.022909 0.000000
0.534704 0.020914 0.000000
0.591683 0.018912 0.000000
0.648879 0.016905 0.000000
0.706287 0.014892 0.000000
0.763905 0.012873 0.000000
0.821730 0.010849 0.000000
0.879758 0.008819 0.000000
0.937988 0.006784 0.000000
0.996415 0.004744 0.000000
1.000000 0.003484 0.000000
1.000000 0.003293 0.000000
1.000000 0.003104 0.000000
1.000000 0.002917 0.000000
1.000000 0.002732 0.000000
1.000000 0.002549 0.000000
1.000000 0.002367 0.000000
1.000000 0.002188 0.000000
1.000000 0.002010 0.000000
0.000000 0.086170 0.002118
0.000000 0.086004 0.001943
0.000000 0.085840 0.001770
0.000000 0.085677 0.001598
0.000000 0.085516 0.001427
0.000000 0.085355 0.001258
0.018929 0.084241 0.000135
0.062312 0.082665 0.000000
0.137817 0.080041 0.000000
0.193594 0.078062 0.000000
0.249600 0.076078 0.000000
0.305834 0.074087 0.000000
0.362291 0.072091 0.000000
0.418970 0.070088 0.000000
0.475866 0.068080 0.000000
0.532978 0.066066 0.000000
0.590301 0.064046 0.000000
0.647834 0.062021 0.000000
0.705573 0.059990 0.000000
0.763515 0.057954 0.000000
0.821657 0.055913 0.000000
0.879996 0.053867 0.000000
0.938529 0.051815 0.000000
0.997254 0.049759 0.000000
1.000000 0.048488 0.000000
1.000000 0.048293 0.000000
1.000000 0.048100 0.000000
1.000000 0.047910 0.000000
1.000000 0.047721 0.000000
1.000000 0.047534 0.000000
1.000000 0.047348 0.000000
1.000000 0.047165 0.000000
1.000000 0.046984 0.000000
0.000000 0.131489 0.000000
0.000000 0.131316 0.000000
0.000000 0.131144 0.000000
0.000000 0.130973 0.000000
0.000000 0.130804 0.000000
0.000000 0.130636 0.000000
0.013750 0.129508 0.000000
0.057441 0.127915 0.000000
0.101313 0.126317 0.000000
0.189631 0.123268 0.000000
0.246010 0.121264 0.000000
0.302610 0.119255 0.000000
0.359426 0.117240 0.000000
0.416457 0.115219 0.000000
0.473700 0.113193 0.000000
0.531151 0.111162 0.000000
0.588807 0.109125 0.000000
0.646665 0.107083 0.000000
0.704723 0.105035 0.000000
0.762978 0.102983 0.000000
0.821426 0.100926 0.000000
0.880064 0.098864 0.000000
0.938890 0.096797 0.000000
0.997901 0.094726 0.000000
1.000000 0.093445 0.000000
1.000000 0.093247 0.000000
1.000000 0.093050 0.000000
1.000000 0.092856 0.000000
1.000000 0.092664 0.000000
1.000000 0.092474 0.000000
1.000000 0.092286 0.000000
1.000000 0.092100 0.000000
1.000000 0.091916 0.000000
0.000000 0.176741 0.000000
0.000000 0.176561 0.000000
0.000000 0.176382 0.000000
0.000000 0.176204 0.000000
0.000000 0.176028 0.000000
0.000000 0.175854 0.000000
0.008572 0.174712 0.000000
0.052563 0.173102 0.000000
0.096728 0.171489 0.000000
0.141066 0.169871 0.000000
0.185573 0.168250 0.000000
0.299328 0.164365 0.000000
0.356493 0.162333 0.000000
0.413866 0.160295 0.000000
0.471443 0.158252 0.000000
0.529222 0.156204 0.000000
0.587199 0.154151 0.000000
0.645372 0.152093 0.000000
0.703738 0.150030 0.000000
0.762294 0.147963 0.000000
0.821037 0.145891 0.000000
0.879963 0.143814 0.000000
0.939070 0.141733 0.000000
0.998355 0.139648 0.000000
1.000000 0.138357 0.000000
1.000000 0.138157 0.000000
1.000000 0.137958 0.000000
1.000000 0.137761 0.000000
1.000000 0.137566 0.000000
1.000000 0.137374 0.000000
1.000000 0.137183 0.000000
1.000000 0.136995 0.000000
1.000000 0.136809 0.000000
0.000000 0.221930 0.000000
0.000000 0.221743 0.000000
0.000000 0.221558 0.000000
0.000000 0.221374 0.000000
0.000000 0.221192 0.000000
0.000000 0.221011 0.000000
0.003395 0.219856 0.000000
0.047676 0.218232 0.000000
0.092127 0.216603 0.000000
0.136744 0.214971 0.000000
0.181526 0.213335 0.000000
0.226470 0.211695 0.000000
0.353492 0.207373 0.000000
0.411194 0.205319 0.000000
0.469095 0.203260 0.000000
0.527190 0.201197 0.000000
0.585478 0.199128 0.000000
0.643954 0.197056 0.000000
0.702617 0.194978 0.000000
0.761463 0.192897 0.000000
0.820489 0.190811 0.000000
0.879692 0.188721 0.000000
0.939069 0.186626 0.000000
0.998617 0.184528 0.000000
1.000000 0.183230 0.000000
1.000000 0.183026 0.000000
1.000000 0.182826 0.000000
1.000000 0.182627 0.000000
1.000000 0.182430 0.000000
1.000000 0.182236 0.000000
1.000000 0.182044 0.000000
1.000000 0.181854 0.000000
1.000000 0.181666 0.000000
0.000000 0.267059 0.000000
0.000000 0.266866 0.000000
0.000000 0.266675 0.000000
0.000000 0.266486 0.000000
0.000000 0.266298 0.000000
0.000000 0.266112 0.000000
0.000000 0.264945 0.000000
0.042782 0.263306 0.000000
0.087509 0.261664 0.000000
0.132397 0.260017 0.000000
0.177445 0.258368 0.000000
0.222650 0.256714 0.000000
0.268009 0.255058 0.000000
0.408443 0.250294 0.000000
0.466655 0.248220 0.000000
0.525056 0.246143 0.000000
0.583642 0.244060 0.000000
0.642411 0.241974 0.000000
0.701359 0.239883 0.000000
0.760483 0.237788 0.000000
0.819781 0.235689 0.000000
0.879250 0.233587 0.000000
0.938886 0.231480 0.000000
0.998686 0.229370 0.000000
1.000000 0.228064 0.000000
1.000000 0.227860 0.000000
1.000000 0.227657 0.000000
1.000000 0.227457 0.000000
1.000000 0.227260 0.000000
1.000000 0.227064 0.000000
1.000000 0.226871 0.000000
1.000000 0.226681 0.000000
1.000000 0.226492 0.000000
0.000000 0.312131 0.000000
0.000000 0.311933 0.000000
0.000000 0.311737 0.000000
0.000000 0.311543 0.000000
0.000000 0.311350 0.000000
0.000000 0.311159 0.000000
0.000000 0.309982 0.000000
0.037878 0.308329 0.000000
0.082872 0.306673 0.000000
0.128023 0.305014 0.000000
0.173328 0.303352 0.000000
0.218784 0.301686 0.000000
0.264390 0.300017 0.000000
0.310143 0.298346 0.000000
0.464124 0.293137 0.000000
0.522819 0.291045 0.000000
0.581693 0.288950 0.000000
0.640742 0.286851 0.000000
0.699964 0.284748 0.000000
0.759356 0.282641 0.000000
0.818915 0.280530 0.000000
0.878637 0.278416 0.000000
0.938520 0.276298 0.000000
0.998562 0.274177 0.000000
1.000000 0.272865 0.000000
1.000000 0.272660 0.000000
1.000000 0.272457 0.000000
1.000000 0.272256 0.000000
1.000000 0.272058 0.000000
1.000000 0.271862 0.000000
1.000000 0.271669 0.000000
1.000000 0.271478 0.000000
1.000000 0.271289 0.000000
0.000000 0.357150 0.000000
0.000000 0.356948 0.000000
0.000000 0.356747 0.000000
0.000000 0.356548 0.000000
0.000000 0.356351 0.000000
0.000000 0.356156 0.000000
0.000000 0.354969 0.000000
0.032966 0.353304 0.000000
0.078218 0.351636 0.000000
0.123622 0.349965 0.000000
0.169175 0.348291 0.000000
0.214875 0.346614 0.000000
0.260718 0.344934 0.000000
0.306704 0.343251 0.000000
0.352828 0.341566 0.000000
0.520478 0.335909 0.000000
0.579628 0.333801 0.000000
0.638947 0.331690 0.000000
0.698432 0.329576 0.000000
0.758080 0.327458 0.000000
0.817888 0.325336 0.000000
0.877853 0.323212 0.000000
0.937973 0.321084 0.000000
0.998243 0.318953 0.000000
1.000000 0.317635 0.000000
1.000000 0.317430 0.000000
1.000000 0.317227 0.000000
1.000000 0.317026 0.000000
1.000000 0.316828 0.000000
1.000000 0.316633 0.000000
1.000000 0.316440 0.000000
1.000000 0.316249 0.000000
1.000000 0.316061 0.000000
0.000000 0.402119 0.000000
0.000000 0.401913 0.000000
0.000000 0.401708 0.000000
0.000000 0.401506 0.000000
0.000000 0.401305 0.000000
0.000000 0.401107 0.000000
0.000000 0.399911 0.000000
0.028043 0.398234 0.000000
0.073546 0.396555 0.000000
0.119194 0.394872 0.000000
0.164987 0.393188 0.000000
0.210920 0.391500 0.000000
0.256992 0.389810 0.000000
0.303201 0.388117 0.000000
0.349544 0.386422 0.000000
0.396019 0.384725 0.000000
0.577448 0.378617 0.000000
0.637025 0.376495 0.000000
0.696762 0.374370 0.000000
0.756655 0.372242 0.000000
0.816701 0.370111 0.000000
0.876898 0.367977 0.000000
0.937242 0.365840 0.000000
0.997731 0.363701 0.000000
1.000000 0.362378 0.000000
1.000000 0.362173 0.000000
1.000000 0.361971 0.000000
1.000000 0.361771 0.000000
1.000000 0.361574 0.000000
1.000000 0.361379 0.000000
1.000000 0.361187 0.000000
1.000000 0.360998 0.000000
1.000000 0.360811 0.000000
0.000000 0.447041 0.000000
0.000000 0.446832 0.000000
0.000000 0.446624 0.000000
0.000000 0.446419 0.000000
0.000000 0.446216 0.000000
0.000000 0.446014 0.000000
0.000000 0.444810 0.000000
0.023111 0.443123 0.000000
0.068855 0.441433 0.000000
0.114739 0.439741 0.000000
0.160761 0.438046 0.000000
0.206920 0.436349 0.000000
0.253212 0.434650 0.000000
0.299635 0.432948 0.000000
0.346188 0.431244 0.000000
0.392867 0.429539 0.000000
0.439671 0.427831 0.000000
0.634977 0.421269 0.000000
0.694953 0.419135 0.000000
0.755080 0.416998 0.000000
0.815353 0.414858 0.000000
0.875770 0.412716 0.000000
0.936328 0.410571 0.000000
0.997023 0.408424 0.000000
1.000000 0.407097 0.000000
1.000000 0.406894 0.000000
1.000000 0.406693 0.000000
1.000000 0.406494 0.000000
1.000000 0.406299 0.000000
1.000000 0.406106 0.000000
1.000000 0.405915 0.000000
1.000000 0.405728 0.000000
1.000000 0.405543 0.000000
0.000000 0.491920 0.000000
0.000000 0.491708 0.000000
0.000000 0.491498 0.000000
0.000000 0.491291 0.000000
0.000000 0.491085 0.000000
0.000000 0.490882 0.000000
0.000000 0.489670 0.000000
0.018169 0.487973 0.000000
0.064144 0.486274 0.000000
0.110255 0.484573 0.000000
0.156499 0.482869 0.000000
0.202874 0.481164 0.000000
0.249377 0.479456 0.000000
0.296006 0.477746 0.000000
0.342759 0.476035 0.000000
0.389633 0.474322 0.000000
0.436627 0.472607 0.000000
0.483738 0.470890 0.000000
0.693007 0.463873 0.000000
0.753355 0.461728 0.000000
0.813844 0.459581 0.000000
0.874470 0.457431 0.000000
0.935230 0.455279 0.000000
0.996121 0.453126 0.000000
1.000000 0.451796 0.000000
1.000000 0.451594 0.000000
1.000000 0.451395 0.000000
1.000000 0.451199 0.000000
1.000000 0.451005 0.000000
1.000000 0.450815 0.000000
1.000000 0.450627 0.000000
1.000000 0.450442 0.000000
1.000000 0.450260 0.000000
0.000000 0.536759 0.000000
0.000000 0.536546 0.000000
0.000000 0.536334 0.000000
0.000000 0.536125 0.000000
0.000000 0.535918 0.000000
0.000000 0.535713 0.000000
0.000000 0.534495 0.000000
0.013215 0.532789 0.000000
0.059414 0.531082 0.000000
0.105743 0.529372 0.000000
0.152199 0.527661 0.000000
0.198781 0.525947 0.000000
0.245486 0.524233 0.000000
0.292313 0.522516 0.000000
0.339257 0.520798 0.000000
0.386318 0.519078 0.000000
0.433493 0.517357 0.000000
0.480779 0.515634 0.000000
0.528175 0.513910 0.000000
0.751480 0.506437 0.000000
0.812174 0.504283 0.000000
0.872997 0.502127 0.000000
0.933948 0.499969 0.000000
0.995023 0.497809 0.000000
1.000000 0.496478 0.000000
1.000000 0.496278 0.000000
1.000000 0.496082 0.000000
1.000000 0.495889 0.000000
1.000000 0.495698 0.000000
1.000000 0.495510 0.000000
1.000000 0.495325 0.000000
1.000000 0.495143 0.000000
1.000000 0.494964 0.000000
0.000000 0.581562 0.000000
0.000000 0.581347 0.000000
0.000000 0.581135 0.000000
0.000000 0.580924 0.000000
0.000000 0.580716 0.000000
0.000000 0.580511 0.000000
0.000000 0.579287 0.000000
0.008251 0.577574 0.000000
0.054664 0.575859 0.000000
0.101201 0.574142 0.000000
0.147862 0.572424 0.000000
0.194642 0.570704 0.000000
0.241541 0.568983 0.000000
0.288555 0.567260 0.000000
0.335682 0.565536 0.000000
0.382921 0.563810 0.000000
0.430268 0.562084 0.000000
0.477721 0.560356 0.000000
0.525279 0.558628 0.000000
0.572938 0.556898 0.000000
0.620696 0.555168 0.000000
0.871351 0.546806 0.000000
0.932481 0.544643 0.000000
0.993730 0.542478 0.000000
1.000000 0.541146 0.000000
1.000000 0.540950 0.000000
1.000000 0.540757 0.000000
1.000000 0.540566 0.000000
1.000000 0.540379 0.000000
1.000000 0.540195 0.000000
1.000000 0.540014 0.000000
1.000000 0.539836 0.000000
1.000000 0.539661 0.000000
0.000000 0.626332 0.000000
0.000000 0.626116 0.000000
0.000000 0.625903 0.000000
0.000000 0.625693 0.000000
0.000000 0.625485 0.000000
0.000000 0.625279 0.000000
0.000000 0.624051 0.000000
0.003275 0.622331 0.000000
0.049893 0.620609 0.000000
0.096631 0.618886 0.000000
0.143486 0.617162 0.000000
0.190456 0.615436 0.000000
0.237539 0.613710 0.000000
0.284732 0.611982 0.000000
0.332034 0.610253 0.000000
0.379441 0.608523 0.000000
0.426951 0.606792 0.000000
0.474563 0.605060 0.000000
0.522273 0.603328 0.000000
0.570080 0.601595 0.000000
0.617981 0.599861 0.000000
0.665974 0.598127 0.000000
0.930830 0.589304 0.000000
0.992240 0.587137 0.000000
1.000000 0.585803 0.000000
1.000000 0.585611 0.000000
1.000000 0.585422 0.000000
1.000000 0.585236 0.000000
1.000000 0.585053 0.000000
1.000000 0.584874 0.000000
1.000000 0.584697 0.000000
1.000000 0.584523 0.000000
1.000000 0.584353 0.000000
0.000000 0.671072 0.000000
0.000000 0.670857 0.000000
0.000000 0.670644 0.000000
0.000000 0.670434 0.000000
0.000000 0.670226 0.000000
0.000000 0.670021 0.000000
0.000000 0.668789 0.000000
0.000000 0.667063 0.000000
0.045102 0.665336 0.000000
0.092031 0.663608 0.000000
0.139072 0.661878 0.000000
0.186223 0.660148 0.000000
0.233481 0.658417 0.000000
0.280845 0.656685 0.000000
0.328311 0.654952 0.000000
0.375878 0.653218 0.000000
0.423543 0.651484 0.000000
0.471304 0.649749 0.000000
0.519159 0.648014 0.000000
0.567104 0.646278 0.000000
0.615139 0.644543 0.000000
0.663260 0.642806 0.000000
0.711465 0.641070 0.000000
0.990554 0.631787 0.000000
1.000000 0.630454 0.000000
1.000000 0.630267 0.000000
1.000000 0.630082 0.000000
1.000000 0.629901 0.000000
1.000000 0.629723 0.000000
1.000000 0.629548 0.000000
1.000000 0.629377 0.000000
1.000000 0.629208 0.000000
1.000000 0.629043 0.000000
0.000000 0.715786 0.000000
0.000000 0.715571 0.000000
0.000000 0.715360 0.000000
0.000000 0.715150 0.000000
0.000000 0.714944 0.000000
0.000000 0.714740 0.000000
0.000000 0.713505 0.000000
0.000000 0.711774 0.000000
0.040289 0.710043 0.000000
0.087400 0.708310 0.000000
0.134618 0.706577 0.000000
0.181941 0.704842 0.000000
0.229366 0.703108 0.000000
0.276891 0.701372 0.000000
0.324514 0.699636 0.000000
0.372232 0.697900 0.000000
0.420043 0.696164 0.000000
0.467944 0.694427 0.000000
0.515934 0.692690 0.000000
0.564009 0.690952 0.000000
0.612169 0.689215 0.000000
0.660409 0.687478 0.000000
0.708729 0.685741 0.000000
0.757125 0.684004 0.000000
1.000000 0.675102 0.000000
1.000000 0.674919 0.000000
1.000000 0.674740 0.000000
1.000000 0.674564 0.000000
1.000000 0.674392 0.000000
1.000000 0.674223 0.000000
1.000000 0.674057 0.000000
1.000000 0.673894 0.000000
1.000000 0.673735 0.000000
0.000000 0.760477 0.000000
0.000000 0.760264 0.000000
0.000000 0.760054 0.000000
0.000000 0.759846 0.000000
0.000000 0.759642 0.000000
0.000000 0.759440 0.000000
0.000000 0.758202 0.000000
0.000000 0.756468 0.000000
0.035454 0.754732 0.000000
0.082739 0.752996 0.000000
0.130126 0.751260 0.000000
0.177612 0.749523 0.000000
0.225194 0.747786 0.000000
0.272872 0.746048 0.000000
0.320642 0.744310 0.000000
0.368502 0.742572 0.000000
0.416449 0.740834 0.000000
0.464482 0.739096 0.000000
0.512598 0.737358 0.000000
0.560795 0.735620 0.000000
0.609070 0.733882 0.000000
0.657421 0.732145 0.000000
0.705846 0.730408 0.000000
0.754343 0.728672 0.000000
0.802908 0.726936 0.000000
1.000000 0.719572 0.000000
1.000000 0.719399 0.000000
1.000000 0.719229 0.000000
1.000000 0.719063 0.000000
1.000000 0.718900 0.000000
1.000000 0.718741 0.000000
1.000000 0.718585 0.000000
1.000000 0.718432 0.000000
0.000000 0.805148 0.000000
0.000000 0.804937 0.000000
0.000000 0.804729 0.000000
0.000000 0.804524 0.000000
0.000000 0.804322 0.000000
0.000000 0.804123 0.000000
0.000000 0.802884 0.000000
0.000000 0.801147 0.000000
0.030598 0.799409 0.000000
0.078047 0.797670 0.000000
0.125593 0.795932 0.000000
0.173233 0.794193 0.000000
0.220965 0.792454 0.000000
0.268786 0.790715 0.000000
0.316695 0.788976 0.000000
0.364688 0.787237 0.000000
0.412763 0.785499 0.000000
0.460919 0.783760 0.000000
0.509152 0.782022 0.000000
0.557461 0.780285 0.000000
0.605844 0.778548 0.000000
0.654296 0.776811 0.000000
0.702818 0.775075 0.000000
0.751405 0.773340 0.000000
0.800057 0.771606 0.000000
0.848769 0.769873 0.000000
1.000000 0.764063 0.000000
1.000000 0.763900 0.000000
1.000000 0.763740 0.000000
1.000000 0.763584 0.000000
1.000000 0.763432 0.000000
1.000000 0.763283 0.000000
1.000000 0.763138 0.000000
0.000000 0.849803 0.000000
0.000000 0.849595 0.000000
0.000000 0.849390 0.000000
0.000000 0.849188 0.000000
0.000000 0.848990 0.000000
0.000000 0.848794 0.000000
0.000000 0.847554 0.000000
0.000000 0.845815 0.000000
0.025719 0.844075 0.000000
0.073324 0.842335 0.000000
0.121021 0.840595 0.000000
0.168806 0.838856 0.000000
0.216678 0.837116 0.000000
0.264634 0.835377 0.000000
0.312672 0.833638 0.000000
0.360789 0.831899 0.000000
0.408984 0.830161 0.000000
0.457253 0.828423 0.000000
0.505595 0.826686 0.000000
0.554008 0.824950 0.000000
0.602488 0.823215 0.000000
0.651034 0.821480 0.000000
0.699643 0.819746 0.000000
0.748313 0.818013 0.000000
0.797041 0.816282 0.000000
0.845826 0.814551 0.000000
0.894664 0.812822 0.000000
1.000000 0.808579 0.000000
1.000000 0.808427 0.000000
1.000000 0.808279 0.000000
1.000000 0.808134 0.000000
1.000000 0.807993 0.000000
1.000000 0.807855 0.000000
0.000000 0.894446 0.000000
0.000000 0.894241 0.000000
0.000000 0.894040 0.000000
0.000000 0.893842 0.000000
0.000000 0.893647 0.000000
0.000000 0.893455 0.000000
0.000000 0.892216 0.000000
0.000000 0.890475 0.000000
0.020817 0.888735 0.000000
0.068569 0.886994 0.000000
0.116407 0.885254 0.000000
0.164329 0.883515 0.000000
0.212332 0.881775 0.000000
0.260414 0.880037 0.000000
0.308573 0.878299 0.000000
0.356805 0.876561 0.000000
0.405110 0.874824 0.000000
0.453485 0.873088 0.000000
0.501927 0.871353 0.000000
0.550433 0.869619 0.000000
0.599003 0.867886 0.000000
0.647633 0.866154 0.000000
0.696320 0.864424 0.000000
0.745064 0.862694 0.000000
0.793861 0.860966 0.000000
0.842708 0.859239 0.000000
0.891605 0.857514 0.000000
0.940548 0.855790 0.000000
1.000000 0.853126 0.000000
1.000000 0.852986 0.000000
1.000000 0.852850 0.000000
1.000000 0.852717 0.000000
1.000000 0.852588 0.000000
0.000000 0.937822 0.000000
0.000000 0.937661 0.000000
0.000000 0.937503 0.000000
0.000000 0.937348 0.000000
0.000000 0.937195 0.000000
0.000000 0.937045 0.000000
0.000000 0.935843 0.000000
0.000000 0.934138 0.000000
0.016007 0.932433 0.000000
0.063893 0.930728 0.000000
0.111859 0.929023 0.000000
0.159904 0.927317 0.000000
0.208026 0.925612 0.000000
0.256221 0.923906 0.000000
0.304488 0.922201 0.000000
0.352823 0.920497 0.000000
0.401226 0.918792 0.000000
0.449693 0.917089 0.000000
0.498222 0.915385 0.000000
