library/cube/Tokyo_Midnight_003.cube
# CINEGRADE LAB — Premium Cinematic LUT
# Title: Tokyo Midnight
# Category: Night Neon
# Description: Cyberpunk-inspired with neon glow enhancement and deep shadow work
# Mood: Electric, urban, futuristic
# Variant: 4
# Generated: 2026-05-21T16:12:22.857881
TITLE "Tokyo Midnight"
LUT_3D_SIZE 9
0.000000 0.012933 0.015871
0.000000 0.012255 0.015039
0.138335 0.007020 0.009654
0.351239 0.000000 0.001907
0.568426 0.000000 0.000000
0.789704 0.000000 0.000000
0.991857 0.000000 0.000000
1.000000 0.000000 0.000000
1.000000 0.000000 0.000000
0.000000 0.010724 0.013160
0.000000 0.010108 0.012403
0.143461 0.004776 0.006935
0.363241 0.000000 0.000000
0.586876 0.000000 0.000000
0.814177 0.000000 0.000000
1.000000 0.000000 0.000000
1.000000 0.000000 0.000000
1.000000 0.000000 0.000000
0.000000 0.131489 0.000000
0.000000 0.130804 0.000000
0.101313 0.126317 0.000000
0.359426 0.117240 0.000000
0.588807 0.109125 0.000000
0.821426 0.100926 0.000000
1.000000 0.093445 0.000000
1.000000 0.092664 0.000000
1.000000 0.091916 0.000000
0.000000 0.312131 0.000000
0.000000 0.311350 0.000000
0.082872 0.306673 0.000000
0.264390 0.300017 0.000000
0.581693 0.288950 0.000000
0.818915 0.280530 0.000000
1.000000 0.272865 0.000000
1.000000 0.272058 0.000000
1.000000 0.271289 0.000000
0.000000 0.491920 0.000000
0.000000 0.491085 0.000000
0.064144 0.486274 0.000000
0.249377 0.479456 0.000000
0.436627 0.472607 0.000000
0.813844 0.459581 0.000000
1.000000 0.451796 0.000000
1.000000 0.451005 0.000000
1.000000 0.450260 0.000000
0.000000 0.671072 0.000000
0.000000 0.670226 0.000000
0.045102 0.665336 0.000000
0.233481 0.658417 0.000000
0.423543 0.651484 0.000000
0.615139 0.644543 0.000000
1.000000 0.630454 0.000000
1.000000 0.629723 0.000000
1.000000 0.629043 0.000000
0.000000 0.849803 0.000000
0.000000 0.848990 0.000000
0.025719 0.844075 0.000000
0.216678 0.837116 0.000000
0.408984 0.830161 0.000000
0.602488 0.823215 0.000000
0.797041 0.816282 0.000000
1.000000 0.808427 0.000000
1.000000 0.807855 0.000000
0.000000 1.000000 0.000000
0.000000 1.000000 0.000000
0.006364 1.000000 0.000000
0.199271 1.000000 0.000000
0.393196 1.000000 0.000000
0.587990 1.000000 0.000000
0.783502 0.993630 0.000000
0.979585 0.987149 0.000000
1.000000 0.986078 0.000000
0.000000 1.000000 0.000000
0.000000 1.000000 0.000000
0.004412 1.000000 0.000000
0.198766 1.000000 0.000000
0.393804 1.000000 0.000000
0.589377 1.000000 0.000000
0.785335 1.000000 0.000000
0.981530 1.000000 0.000000
1.000000 1.000000 0.000000
0.000000 0.012701 0.015586
0.000000 0.012029 0.014761
0.138875 0.006784 0.009367
0.352506 0.000000 0.001605
0.570377 0.000000 0.000000
0.792296 0.000000 0.000000
0.994974 0.000000 0.000000
1.000000 0.000000 0.000000
1.000000 0.000000 0.000000
0.000000 0.010513 0.012901
0.000000 0.009902 0.012151
0.143951 0.004561 0.006676
0.364385 0.000000 0.000000
0.588631 0.000000 0.000000
0.816500 0.000000 0.000000
1.000000 0.000000 0.000000
1.000000 0.000000 0.000000
1.000000 0.000000 0.000000
0.000000 0.175741 0.000000
0.000000 0.130577 0.000000
0.101666 0.126087 0.000000
0.360451 0.116995 0.000000
0.590370 0.108870 0.000000
0.823484 0.100663 0.000000
1.000000 0.093176 0.000000
1.000000 0.092406 0.000000
1.000000 0.091669 0.000000
0.000000 0.311863 0.000000
0.000000 0.311091 0.000000
0.083191 0.306415 0.000000
0.265108 0.299756 0.000000
0.583065 0.288677 0.000000
0.820710 0.280253 0.000000
1.000000 0.272587 0.000000
1.000000 0.271793 0.000000
1.000000 0.271037 0.000000
0.000000 0.491633 0.000000
0.000000 0.490810 0.000000
0.064426 0.486003 0.000000
0.250001 0.479185 0.000000
0.437559 0.472338 0.000000
0.815374 0.459304 0.000000
1.000000 0.451523 0.000000
1.000000 0.450747 0.000000
1.000000 0.450016 0.000000
0.000000 0.670780 0.000000
0.000000 0.669949 0.000000
0.045345 0.665065 0.000000
0.234010 0.658151 0.000000
0.424323 0.651224 0.000000
0.616136 0.644290 0.000000
1.000000 0.630200 0.000000
1.000000 0.629486 0.000000
1.000000 0.628823 0.000000
0.000000 0.849521 0.000000
0.000000 0.848724 0.000000
0.025923 0.843820 0.000000
0.217109 0.836870 0.000000
0.409609 0.829925 0.000000
0.603273 0.822990 0.000000
0.797953 0.816069 0.000000
1.000000 0.808226 0.000000
1.000000 0.807674 0.000000
0.000000 1.000000 0.000000
0.000000 1.000000 0.000000
0.006504 1.000000 0.000000
0.199584 1.000000 0.000000
0.393648 1.000000 0.000000
0.588546 1.000000 0.000000
0.784130 0.993585 0.000000
0.980250 0.987105 0.000000
1.000000 0.986041 0.000000
0.000000 1.000000 0.000000
0.000000 1.000000 0.000000
0.004510 1.000000 0.000000
0.198979 1.000000 0.000000
0.394100 1.000000 0.000000
0.589721 1.000000 0.000000
0.785694 1.000000 0.000000
0.981870 1.000000 0.000000
1.000000 1.000000 0.000000
0.000000 0.010588 0.188525
0.000000 0.010272 0.155479
0.137462 0.004601 0.188337
0.351818 0.000000 0.180060
0.570370 0.000000 0.171684
0.792927 0.000000 0.163213
0.996130 0.000000 0.155412
1.000000 0.000000 0.154002
1.000000 0.000000 0.152637
0.000000 0.008438 0.184219
0.000000 0.007839 0.183018
0.142504 0.002419 0.184056
0.363590 0.000000 0.175684
0.588445 0.000000 0.167225
0.816879 0.000000 0.158685
1.000000 0.000000 0.150851
1.000000 0.000000 0.149597
1.000000 0.000000 0.148388
0.000000 0.173360 0.186430
0.000000 0.172650 0.185308
0.100514 0.124357 0.128670
0.359552 0.114843 0.157181
0.590007 0.106712 0.148677
0.823613 0.098500 0.140106
1.000000 0.091012 0.132272
1.000000 0.090257 0.131186
1.000000 0.089534 0.130145
0.000000 0.420048 0.153124
0.000000 0.419189 0.152157
0.082015 0.304669 0.103858
0.264328 0.298010 0.097109
0.582524 0.286514 0.123509
0.820588 0.278089 0.114931
1.000000 0.270426 0.107122
1.000000 0.269648 0.106204
1.000000 0.268909 0.105332
0.000000 0.665535 0.120421
0.000000 0.489054 0.084279
0.063223 0.484254 0.079554
0.249136 0.477440 0.072812
0.436999 0.470597 0.066038
0.814998 0.457153 0.090358
1.000000 0.449378 0.082587
1.000000 0.448620 0.081834
1.000000 0.447907 0.081126
0.000000 0.669015 0.061015
0.000000 0.668200 0.060408
0.044112 0.663327 0.055731
0.233057 0.656419 0.049010
0.423617 0.649501 0.042267
0.615644 0.642575 0.035507
1.000000 0.628084 0.058643
1.000000 0.627389 0.058050
1.000000 0.626746 0.057500
0.000000 0.847775 0.037475
0.000000 0.846996 0.036984
0.024656 0.842105 0.032363
0.216066 0.835165 0.025676
0.408755 0.828232 0.018978
0.602576 0.821309 0.012272
0.797377 0.814402 0.005564
1.000000 0.806172 0.034826
1.000000 0.805641 0.034429
0.000000 1.000000 0.014846
0.000000 1.000000 0.014397
0.005179 1.000000 0.009775
0.198427 1.000000 0.003077
0.392625 1.000000 0.000000
0.587624 0.998554 0.000000
0.783274 0.992085 0.000000
0.979426 0.985609 0.000000
1.000000 0.984151 0.011965
0.000000 1.000000 0.010323
0.000000 1.000000 0.009980
0.003146 1.000000 0.005430
0.197727 1.000000 0.000000
0.392925 1.000000 0.000000
0.588589 1.000000 0.000000
0.784572 1.000000 0.000000
0.980724 1.000000 0.000000
1.000000 1.000000 0.000000
0.000000 0.007550 0.446703
0.000000 0.006904 0.444644
0.105629 0.003506 0.360179
0.350161 0.000000 0.446512
0.569389 0.000000 0.437412
0.792580 0.000000 0.428240
0.996303 0.000000 0.419763
1.000000 0.000000 0.417718
1.000000 0.000000 0.415741
0.000000 0.005448 0.440002
0.000000 0.004862 0.438134
0.109622 0.001396 0.354445
0.361834 0.000000 0.439863
0.587292 0.000000 0.430755
0.816286 0.000000 0.421589
1.000000 0.000000 0.413154
1.000000 0.000000 0.411338
1.000000 0.000000 0.409590
0.000000 0.126183 0.419325
0.000000 0.125532 0.417664
0.097775 0.121048 0.412204
0.357700 0.111752 0.419337
0.588684 0.103618 0.410258
0.822777 0.095404 0.401136
1.000000 0.087917 0.392776
1.000000 0.087178 0.391200
1.000000 0.086471 0.389691
0.000000 0.416594 0.443392
0.000000 0.415753 0.441815
0.065412 0.410992 0.436347
0.262804 0.295534 0.301290
0.581029 0.283421 0.383386
0.819506 0.274999 0.374332
1.000000 0.267339 0.366071
1.000000 0.266579 0.364736
1.000000 0.265857 0.363469
0.000000 0.662071 0.408741
0.000000 0.661142 0.407391
0.038783 0.656219 0.402066
0.247532 0.474969 0.275795
0.435695 0.468132 0.268689
0.813666 0.454080 0.348372
1.000000 0.446312 0.340224
1.000000 0.445573 0.339127
1.000000 0.444879 0.338096
0.000000 0.906661 0.374925
0.000000 0.905702 0.373796
0.042147 0.660866 0.257996
0.231369 0.653967 0.250984
0.422171 0.647057 0.243968
0.614406 0.640142 0.236952
1.000000 0.625051 0.315211
1.000000 0.624377 0.314346
1.000000 0.623754 0.313545
0.000000 1.000000 0.354551
0.000000 0.844549 0.238620
0.022660 0.839671 0.233751
0.214289 0.832744 0.226832
0.407164 0.825823 0.219918
0.601135 0.818913 0.213016
0.796053 0.812021 0.206130
1.000000 0.803206 0.290367
1.000000 0.802697 0.289792
0.000000 1.000000 0.351349
0.000000 1.000000 0.215266
0.003129 1.000000 0.210455
0.196540 1.000000 0.203585
0.390867 1.000000 0.196736
0.585960 0.996335 0.189914
0.781672 0.989868 0.183124
0.977851 0.983395 0.176369
1.000000 0.981346 0.266879
0.000000 1.000000 0.210780
0.000000 1.000000 0.210294
0.001059 1.000000 0.205614
0.195746 1.000000 0.198867
0.391015 1.000000 0.192155
0.586718 1.000000 0.185481
0.782705 1.000000 0.178850
0.978826 1.000000 0.172268
1.000000 1.000000 0.171178
0.000000 0.004520 0.704373
0.000000 0.003888 0.701591
0.103771 0.001003 0.569298
0.273035 0.000000 0.561483
0.568394 0.000000 0.702669
0.792210 0.000000 0.692811
0.996446 0.000000 0.683673
1.000000 0.000000 0.681008
1.000000 0.000000 0.678433
0.000000 0.002465 0.695323
0.000000 0.001892 0.692802
0.106386 0.000000 0.686601
0.282169 0.000000 0.554010
0.586124 0.000000 0.693864
0.815671 0.000000 0.684087
1.000000 0.000000 0.675065
1.000000 0.000000 0.672702
1.000000 0.000000 0.670428
0.000000 0.123201 0.672538
0.000000 0.122564 0.670294
0.095374 0.118083 0.664261
0.275758 0.112982 0.532761
0.587346 0.100531 0.671468
0.821918 0.092315 0.661809
1.000000 0.084828 0.652937
1.000000 0.084106 0.650886
1.000000 0.083414 0.648925
0.000000 0.413148 0.733236
0.000000 0.303043 0.641559
0.076846 0.298384 0.635711
0.259939 0.291731 0.627915
0.579518 0.280336 0.642941
0.818401 0.271915 0.633425
1.000000 0.264260 0.624726
1.000000 0.263518 0.622990
1.000000 0.262813 0.621342
0.000000 0.658616 0.696691
0.000000 0.657707 0.694828
0.035936 0.652796 0.689006
0.222531 0.645870 0.681212
0.434377 0.465675 0.471125
0.624568 0.458821 0.463708
1.000000 0.443254 0.597617
1.000000 0.442535 0.596190
1.000000 0.441859 0.594851
0.000000 0.903213 0.661250
0.000000 0.902276 0.659688
0.008992 0.897276 0.654095
0.198505 0.890245 0.646504
0.420711 0.644621 0.445493
0.613149 0.637716 0.438234
1.000000 0.622026 0.571584
1.000000 0.621373 0.570461
1.000000 0.620769 0.569425
0.000000 1.000000 0.639480
0.000000 1.000000 0.638101
0.000000 1.000000 0.632640
0.212504 0.830329 0.427839
0.405557 0.823421 0.420722
0.599673 0.816525 0.413635
0.794703 0.809647 0.406582
1.000000 0.800248 0.545777
1.000000 0.799760 0.545039
0.000000 1.000000 0.635193
0.000000 1.000000 0.634112
0.001076 1.000000 0.411015
0.194644 1.000000 0.403984
0.389094 1.000000 0.396992
0.584277 0.994118 0.390046
0.780043 0.987654 0.383149
0.976244 0.981184 0.376306
1.000000 0.978544 0.521727
0.000000 1.000000 0.631908
0.000000 1.000000 0.631124
0.000000 1.000000 0.405716
0.193756 1.000000 0.398868
0.389091 1.000000 0.392072
0.584826 1.000000 0.385332
0.780811 1.000000 0.378654
0.976897 1.000000 0.372043
1.000000 1.000000 0.370943
0.000000 0.001498 0.961540
0.000000 0.000880 0.958050
0.100033 0.000000 0.951005
0.271729 0.000000 0.769655
0.444734 0.000000 0.761259
0.791857 0.000000 0.953433
0.996597 0.000000 0.943871
1.000000 0.000000 0.940817
1.000000 0.000000 0.937867
0.000000 0.000000 0.950189
0.000000 0.000000 0.947030
0.104000 0.000000 0.940199
0.280785 0.000000 0.760482
0.458559 0.000000 0.752215
0.815064 0.000000 0.943405
1.000000 0.000000 0.934010
1.000000 0.000000 0.931305
1.000000 0.000000 0.928704
0.000000 0.120226 0.925343
0.000000 0.119603 0.922530
0.092973 0.115125 0.915939
0.272452 0.108680 0.907457
0.456292 0.104016 0.729622
0.821059 0.089256 0.919988
1.000000 0.081769 0.910793
1.000000 0.081060 0.908449
1.000000 0.080383 0.906208
0.000000 0.300785 0.894504
0.000000 0.300073 0.892040
0.074428 0.295420 0.885704
0.257902 0.288769 0.877438
0.445389 0.283903 0.700936
0.817289 0.268857 0.890629
1.000000 0.261204 0.881656
1.000000 0.260478 0.879674
1.000000 0.259788 0.877795
0.000000 0.655331 0.969489
0.000000 0.654427 0.968415
0.055578 0.475023 0.856703
0.242478 0.468227 0.848667
0.431227 0.461405 0.840668
0.623492 0.456377 0.665646
1.000000 0.440215 0.853781
1.000000 0.439513 0.852156
1.000000 0.438855 0.850632
0.000000 0.899891 0.936574
0.000000 0.898964 0.935684
0.006216 0.893967 0.930723
0.195984 0.886938 0.923727
0.387264 0.879909 0.916730
0.611871 0.635298 0.639358
0.805720 0.628404 0.631909
1.000000 0.618382 0.825867
1.000000 0.617798 0.824695
0.000000 1.000000 0.916897
0.000000 1.000000 0.916076
0.000000 1.000000 0.911134
0.183201 1.000000 0.904144
0.376352 1.000000 0.897170
0.598191 0.814145 0.614135
0.793326 0.807281 0.606926
1.000000 0.797301 0.800784
1.000000 0.796834 0.799957
0.000000 1.000000 0.914351
0.000000 1.000000 0.913712
0.000000 1.000000 0.908906
0.186311 1.000000 0.902040
0.387307 0.998355 0.597157
0.582573 0.991903 0.590097
0.778389 0.985442 0.583105
0.974605 0.978976 0.576186
1.000000 0.975746 0.776445
0.000000 1.000000 0.912414
0.000000 1.000000 0.911956
0.000000 1.000000 0.907299
0.191757 1.000000 0.598804
0.387152 1.000000 0.591936
0.582913 1.000000 0.585143
0.778890 1.000000 0.578429
0.974935 1.000000 0.571800
1.000000 1.000000 0.570701
0.000000 0.000000 1.000000
0.000000 0.000000 1.000000
0.098358 0.000000 1.000000
0.270455 0.000000 0.974057
0.443971 0.000000 0.965336
0.792336 0.000000 1.000000
0.997537 0.000000 1.000000
1.000000 0.000000 1.000000
1.000000 0.000000 1.000000
0.000000 0.000000 1.000000
0.000000 0.000000 1.000000
0.102176 0.000000 1.000000
0.277556 0.000000 1.000000
0.457652 0.000000 0.955333
0.638551 0.000000 0.946785
1.000000 0.000000 1.000000
1.000000 0.000000 1.000000
1.000000 0.000000 1.000000
0.000000 0.117770 1.000000
0.000000 0.117126 1.000000
0.091015 0.112618 1.000000
0.270895 0.106140 1.000000
0.455244 0.101586 0.931906
0.639971 0.095019 0.923565
1.000000 0.079323 1.000000
1.000000 0.078602 1.000000
1.000000 0.077912 1.000000
0.000000 0.298206 1.000000
0.000000 0.297479 1.000000
0.072349 0.292803 1.000000
0.256170 0.286126 1.000000
0.442142 0.279408 1.000000
0.632194 0.274731 0.894392
1.000000 0.258677 1.000000
1.000000 0.257943 1.000000
1.000000 0.257248 1.000000
0.000000 0.477878 1.000000
0.000000 0.477111 1.000000
0.053387 0.472322 1.000000
0.240581 0.465507 1.000000
0.429590 0.458669 1.000000
0.622406 0.453951 0.866453
1.000000 0.437632 1.000000
1.000000 0.436929 1.000000
1.000000 0.436270 1.000000
0.000000 0.898293 1.000000
0.000000 0.897372 1.000000
0.005147 0.892376 1.000000
0.224101 0.644500 1.000000
0.415581 0.637603 1.000000
0.608391 0.630704 1.000000
0.804586 0.626010 0.832157
1.000000 0.615775 1.000000
1.000000 0.615196 1.000000
0.000000 1.000000 1.000000
0.000000 1.000000 1.000000
0.000000 1.000000 1.000000
0.182222 1.000000 1.000000
0.375534 1.000000 1.000000
0.569848 1.000000 1.000000
0.791926 0.804926 0.806886
0.987856 0.798100 0.799666
1.000000 0.794241 1.000000
0.000000 1.000000 1.000000
0.000000 1.000000 1.000000
0.000000 1.000000 1.000000
0.185217 1.000000 1.000000
0.379876 1.000000 1.000000
0.575202 1.000000 1.000000
0.776709 0.983234 0.782882
0.972934 0.976771 0.775933
1.000000 0.973253 1.000000
0.000000 1.000000 1.000000
0.000000 1.000000 1.000000
0.000000 1.000000 1.000000
0.187272 1.000000 1.000000
0.382716 1.000000 1.000000
0.580981 1.000000 0.784874
0.776944 1.000000 0.778157
0.972941 1.000000 0.771536
1.000000 1.000000 0.770458
0.000000 0.000000 1.000000
0.000000 0.000000 1.000000
0.098598 0.000000 1.000000
0.269460 0.000000 1.000000
0.443700 0.000000 1.000000
0.620660 0.000000 1.000000
1.000000 0.000000 1.000000
1.000000 0.000000 1.000000
1.000000 0.000000 1.000000
0.000000 0.000000 1.000000
0.000000 0.000000 1.000000
0.102366 0.000000 1.000000
0.278221 0.000000 1.000000
0.457134 0.000000 1.000000
0.638419 0.000000 1.000000
1.000000 0.000000 1.000000
1.000000 0.000000 1.000000
1.000000 0.000000 1.000000
0.000000 0.117371 1.000000
0.000000 0.116732 1.000000
0.091160 0.112220 1.000000
0.271460 0.105734 1.000000
0.454211 0.099190 1.000000
0.639552 0.092879 1.000000
0.826765 0.086237 1.000000
1.000000 0.078364 1.000000
1.000000 0.077686 1.000000
0.000000 0.297771 1.000000
0.000000 0.297051 1.000000
0.072452 0.292374 1.000000
0.256635 0.285693 1.000000
0.442936 0.278972 1.000000
0.631500 0.272511 1.000000
0.821590 0.265727 1.000000
1.000000 0.257703 1.000000
1.000000 0.257020 1.000000
0.000000 0.477421 1.000000
0.000000 0.476665 1.000000
0.053446 0.471878 1.000000
0.240945 0.465064 1.000000
0.430227 0.458226 1.000000
0.621141 0.451371 1.000000
0.813845 0.444810 1.000000
1.000000 0.436700 1.000000
1.000000 0.436057 1.000000
0.000000 0.897975 1.000000
0.000000 0.655788 1.000000
0.034117 0.650947 1.000000
0.224365 0.644061 1.000000
0.416059 0.637169 1.000000
0.609051 0.630277 1.000000
0.803505 0.623702 1.000000
1.000000 0.615572 1.000000
1.000000 0.615011 1.000000
0.000000 1.000000 1.000000
0.000000 1.000000 1.000000
0.000000 1.000000 1.000000
0.182567 1.000000 1.000000
0.400407 0.816017 1.000000
0.594909 0.809149 1.000000
0.790224 0.802302 1.000000
0.986522 0.795801 0.996410
1.000000 0.794099 1.000000
0.000000 1.000000 1.000000
0.000000 1.000000 1.000000
0.000000 1.000000 1.000000
0.185467 1.000000 1.000000
0.380231 1.000000 1.000000
0.575628 1.000000 1.000000
0.771509 1.000000 1.000000
0.971243 0.974581 0.974604
1.000000 0.973551 0.973565
0.000000 1.000000 1.000000
0.000000 1.000000 1.000000
0.000000 1.000000 1.000000
0.187427 1.000000 1.000000
0.382919 1.000000 1.000000
0.578710 1.000000 1.000000
0.774650 1.000000 1.000000
0.970915 1.000000 0.971187
1.000000 1.000000 0.970216
0.000000 0.000000 1.000000
0.000000 0.000000 1.000000
0.098997 0.000000 1.000000
0.270388 0.000000 1.000000
0.444867 0.000000 1.000000
0.622285 0.000000 1.000000
0.802493 0.000000 1.000000
1.000000 0.000000 1.000000
1.000000 0.000000 1.000000
0.000000 0.000000 1.000000
0.000000 0.000000 1.000000
0.102724 0.000000 1.000000
0.279052 0.000000 1.000000
0.458134 0.000000 1.000000
0.639820 0.000000 1.000000
0.823961 0.000000 1.000000
1.000000 0.000000 1.000000
1.000000 0.000000 1.000000
0.000000 0.117152 1.000000
0.000000 0.116521 1.000000
0.091482 0.112007 1.000000
0.272197 0.105514 1.000000
0.455331 0.098965 1.000000
0.640735 0.092365 1.000000
0.828259 0.085718 1.000000
1.000000 0.078130 1.000000
1.000000 0.077463 1.000000
0.000000 0.297523 1.000000
0.000000 0.296814 1.000000
0.072738 0.292138 1.000000
0.257281 0.285455 1.000000
0.443906 0.278733 1.000000
0.632466 0.271977 1.000000
0.822811 0.265191 1.000000
1.000000 0.258381 1.000000
1.000000 0.256797 1.000000
0.000000 0.477160 1.000000
0.000000 0.476416 1.000000
0.053696 0.471634 1.000000
0.241497 0.464822 1.000000
0.431047 0.457988 1.000000
0.622195 0.451137 1.000000
0.814793 0.444274 1.000000
1.000000 0.437404 1.000000
1.000000 0.435848 1.000000
0.000000 0.656280 1.000000
0.000000 0.655543 1.000000
0.034328 0.650710 1.000000
0.224821 0.643830 1.000000
0.416726 0.636945 1.000000
0.609895 0.630061 1.000000
0.804179 0.623183 1.000000
0.999428 0.616314 1.000000
1.000000 0.614832 1.000000
0.000000 1.000000 1.000000
0.000000 1.000000 1.000000
0.014610 0.829582 1.000000
0.207226 0.822696 1.000000
0.400920 0.815822 1.000000
0.595542 0.808966 1.000000
0.790943 0.802133 1.000000
0.986974 0.795327 1.000000
1.000000 0.793964 1.000000
0.000000 1.000000 1.000000
0.000000 1.000000 1.000000
0.000000 1.000000 1.000000
0.185707 1.000000 1.000000
0.380570 1.000000 1.000000
0.579217 0.987154 1.000000
0.775137 0.980692 1.000000
0.971356 0.974229 1.000000
1.000000 0.973205 1.000000
0.000000 1.000000 1.000000
0.000000 1.000000 1.000000
0.000000 1.000000 1.000000
0.187573 1.000000 1.000000
0.383107 1.000000 1.000000
0.578906 1.000000 1.000000
0.774821 1.000000 1.000000
0.970703 1.000000 1.000000
1.000000 1.000000 1.000000
