library/cube/Tokyo_Midnight_003.cube
# CINEGRADE LAB — Premium Cinematic LUT
# Title: Tokyo Midnight
# Category: Night Neon
# Description: Cyberpunk-inspired with neon glow enhancement and deep shadow work
# Mood: Electric, urban, futuristic
# Variant: 4
# Generated: 2026-05-21T16:12:22.857881
TITLE "Tokyo Midnight"
LUT_3D_SIZE 5
0.000000 0.012933 0.015871
0.138335 0.007020 0.009654
0.568426 0.000000 0.000000
0.991857 0.000000 0.000000
1.000000 0.000000 0.000000
0.000000 0.131489 0.000000
0.101313 0.126317 0.000000
0.588807 0.109125 0.000000
1.000000 0.093445 0.000000
1.000000 0.091916 0.000000
0.000000 0.491920 0.000000
0.064144 0.486274 0.000000
0.436627 0.472607 0.000000
1.000000 0.451796 0.000000
1.000000 0.450260 0.000000
0.000000 0.849803 0.000000
0.025719 0.844075 0.000000
0.408984 0.830161 0.000000
0.797041 0.816282 0.000000
1.000000 0.807855 0.000000
0.000000 1.000000 0.000000
0.004412 1.000000 0.000000
0.393804 1.000000 0.000000
0.785335 1.000000 0.000000
1.000000 1.000000 0.000000
0.000000 0.010588 0.188525
0.137462 0.004601 0.188337
0.570370 0.000000 0.171684
0.996130 0.000000 0.155412
1.000000 0.000000 0.152637
0.000000 0.173360 0.186430
0.100514 0.124357 0.128670
0.590007 0.106712 0.148677
1.000000 0.091012 0.132272
1.000000 0.089534 0.130145
0.000000 0.665535 0.120421
0.063223 0.484254 0.079554
0.436999 0.470597 0.066038
1.000000 0.449378 0.082587
1.000000 0.447907 0.081126
0.000000 0.847775 0.037475
0.024656 0.842105 0.032363
0.408755 0.828232 0.018978
0.797377 0.814402 0.005564
1.000000 0.805641 0.034429
0.000000 1.000000 0.010323
0.003146 1.000000 0.005430
0.392925 1.000000 0.000000
0.784572 1.000000 0.000000
1.000000 1.000000 0.000000
0.000000 0.004520 0.704373
0.103771 0.001003 0.569298
0.568394 0.000000 0.702669
0.996446 0.000000 0.683673
1.000000 0.000000 0.678433
0.000000 0.123201 0.672538
0.095374 0.118083 0.664261
0.587346 0.100531 0.671468
1.000000 0.084828 0.652937
1.000000 0.083414 0.648925
0.000000 0.658616 0.696691
0.035936 0.652796 0.689006
0.434377 0.465675 0.471125
1.000000 0.443254 0.597617
1.000000 0.441859 0.594851
0.000000 1.000000 0.639480
0.000000 1.000000 0.632640
0.405557 0.823421 0.420722
0.794703 0.809647 0.406582
1.000000 0.799760 0.545039
0.000000 1.000000 0.631908
0.000000 1.000000 0.405716
0.389091 1.000000 0.392072
0.780811 1.000000 0.378654
1.000000 1.000000 0.370943
0.000000 0.000000 1.000000
0.098358 0.000000 1.000000
0.443971 0.000000 0.965336
0.997537 0.000000 1.000000
1.000000 0.000000 1.000000
0.000000 0.117770 1.000000
0.091015 0.112618 1.000000
0.455244 0.101586 0.931906
1.000000 0.079323 1.000000
1.000000 0.077912 1.000000
0.000000 0.477878 1.000000
0.053387 0.472322 1.000000
0.429590 0.458669 1.000000
1.000000 0.437632 1.000000
1.000000 0.436270 1.000000
0.000000 1.000000 1.000000
0.000000 1.000000 1.000000
0.375534 1.000000 1.000000
0.791926 0.804926 0.806886
1.000000 0.794241 1.000000
0.000000 1.000000 1.000000
0.000000 1.000000 1.000000
0.382716 1.000000 1.000000
0.776944 1.000000 0.778157
1.000000 1.000000 0.770458
0.000000 0.000000 1.000000
0.098997 0.000000 1.000000
0.444867 0.000000 1.000000
0.802493 0.000000 1.000000
1.000000 0.000000 1.000000
0.000000 0.117152 1.000000
0.091482 0.112007 1.000000
0.455331 0.098965 1.000000
0.828259 0.085718 1.000000
1.000000 0.077463 1.000000
0.000000 0.477160 1.000000
0.053696 0.471634 1.000000
0.431047 0.457988 1.000000
0.814793 0.444274 1.000000
1.000000 0.435848 1.000000
0.000000 1.000000 1.000000
0.014610 0.829582 1.000000
0.400920 0.815822 1.000000
0.790943 0.802133 1.000000
1.000000 0.793964 1.000000
0.000000 1.000000 1.000000
0.000000 1.000000 1.000000
0.383107 1.000000 1.000000
0.774821 1.000000 1.000000
1.000000 1.000000 1.000000
