library/cube/Tungsten_Dreams_003.cube
# CINEGRADE LAB — Premium Cinematic LUT
# Title: Tungsten Dreams
# Category: Cinematic Shadows
# Description: Crushed blacks with teal shadows and warm highlights for cinema-inspired images
# Mood: Dramatic, cinematic, bold
# Variant: 4
# Generated: 2026-05-21T16:12:13.130921
TITLE "Tungsten Dreams"
LUT_3D_SIZE 9
0.000000 0.000000 0.000000
0.049260 0.001883 0.001883
0.171214 0.006545 0.006545
0.295061 0.011279 0.011279
0.420657 0.016080 0.016080
0.547865 0.020942 0.020942
0.676555 0.025861 0.025861
0.806544 0.030830 0.030830
0.875985 0.033485 0.033485
0.006368 0.053996 0.006368
0.052108 0.054468 0.007971
0.177031 0.058045 0.012610
0.303547 0.061759 0.017318
0.431528 0.065604 0.022091
0.560856 0.069573 0.026923
0.691417 0.073659 0.031811
0.822864 0.077848 0.036740
0.881390 0.079317 0.038890
0.023408 0.198488 0.023408
0.066556 0.198913 0.024918
0.194097 0.202651 0.029664
0.322963 0.206523 0.034470
0.453042 0.210524 0.039331
0.584234 0.214646 0.044244
0.716443 0.218884 0.049205
0.848954 0.223208 0.054186
0.898504 0.224433 0.056004
0.040399 0.342559 0.040399
0.081714 0.343039 0.041853
0.211448 0.346992 0.046698
0.342276 0.351075 0.051594
0.474105 0.355282 0.056538
0.606850 0.359607 0.061527
0.740434 0.364045 0.066557
0.873522 0.368542 0.071577
0.915628 0.369635 0.073128
0.057387 0.486599 0.057387
0.097601 0.487222 0.058820
0.229165 0.491431 0.063755
0.361629 0.495765 0.068736
0.494920 0.500218 0.073757
0.628970 0.504785 0.078818
0.763717 0.509459 0.083914
0.896924 0.514152 0.088961
0.932795 0.515199 0.090295
0.074409 0.630936 0.074409
0.114221 0.631773 0.075853
0.247313 0.636269 0.080873
0.381151 0.640883 0.085931
0.515678 0.645610 0.091026
0.650843 0.650443 0.096155
0.786599 0.655379 0.101315
0.919517 0.660281 0.106376
0.950030 0.661339 0.107530
0.091497 0.775834 0.091497
0.131569 0.776940 0.092981
0.265949 0.781742 0.098079
0.400958 0.786654 0.103211
0.536555 0.791670 0.108376
0.672703 0.796785 0.113570
0.809375 0.801995 0.118792
0.941658 0.807106 0.123855
0.967351 0.808209 0.124851
0.108651 0.921284 0.108651
0.149608 0.922741 0.110204
0.285102 0.927891 0.115380
0.421142 0.933137 0.120585
0.557704 0.938472 0.125818
0.694768 0.943893 0.131078
0.832323 0.949394 0.136364
0.963695 0.954717 0.141420
0.984766 0.955877 0.142266
0.112644 0.955144 0.112644
0.155045 0.956765 0.114265
0.291498 0.961981 0.119481
0.428446 0.967216 0.124716
0.565879 0.972469 0.129969
0.703794 0.977741 0.135241
0.842197 0.983031 0.140531
0.972381 0.988007 0.145507
0.988629 0.988629 0.146128
0.000875 0.000875 0.065703
0.049728 0.002711 0.065142
0.171989 0.007355 0.067516
0.296113 0.012072 0.070084
0.421956 0.016856 0.072839
0.549383 0.021702 0.075771
0.678265 0.026605 0.078871
0.808411 0.031558 0.082128
0.876646 0.034146 0.083123
0.007088 0.054325 0.064349
0.052508 0.054785 0.063930
0.177694 0.058374 0.066683
0.304445 0.062100 0.069617
0.432636 0.065956 0.072721
0.562149 0.069936 0.075988
0.692873 0.074033 0.079409
0.824433 0.078232 0.082966
0.881959 0.079668 0.083792
0.024047 0.198749 0.075067
0.066955 0.199173 0.074930
0.194718 0.202929 0.078149
0.323781 0.206818 0.081525
0.454036 0.210836 0.085051
0.585382 0.214974 0.088718
0.717728 0.219228 0.092520
0.850306 0.223566 0.096422
0.899028 0.224770 0.097207
0.040974 0.342794 0.086939
0.082130 0.343283 0.087079
0.212049 0.347257 0.090712
0.343042 0.351362 0.094481
0.475018 0.355589 0.098380
0.607894 0.359935 0.102401
0.741593 0.364392 0.106537
0.874703 0.368905 0.110730
0.916120 0.369986 0.111494
0.057915 0.486843 0.099868
0.098045 0.487482 0.100276
0.229764 0.491716 0.104273
0.362368 0.496074 0.108387
0.495783 0.500550 0.112611
0.629944 0.505139 0.116939
0.764790 0.509835 0.121365
0.897978 0.514545 0.125794
0.933267 0.515587 0.126544
0.074904 0.631216 0.113748
0.114704 0.632074 0.114414
0.247927 0.636597 0.118725
0.381883 0.641237 0.123136
0.516518 0.645989 0.127639
0.651779 0.650846 0.132229
0.787625 0.655804 0.136899
0.920487 0.660723 0.141509
0.950490 0.661781 0.142237
0.091972 0.776171 0.128467
0.132097 0.777303 0.129376
0.266590 0.782132 0.133955
0.401702 0.787070 0.138615
0.537394 0.792111 0.143350
0.673632 0.797251 0.148156
0.810388 0.802483 0.153026
0.942586 0.807609 0.157763
0.967805 0.808711 0.158447
0.109115 0.921707 0.143882
0.150189 0.923191 0.145023
0.285781 0.928366 0.149824
0.421914 0.933634 0.154690
0.558565 0.938992 0.159615
0.695716 0.944434 0.164594
0.833356 0.949955 0.169623
0.964619 0.955289 0.174435
0.985218 0.956446 0.175040
0.113096 0.955596 0.146615
0.155668 0.957220 0.147939
0.292211 0.962436 0.152881
0.429245 0.967670 0.157864
0.566763 0.972924 0.162886
0.704766 0.978196 0.167940
0.843258 0.983488 0.173026
0.973314 0.988456 0.177796
0.989056 0.989056 0.178201
0.002760 0.002760 0.207218
0.051233 0.004570 0.205769
0.173817 0.009216 0.207327
0.298231 0.013934 0.209124
0.424333 0.018718 0.211149
0.551991 0.023564 0.213391
0.681077 0.028467 0.215839
0.811390 0.033418 0.218481
0.878453 0.035953 0.218847
0.008885 0.055737 0.203053
0.054009 0.056204 0.201900
0.179469 0.059820 0.203984
0.306466 0.063572 0.206284
0.434876 0.067454 0.208792
0.564584 0.071458 0.211497
0.695480 0.075578 0.214389
0.827160 0.079798 0.217447
0.883715 0.081212 0.217765
0.025815 0.200149 0.211492
0.068507 0.200587 0.210756
0.196500 0.204373 0.213427
0.325768 0.208291 0.216288
0.456206 0.212336 0.219330
0.587715 0.216501 0.222543
0.720203 0.220780 0.225919
0.852852 0.225140 0.229419
0.900770 0.226332 0.229795
0.042723 0.344212 0.221505
0.083737 0.344721 0.221160
0.213849 0.348727 0.224351
0.345013 0.352861 0.227706
0.477142 0.357118 0.231216
0.610153 0.361491 0.234873
0.743972 0.365975 0.238668
0.877106 0.370510 0.242539
0.917854 0.371586 0.242974
0.059651 0.488304 0.232933
0.099713 0.488967 0.232954
0.231592 0.493233 0.236597
0.364339 0.497622 0.240379
0.497882 0.502128 0.244293
0.632158 0.506745 0.248330
0.767107 0.511468 0.252482
0.900277 0.516199 0.256650
0.934996 0.517240 0.257133
0.076633 0.632739 0.245611
0.116433 0.633625 0.245969
0.249790 0.638180 0.249997
0.383868 0.642850 0.254142
0.518612 0.647631 0.258395
0.653974 0.652516 0.262749
0.789911 0.657500 0.267196
0.922718 0.662438 0.271589
0.952218 0.663497 0.272093
0.093698 0.777770 0.259367
0.133888 0.778932 0.260031
0.268495 0.783791 0.264379
0.403713 0.788758 0.268821
0.539502 0.793827 0.273350
0.675831 0.798992 0.277958
0.812674 0.804249 0.282639
0.944785 0.809392 0.287185
0.969533 0.810494 0.287670
0.110843 0.923404 0.274001
0.152042 0.924916 0.274940
0.287735 0.930117 0.279547
0.423963 0.935411 0.284226
0.560704 0.940792 0.288970
0.697942 0.946256 0.293773
0.835668 0.951798 0.298628
0.966822 0.957144 0.303260
0.986947 0.958297 0.303670
0.114820 0.957320 0.276066
0.157570 0.958948 0.277211
0.294202 0.964165 0.281975
0.431323 0.969401 0.286784
0.568929 0.974656 0.291630
0.707019 0.979929 0.296511
0.845603 0.985221 0.301419
0.975528 0.990183 0.306001
0.990760 0.990760 0.306198
0.004636 0.004636 0.348114
0.052739 0.006422 0.345809
0.175640 0.011069 0.346583
0.300338 0.015788 0.347638
0.426696 0.020573 0.348961
0.554580 0.025419 0.350541
0.683867 0.030321 0.352364
0.814342 0.035271 0.354417
0.880255 0.037755 0.354178
0.010676 0.057152 0.341242
0.055512 0.057625 0.339386
0.181242 0.061269 0.340825
0.308480 0.065048 0.342519
0.437106 0.068954 0.344455
0.567005 0.072982 0.346622
0.698070 0.077126 0.349008
0.829866 0.081366 0.351590
0.885468 0.082760 0.351420
0.027579 0.201554 0.347494
0.070061 0.202006 0.346183
0.198280 0.205821 0.348330
0.327751 0.209768 0.350699
0.458368 0.213841 0.353279
0.590037 0.218032 0.356058
0.722666 0.222336 0.359026
0.855381 0.226717 0.362143
0.902509 0.227898 0.362127
0.044468 0.345637 0.355727
0.085349 0.346165 0.354919
0.215649 0.350203 0.357687
0.346982 0.354367 0.360647
0.479260 0.358653 0.363786
0.612405 0.363054 0.367096
0.746343 0.367564 0.370566
0.879496 0.372120 0.374128
0.919585 0.373191 0.374249
0.061384 0.489772 0.365721
0.101385 0.490460 0.365372
0.233421 0.494758 0.368677
0.366309 0.499178 0.372144
0.499979 0.503713 0.375761
0.634368 0.508358 0.379520
0.769419 0.513107 0.383411
0.902565 0.517859 0.387329
0.936724 0.518899 0.387555
0.078360 0.634270 0.377251
0.118167 0.635184 0.377316
0.251656 0.639770 0.381074
0.385854 0.644471 0.384965
0.520706 0.649280 0.388978
0.656167 0.654192 0.393106
0.792196 0.659202 0.397339
0.924943 0.664159 0.401522
0.953944 0.665218 0.401809
0.095423 0.779377 0.390088
0.135684 0.780568 0.390516
0.270404 0.785458 0.394644
0.405725 0.790454 0.398877
0.541611 0.795549 0.403206
0.678030 0.800740 0.407623
0.814960 0.806021 0.412119
0.946983 0.811180 0.416480
0.971260 0.812283 0.416768
0.112571 0.925107 0.403972
0.153901 0.926649 0.404716
0.289692 0.931876 0.409135
0.426014 0.937194 0.413632
0.562845 0.942598 0.418199
0.700171 0.948083 0.422827
0.837984 0.953646 0.427510
0.969025 0.959003 0.431963
0.988675 0.960152 0.432179
0.116543 0.959043 0.405386
0.159476 0.960675 0.406357
0.296197 0.965893 0.410946
0.433405 0.971130 0.415580
0.571098 0.976386 0.420253
0.709277 0.981660 0.424958
0.847952 0.986954 0.429688
0.977746 0.991908 0.434079
0.992463 0.992463 0.434064
0.006504 0.006504 0.488407
0.054245 0.008266 0.485278
0.177457 0.012915 0.485299
0.302436 0.017636 0.485641
0.429044 0.022422 0.486291
0.557152 0.027268 0.487235
0.686636 0.032170 0.488459
0.817267 0.037118 0.489946
0.882053 0.039553 0.489128
0.012461 0.058570 0.478932
0.057018 0.059049 0.476400
0.183012 0.062721 0.477222
0.310488 0.066526 0.478334
0.439326 0.070458 0.479723
0.569413 0.074510 0.481374
0.700644 0.078676 0.483277
0.832550 0.082937 0.485403
0.887218 0.084311 0.484767
0.029338 0.202963 0.483086
0.071620 0.203429 0.481225
0.200061 0.207275 0.482871
0.329729 0.211250 0.484769
0.460524 0.215350 0.486907
0.592349 0.219567 0.489272
0.725116 0.223896 0.491852
0.857892 0.228299 0.494603
0.904246 0.229469 0.494213
0.046210 0.347067 0.489615
0.086965 0.347616 0.488365
0.217450 0.351684 0.490731
0.348949 0.355879 0.493313
0.481375 0.360193 0.496099
0.614650 0.364621 0.499078
0.748705 0.369157 0.502237
0.881873 0.373735 0.505506
0.921315 0.374802 0.505325
0.063115 0.491248 0.498240
0.103061 0.491960 0.497539
0.235252 0.496290 0.500523
0.368279 0.500740 0.503688
0.502073 0.505304 0.507022
0.636574 0.509976 0.510516
0.771726 0.514752 0.514158
0.904845 0.519524 0.517836
0.938450 0.520564 0.517816
0.080086 0.635809 0.508677
0.119906 0.636751 0.508461
0.253525 0.641368 0.511961
0.387840 0.646098 0.515609
0.522800 0.650936 0.519393
0.658358 0.655875 0.523304
0.794478 0.660910 0.527331
0.927163 0.665885 0.531313
0.955670 0.666946 0.531389
0.097147 0.780992 0.520635
0.137486 0.782213 0.520838
0.272317 0.787133 0.524754
0.407741 0.792156 0.528785
0.543721 0.797279 0.532921
0.680231 0.802495 0.537152
0.817246 0.807799 0.541468
0.949178 0.812974 0.545648
0.972987 0.814076 0.545742
0.114298 0.926818 0.533798
0.155764 0.928388 0.534353
0.291654 0.933641 0.538590
0.428068 0.938983 0.542909
0.564989 0.944410 0.547302
0.702402 0.949916 0.551759
0.840303 0.955498 0.556271
0.971230 0.960866 0.560544
0.990402 0.962010 0.560565
0.118263 0.960763 0.534578
0.161386 0.962401 0.535377
0.298195 0.967620 0.539793
0.435491 0.972858 0.544255
0.573271 0.978115 0.548754
0.711539 0.983390 0.553282
0.850307 0.988685 0.557832
0.979967 0.993631 0.562028
0.994164 0.994164 0.561797
0.008365 0.008365 0.628113
0.055752 0.010103 0.624193
0.179270 0.014755 0.623489
0.304525 0.019477 0.623147
0.431379 0.024264 0.623151
0.559706 0.029111 0.623486
0.689383 0.034012 0.624136
0.820167 0.038960 0.625083
0.883845 0.041345 0.623708
0.014241 0.059989 0.616137
0.058526 0.060477 0.612956
0.184781 0.064176 0.613187
0.312491 0.068007 0.613742
0.441537 0.071964 0.614607
0.571808 0.076040 0.615767
0.703202 0.080229 0.617207
0.835213 0.084510 0.618899
0.888964 0.085865 0.617817
0.031094 0.204377 0.618281
0.073182 0.204857 0.615893
0.201841 0.208733 0.617060
0.331705 0.212737 0.618508
0.462672 0.216864 0.620225
0.594651 0.221107 0.622195
0.727554 0.225461 0.624405
0.860387 0.229885 0.626807
0.905981 0.231044 0.626059
0.047949 0.348504 0.623181
0.088585 0.349073 0.621509
0.219253 0.353172 0.623491
0.350914 0.357397 0.625713
0.483485 0.361739 0.628162
0.616889 0.366194 0.630826
0.751058 0.370756 0.633690
0.884237 0.375355 0.636678
0.923043 0.376418 0.636209
0.064844 0.492731 0.630500
0.104743 0.493468 0.629464
0.237086 0.497829 0.632141
0.370249 0.502309 0.635019
0.504165 0.506902 0.638084
0.638776 0.511601 0.641324
0.774027 0.516403 0.644728
0.907116 0.521195 0.648176
0.940176 0.522234 0.647919
0.081810 0.637356 0.639894
0.121651 0.638325 0.639412
0.255398 0.642974 0.642666
0.389828 0.647733 0.646081
0.524893 0.652599 0.649646
0.660549 0.657564 0.653349
0.796758 0.662625 0.657177
0.929377 0.667618 0.660963
0.957395 0.668678 0.660834
0.098870 0.782615 0.651013
0.139293 0.783866 0.651000
0.274233 0.788815 0.654713
0.409758 0.793866 0.658550
0.545834 0.799015 0.662499
0.682432 0.804255 0.666550
0.819534 0.809583 0.670690
0.951372 0.814772 0.674690
0.974712 0.815874 0.674593
0.116024 0.928536 0.663483
0.157633 0.930134 0.663856
0.293619 0.935412 0.667914
0.430126 0.940778 0.672059
0.567136 0.946227 0.676281
0.704637 0.951754 0.680568
0.842626 0.957355 0.684910
0.973437 0.962733 0.689004
0.992128 0.963872 0.688828
0.119982 0.962482 0.663644
0.163299 0.964125 0.664274
0.300196 0.969345 0.668518
0.437579 0.974584 0.672807
0.575447 0.979842 0.677131
0.713806 0.985119 0.681482
0.852668 0.990415 0.685849
0.982193 0.995353 0.689847
0.995863 0.995863 0.689394
0.010218 0.010218 0.767250
0.057259 0.011933 0.762568
0.181079 0.016587 0.761169
0.306604 0.021311 0.760171
0.433701 0.026100 0.759556
0.562243 0.030947 0.759307
0.692110 0.035849 0.759409
0.823042 0.040795 0.759839
0.885632 0.043132 0.757932
0.016015 0.061412 0.752871
0.060037 0.061907 0.749068
0.186549 0.065633 0.748733
0.314488 0.069491 0.748756
0.443738 0.073473 0.749121
0.574191 0.077573 0.749811
0.705745 0.081784 0.750810
0.837856 0.086085 0.752087
0.890708 0.087422 0.750578
0.032845 0.205795 0.753089
0.074748 0.206291 0.750198
0.203621 0.210196 0.750908
0.333676 0.214228 0.751928
0.464814 0.218382 0.753243
0.596944 0.222651 0.754837
0.729981 0.227030 0.756694
0.862866 0.231475 0.758764
0.907714 0.232624 0.757674
0.049685 0.349947 0.756435
0.090210 0.350536 0.754360
0.221056 0.354667 0.755977
0.352877 0.358921 0.757857
0.485590 0.363291 0.759985
0.619122 0.367773 0.762348
0.753404 0.372361 0.764931
0.886589 0.376980 0.767651
0.924770 0.378039 0.766907
0.066571 0.494221 0.762510
0.106430 0.494983 0.761154
0.238922 0.499375 0.763539
0.372219 0.503885 0.766144
0.506256 0.508506 0.768952
0.640975 0.513233 0.771951
0.776324 0.518059 0.775127
0.909379 0.522871 0.778355
0.941900 0.523910 0.777870
0.083533 0.638911 0.770910
0.123400 0.639908 0.770174
0.257273 0.644587 0.773193
0.391818 0.649375 0.776386
0.526987 0.654268 0.779741
0.662738 0.659260 0.783244
0.799036 0.664345 0.786881
0.931587 0.669355 0.790477
0.959119 0.670417 0.790148
0.100593 0.784246 0.781227
0.141105 0.785526 0.781008
0.276153 0.790504 0.784525
0.411778 0.795583 0.788174
0.547948 0.800757 0.791943
0.684636 0.806022 0.795818
0.821823 0.811372 0.799786
0.953564 0.816576 0.803610
0.976437 0.817676 0.803323
0.117749 0.930261 0.793029
0.159506 0.931887 0.793226
0.295589 0.937189 0.797110
0.432188 0.942578 0.801085
0.569286 0.948049 0.805138
0.706876 0.953596 0.809256
0.844953 0.959217 0.813428
0.975646 0.964604 0.817342
0.993853 0.965737 0.816968
0.121699 0.964199 0.792585
0.165216 0.965847 0.793048
0.302201 0.971069 0.797121
0.439671 0.976309 0.801237
0.577627 0.981568 0.805386
0.716077 0.986846 0.809556
0.855034 0.992143 0.813737
0.984423 0.997074 0.817533
0.997561 0.997561 0.816854
0.011371 0.011371 0.853872
0.058171 0.013160 0.855660
0.182365 0.017895 0.859450
0.308202 0.022667 0.861231
0.435580 0.027499 0.863227
0.564373 0.032387 0.865426
0.694465 0.037327 0.867816
0.825573 0.042307 0.870379
0.887130 0.044630 0.870411
0.017328 0.062380 0.854842
0.061136 0.062925 0.853574
0.187938 0.066718 0.855633
0.316139 0.070638 0.857892
0.445625 0.074679 0.860341
0.576288 0.078835 0.862967
0.708028 0.083099 0.865760
0.840262 0.087447 0.868690
0.892257 0.088791 0.868664
0.034266 0.206892 0.862982
0.076024 0.207435 0.862107
0.205139 0.211401 0.864703
0.335411 0.215490 0.867467
0.466743 0.219697 0.870389
0.599046 0.224017 0.873459
0.732236 0.228442 0.876666
0.865188 0.232928 0.879960
0.909323 0.234087 0.879948
0.051194 0.351172 0.872558
0.091641 0.351808 0.872033
0.222687 0.355993 0.875080
0.354686 0.360297 0.878266
0.487559 0.364716 0.881580
0.621234 0.369242 0.885012
0.755643 0.373872 0.888554
0.888845 0.378526 0.892124
0.926424 0.379594 0.892106
0.068150 0.495573 0.883349
0.107995 0.496379 0.883131
0.240652 0.500820 0.886546
0.374096 0.505374 0.890072
0.508265 0.510038 0.893698
0.643104 0.514803 0.897415
0.778561 0.519667 0.901214
0.911588 0.524508 0.904973
0.943586 0.525554 0.904914
0.085166 0.640385 0.895134
0.125081 0.641424 0.895176
0.259089 0.646145 0.898879
0.393757 0.650973 0.902665
0.529039 0.655902 0.906524
0.664893 0.660928 0.910448
0.801287 0.666044 0.914430
0.933772 0.671078 0.918291
0.960826 0.672144 0.918145
0.102266 0.785837 0.907686
0.142883 0.787156 0.907941
0.278046 0.792169 0.911852
0.413777 0.797282 0.915819
0.550045 0.802487 0.919834
0.686826 0.807780 0.923890
0.824103 0.813157 0.927978
0.955749 0.818378 0.931858
0.978156 0.819479 0.931563
0.119451 0.931970 0.920760
0.161367 0.933629 0.921181
0.297550 0.938960 0.925224
0.434243 0.944376 0.929298
0.571434 0.949870 0.933395
0.709113 0.955440 0.937509
0.847281 0.961080 0.941632
0.977856 0.966477 0.945449
0.995576 0.967604 0.944929
0.123407 0.965907 0.920796
0.167131 0.967563 0.921288
0.304206 0.972787 0.925337
0.441765 0.978030 0.929387
0.579811 0.983291 0.933432
0.718353 0.988571 0.937466
0.857406 0.993869 0.941483
0.986657 0.998793 0.945082
0.999257 0.999257 0.944173
0.011371 0.011371 0.853872
0.057851 0.013148 0.855648
0.182358 0.017907 0.860407
0.308506 0.022729 0.865229
0.436163 0.027609 0.870109
0.565207 0.032542 0.875042
0.695523 0.037523 0.880023
0.826809 0.042542 0.885042
0.887356 0.044856 0.887356
0.017350 0.062066 0.859850
0.060957 0.062665 0.861395
0.188049 0.066528 0.866140
0.316511 0.070514 0.870945
0.446232 0.074618 0.875806
0.577106 0.078833 0.880719
0.709035 0.083154 0.885680
0.841392 0.087554 0.890664
0.892552 0.088912 0.892552
0.034410 0.206720 0.876910
0.076035 0.207316 0.878388
0.205392 0.211346 0.883228
0.335882 0.215497 0.888121
0.467411 0.219763 0.893061
0.599889 0.224138 0.898047
0.733237 0.228616 0.903074
0.866259 0.233150 0.908096
0.909701 0.234325 0.909701
0.051442 0.351145 0.893942
0.091825 0.351833 0.895389
0.223072 0.356078 0.900317
0.355253 0.360440 0.905291
0.488291 0.364912 0.910307
0.622113 0.369491 0.915361
0.756656 0.374169 0.920451
0.889879 0.378867 0.925499
0.926875 0.379953 0.926875
0.068490 0.495694 0.910990
0.108335 0.496551 0.912437
0.241160 0.501047 0.917448
0.374757 0.505655 0.922498
0.509066 0.510368 0.927584
0.644032 0.515182 0.932703
0.779606 0.520091 0.937855
0.912611 0.524971 0.942915
0.944103 0.526036 0.944103
0.085585 0.640655 0.928085
0.125562 0.641743 0.929563
0.259714 0.646515 0.934651
0.394513 0.651392 0.939772
0.529916 0.656368 0.944925
0.665884 0.661438 0.950108
0.802384 0.666597 0.955319
0.934813 0.671666 0.960382
0.961406 0.672750 0.961406
0.102756 0.786254 0.945256
0.143495 0.787621 0.946792
0.278783 0.792682 0.951951
0.414630 0.797840 0.957140
0.551009 0.803088 0.962357
0.687897 0.808423 0.967601
0.825278 0.813839 0.972871
0.956840 0.819091 0.977926
0.978796 0.820208 0.978796
0.120009 0.932543 0.962509
0.162103 0.934247 0.964129
0.298398 0.939620 0.969357
0.435200 0.945076 0.974612
0.572498 0.950609 0.979893
0.710284 0.956216 0.985199
0.848559 0.961893 0.990529
0.979031 0.967317 0.995566
0.996280 0.968456 0.996280
0.124015 0.966515 0.966515
0.167968 0.968196 0.968196
0.305149 0.973439 0.973439
0.442814 0.978702 0.978702
0.580968 0.983982 0.983982
0.719622 0.989283 0.989283
0.858793 0.994602 0.994602
0.987925 0.999538 0.999538
1.000000 1.000000 1.000000
