library/cube/Tungsten_Film_003.cube
# CINEGRADE LAB — Premium Cinematic LUT
# Title: Tungsten Film
# Category: CineStill 800T Emulation
# Description: Tungsten balance, halation glow, night film characteristics
# Mood: Nocturnal, glowing, cinematic
# Variant: 4
# Generated: 2026-05-21T16:12:54.849683
TITLE "Tungsten Film"
LUT_3D_SIZE 33
0.072970 0.061340 0.047488
0.098269 0.062314 0.048400
0.124009 0.063305 0.049329
0.150085 0.064309 0.050271
0.176435 0.065323 0.051224
0.203018 0.066346 0.052186
0.229804 0.067376 0.053157
0.256769 0.068414 0.054134
0.283897 0.069458 0.055118
0.311174 0.070507 0.056109
0.338586 0.071562 0.057105
0.366126 0.072621 0.058106
0.393784 0.073685 0.059112
0.421553 0.074753 0.060122
0.449428 0.075826 0.061137
0.477403 0.076902 0.062156
0.505473 0.077981 0.063179
0.533634 0.079065 0.064207
0.561882 0.080151 0.065237
0.590214 0.081241 0.066272
0.618627 0.082334 0.067309
0.647119 0.083429 0.068351
0.675680 0.084528 0.069395
0.704286 0.085628 0.070441
0.732954 0.086731 0.071490
0.761681 0.087836 0.072542
0.790464 0.088943 0.073596
0.819300 0.090052 0.074653
0.848185 0.091163 0.075712
0.873099 0.092122 0.076619
0.873268 0.092136 0.076581
0.873435 0.092149 0.076543
0.873601 0.092163 0.076506
0.076037 0.086909 0.050318
0.101356 0.087887 0.051232
0.127117 0.088882 0.052163
0.153214 0.089890 0.053108
0.179586 0.090908 0.054063
0.206190 0.091935 0.055028
0.232998 0.092970 0.056001
0.259985 0.094011 0.056981
0.287135 0.095059 0.057968
0.314433 0.096112 0.058960
0.341868 0.097171 0.059959
0.369430 0.098234 0.060962
0.397111 0.099302 0.061971
0.424903 0.100374 0.062984
0.452801 0.101451 0.064001
0.480800 0.102531 0.065023
0.508894 0.103614 0.066049
0.537079 0.104701 0.067078
0.565352 0.105792 0.068112
0.593710 0.106886 0.069148
0.622148 0.107982 0.070189
0.650665 0.109082 0.071233
0.679250 0.110185 0.072279
0.707866 0.111288 0.073328
0.736542 0.112394 0.074379
0.765273 0.113502 0.075432
0.794059 0.114612 0.076488
0.822894 0.115724 0.077546
0.851777 0.116838 0.078607
0.876684 0.117800 0.079515
0.876849 0.117817 0.079479
0.877012 0.117833 0.079442
0.877174 0.117849 0.079406
0.079157 0.112934 0.053206
0.104498 0.113916 0.054122
0.130279 0.114915 0.055056
0.156398 0.115926 0.056003
0.182791 0.116948 0.056961
0.209417 0.117979 0.057928
0.236247 0.119018 0.058903
0.263256 0.120063 0.059886
0.290428 0.121115 0.060875
0.317749 0.122172 0.061870
0.345207 0.123235 0.062871
0.372792 0.124302 0.063877
0.400497 0.125374 0.064888
0.428313 0.126450 0.065903
0.456236 0.127530 0.066923
0.484259 0.128614 0.067948
0.512377 0.129702 0.068976
0.540588 0.130793 0.070008
0.568887 0.131887 0.071044
0.597271 0.132985 0.072084
0.625736 0.134086 0.073127
0.654281 0.135189 0.074173
0.682890 0.136296 0.075222
0.711512 0.137402 0.076272
0.740190 0.138511 0.077325
0.768923 0.139622 0.078380
0.797706 0.140735 0.079438
0.826536 0.141850 0.080497
0.855410 0.142967 0.081559
0.880307 0.143931 0.082469
0.880467 0.143950 0.082434
0.880626 0.143969 0.082399
0.880784 0.143988 0.082364
0.082321 0.139308 0.056139
0.107682 0.140294 0.057058
0.133485 0.141296 0.057994
0.159625 0.142312 0.058944
0.186041 0.143338 0.059904
0.212689 0.144373 0.060873
0.239541 0.145415 0.061851
0.266573 0.146464 0.062836
0.293768 0.147520 0.063828
0.321113 0.148581 0.064825
0.348594 0.149647 0.065829
0.376203 0.150719 0.066837
0.403932 0.151794 0.067851
0.431773 0.152874 0.068869
0.459721 0.153958 0.069891
0.487769 0.155046 0.070918
0.515914 0.156138 0.071949
0.544152 0.157233 0.072984
0.572477 0.158331 0.074022
0.600889 0.159433 0.075065
0.629382 0.160538 0.076110
0.657955 0.161645 0.077159
0.686589 0.162756 0.078211
0.715213 0.163865 0.079263
0.743891 0.164977 0.080317
0.772620 0.166091 0.081374
0.801395 0.167207 0.082432
0.830215 0.168324 0.083493
0.859074 0.169443 0.084556
0.883956 0.170409 0.085467
0.884111 0.170431 0.085433
0.884266 0.170453 0.085400
0.884419 0.170474 0.085366
0.085521 0.165968 0.059110
0.110904 0.166958 0.060032
0.136729 0.167964 0.060970
0.162891 0.168983 0.061922
0.189329 0.170013 0.062885
0.216000 0.171052 0.063857
0.242875 0.172098 0.064837
0.269930 0.173151 0.065825
0.297149 0.174211 0.066819
0.324518 0.175276 0.067819
0.352024 0.176346 0.068825
0.379658 0.177421 0.069836
0.407412 0.178501 0.070852
0.435279 0.179585 0.071873
0.463252 0.180672 0.072898
0.491328 0.181764 0.073927
0.519500 0.182860 0.074961
0.547765 0.183959 0.075998
0.576119 0.185061 0.077039
0.604559 0.186167 0.078084
0.633083 0.187275 0.079133
0.661686 0.188387 0.080184
0.690344 0.189501 0.081239
0.718966 0.190614 0.082292
0.747638 0.191728 0.083348
0.776357 0.192844 0.084405
0.805120 0.193962 0.085465
0.833923 0.195082 0.086527
0.862762 0.196203 0.087590
0.887622 0.197171 0.088502
0.887773 0.197196 0.088470
0.887923 0.197220 0.088438
0.888072 0.197244 0.088406
0.088756 0.192872 0.062115
0.114160 0.193865 0.063039
0.140007 0.194875 0.063980
0.166192 0.195899 0.064934
0.192652 0.196932 0.065899
0.219347 0.197975 0.066874
0.246245 0.199025 0.067856
0.273325 0.200082 0.068846
0.300569 0.201145 0.069843
0.327962 0.202214 0.070846
0.355493 0.203288 0.071854
0.383153 0.204367 0.072868
0.410934 0.205450 0.073886
0.438827 0.206538 0.074910
0.466829 0.207630 0.075938
0.494932 0.208725 0.076970
0.523133 0.209825 0.078006
0.551427 0.210928 0.079046
0.579811 0.212034 0.080090
0.608281 0.213144 0.081137
0.636836 0.214256 0.082189
0.665471 0.215372 0.083243
0.694155 0.216490 0.084300
0.722769 0.217605 0.085355
0.751429 0.218722 0.086411
0.780134 0.219840 0.087470
0.808877 0.220960 0.088531
0.837657 0.222082 0.089593
0.866469 0.223204 0.090657
0.891301 0.224175 0.091569
0.891448 0.224202 0.091538
0.891593 0.224229 0.091508
0.891738 0.224255 0.091478
0.092022 0.219989 0.065149
0.117448 0.220986 0.066075
0.143318 0.222000 0.067019
0.169526 0.223027 0.067975
0.196010 0.224064 0.068943
0.222728 0.225110 0.069920
0.249651 0.226164 0.070905
0.276756 0.227225 0.071898
0.304025 0.228292 0.072897
0.331444 0.229364 0.073902
0.359002 0.230442 0.074913
0.386689 0.231525 0.075930
0.414497 0.232612 0.076951
0.442419 0.233704 0.077977
0.470448 0.234800 0.079007
0.498581 0.235899 0.080042
0.526812 0.237002 0.081081
0.555137 0.238109 0.082124
0.583552 0.239220 0.083170
0.612055 0.240333 0.084221
0.640642 0.241450 0.085275
0.669311 0.242570 0.086332
0.698020 0.243691 0.087392
0.726621 0.244809 0.088447
0.755264 0.245928 0.089505
0.783947 0.247048 0.090565
0.812665 0.248170 0.091626
0.841414 0.249293 0.092689
0.870191 0.250417 0.093753
0.894989 0.251389 0.094665
0.895132 0.251418 0.094636
0.895273 0.251448 0.094607
0.895413 0.251477 0.094578
0.095318 0.247295 0.068210
0.120767 0.248296 0.069138
0.146660 0.249314 0.070084
0.172892 0.250344 0.071044
0.199400 0.251385 0.072014
0.226144 0.252435 0.072994
0.253092 0.253493 0.073981
0.280223 0.254557 0.074976
0.307518 0.255628 0.075978
0.334964 0.256705 0.076986
0.362550 0.257786 0.078000
0.390265 0.258873 0.079019
0.418101 0.259964 0.080042
0.446053 0.261059 0.081071
0.474112 0.262159 0.082104
0.502276 0.263262 0.083142
0.530538 0.264370 0.084183
0.558895 0.265481 0.085229
0.587343 0.266595 0.086279
0.615880 0.267712 0.087332
0.644501 0.268833 0.088389
0.673206 0.269957 0.089449
0.701942 0.271082 0.090511
0.730522 0.272202 0.091568
0.759142 0.273322 0.092626
0.787796 0.274444 0.093686
0.816481 0.275568 0.094747
0.845193 0.276692 0.095810
0.873927 0.277817 0.096875
0.898683 0.278790 0.097787
0.898822 0.278822 0.097759
0.898959 0.278854 0.097731
0.899094 0.278886 0.097704
0.098644 0.274774 0.071296
0.124116 0.275778 0.072227
0.150033 0.276799 0.073175
0.176290 0.277834 0.074137
0.202824 0.278878 0.075110
0.229593 0.279932 0.076092
0.256567 0.280993 0.077082
0.283725 0.282061 0.078080
0.311048 0.283136 0.079084
0.338522 0.284216 0.080095
0.366136 0.285302 0.081111
0.393881 0.286392 0.082133
0.421748 0.287487 0.083159
0.449730 0.288586 0.084191
0.477821 0.289690 0.085227
0.506017 0.290797 0.086267
0.534312 0.291908 0.087311
0.562703 0.293023 0.088360
0.591186 0.294141 0.089412
0.619758 0.295263 0.090469
0.648416 0.296388 0.091528
0.677158 0.297516 0.092592
0.705920 0.298645 0.093656
0.734475 0.299766 0.094713
0.763063 0.300888 0.095772
0.791682 0.302011 0.096832
0.820326 0.303136 0.097894
0.848992 0.304261 0.098957
0.877675 0.305387 0.100020
0.902382 0.306361 0.100933
0.902516 0.306395 0.100906
0.902649 0.306430 0.100879
0.902780 0.306464 0.100853
0.101999 0.302409 0.074404
0.127496 0.303417 0.075338
0.153438 0.304442 0.076289
0.179720 0.305480 0.077253
0.206280 0.306528 0.078229
0.233076 0.307585 0.079213
0.260078 0.308650 0.080206
0.287263 0.309722 0.081207
0.314615 0.310801 0.082214
0.342119 0.311885 0.083227
0.369763 0.312974 0.084246
0.397539 0.314068 0.085270
0.425437 0.315167 0.086300
0.453451 0.316270 0.087334
0.481576 0.317377 0.088373
0.509806 0.318489 0.089416
0.538136 0.319604 0.090463
0.566562 0.320723 0.091515
0.595082 0.321845 0.092570
0.623691 0.322971 0.093629
0.652388 0.324100 0.094692
0.681169 0.325232 0.095759
0.709959 0.326365 0.096826
0.738479 0.327487 0.097883
0.767029 0.328610 0.098942
0.795604 0.329735 0.100002
0.824199 0.330860 0.101063
0.852810 0.331985 0.102125
0.881433 0.333112 0.103188
0.906084 0.334086 0.104100
0.906214 0.334123 0.104075
0.906342 0.334160 0.104050
0.906469 0.334197 0.104025
0.105384 0.330189 0.077535
0.130906 0.331201 0.078471
0.156874 0.332229 0.079425
0.183182 0.333271 0.080392
0.209770 0.334323 0.081370
0.236593 0.335384 0.082357
0.263624 0.336452 0.083352
0.290839 0.337528 0.084355
0.318221 0.338610 0.085365
0.345755 0.339698 0.086381
0.373431 0.340791 0.087403
0.401239 0.341889 0.088430
0.429171 0.342992 0.089462
0.457219 0.344099 0.090499
0.485378 0.345210 0.091541
0.513644 0.346325 0.092587
0.542010 0.347444 0.093637
0.570475 0.348567 0.094692
0.599033 0.349694 0.095750
0.627682 0.350824 0.096812
0.656419 0.351957 0.097878
0.685242 0.353093 0.098948
0.714059 0.354229 0.100018
0.742538 0.355353 0.101075
0.771041 0.356477 0.102134
0.799563 0.357602 0.103193
0.828100 0.358727 0.104254
0.856648 0.359853 0.105315
0.885201 0.360979 0.106377
0.909787 0.361954 0.107288
0.909912 0.361994 0.107264
0.910036 0.362033 0.107240
0.910159 0.362073 0.107217
0.108799 0.358104 0.080686
0.134347 0.359119 0.081625
0.160342 0.360151 0.082581
0.186678 0.361196 0.083551
0.213293 0.362252 0.084531
0.240146 0.363316 0.085521
0.267207 0.364389 0.086519
0.294453 0.365468 0.087525
0.321866 0.366554 0.088538
0.349433 0.367646 0.089556
0.377142 0.368742 0.090581
0.404984 0.369844 0.091611
0.432950 0.370951 0.092646
0.461034 0.372062 0.093686
0.489230 0.373177 0.094731
0.517533 0.374297 0.095780
0.545938 0.375420 0.096833
0.574442 0.376547 0.097891
0.603041 0.377677 0.098952
0.631732 0.378811 0.100017
0.660512 0.379949 0.101087
0.689378 0.381089 0.102159
0.718223 0.382229 0.103232
0.746652 0.383353 0.104289
0.775100 0.384478 0.105347
0.803561 0.385603 0.106406
0.832031 0.386729 0.107465
0.860505 0.387854 0.108525
0.888978 0.388980 0.109586
0.913489 0.389954 0.110495
0.913610 0.389996 0.110472
0.913730 0.390038 0.110450
0.913848 0.390080 0.110428
0.112245 0.386145 0.083857
0.137820 0.387163 0.084798
0.163842 0.388199 0.085757
0.190207 0.389248 0.086729
0.216852 0.390307 0.087712
0.243736 0.391375 0.088705
0.270828 0.392451 0.089706
0.298106 0.393535 0.090715
0.325552 0.394624 0.091730
0.353153 0.395719 0.092752
0.380896 0.396820 0.093779
0.408774 0.397926 0.094812
0.436777 0.399037 0.095850
0.464899 0.400152 0.096893
0.493133 0.401271 0.097941
0.521476 0.402394 0.098993
0.549922 0.403521 0.100049
0.578467 0.404653 0.101110
0.607109 0.405787 0.102175
0.635844 0.406926 0.103243
0.664669 0.408067 0.104316
0.693582 0.409212 0.105392
0.722454 0.410356 0.106467
0.750824 0.411480 0.107523
0.779207 0.412605 0.108580
0.807597 0.413730 0.109638
0.835990 0.414855 0.110696
0.864380 0.415980 0.111754
0.892764 0.417105 0.112813
0.917191 0.418079 0.113721
0.917308 0.418123 0.113699
0.917423 0.418168 0.113679
0.917537 0.418212 0.113658
0.115721 0.414304 0.087047
0.141325 0.415326 0.087991
0.167376 0.416366 0.088952
0.193771 0.417418 0.089927
0.220448 0.418481 0.090913
0.247363 0.419553 0.091908
0.274488 0.420633 0.092912
0.301799 0.421719 0.093923
0.329280 0.422813 0.094942
0.356916 0.423912 0.095966
0.384697 0.425017 0.096996
0.412612 0.426126 0.098032
0.440653 0.427241 0.099073
0.468814 0.428360 0.100119
0.497090 0.429483 0.101170
0.525474 0.430611 0.102225
0.553963 0.431742 0.103285
0.582552 0.432877 0.104349
0.611239 0.434016 0.105417
0.640020 0.435159 0.106489
0.668892 0.436305 0.107565
0.697854 0.437455 0.108644
0.726755 0.438602 0.109722
0.755057 0.439726 0.110777
0.783365 0.440850 0.111833
0.811674 0.441975 0.112889
0.839979 0.443099 0.113945
0.868275 0.444224 0.115002
0.896557 0.445347 0.116058
0.920891 0.446320 0.116964
0.921003 0.446367 0.116944
0.921114 0.446414 0.116924
0.921224 0.446461 0.116905
0.119230 0.442575 0.090254
0.144863 0.443601 0.091201
0.170945 0.444644 0.092165
0.197372 0.445700 0.093143
0.224080 0.446766 0.094131
0.251029 0.447842 0.095130
0.278188 0.448926 0.096136
0.305535 0.450016 0.097151
0.333052 0.451114 0.098172
0.360726 0.452217 0.099199
0.388545 0.453325 0.100232
0.416499 0.454439 0.101271
0.444581 0.455558 0.102316
0.472784 0.456681 0.103365
0.501102 0.457808 0.104419
0.529530 0.458940 0.105477
0.558064 0.460076 0.106540
0.586700 0.461215 0.107607
0.615434 0.462358 0.108679
0.644263 0.463505 0.109754
0.673186 0.464656 0.110833
0.702199 0.465810 0.111916
0.731129 0.466961 0.112997
0.759352 0.468084 0.114050
0.787576 0.469208 0.115104
0.815793 0.470332 0.116158
0.843999 0.471455 0.117213
0.872189 0.472578 0.118267
0.900358 0.473700 0.119320
0.924588 0.474671 0.120223
0.924696 0.474720 0.120205
0.924803 0.474770 0.120187
0.924908 0.474819 0.120169
0.122771 0.470953 0.093480
0.148435 0.471982 0.094429
0.174549 0.473029 0.095396
0.201009 0.474088 0.096376
0.227751 0.475159 0.097368
0.254735 0.476238 0.098369
0.281930 0.477325 0.099378
0.309314 0.478420 0.100396
0.336870 0.479521 0.101420
0.364583 0.480628 0.102450
0.392442 0.481741 0.103487
0.420438 0.482858 0.104529
0.448562 0.483981 0.105576
0.476809 0.485108 0.106628
0.505172 0.486240 0.107686
0.533646 0.487376 0.108747
0.562227 0.488516 0.109814
0.590912 0.489660 0.110884
0.619696 0.490808 0.111959
0.648577 0.491959 0.113038
0.677552 0.493114 0.114121
0.706619 0.494273 0.115207
0.735578 0.495427 0.116290
0.763713 0.496550 0.117342
0.791841 0.497673 0.118394
0.819955 0.498795 0.119446
0.848051 0.499917 0.120497
0.876123 0.501037 0.121548
0.904167 0.502157 0.122599
0.928282 0.503127 0.123499
0.928386 0.503179 0.123482
0.928488 0.503230 0.123465
0.928589 0.503282 0.123449
0.126346 0.499432 0.096722
0.152042 0.500464 0.097674
0.178190 0.501515 0.098643
0.204684 0.502578 0.099627
0.231462 0.503652 0.100621
0.258483 0.504735 0.101625
0.285716 0.505827 0.102638
0.313139 0.506925 0.103658
0.340735 0.508030 0.104685
0.368489 0.509141 0.105719
0.396390 0.510258 0.106758
0.424430 0.511380 0.107803
0.452599 0.512506 0.108854
0.480892 0.513638 0.109910
0.509302 0.514774 0.110970
0.537825 0.515914 0.112036
0.566456 0.517059 0.113105
0.595192 0.518207 0.114179
0.624029 0.519359 0.115258
0.652964 0.520515 0.116340
0.681994 0.521675 0.117427
0.711118 0.522838 0.118517
0.740106 0.523996 0.119603
0.768141 0.525118 0.120652
0.796162 0.526239 0.121702
0.824162 0.527360 0.122751
0.852135 0.528479 0.123799
0.880077 0.529598 0.124847
0.907983 0.530715 0.125893
0.931972 0.531682 0.126790
0.932071 0.531736 0.126775
0.932169 0.531791 0.126759
0.932265 0.531845 0.126744
0.129956 0.528007 0.099980
0.155686 0.529044 0.100935
0.181868 0.530097 0.101907
0.208399 0.531164 0.102894
0.235215 0.532242 0.103891
0.262274 0.533329 0.104898
0.289547 0.534425 0.105914
0.317011 0.535527 0.106937
0.344649 0.536636 0.107967
0.372446 0.537751 0.109004
0.400392 0.538872 0.110047
0.428478 0.539998 0.111096
0.456694 0.541129 0.112150
0.485035 0.542265 0.113209
0.513495 0.543405 0.114273
0.542069 0.544550 0.115341
0.570753 0.545699 0.116415
0.599543 0.546852 0.117492
0.628435 0.548009 0.118574
0.657426 0.549170 0.119660
0.686515 0.550334 0.120751
0.715699 0.551502 0.121845
0.744716 0.552664 0.122933
0.772640 0.553784 0.123980
0.800542 0.554903 0.125027
0.828414 0.556021 0.126072
0.856253 0.557138 0.127117
0.884052 0.558254 0.128161
0.911806 0.559368 0.129203
0.935658 0.560333 0.130096
0.935752 0.560389 0.130082
0.935846 0.560446 0.130068
0.935938 0.560503 0.130055
0.133602 0.556675 0.103255
0.159367 0.557715 0.104212
0.185586 0.558773 0.105188
0.212155 0.559844 0.106177
0.239010 0.560926 0.107177
0.266110 0.562017 0.108188
0.293425 0.563116 0.109206
0.320932 0.564222 0.110233
0.348614 0.565336 0.111266
0.376457 0.566455 0.112306
0.404450 0.567580 0.113353
0.432583 0.568710 0.114405
0.460849 0.569846 0.115462
0.489241 0.570986 0.116524
0.517754 0.572131 0.117592
0.546381 0.573280 0.118664
0.575120 0.574433 0.119741
0.603966 0.575591 0.120823
0.632917 0.576753 0.121908
0.661968 0.577918 0.122998
0.691118 0.579088 0.124093
0.720365 0.580261 0.125191
0.749412 0.581426 0.126282
0.777212 0.582544 0.127325
0.804982 0.583661 0.128368
0.832715 0.584776 0.129410
0.860406 0.585890 0.130451
0.888048 0.587003 0.131490
0.915637 0.588113 0.132528
0.939338 0.589074 0.133417
0.939429 0.589134 0.133404
0.939518 0.589193 0.133392
0.939606 0.589253 0.133380
0.137284 0.585432 0.106545
0.163087 0.586476 0.107505
0.189345 0.587538 0.108484
0.215953 0.588612 0.109476
0.242850 0.589698 0.110480
0.269992 0.590793 0.111493
0.297351 0.591896 0.112515
0.324903 0.593007 0.113545
0.352631 0.594124 0.114582
0.380522 0.595248 0.115625
0.408565 0.596377 0.116675
0.436749 0.597512 0.117730
0.465067 0.598652 0.118791
0.493513 0.599797 0.119857
0.522080 0.600946 0.120928
0.550764 0.602100 0.122004
0.579561 0.603258 0.123085
0.608466 0.604421 0.124170
0.637478 0.605587 0.125260
0.666592 0.606758 0.126354
0.695806 0.607932 0.127452
0.725119 0.609110 0.128554
0.754196 0.610280 0.129648
0.781860 0.611395 0.130688
0.809485 0.612509 0.131727
0.837065 0.613621 0.132764
0.864594 0.614731 0.133801
0.892066 0.615840 0.134835
0.919475 0.616946 0.135867
0.943014 0.617904 0.136752
0.943100 0.617966 0.136740
0.943185 0.618028 0.136729
0.943268 0.618090 0.136718
0.141005 0.614275 0.109850
0.166846 0.615323 0.110814
0.193145 0.616388 0.111795
0.219795 0.617467 0.112791
0.246735 0.618557 0.113797
0.273922 0.619656 0.114814
0.301327 0.620763 0.115839
0.328927 0.621878 0.116872
0.356704 0.623000 0.117913
0.384645 0.624128 0.118960
0.412739 0.625262 0.120013
0.440977 0.626401 0.121072
0.469350 0.627545 0.122136
0.497851 0.628695 0.123206
0.526476 0.629849 0.124281
0.555220 0.631007 0.125361
0.584077 0.632171 0.126445
0.613046 0.633338 0.127534
0.642121 0.634509 0.128628
0.671301 0.635685 0.129726
0.700583 0.636865 0.130828
0.729964 0.638048 0.131935
0.759072 0.639221 0.133031
0.786587 0.640333 0.134067
0.814054 0.641444 0.135102
0.841467 0.642552 0.136135
0.868819 0.643659 0.137165
0.896106 0.644763 0.138194
0.923320 0.645864 0.139220
0.946684 0.646818 0.140100
0.946765 0.646883 0.140090
0.946846 0.646947 0.140080
0.946925 0.647012 0.140071
0.144765 0.643200 0.113171
0.170647 0.644252 0.114137
0.196988 0.645322 0.115122
0.223683 0.646404 0.116121
0.250668 0.647498 0.117131
0.277902 0.648602 0.118151
0.305355 0.649713 0.119179
0.333005 0.650833 0.120216
0.360834 0.651959 0.121259
0.388828 0.653091 0.122310
0.416976 0.654229 0.123367
0.445269 0.655373 0.124429
0.473700 0.656522 0.125498
0.502260 0.657677 0.126571
0.530946 0.658836 0.127650
0.559752 0.659999 0.128734
0.588673 0.661167 0.129822
0.617707 0.662340 0.130916
0.646849 0.663517 0.132013
0.676098 0.664697 0.133116
0.705451 0.665882 0.134222
0.734905 0.667071 0.135333
0.764043 0.668248 0.136432
0.791395 0.669357 0.137463
0.818689 0.670463 0.138493
0.845921 0.671568 0.139520
0.873083 0.672669 0.140545
0.900169 0.673768 0.141568
0.927173 0.674865 0.142588
0.950347 0.675814 0.143462
0.950425 0.675881 0.143453
0.950501 0.675949 0.143445
0.950576 0.676016 0.143437
0.148565 0.672206 0.116506
0.174491 0.673262 0.117476
0.200876 0.674335 0.118464
0.227617 0.675422 0.119465
0.254650 0.676520 0.120479
0.281933 0.677628 0.121502
0.309437 0.678744 0.122534
0.337139 0.679868 0.123574
0.365022 0.680999 0.124622
0.393072 0.682136 0.125676
0.421277 0.683279 0.126736
0.449629 0.684427 0.127803
0.478119 0.685581 0.128875
0.506742 0.686740 0.129952
0.535491 0.687904 0.131035
0.564362 0.689073 0.132123
0.593350 0.690246 0.133216
0.622453 0.691424 0.134313
0.651666 0.692606 0.135415
0.680987 0.693792 0.136522
0.710414 0.694983 0.137633
0.739944 0.696177 0.138748
0.769113 0.697358 0.139850
0.796287 0.698462 0.140876
0.823395 0.699565 0.141900
0.850430 0.700664 0.142921
0.877386 0.701761 0.143940
0.904256 0.702855 0.144956
0.931034 0.703945 0.145969
0.954005 0.704890 0.146837
0.954078 0.704959 0.146829
0.954150 0.705029 0.146823
0.954220 0.705099 0.146816
0.152408 0.701289 0.119855
0.178378 0.702349 0.120829
0.204810 0.703427 0.121820
0.231600 0.704518 0.122825
0.258683 0.705621 0.123842
0.286018 0.706733 0.124869
0.313575 0.707853 0.125904
0.341332 0.708982 0.126948
0.369271 0.710117 0.127999
0.397379 0.711259 0.129057
0.425644 0.712407 0.130121
0.454058 0.713560 0.131192
0.482611 0.714719 0.132268
0.511299 0.715883 0.133349
0.540115 0.717052 0.134436
0.569054 0.718226 0.135528
0.598113 0.719405 0.136625
0.627287 0.720588 0.137727
0.656574 0.721775 0.138833
0.685971 0.722967 0.139944
0.715475 0.724163 0.141060
0.745084 0.725364 0.142180
0.774284 0.726548 0.143284
0.801266 0.727648 0.144305
0.828172 0.728746 0.145322
0.854995 0.729840 0.146337
0.881729 0.730931 0.147349
0.908367 0.732019 0.148358
0.934903 0.733102 0.149363
0.957656 0.734042 0.150224
0.957725 0.734114 0.150218
0.957792 0.734187 0.150213
0.957858 0.734260 0.150208
0.156293 0.730448 0.123219
0.182310 0.731512 0.124196
0.208792 0.732594 0.125190
0.235632 0.733690 0.126199
0.262768 0.734797 0.127220
0.290158 0.735913 0.128250
0.317771 0.737039 0.129289
0.345585 0.738172 0.130337
0.373584 0.739312 0.131392
0.401753 0.740458 0.132454
0.430080 0.741611 0.133522
0.458558 0.742770 0.134596
0.487178 0.743934 0.135676
0.515934 0.745103 0.136762
0.544819 0.746278 0.137853
0.573830 0.747457 0.138949
0.602962 0.748641 0.140051
0.632212 0.749830 0.141157
0.661576 0.751023 0.142268
0.691052 0.752221 0.143383
0.720638 0.753423 0.144504
0.750330 0.754629 0.145628
0.779561 0.755817 0.146736
0.806336 0.756912 0.147750
0.833024 0.758004 0.148761
0.859619 0.759093 0.149768
0.886115 0.760178 0.150773
0.912504 0.761258 0.151774
0.938780 0.762335 0.152770
0.961300 0.763269 0.153624
0.961365 0.763344 0.153620
0.961428 0.763420 0.153616
0.961490 0.763495 0.153612
0.160222 0.759680 0.126597
0.186290 0.760749 0.127577
0.212823 0.761835 0.128575
0.239716 0.762935 0.129588
0.266907 0.764047 0.130612
0.294354 0.765168 0.131646
0.322026 0.766298 0.132689
0.349900 0.767436 0.133741
0.377961 0.768581 0.134799
0.406194 0.769733 0.135865
0.434588 0.770891 0.136937
0.463133 0.772054 0.138016
0.491822 0.773224 0.139100
0.520649 0.774399 0.140190
0.549608 0.775579 0.141286
0.578693 0.776764 0.142386
0.607902 0.777953 0.143492
0.637231 0.779148 0.144603
0.666676 0.780347 0.145719
0.696235 0.781550 0.146839
0.725905 0.782758 0.147964
0.755685 0.783971 0.149094
0.784947 0.785163 0.150204
0.811498 0.786253 0.151211
0.837953 0.787339 0.152214
0.864303 0.788421 0.153214
0.890544 0.789499 0.154211
0.916666 0.790572 0.155203
0.942665 0.791642 0.156191
0.964937 0.792569 0.157037
0.964997 0.792647 0.157034
0.965056 0.792725 0.157031
0.965114 0.792804 0.157029
0.164198 0.788984 0.129989
0.190317 0.790057 0.130973
0.216904 0.791148 0.131975
0.243854 0.792253 0.132991
0.271103 0.793369 0.134018
0.298609 0.794495 0.135056
0.326342 0.795630 0.136104
0.354280 0.796773 0.137159
0.382406 0.797923 0.138222
0.410706 0.799080 0.139292
0.439168 0.800243 0.140368
0.467784 0.801412 0.141451
0.496546 0.802587 0.142540
0.525447 0.803768 0.143634
0.554482 0.804953 0.144734
0.583647 0.806144 0.145839
0.612936 0.807340 0.146950
0.642347 0.808540 0.148065
0.671877 0.809745 0.149186
