library/cube/Tungsten_Film_003.cube
# CINEGRADE LAB — Premium Cinematic LUT
# Title: Tungsten Film
# Category: CineStill 800T Emulation
# Description: Tungsten balance, halation glow, night film characteristics
# Mood: Nocturnal, glowing, cinematic
# Variant: 4
# Generated: 2026-05-21T16:12:54.849683
TITLE "Tungsten Film"
LUT_3D_SIZE 5
0.072970 0.061340 0.047488
0.283897 0.069458 0.055118
0.505473 0.077981 0.063179
0.732954 0.086731 0.071490
0.873601 0.092163 0.076506
0.098644 0.274774 0.071296
0.311048 0.283136 0.079084
0.534312 0.291908 0.087311
0.763063 0.300888 0.095772
0.902780 0.306464 0.100853
0.126346 0.499432 0.096722
0.340735 0.508030 0.104685
0.566456 0.517059 0.113105
0.796162 0.526239 0.121702
0.932265 0.531845 0.126744
0.156293 0.730448 0.123219
0.373584 0.739312 0.131392
0.602962 0.748641 0.140051
0.833024 0.758004 0.148761
0.961490 0.763495 0.153612
0.186680 0.945839 0.148223
0.408156 0.954647 0.156611
0.642763 0.963916 0.165521
0.872239 0.972950 0.174254
0.987642 0.977586 0.178646
0.074997 0.063344 0.196270
0.286057 0.071464 0.203734
0.507776 0.079991 0.211640
0.735387 0.088744 0.219804
0.876020 0.094174 0.224678
0.100707 0.276836 0.219550
0.313277 0.285201 0.227207
0.536743 0.293978 0.235315
0.765606 0.302960 0.243662
0.905099 0.308527 0.248627
0.128525 0.501547 0.244564
0.343154 0.510152 0.252432
0.569180 0.519190 0.260770
0.798951 0.528373 0.269285
0.934485 0.533958 0.274232
0.158669 0.732618 0.270764
0.376317 0.741496 0.278880
0.606145 0.750843 0.287496
0.836196 0.760209 0.296155
0.963613 0.765664 0.300927
0.189321 0.947948 0.295572
0.411308 0.956761 0.303942
0.646551 0.966041 0.312847
0.875908 0.975057 0.321558
0.989647 0.979616 0.325878
0.077115 0.065439 0.351878
0.288310 0.073561 0.359175
0.510176 0.082091 0.366924
0.737916 0.090848 0.374941
0.878519 0.096276 0.379673
0.102868 0.278989 0.374628
0.315611 0.287357 0.382154
0.539287 0.296140 0.390142
0.768258 0.305124 0.398377
0.907498 0.310681 0.403226
0.130811 0.503753 0.399231
0.345691 0.512365 0.407007
0.572034 0.521415 0.415265
0.801863 0.530599 0.423700
0.936786 0.536162 0.428553
0.161160 0.734881 0.425143
0.379179 0.743772 0.433206
0.609475 0.753140 0.441783
0.839505 0.762508 0.450395
0.965817 0.767925 0.455089
0.192084 0.950144 0.449768
0.414602 0.958963 0.458124
0.650501 0.968255 0.467032
0.879728 0.977253 0.475724
0.991732 0.981732 0.479976
0.079280 0.067580 0.510979
0.290611 0.075705 0.518111
0.512629 0.084239 0.525707
0.740498 0.092999 0.533581
0.881055 0.098425 0.538174
0.105085 0.281188 0.533210
0.318006 0.289560 0.540609
0.541902 0.298349 0.548482
0.770977 0.307336 0.556608
0.909934 0.312881 0.561345
0.133160 0.506007 0.557417
0.348302 0.514626 0.565104
0.574975 0.523687 0.573287
0.804855 0.532875 0.581649
0.939124 0.538414 0.586411
0.163723 0.737191 0.583056
0.382128 0.746098 0.591072
0.612908 0.755487 0.599616
0.842909 0.764857 0.608188
0.968058 0.770236 0.612808
0.194927 0.952385 0.607517
0.417993 0.961211 0.615867
0.654570 0.970515 0.624783
0.883655 0.979494 0.633464
0.993854 0.983892 0.637652
0.081305 0.069579 0.659442
0.292775 0.077707 0.666429
0.514950 0.086246 0.673890
0.742947 0.095010 0.681639
0.883440 0.100433 0.686108
0.107171 0.283246 0.681215
0.320276 0.291622 0.688504
0.544401 0.300418 0.696279
0.773577 0.309408 0.704312
0.912220 0.314941 0.708950
0.135387 0.508120 0.705080
0.350801 0.516749 0.712695
0.577818 0.525823 0.720818
0.807743 0.535012 0.729118
0.941312 0.540527 0.733800
0.166173 0.739364 0.730493
0.384979 0.748288 0.738475
0.616260 0.757698 0.747000
0.846223 0.767071 0.755540
0.970151 0.772409 0.760095
0.197665 0.954483 0.754828
0.421298 0.963317 0.763182
0.658575 0.972634 0.772118
0.887505 0.981595 0.780795
0.995827 0.985909 0.784923
