library/cube/Tungsten_Dreams_003.cube
# CINEGRADE LAB — Premium Cinematic LUT
# Title: Tungsten Dreams
# Category: Cinematic Shadows
# Description: Crushed blacks with teal shadows and warm highlights for cinema-inspired images
# Mood: Dramatic, cinematic, bold
# Variant: 4
# Generated: 2026-05-21T16:12:13.130921
TITLE "Tungsten Dreams"
LUT_3D_SIZE 33
0.000000 0.000000 0.000000
0.000000 0.000000 0.000000
0.000000 0.000000 0.000000
0.019085 0.000730 0.000730
0.049260 0.001883 0.001883
0.079563 0.003041 0.003041
0.109991 0.004204 0.004204
0.140542 0.005372 0.005372
0.171214 0.006545 0.006545
0.202004 0.007722 0.007722
0.232910 0.008903 0.008903
0.263930 0.010089 0.010089
0.295061 0.011279 0.011279
0.326302 0.012473 0.012473
0.357649 0.013671 0.013671
0.389102 0.014873 0.014873
0.420657 0.016080 0.016080
0.452314 0.017290 0.017290
0.484068 0.018504 0.018504
0.515919 0.019721 0.019721
0.547865 0.020942 0.020942
0.579904 0.022167 0.022167
0.612033 0.023395 0.023395
0.644250 0.024626 0.024626
0.676555 0.025861 0.025861
0.708944 0.027099 0.027099
0.741416 0.028341 0.028341
0.773970 0.029585 0.029585
0.806544 0.030830 0.030830
0.839134 0.032076 0.032076
0.871780 0.033324 0.033324
0.875985 0.033485 0.033485
0.875985 0.033485 0.033485
0.000000 0.000000 0.000000
0.000000 0.000000 0.000000
0.000000 0.000000 0.000000
0.017950 0.000686 0.000686
0.048346 0.001848 0.001848
0.078863 0.003015 0.003015
0.109501 0.004186 0.004186
0.140256 0.005361 0.005361
0.171127 0.006541 0.006541
0.202112 0.007726 0.007726
0.233207 0.008914 0.008914
0.264411 0.010107 0.010107
0.295722 0.011304 0.011304
0.327137 0.012505 0.012505
0.358654 0.013710 0.013710
0.390272 0.014918 0.014918
0.421988 0.016130 0.016130
0.453800 0.017347 0.017347
0.485707 0.018566 0.018566
0.517705 0.019789 0.019789
0.549794 0.021016 0.021016
0.581971 0.022246 0.022246
0.614234 0.023479 0.023479
0.646583 0.024716 0.024716
0.679013 0.025955 0.025955
0.711525 0.027198 0.027198
0.744116 0.028444 0.028444
0.776784 0.029693 0.029693
0.809439 0.030941 0.030941
0.842098 0.032189 0.032189
0.874805 0.033439 0.033439
0.875985 0.033485 0.033485
0.875985 0.033485 0.033485
0.000000 0.000000 0.000000
0.000000 0.000000 0.000000
0.000000 0.000000 0.000000
0.016873 0.000645 0.000645
0.047479 0.001815 0.001815
0.078203 0.002989 0.002989
0.109042 0.004168 0.004168
0.139993 0.005351 0.005351
0.171055 0.006539 0.006539
0.202225 0.007730 0.007730
0.233502 0.008926 0.008926
0.264882 0.010125 0.010125
0.296365 0.011329 0.011329
0.327947 0.012536 0.012536
0.359627 0.013747 0.013747
0.391402 0.014961 0.014961
0.423272 0.016180 0.016180
0.455233 0.017401 0.017401
0.487284 0.018626 0.018626
0.519423 0.019855 0.019855
0.551649 0.021087 0.021087
0.583958 0.022322 0.022322
0.616350 0.023560 0.023560
0.648823 0.024801 0.024801
0.681374 0.026046 0.026046
0.714003 0.027293 0.027293
0.746707 0.028543 0.028543
0.779484 0.029796 0.029796
0.812205 0.031047 0.031047
0.844921 0.032297 0.032297
0.875985 0.033485 0.033485
0.875985 0.033485 0.033485
0.875985 0.033485 0.033485
0.002094 0.017757 0.002094
0.002055 0.017429 0.002055
0.002017 0.017106 0.002017
0.017832 0.017393 0.002586
0.048604 0.018257 0.003726
0.079489 0.019131 0.004872
0.110484 0.020013 0.006022
0.141588 0.020904 0.007177
0.172798 0.021804 0.008337
0.204113 0.022712 0.009501
0.235529 0.023629 0.010670
0.267045 0.024554 0.011842
0.298659 0.025488 0.013020
0.330369 0.026429 0.014201
0.362172 0.027379 0.015386
0.394068 0.028337 0.016576
0.426054 0.029303 0.017769
0.458128 0.030276 0.018966
0.490288 0.031257 0.020167
0.522532 0.032246 0.021372
0.554859 0.033242 0.022581
0.587267 0.034246 0.023793
0.619755 0.035257 0.025008
0.652319 0.036275 0.026227
0.684959 0.037300 0.027449
0.717673 0.038332 0.028675
0.750460 0.039371 0.029904
0.783317 0.040417 0.031136
0.816063 0.041463 0.032364
0.848800 0.042512 0.033592
0.877154 0.043398 0.034654
0.877131 0.043203 0.034631
0.877108 0.043012 0.034608
0.006368 0.053996 0.006368
0.006329 0.053668 0.006329
0.006291 0.053345 0.006291
0.021142 0.053596 0.006823
0.052108 0.054468 0.007971
0.083183 0.055349 0.009124
0.114363 0.056239 0.010281
0.145646 0.057137 0.011443
0.177031 0.058045 0.012610
0.208516 0.058961 0.013780
0.240098 0.059885 0.014955
0.271776 0.060818 0.016135
0.303547 0.061759 0.017318
0.335410 0.062708 0.018505
0.367362 0.063665 0.019696
0.399402 0.064631 0.020892
0.431528 0.065604 0.022091
0.463738 0.066585 0.023293
0.496031 0.067573 0.024500
0.528404 0.068569 0.025710
0.560856 0.069573 0.026923
0.593385 0.070583 0.028140
0.625989 0.071602 0.029360
0.658667 0.072627 0.030584
0.691417 0.073659 0.031811
0.724238 0.074699 0.033041
0.757127 0.075745 0.034274
0.790084 0.076798 0.035510
0.822864 0.077848 0.036740
0.855636 0.078903 0.037970
0.881434 0.079695 0.038934
0.881412 0.079504 0.038912
0.881390 0.079317 0.038890
0.010636 0.090182 0.010636
0.010597 0.089855 0.010597
0.010559 0.089533 0.010559
0.024502 0.089751 0.011056
0.055655 0.090632 0.012212
0.086911 0.091521 0.013372
0.118267 0.092420 0.014536
0.149723 0.093327 0.015705
0.181276 0.094243 0.016878
0.212924 0.095168 0.018055
0.244665 0.096101 0.019236
0.276497 0.097042 0.020422
0.308419 0.097991 0.021611
0.340428 0.098949 0.022804
0.372522 0.099915 0.024001
0.404701 0.100888 0.025202
0.436961 0.101870 0.026407
0.469301 0.102859 0.027615
0.501720 0.103856 0.028826
0.534216 0.104860 0.030041
0.566787 0.105872 0.031260
0.599431 0.106891 0.032482
0.632147 0.107917 0.033707
0.664934 0.108951 0.034935
0.697789 0.109991 0.036166
0.730711 0.111039 0.037401
0.763699 0.112093 0.038638
0.796751 0.113154 0.039878
0.829548 0.114210 0.041110
0.862342 0.115270 0.042341
0.885713 0.115973 0.043213
0.885691 0.115787 0.043191
0.885669 0.115605 0.043169
0.014898 0.126321 0.014898
0.014859 0.125997 0.014859
0.014822 0.125678 0.014822
0.027914 0.125866 0.015287
0.059245 0.126756 0.016449
0.090674 0.127655 0.017616
0.122200 0.128563 0.018787
0.153821 0.129480 0.019963
0.185534 0.130406 0.021142
0.217339 0.131340 0.022326
0.249232 0.132282 0.023514
0.281212 0.133233 0.024705
0.313277 0.134192 0.025900
0.345426 0.135159 0.027099
0.377656 0.136134 0.028302
0.409966 0.137117 0.029508
0.442355 0.138107 0.030718
0.474820 0.139106 0.031932
0.507360 0.140112 0.033148
0.539973 0.141125 0.034368
0.572657 0.142146 0.035592
0.605412 0.143174 0.036818
0.638235 0.144210 0.038048
0.671125 0.145252 0.039281
0.704080 0.146302 0.040517
0.737100 0.147358 0.041755
0.770182 0.148422 0.042997
0.803325 0.149492 0.044241
0.836121 0.150553 0.045473
0.868925 0.151619 0.046706
0.889990 0.152240 0.047490
0.889969 0.152060 0.047469
0.889948 0.151884 0.047448
0.019155 0.162421 0.019155
0.019117 0.162100 0.019117
0.019080 0.161785 0.019080
0.031376 0.161946 0.019515
0.062878 0.162847 0.020684
0.094474 0.163757 0.021858
0.126162 0.164676 0.023036
0.157941 0.165603 0.024218
0.189808 0.166539 0.025404
0.221761 0.167484 0.026594
0.253800 0.168437 0.027788
0.285921 0.169398 0.028985
0.318124 0.170367 0.030186
0.350407 0.171344 0.031391
0.382767 0.172329 0.032599
0.415203 0.173323 0.033811
0.447714 0.174323 0.035026
0.480298 0.175332 0.036245
0.512953 0.176348 0.037467
0.545678 0.177371 0.038692
0.578471 0.178402 0.039920
0.611331 0.179440 0.041151
0.644256 0.180486 0.042385
0.677245 0.181538 0.043622
0.710296 0.182598 0.044863
0.743409 0.183664 0.046106
0.776580 0.184737 0.047351
0.809792 0.185816 0.048599
0.842588 0.186884 0.049832
0.875390 0.187956 0.051065
0.894266 0.188501 0.051766
0.894246 0.188327 0.051746
0.894226 0.188158 0.051726
0.023408 0.198488 0.023408
0.023371 0.198172 0.023371
0.023335 0.197862 0.023335
0.034890 0.198000 0.023742
0.066556 0.198913 0.024918
0.098311 0.199834 0.026099
0.130154 0.200764 0.027283
0.162084 0.201703 0.028472
0.194097 0.202651 0.029664
0.226194 0.203606 0.030860
0.258372 0.204570 0.032060
0.290628 0.205543 0.033263
0.322963 0.206523 0.034470
0.355373 0.207511 0.035680
0.387857 0.208508 0.036894
0.420414 0.209512 0.038111
0.453042 0.210524 0.039331
0.485739 0.211543 0.040555
0.518505 0.212570 0.041782
0.551337 0.213604 0.043012
0.584234 0.214646 0.044244
0.617194 0.215695 0.045480
0.650217 0.216751 0.046719
0.683300 0.217814 0.047961
0.716443 0.218884 0.049205
0.749644 0.219961 0.050452
0.782901 0.221045 0.051702
0.816164 0.222133 0.052953
0.848954 0.223208 0.054186
0.881742 0.224288 0.055420
0.898542 0.224760 0.056042
0.898523 0.224595 0.056023
0.898504 0.224433 0.056004
0.027659 0.234528 0.027659
0.027622 0.234219 0.027622
0.027587 0.233915 0.027587
0.038456 0.234034 0.027968
0.070278 0.234959 0.029151
0.102185 0.235892 0.030338
0.134177 0.236835 0.031529
0.166251 0.237786 0.032724
0.198405 0.238745 0.033922
0.230638 0.239713 0.035124
0.262949 0.240689 0.036330
0.295335 0.241674 0.037539
0.327795 0.242666 0.038752
0.360327 0.243666 0.039967
0.392930 0.244674 0.041187
0.425602 0.245690 0.042409
0.458342 0.246714 0.043634
0.491148 0.247745 0.044863
0.524018 0.248784 0.046095
0.556953 0.249830 0.047329
0.589949 0.250883 0.048567
0.623005 0.251943 0.049807
0.656121 0.253011 0.051051
0.689294 0.254085 0.052297
0.722525 0.255167 0.053545
0.755810 0.256255 0.054797
0.789150 0.257350 0.056051
0.822453 0.258449 0.057304
0.855225 0.259531 0.058537
0.887988 0.260618 0.059771
0.902819 0.261024 0.060319
0.902801 0.260867 0.060301
0.902783 0.260714 0.060283
0.031907 0.270550 0.031907
0.031871 0.270248 0.031871
0.031836 0.269951 0.031836
0.042073 0.270053 0.032195
0.074045 0.270991 0.033384
0.106098 0.271938 0.034578
0.138231 0.272894 0.035775
0.170443 0.273858 0.036976
0.202732 0.274830 0.038181
0.235096 0.275811 0.039388
0.267533 0.276800 0.040600
0.300043 0.277797 0.041814
0.332623 0.278802 0.043032
0.365271 0.279815 0.044254
0.397988 0.280836 0.045478
0.430770 0.281864 0.046706
0.463617 0.282900 0.047936
0.496526 0.283944 0.049170
0.529498 0.284995 0.050406
0.562529 0.286053 0.051645
0.595620 0.287119 0.052888
0.628769 0.288191 0.054133
0.661973 0.289271 0.055380
0.695233 0.290358 0.056631
0.728547 0.291451 0.057884
0.761914 0.292552 0.059139
0.795332 0.293659 0.060397
0.828664 0.294767 0.061652
0.861406 0.295858 0.062885
0.894132 0.296952 0.064119
0.907097 0.297296 0.064597
0.907079 0.297148 0.064579
0.907062 0.297005 0.064562
0.036154 0.306558 0.036154
0.036119 0.306264 0.036119
0.036085 0.305976 0.036085
0.045742 0.306064 0.036422
0.077857 0.307016 0.037618
0.110049 0.307977 0.038818
0.142318 0.308946 0.040022
0.174662 0.309924 0.041228
0.207079 0.310910 0.042439
0.239568 0.311905 0.043652
0.272127 0.312907 0.044869
0.304754 0.313918 0.046090
0.337449 0.314936 0.047313
0.370209 0.315963 0.048540
0.403034 0.316997 0.049769
0.435921 0.318039 0.051002
0.468870 0.319088 0.052237
0.501879 0.320145 0.053476
0.534946 0.321209 0.054717
0.568071 0.322280 0.055961
0.601253 0.323358 0.057208
0.634489 0.324444 0.058457
0.667779 0.325537 0.059709
0.701121 0.326636 0.060964
0.734515 0.327742 0.062221
0.767959 0.328856 0.063480
0.801453 0.329975 0.064742
0.834804 0.331094 0.065999
0.867503 0.332193 0.067232
0.900180 0.333296 0.068464
0.911376 0.333582 0.068876
0.911360 0.333444 0.068860
0.911344 0.333310 0.068844
0.040399 0.342559 0.040399
0.040366 0.342274 0.040366
0.040333 0.341995 0.040333
0.049463 0.342073 0.040651
0.081714 0.343039 0.041853
0.114040 0.344015 0.043059
0.146439 0.344999 0.044269
0.178909 0.345991 0.045482
0.211448 0.346992 0.046698
0.244057 0.348000 0.047917
0.276731 0.349017 0.049140
0.309472 0.350042 0.050365
0.342276 0.351075 0.051594
0.375143 0.352115 0.052826
0.408070 0.353163 0.054060
0.441058 0.354219 0.055298
0.474105 0.355282 0.056538
0.507208 0.356352 0.057782
0.540368 0.357430 0.059028
0.573582 0.358515 0.060276
0.606850 0.359607 0.061527
0.640170 0.360706 0.062781
0.673542 0.361813 0.064037
0.706964 0.362925 0.065296
0.740434 0.364045 0.066557
0.773953 0.365172 0.067821
0.807518 0.366304 0.069087
0.840876 0.367434 0.070346
0.873522 0.368542 0.071577
0.906137 0.369652 0.072809
0.915658 0.369885 0.073158
0.915643 0.369757 0.073143
0.915628 0.369635 0.073128
0.044645 0.378558 0.044645
0.044613 0.378283 0.044613
0.044581 0.378015 0.044581
0.053235 0.378084 0.044882
0.085617 0.379067 0.046091
0.118070 0.380057 0.047303
0.150593 0.381057 0.048518
0.183183 0.382064 0.049737
0.215840 0.383080 0.050958
0.248562 0.384103 0.052183
0.281348 0.385135 0.053411
0.314196 0.386175 0.054642
0.347105 0.387222 0.055876
0.380074 0.388277 0.057113
0.413101 0.389340 0.058353
0.446184 0.390410 0.059595
0.479324 0.391487 0.060840
0.512518 0.392572 0.062088
0.545766 0.393664 0.063339
0.579066 0.394764 0.064592
0.612417 0.395870 0.065848
0.645818 0.396983 0.067106
0.679267 0.398103 0.068366
0.712765 0.399230 0.069629
0.746309 0.400364 0.070895
0.779899 0.401504 0.072162
0.813534 0.402651 0.073432
0.846887 0.403792 0.074692
0.879468 0.404908 0.075922
0.912010 0.406027 0.077152
0.919942 0.406210 0.077442
0.919928 0.406094 0.077428
0.919915 0.405982 0.077415
0.048891 0.414561 0.048891
0.048860 0.414298 0.048860
0.048829 0.414040 0.048829
0.057059 0.414105 0.049116
0.089566 0.415103 0.050330
0.122141 0.416110 0.051548
0.154782 0.417124 0.052769
0.187487 0.418148 0.053994
0.220256 0.419179 0.055221
0.253087 0.420218 0.056452
0.285979 0.421265 0.057685
0.318930 0.422320 0.058921
0.351939 0.423383 0.060160
0.385005 0.424453 0.061402
0.418126 0.425531 0.062647
0.451302 0.426616 0.063894
0.484531 0.427709 0.065144
0.517812 0.428809 0.066396
0.551144 0.429916 0.067652
0.584526 0.431030 0.068909
0.617956 0.432151 0.070169
0.651434 0.433279 0.071432
0.684959 0.434414 0.072696
0.718529 0.435555 0.073963
0.752145 0.436703 0.075233
0.785803 0.437858 0.076504
0.819505 0.439019 0.077778
0.852843 0.440171 0.079038
0.885347 0.441295 0.080267
0.917804 0.442423 0.081495
0.924228 0.442560 0.081728
0.924216 0.442456 0.081716
0.924204 0.442356 0.081704
0.053138 0.450573 0.053138
0.053108 0.450322 0.053108
0.053079 0.450076 0.053079
0.060934 0.450138 0.053352
0.093561 0.451153 0.054573
0.126252 0.452176 0.055797
0.159006 0.453208 0.057024
0.191821 0.454247 0.058254
0.224697 0.455295 0.059487
0.257633 0.456350 0.060722
0.290626 0.457413 0.061961
0.323675 0.458484 0.063202
0.356780 0.459563 0.064446
0.389939 0.460649 0.065693
0.423151 0.461742 0.066943
0.456415 0.462843 0.068195
0.489729 0.463951 0.069449
0.523093 0.465067 0.070707
0.556506 0.466189 0.071966
0.589966 0.467318 0.073228
0.623473 0.468455 0.074492
0.657025 0.469598 0.075759
0.690622 0.470747 0.077028
0.724262 0.471904 0.078299
0.757946 0.473067 0.079572
0.791671 0.474236 0.080848
0.825437 0.475412 0.082126
0.858749 0.476575 0.083386
0.891163 0.477709 0.084613
0.923524 0.478845 0.085839
0.928519 0.478940 0.086019
0.928508 0.478848 0.086008
0.928498 0.478761 0.085998
0.057387 0.486599 0.057387
0.057358 0.486361 0.057358
0.057331 0.486128 0.057331
0.064860 0.486190 0.057593
0.097601 0.487222 0.058820
0.130403 0.488262 0.060049
0.163265 0.489311 0.061282
0.196186 0.490367 0.062517
0.229165 0.491431 0.063755
0.262199 0.492503 0.064996
0.295289 0.493583 0.066240
0.328433 0.494670 0.067486
0.361629 0.495765 0.068736
0.394877 0.496867 0.069987
0.428176 0.497977 0.071242
0.461524 0.499094 0.072498
0.494920 0.500218 0.073757
0.528364 0.501349 0.075019
0.561854 0.502488 0.076283
0.595390 0.503633 0.077549
0.628970 0.504785 0.078818
0.662594 0.505943 0.080089
0.696260 0.507109 0.081362
0.729968 0.508281 0.082637
0.763717 0.509459 0.083914
0.797506 0.510644 0.085194
0.831334 0.511835 0.086475
0.864611 0.513009 0.087736
0.896924 0.514152 0.088961
0.929176 0.515297 0.090184
0.932813 0.515352 0.090313
0.932804 0.515273 0.090304
0.932795 0.515199 0.090295
0.061638 0.522644 0.061638
0.061611 0.522419 0.061611
0.061585 0.522200 0.061585
0.068838 0.522265 0.061838
0.101687 0.523315 0.063070
0.134596 0.524372 0.064306
0.167561 0.525438 0.065543
0.200583 0.526511 0.066784
0.233659 0.527593 0.068028
0.266789 0.528682 0.069274
0.299971 0.529779 0.070523
0.333205 0.530883 0.071774
0.366489 0.531995 0.073028
0.399823 0.533114 0.074285
0.433204 0.534240 0.075544
0.466633 0.535373 0.076805
0.500108 0.536514 0.078069
0.533629 0.537662 0.079335
0.567193 0.538816 0.080603
0.600801 0.539977 0.081874
0.634452 0.541145 0.083147
0.668144 0.542320 0.084422
0.701877 0.543501 0.085699
0.735651 0.544689 0.086978
0.769463 0.545883 0.088259
0.803314 0.547083 0.089542
0.837203 0.548290 0.090828
0.870433 0.549476 0.092088
0.902634 0.550627 0.093310
0.934766 0.551781 0.094530
0.937112 0.551800 0.094612
0.937104 0.551734 0.094604
0.937097 0.551673 0.094597
0.065891 0.558713 0.065891
0.065866 0.558502 0.065866
0.065842 0.558297 0.065842
0.072866 0.558367 0.066088
0.105820 0.559435 0.067326
0.138829 0.560510 0.068566
0.171894 0.561593 0.069810
0.205011 0.562685 0.071056
0.238181 0.563784 0.072304
0.271402 0.564890 0.073556
0.304673 0.566004 0.074810
0.337994 0.567126 0.076066
0.371362 0.568255 0.077325
0.404777 0.569391 0.078586
0.438238 0.570534 0.079849
0.471745 0.571685 0.081115
0.505295 0.572842 0.082384
0.538889 0.574007 0.083654
0.572526 0.575178 0.084927
0.606204 0.576355 0.086202
0.639922 0.577540 0.087479
0.673681 0.578731 0.088758
0.707479 0.579928 0.090039
0.741315 0.581132 0.091322
0.775189 0.582342 0.092607
0.809100 0.583558 0.093894
0.843048 0.584781 0.095183
0.876223 0.585978 0.096444
0.908299 0.587139 0.097662
0.940300 0.588301 0.098878
0.941415 0.588287 0.098915
0.941408 0.588234 0.098908
0.941403 0.588186 0.098903
0.070148 0.594809 0.070148
0.070125 0.594612 0.070125
0.070103 0.594422 0.070103
0.076944 0.594500 0.070343
0.109998 0.595586 0.071586
0.143104 0.596680 0.072832
0.176263 0.597782 0.074081
0.209473 0.598891 0.075332
0.242732 0.600008 0.076586
0.276041 0.601132 0.077842
0.309397 0.602264 0.079101
0.342800 0.603403 0.080362
0.376249 0.604550 0.081626
0.409742 0.605704 0.082891
0.443280 0.606864 0.084160
0.476861 0.608032 0.085430
0.510485 0.609206 0.086703
0.544149 0.610388 0.087978
0.577855 0.611576 0.089254
0.611600 0.612770 0.090534
0.645385 0.613972 0.091815
0.679207 0.615179 0.093098
0.713068 0.616393 0.094383
0.746966 0.617613 0.095670
0.780900 0.618840 0.096959
0.814869 0.620072 0.098250
0.848874 0.621311 0.099543
0.881984 0.622520 0.100802
0.913925 0.623689 0.102017
0.945727 0.624857 0.103227
0.945722 0.624814 0.103222
0.945718 0.624775 0.103218
0.945714 0.624741 0.103214
0.074409 0.630936 0.074409
0.074388 0.630755 0.074388
0.074367 0.630580 0.074367
0.081072 0.630668 0.074604
0.114221 0.631773 0.075853
0.147421 0.632885 0.077104
0.180670 0.634006 0.078358
0.213968 0.635133 0.079614
0.247313 0.636269 0.080873
0.280705 0.637411 0.082134
0.314143 0.638561 0.083397
0.347625 0.639719 0.084663
0.381151 0.640883 0.085931
0.414721 0.642054 0.087202
0.448332 0.643233 0.088475
0.481985 0.644418 0.089749
0.515678 0.645610 0.091026
0.549412 0.646808 0.092306
0.583184 0.648014 0.093587
0.616994 0.649225 0.094870
0.650843 0.650443 0.096155
0.684728 0.651668 0.097442
0.718649 0.652899 0.098731
0.752607 0.654136 0.100023
0.786599 0.655379 0.101315
0.820626 0.656628 0.102610
0.854687 0.657883 0.103907
0.887723 0.659103 0.105165
0.919517 0.660281 0.106376
0.950039 0.661414 0.107539
0.950035 0.661385 0.107535
0.950032 0.661360 0.107532
0.950030 0.661339 0.107530
0.078674 0.667099 0.078674
0.078654 0.666934 0.078654
0.078635 0.666775 0.078635
0.085250 0.666875 0.078871
0.118490 0.667999 0.080125
0.151779 0.669130 0.081381
0.185114 0.670269 0.082640
0.218497 0.671416 0.083901
0.251924 0.672569 0.085165
0.285397 0.673731 0.086431
0.318913 0.674899 0.087699
0.352471 0.676074 0.088970
0.386072 0.677257 0.090243
0.419714 0.678446 0.091518
0.453397 0.679643 0.092795
0.487119 0.680845 0.094074
0.520880 0.682055 0.095355
0.554679 0.683271 0.096638
0.588516 0.684494 0.097924
0.622390 0.685723 0.099211
0.656300 0.686958 0.100500
0.690246 0.688200 0.101792
0.724227 0.689448 0.103085
0.758242 0.690702 0.104380
0.792292 0.691961 0.105676
0.826375 0.693227 0.106975
0.860491 0.694499 0.108275
0.893446 0.695730 0.109532
0.925081 0.696916 0.110739
0.954355 0.698016 0.111855
0.954354 0.698001 0.111854
0.954352 0.697990 0.111852
0.954352 0.697984 0.111852
0.082943 0.703301 0.082943
0.082926 0.703152 0.082926
0.082909 0.703009 0.082909
0.089477 0.703123 0.083144
0.122805 0.704266 0.084403
0.156178 0.705417 0.085665
0.189597 0.706575 0.086929
0.223060 0.707741 0.088195
0.256567 0.708913 0.089463
0.290116 0.710093 0.090734
0.323708 0.711280 0.092007
0.357340 0.712474 0.093282
0.391012 0.713675 0.094559
0.424725 0.714883 0.095839
0.458476 0.716097 0.097120
0.492265 0.717318 0.098404
0.526091 0.718545 0.099689
0.559955 0.719779 0.100977
0.593854 0.721020 0.102266
0.627790 0.722266 0.103558
0.661760 0.723519 0.104851
0.695765 0.724778 0.106146
0.729804 0.726043 0.107443
0.763877 0.727314 0.108742
0.797982 0.728590 0.110043
0.832121 0.729873 0.111345
0.866291 0.731161 0.112649
0.899157 0.732404 0.113904
0.930622 0.733598 0.115106
0.958678 0.734665 0.116178
0.958678 0.734665 0.116178
0.958678 0.734668 0.116178
0.958679 0.734676 0.116179
0.087218 0.739545 0.087218
0.087202 0.739413 0.087202
0.087187 0.739286 0.087187
0.093753 0.739417 0.087424
0.127164 0.740579 0.088688
0.160619 0.741750 0.089955
0.194118 0.742927 0.091224
0.227659 0.744112 0.092495
0.261242 0.745303 0.093768
0.294865 0.746502 0.095043
0.328529 0.747708 0.096321
0.362232 0.748920 0.097600
0.395974 0.750140 0.098882
0.429754 0.751366 0.100166
0.463571 0.752598 0.101452
0.497425 0.753837 0.102740
0.531315 0.755083 0.104029
0.565241 0.756335 0.105321
0.599202 0.757593 0.106615
0.633197 0.758857 0.107910
0.667227 0.760127 0.109207
0.701290 0.761404 0.110507
0.735386 0.762686 0.111807
0.769515 0.763974 0.113110
0.803676 0.765268 0.114415
0.837868 0.766567 0.115721
0.872093 0.767872 0.117029
0.904862 0.769126 0.118281
0.936146 0.770327 0.119478
0.963006 0.771363 0.120506
0.963007 0.771377 0.120507
0.963009 0.771395 0.120509
0.963012 0.771417 0.120512
0.091497 0.775834 0.091497
0.091484 0.775719 0.091484
0.091471 0.775609 0.091471
0.098077 0.775758 0.091711
0.131569 0.776940 0.092981
0.165102 0.778130 0.094252
0.198677 0.779327 0.095525
0.232293 0.780531 0.096801
0.265949 0.781742 0.098079
0.299644 0.782960 0.099359
0.333378 0.784184 0.100641
0.367149 0.785416 0.101925
0.400958 0.786654 0.103211
0.434804 0.787898 0.104499
0.468685 0.789149 0.105790
0.502603 0.790406 0.107082
0.536555 0.791670 0.108376
0.570541 0.792940 0.109671
0.604562 0.794216 0.110969
0.638616 0.795498 0.112268
0.672703 0.796785 0.113570
0.706823 0.798079 0.114873
0.740975 0.799379 0.116178
0.775160 0.800684 0.117484
0.809375 0.801995 0.118792
0.843622 0.803311 0.120102
0.877900 0.804633 0.121414
0.910567 0.805898 0.122664
0.941658 0.807106 0.123855
0.967339 0.808112 0.124839
0.967343 0.808140 0.124843
0.967347 0.808172 0.124847
0.967351 0.808209 0.124851
0.095783 0.812171 0.095783
0.095771 0.812073 0.095771
0.095760 0.811980 0.095760
0.102449 0.812150 0.096006
0.136018 0.813352 0.097280
0.169627 0.814561 0.098556
0.203275 0.815778 0.099834
0.236963 0.817001 0.101115
0.270690 0.818231 0.102397
0.304454 0.819468 0.103682
0.338255 0.820712 0.104968
0.372093 0.821962 0.106257
0.405967 0.823219 0.107547
0.439876 0.824482 0.108840
0.473820 0.825751 0.110134
0.507799 0.827027 0.111430
0.541812 0.828309 0.112728
0.575858 0.829596 0.114028
0.609937 0.830890 0.115330
0.644049 0.832190 0.116633
0.678193 0.833495 0.117938
0.712369 0.834807 0.119245
0.746577 0.836124 0.120554
0.780816 0.837446 0.121864
0.815086 0.838774 0.123176
0.849387 0.840107 0.124490
0.883719 0.841446 0.125805
0.916277 0.842721 0.127053
0.947164 0.843936 0.128238
0.971679 0.844912 0.129179
0.971684 0.844955 0.129184
0.971690 0.845001 0.129190
0.971696 0.845052 0.129196
0.100074 0.848559 0.100074
0.100064 0.848478 0.100064
0.100056 0.848403 0.100056
0.106868 0.848594 0.100308
0.140511 0.849816 0.101587
0.174192 0.851045 0.102868
0.207912 0.852281 0.104151
0.241670 0.853524 0.105436
0.275464 0.854774 0.106723
0.309295 0.856030 0.108011
0.343162 0.857293 0.109302
0.377064 0.858562 0.110595
0.411001 0.859837 0.111890
0.444973 0.861119 0.113187
0.478978 0.862407 0.114485
0.513017 0.863701 0.115785
0.547089 0.865000 0.117088
0.581193 0.866306 0.118391
0.615330 0.867618 0.119697
