library/cube/Tungsten_Film_003.cube
# CINEGRADE LAB — Premium Cinematic LUT
# Title: Tungsten Film
# Category: CineStill 800T Emulation
# Description: Tungsten balance, halation glow, night film characteristics
# Mood: Nocturnal, glowing, cinematic
# Variant: 4
# Generated: 2026-05-21T16:12:54.849683
TITLE "Tungsten Film"
LUT_3D_SIZE 9
0.072970 0.061340 0.047488
0.176435 0.065323 0.051224
0.283897 0.069458 0.055118
0.393784 0.073685 0.059112
0.505473 0.077981 0.063179
0.618627 0.082334 0.067309
0.732954 0.086731 0.071490
0.848185 0.091163 0.075712
0.873601 0.092163 0.076506
0.085521 0.165968 0.059110
0.189329 0.170013 0.062885
0.297149 0.174211 0.066819
0.407412 0.178501 0.070852
0.519500 0.182860 0.074961
0.633083 0.187275 0.079133
0.747638 0.191728 0.083348
0.862762 0.196203 0.087590
0.888072 0.197244 0.088406
0.098644 0.274774 0.071296
0.202824 0.278878 0.075110
0.311048 0.283136 0.079084
0.421748 0.287487 0.083159
0.534312 0.291908 0.087311
0.648416 0.296388 0.091528
0.763063 0.300888 0.095772
0.877675 0.305387 0.100020
0.902780 0.306464 0.100853
0.112245 0.386145 0.083857
0.216852 0.390307 0.087712
0.325552 0.394624 0.091730
0.436777 0.399037 0.095850
0.549922 0.403521 0.100049
0.664669 0.408067 0.104316
0.779207 0.412605 0.108580
0.892764 0.417105 0.112813
0.917537 0.418212 0.113658
0.126346 0.499432 0.096722
0.231462 0.503652 0.100621
0.340735 0.508030 0.104685
0.452599 0.512506 0.108854
0.566456 0.517059 0.113105
0.681994 0.521675 0.117427
0.796162 0.526239 0.121702
0.907983 0.530715 0.125893
0.932265 0.531845 0.126744
0.141005 0.614275 0.109850
0.246735 0.618557 0.113797
0.356704 0.623000 0.117913
0.469350 0.627545 0.122136
0.584077 0.632171 0.126445
0.700583 0.636865 0.130828
0.814054 0.641444 0.135102
0.923320 0.645864 0.139220
0.946925 0.647012 0.140071
0.156293 0.730448 0.123219
0.262768 0.734797 0.127220
0.373584 0.739312 0.131392
0.487178 0.743934 0.135676
0.602962 0.748641 0.140051
0.720638 0.753423 0.144504
0.833024 0.758004 0.148761
0.938780 0.762335 0.152770
0.961490 0.763495 0.153612
0.172291 0.847799 0.136815
0.279667 0.852223 0.140874
0.391505 0.856819 0.145110
0.506243 0.861528 0.149464
0.623295 0.866329 0.153912
0.742371 0.871210 0.158444
0.853222 0.875781 0.162667
0.954374 0.879985 0.166527
0.975943 0.881153 0.167351
0.186680 0.945839 0.148223
0.295117 0.950160 0.152327
0.408156 0.954647 0.156611
0.524231 0.959239 0.161017
0.642763 0.963916 0.165521
0.763465 0.968666 0.170113
0.872239 0.972950 0.174254
0.967525 0.976709 0.177884
0.987642 0.977586 0.178646
0.073966 0.062324 0.120552
0.177464 0.066308 0.124246
0.284960 0.070443 0.128099
0.394881 0.074671 0.132053
0.506606 0.078968 0.136083
0.619799 0.083322 0.140177
0.734152 0.087720 0.144322
0.849387 0.092152 0.148507
0.874794 0.093151 0.149267
0.086521 0.166967 0.132036
0.190363 0.171013 0.135773
0.298221 0.175211 0.139670
0.408523 0.179502 0.143669
0.520654 0.183862 0.147744
0.634284 0.188279 0.151883
0.748855 0.192732 0.156066
0.863946 0.197205 0.160276
0.889240 0.198245 0.161061
0.099657 0.275787 0.144097
0.203876 0.279892 0.147878
0.312143 0.284151 0.151821
0.422891 0.288503 0.155865
0.535507 0.292926 0.159988
0.649670 0.297407 0.164178
0.764315 0.301906 0.168393
0.878846 0.306402 0.172610
0.903923 0.307478 0.173416
0.113281 0.387172 0.156549
0.217935 0.391335 0.160376
0.326687 0.395653 0.164366
0.437969 0.400067 0.168460
0.551179 0.404554 0.172634
0.665998 0.409102 0.176878
0.780511 0.413638 0.181117
0.893925 0.418133 0.185321
0.918655 0.419238 0.186142
0.127416 0.500472 0.169318
0.232588 0.504693 0.173193
0.341924 0.509073 0.177234
0.453859 0.513552 0.181382
0.567796 0.518107 0.185613
0.683423 0.522726 0.189916
0.797535 0.527288 0.194169
0.909137 0.531755 0.198333
0.933359 0.532884 0.199164
0.142118 0.615328 0.182366
0.247917 0.619612 0.186293
0.357963 0.624058 0.190390
0.470696 0.628606 0.194597
0.585520 0.633235 0.198891
0.702134 0.637934 0.203261
0.815513 0.642510 0.207514
0.924470 0.646918 0.211606
0.947994 0.648064 0.212440
0.157460 0.731515 0.195668
0.264018 0.735867 0.199653
0.374928 0.740386 0.203812
0.488628 0.745012 0.208084
0.604529 0.749724 0.212449
0.722334 0.754511 0.216893
0.834587 0.759088 0.221133
0.939929 0.763405 0.225116
0.962535 0.764562 0.225945
0.173522 0.848882 0.209210
0.280999 0.853310 0.213259
0.392950 0.857911 0.217487
0.507814 0.862626 0.221834
0.625007 0.867432 0.226277
0.744237 0.872321 0.230805
0.854906 0.876886 0.235014
0.955526 0.881071 0.238847
0.976964 0.882236 0.239661
0.187979 0.946876 0.220573
0.296535 0.951198 0.224671
0.409708 0.955686 0.228951
0.525933 0.960281 0.233354
0.644630 0.964961 0.237858
0.765514 0.969714 0.242452
0.874049 0.973986 0.246579
0.968671 0.977717 0.250181
0.988628 0.978584 0.250935
0.074997 0.063344 0.196270
0.178528 0.067328 0.199922
0.286057 0.071464 0.203734
0.396014 0.075693 0.207648
0.507776 0.079991 0.211640
0.621009 0.084345 0.215696
0.735387 0.088744 0.219804
0.850621 0.093175 0.223954
0.876020 0.094174 0.224678
0.087556 0.168002 0.207614
0.191434 0.172048 0.211313
0.299329 0.176247 0.215174
0.409672 0.180538 0.219136
0.521847 0.184899 0.223178
0.635524 0.189318 0.227285
0.750109 0.193771 0.231435
0.865165 0.198242 0.235611
0.890440 0.199282 0.236365
0.100707 0.276836 0.219550
0.204966 0.280942 0.223297
0.313277 0.285201 0.227207
0.424073 0.289554 0.231221
0.536743 0.293978 0.235315
0.650965 0.298461 0.239476
0.765606 0.302960 0.243662
0.880051 0.307452 0.247849
0.905099 0.308527 0.248627
0.114356 0.388234 0.231891
0.219057 0.392398 0.235688
0.327861 0.396717 0.239650
0.439203 0.401133 0.243718
0.552479 0.405622 0.247868
0.667371 0.410172 0.252088
0.781856 0.414707 0.256301
0.895120 0.419196 0.260477
0.919806 0.420300 0.261274
0.128525 0.501547 0.244564
0.233754 0.505770 0.248414
0.343154 0.510152 0.252432
0.455163 0.514633 0.256558
0.569180 0.519190 0.260770
0.684897 0.523813 0.265055
0.798951 0.528373 0.269285
0.910325 0.532832 0.273421
0.934485 0.533958 0.274232
0.143272 0.616417 0.257529
0.249140 0.620703 0.261437
0.359265 0.625151 0.265515
0.472086 0.629703 0.269706
0.587010 0.634336 0.273985
0.703733 0.639039 0.278342
0.817017 0.643611 0.282576
0.925655 0.648008 0.286641
0.949096 0.649151 0.287458
0.158669 0.732618 0.270764
0.265311 0.736973 0.274734
0.376317 0.741496 0.278880
0.490124 0.746126 0.283141
0.606145 0.750843 0.287496
0.724083 0.755636 0.291932
0.836196 0.760209 0.296155
0.941114 0.764510 0.300112
0.963613 0.765664 0.300927
0.174796 0.850000 0.284255
0.282375 0.854433 0.288294
0.394442 0.859039 0.292513
0.509435 0.863759 0.296854
0.626770 0.868572 0.301292
0.746157 0.873468 0.305818
0.856637 0.878027 0.310013
0.956713 0.882193 0.313818
0.978018 0.883354 0.314622
0.189321 0.947948 0.295572
0.297998 0.952271 0.299665
0.411308 0.956761 0.303942
0.527686 0.961358 0.308343
0.646551 0.966041 0.312847
0.767618 0.970798 0.317443
0.875908 0.975057 0.321558
0.969854 0.978758 0.325131
0.989647 0.979616 0.325878
0.076049 0.064384 0.273527
0.179612 0.068368 0.277136
0.287176 0.072505 0.280907
0.397168 0.076735 0.284781
0.508968 0.081034 0.288734
0.622240 0.085389 0.292753
0.736644 0.089788 0.296825
0.851874 0.094220 0.300938
0.877264 0.095218 0.301627
0.088614 0.169057 0.284731
0.192526 0.173104 0.288391
0.300459 0.177303 0.292215
0.410843 0.181595 0.296142
0.523063 0.185958 0.300149
0.636790 0.190377 0.304224
0.751387 0.194830 0.308341
0.866402 0.199300 0.312485
0.891659 0.200339 0.313207
0.101779 0.277905 0.296541
0.206078 0.282011 0.300254
0.314435 0.286272 0.304132
0.425280 0.290626 0.308115
0.538005 0.295052 0.312179
0.652287 0.299536 0.316313
0.766922 0.304035 0.320470
0.881275 0.308523 0.324626
0.906293 0.309596 0.325377
0.115454 0.389317 0.308771
0.220203 0.393481 0.312539
0.329061 0.397802 0.316474
0.440464 0.402219 0.320516
0.553807 0.406710 0.324641
0.668774 0.411263 0.328839
0.783228 0.415797 0.333026
0.896335 0.420280 0.337172
0.920975 0.421382 0.337947
0.129659 0.502643 0.321348
0.234946 0.506868 0.325174
0.344412 0.511251 0.329169
0.456495 0.515734 0.333274
0.570595 0.520295 0.337467
0.686404 0.524921 0.341734
0.800395 0.529479 0.345941
0.911533 0.533928 0.350050
0.935630 0.535052 0.350841
0.144451 0.617526 0.334233
0.250390 0.621815 0.338121
0.360596 0.626266 0.342182
0.473507 0.630821 0.346356
0.588532 0.635458 0.350621
0.705367 0.640165 0.354965
0.818551 0.644734 0.359180
0.926860 0.649119 0.363218
0.950216 0.650260 0.364019
0.159904 0.733742 0.347402
0.266633 0.738100 0.351358
0.377736 0.742626 0.355491
0.491653 0.747262 0.359741
0.607796 0.751984 0.364087
0.725867 0.756782 0.368516
0.837838 0.761350 0.372722
0.942319 0.765636 0.376652
0.964709 0.766787 0.377454
0.176098 0.851140 0.360842
0.283780 0.855576 0.364872
0.395964 0.860188 0.369084
0.511088 0.864914 0.373419
0.628569 0.869734 0.377853
0.748116 0.874637 0.382377
0.858403 0.879190 0.386558
0.957922 0.883337 0.390337
0.979091 0.884494 0.391131
0.190691 0.949039 0.372117
0.299492 0.953363 0.376205
0.412941 0.957855 0.380479
0.529473 0.962455 0.384880
0.648509 0.967141 0.389385
0.769764 0.971901 0.393983
0.877804 0.976148 0.398085
0.971057 0.979819 0.401631
0.990683 0.980667 0.402371
0.077115 0.065439 0.351878
0.180711 0.069423 0.355445
0.288310 0.073561 0.359175
0.398337 0.077791 0.363009
0.510176 0.082091 0.366924
0.623489 0.086448 0.370906
0.737916 0.090848 0.374941
0.853140 0.095279 0.379019
0.878519 0.096276 0.379673
0.089686 0.170127 0.362942
0.193635 0.174174 0.366565
0.301607 0.178374 0.370352
0.412032 0.182667 0.374244
0.524298 0.187030 0.378218
0.638074 0.191451 0.382260
0.752683 0.195905 0.386346
0.867652 0.200372 0.390456
0.892890 0.201410 0.391147
0.102868 0.278989 0.374628
0.207209 0.283096 0.378308
0.315611 0.287357 0.382154
0.426506 0.291712 0.386106
0.539287 0.296140 0.390142
0.653631 0.300626 0.394248
0.768258 0.305124 0.398377
0.882513 0.309608 0.402502
0.907498 0.310681 0.403226
0.116569 0.390414 0.386749
0.221367 0.394580 0.390488
0.330281 0.398902 0.394396
0.441745 0.403321 0.398412
0.555157 0.407814 0.402514
0.670200 0.412369 0.406689
0.784621 0.416902 0.410851
0.897563 0.421378 0.414969
0.922156 0.422478 0.415720
0.130811 0.503753 0.399231
0.236157 0.507980 0.403033
0.345691 0.512365 0.407007
0.457849 0.516851 0.411091
0.572034 0.521415 0.415265
0.687937 0.526044 0.419515
0.801863 0.530599 0.423700
0.912756 0.535040 0.427781
0.936786 0.536162 0.428553
0.145650 0.618650 0.412037
0.251661 0.622941 0.415906
0.361949 0.627395 0.419950
0.474953 0.631954 0.424109
0.590081 0.636594 0.428360
0.707030 0.641306 0.432693
0.820111 0.645872 0.436888
0.928079 0.650245 0.440900
0.951348 0.651383 0.441685
0.161160 0.734881 0.425143
0.267976 0.739242 0.429085
0.379179 0.743772 0.433206
0.493208 0.748412 0.437446
0.609475 0.753140 0.441783
0.727683 0.757944 0.446206
0.839505 0.762508 0.450395
0.943539 0.766777 0.454299
0.965817 0.767925 0.455089
0.177421 0.852294 0.438534
0.285209 0.856736 0.442556
0.397513 0.861352 0.446761
0.512771 0.866084 0.451091
0.630399 0.870911 0.455522
0.750108 0.875821 0.460045
0.860196 0.880369 0.464212
0.959146 0.884495 0.467964
0.980175 0.885650 0.468750
0.192084 0.950144 0.449768
0.301011 0.954470 0.453852
0.414602 0.958963 0.458124
0.531291 0.963566 0.462525
0.650501 0.968255 0.467032
0.771945 0.973020 0.471634
0.879728 0.977253 0.475724
0.972276 0.980894 0.479242
0.991732 0.981732 0.479976
0.078193 0.066504 0.431081
0.181822 0.070490 0.434605
0.289455 0.074628 0.438294
0.399520 0.078860 0.442089
0.511397 0.083160 0.445966
0.624752 0.087518 0.449912
0.739202 0.091918 0.453912
0.854416 0.096349 0.457953
0.879784 0.097346 0.458573
0.090772 0.171207 0.442006
0.194756 0.175255 0.445591
0.302767 0.179456 0.449343
0.413236 0.183750 0.453200
0.525548 0.188115 0.457141
0.639375 0.192537 0.461151
0.753993 0.196990 0.465205
0.868913 0.201456 0.469282
0.894129 0.202493 0.469943
0.103971 0.280084 0.453569
0.208353 0.284191 0.457216
0.316802 0.288454 0.461031
0.427749 0.292810 0.464953
0.540587 0.297239 0.468961
0.654994 0.301728 0.473041
0.769610 0.306225 0.477141
0.883762 0.310705 0.481236
0.908713 0.311776 0.481933
0.117699 0.391522 0.465582
0.222547 0.395689 0.469293
0.331517 0.400013 0.473174
0.443044 0.404434 0.477166
0.556526 0.408929 0.481244
0.671648 0.413487 0.485398
0.786032 0.418018 0.489536
0.898802 0.422488 0.493624
0.923345 0.423586 0.494353
0.131979 0.504875 0.477972
0.237386 0.509103 0.481751
0.346988 0.513491 0.485703
0.459223 0.517979 0.489768
0.573495 0.522546 0.493923
0.689493 0.527179 0.498156
0.803350 0.531732 0.502321
0.913989 0.536163 0.506374
0.937951 0.537283 0.507128
0.146866 0.619786 0.490701
0.252950 0.624079 0.494552
0.363323 0.628536 0.498579
0.476421 0.633099 0.502724
0.591653 0.637744 0.506962
0.708719 0.642460 0.511283
0.821691 0.647022 0.515460
0.929310 0.651382 0.519445
0.952489 0.652518 0.520216
0.162434 0.736031 0.503745
0.269339 0.740396 0.507674
0.380644 0.744930 0.511784
0.494786 0.749575 0.516014
0.611179 0.754308 0.520344
0.729528 0.759119 0.524761
0.841197 0.763677 0.528935
0.944770 0.767930 0.532813
0.966934 0.769076 0.533592
0.178763 0.853461 0.517091
0.286659 0.857907 0.521104
0.399085 0.862529 0.525303
0.514478 0.867267 0.529629
0.632257 0.872101 0.534059
0.752131 0.877019 0.538581
0.862015 0.881560 0.542735
0.960382 0.885666 0.546461
0.981269 0.886817 0.547239
0.193497 0.951260 0.528286
0.302551 0.955587 0.532367
0.416286 0.960083 0.536638
0.533136 0.964688 0.541039
0.652521 0.969380 0.545549
0.774159 0.974149 0.550156
0.881679 0.978369 0.554235
0.973507 0.981980 0.557725
0.992790 0.982808 0.558454
0.079280 0.067580 0.510979
0.182943 0.071566 0.514462
0.290611 0.075705 0.518111
0.400713 0.079937 0.521867
0.512629 0.084239 0.525707
0.626026 0.088598 0.529617
0.740498 0.092999 0.533581
0.855699 0.097429 0.537588
0.881055 0.098425 0.538174
0.091867 0.172297 0.521768
0.195888 0.176346 0.525316
0.303940 0.180547 0.529032
0.414452 0.184843 0.532856
0.526811 0.189209 0.536764
0.640691 0.193633 0.540743
0.755316 0.198086 0.544765
0.870181 0.202549 0.548811
0.895375 0.203585 0.549442
0.105085 0.281188 0.533210
0.209510 0.285296 0.536824
0.318006 0.289560 0.540609
0.429005 0.293918 0.544502
0.541902 0.298349 0.548482
0.656373 0.302839 0.552535
0.770977 0.307336 0.556608
0.885018 0.311811 0.560673
0.909934 0.312881 0.561345
0.118842 0.392640 0.545117
0.223741 0.396808 0.548801
0.332768 0.401133 0.552656
0.444360 0.405556 0.556623
0.557914 0.410054 0.560679
0.673115 0.414615 0.564812
0.787459 0.419144 0.568926
0.900050 0.423607 0.572986
0.924542 0.424704 0.573693
0.133160 0.506007 0.557417
0.238629 0.510236 0.561173
0.348302 0.514626 0.565104
0.460616 0.519118 0.569150
0.574975 0.523687 0.573287
0.691071 0.528325 0.577505
0.804855 0.532875 0.581649
0.915231 0.537296 0.585676
0.939124 0.538414 0.586411
0.148097 0.620931 0.570071
0.254256 0.625227 0.573904
0.364714 0.629688 0.577916
0.477908 0.634253 0.582046
0.593247 0.638903 0.586273
0.710431 0.643624 0.590583
0.823292 0.648183 0.594743
0.930551 0.652530 0.598702
0.953637 0.653662 0.599458
0.163723 0.737191 0.583056
0.270720 0.741560 0.586972
0.382128 0.746098 0.591072
0.496386 0.750748 0.595294
0.612908 0.755487 0.599616
0.731398 0.760304 0.604029
0.842909 0.764857 0.608188
0.946012 0.769093 0.612040
0.968058 0.770236 0.612808
0.180122 0.854637 0.596358
0.288127 0.859088 0.600364
0.400678 0.863716 0.604559
0.516209 0.868461 0.608881
0.634141 0.873301 0.613309
0.754183 0.878227 0.617833
0.863857 0.882762 0.621974
0.961628 0.886848 0.625675
0.982370 0.887995 0.626446
0.194927 0.952385 0.607517
0.304111 0.956713 0.611596
0.417993 0.961211 0.615867
0.535006 0.965819 0.620270
0.654570 0.970515 0.624783
0.776404 0.975288 0.629396
0.883655 0.979494 0.633464
0.974748 0.983073 0.636928
0.993854 0.983892 0.637652
0.080376 0.068662 0.591467
0.184072 0.072649 0.594908
0.291776 0.076789 0.598518
0.401915 0.081022 0.602236
0.513871 0.085325 0.606039
0.627312 0.089686 0.609913
0.741805 0.094087 0.613843
0.856989 0.098516 0.617815
0.882332 0.099512 0.618368
0.092973 0.173395 0.602121
0.197031 0.177444 0.605633
0.305123 0.181647 0.609314
0.415679 0.185943 0.613104
0.528087 0.190310 0.616980
0.642019 0.194736 0.620929
0.756651 0.199189 0.624921
0.871456 0.203650 0.628934
0.896627 0.204685 0.629536
0.106210 0.282300 0.613443
0.210678 0.286409 0.617026
0.319222 0.290674 0.620780
0.430275 0.295033 0.624645
0.543231 0.299466 0.628598
0.657768 0.303959 0.632627
0.772357 0.308455 0.636672
0.886281 0.312926 0.640708
0.911161 0.313994 0.641354
0.119996 0.393766 0.625247
0.224947 0.397935 0.628904
0.334033 0.402262 0.632734
0.445690 0.406687 0.636678
0.559317 0.411187 0.640712
0.674600 0.415751 0.644825
0.788902 0.420279 0.648915
0.901305 0.424735 0.652948
0.925744 0.425830 0.653634
0.134354 0.507146 0.637458
0.239886 0.511378 0.641193
0.349630 0.515770 0.645104
0.462025 0.520264 0.649132
0.576474 0.524837 0.653253
0.692670 0.529478 0.657456
0.806377 0.534026 0.661579
0.916481 0.538437 0.665580
0.940301 0.539552 0.666298
0.149340 0.622085 0.650040
0.255577 0.626383 0.653857
0.366121 0.630847 0.657854
0.479413 0.635417 0.661971
0.594862 0.640070 0.666186
0.712167 0.644797 0.670487
0.824911 0.649352 0.674630
0.931799 0.653685 0.678564
0.954791 0.654815 0.679306
0.165027 0.738360 0.662969
0.272117 0.742732 0.666874
0.383631 0.747275 0.670964
0.498007 0.751930 0.675178
0.614659 0.756674 0.679495
0.733294 0.761498 0.683903
0.844642 0.766046 0.688048
0.947261 0.770265 0.691875
0.969188 0.771405 0.692633
0.181497 0.855823 0.676230
0.289613 0.860278 0.680230
0.402290 0.864912 0.684421
0.517962 0.869663 0.688741
0.636049 0.874511 0.693169
0.756263 0.879445 0.697694
0.865721 0.883974 0.701823
0.962882 0.888038 0.705499
0.983477 0.889181 0.706263
0.196374 0.953517 0.687356
0.305691 0.957846 0.691433
0.419721 0.962346 0.695705
0.536899 0.966957 0.700111
0.656646 0.971657 0.704629
0.778678 0.976434 0.709249
0.885655 0.980627 0.713307
0.975997 0.984175 0.716743
0.994924 0.984983 0.717464
0.081305 0.069579 0.659442
0.185036 0.073566 0.662851
0.292775 0.077707 0.666429
0.402952 0.081941 0.670117
0.514950 0.086246 0.673890
0.628435 0.090608 0.677737
0.742947 0.095010 0.681639
0.858111 0.099438 0.685582
0.883440 0.100433 0.686108
0.093913 0.174327 0.669988
0.198009 0.178376 0.673471
0.306142 0.182580 0.677124
0.416743 0.186878 0.680888
0.529201 0.191247 0.684739
0.643188 0.195674 0.688665
0.757823 0.200127 0.692632
0.872564 0.204585 0.696619
0.897710 0.205620 0.697198
0.107171 0.283246 0.681215
0.211683 0.287356 0.684774
0.320276 0.291622 0.688504
0.431384 0.295983 0.692347
0.544401 0.300418 0.696279
0.659006 0.304913 0.700288
0.773577 0.309408 0.704312
0.887378 0.313874 0.708323
0.912220 0.314941 0.708950
0.120988 0.394726 0.692937
0.225992 0.398897 0.696574
0.335138 0.403225 0.700385
0.446862 0.407653 0.704311
0.560564 0.412155 0.708328
0.675930 0.416723 0.712426
0.790186 0.421248 0.716498
0.902394 0.425697 0.720507
0.926779 0.426790 0.721176
0.135387 0.508120 0.705080
0.240983 0.512354 0.708799
0.350801 0.516749 0.712695
0.463277 0.521246 0.716709
0.577818 0.525823 0.720818
0.694116 0.530468 0.725011
0.807743 0.535012 0.729118
0.917566 0.539413 0.733096
0.941312 0.540527 0.733800
0.150425 0.623073 0.717607
0.256739 0.627375 0.721412
0.367373 0.631842 0.725398
0.480765 0.636416 0.729507
0.596324 0.641074 0.733714
0.713752 0.645806 0.738010
0.826375 0.650357 0.742138
0.932882 0.654677 0.746050
0.955777 0.655804 0.746782
0.166173 0.739364 0.730493
0.273357 0.743740 0.734391
0.384979 0.748288 0.738475
0.499475 0.752948 0.742685
0.616260 0.757698 0.747000
0.735042 0.762528 0.751407
0.846223 0.767071 0.755540
0.948347 0.771273 0.759344
0.970151 0.772409 0.760095
0.182714 0.856844 0.743726
0.290944 0.861305 0.747724
0.403750 0.865944 0.751913
0.519565 0.870702 0.756234
0.637810 0.875557 0.760664
0.758197 0.880500 0.765193
0.867434 0.885021 0.769313
0.963973 0.889064 0.772964
0.984416 0.890204 0.773724
0.197665 0.954483 0.754828
0.307116 0.958814 0.758907
0.421298 0.963317 0.763182
0.538644 0.967931 0.767593
0.658575 0.972634 0.772118
0.780810 0.977416 0.776746
0.887505 0.981595 0.780795
0.977083 0.985110 0.784205
0.995827 0.985909 0.784923
