library/cube/Tungsten_Dreams_003.cube
# CINEGRADE LAB — Premium Cinematic LUT
# Title: Tungsten Dreams
# Category: Cinematic Shadows
# Description: Crushed blacks with teal shadows and warm highlights for cinema-inspired images
# Mood: Dramatic, cinematic, bold
# Variant: 4
# Generated: 2026-05-21T16:12:13.130921
TITLE "Tungsten Dreams"
LUT_3D_SIZE 5
0.000000 0.000000 0.000000
0.171214 0.006545 0.006545
0.420657 0.016080 0.016080
0.676555 0.025861 0.025861
0.875985 0.033485 0.033485
0.023408 0.198488 0.023408
0.194097 0.202651 0.029664
0.453042 0.210524 0.039331
0.716443 0.218884 0.049205
0.898504 0.224433 0.056004
0.057387 0.486599 0.057387
0.229165 0.491431 0.063755
0.494920 0.500218 0.073757
0.763717 0.509459 0.083914
0.932795 0.515199 0.090295
0.091497 0.775834 0.091497
0.265949 0.781742 0.098079
0.536555 0.791670 0.108376
0.809375 0.801995 0.118792
0.967351 0.808209 0.124851
0.112644 0.955144 0.112644
0.291498 0.961981 0.119481
0.565879 0.972469 0.129969
0.842197 0.983031 0.140531
0.988629 0.988629 0.146128
0.002760 0.002760 0.207218
0.173817 0.009216 0.207327
0.424333 0.018718 0.211149
0.681077 0.028467 0.215839
0.878453 0.035953 0.218847
0.025815 0.200149 0.211492
0.196500 0.204373 0.213427
0.456206 0.212336 0.219330
0.720203 0.220780 0.225919
0.900770 0.226332 0.229795
0.059651 0.488304 0.232933
0.231592 0.493233 0.236597
0.497882 0.502128 0.244293
0.767107 0.511468 0.252482
0.934996 0.517240 0.257133
0.093698 0.777770 0.259367
0.268495 0.783791 0.264379
0.539502 0.793827 0.273350
0.812674 0.804249 0.282639
0.969533 0.810494 0.287670
0.114820 0.957320 0.276066
0.294202 0.964165 0.281975
0.568929 0.974656 0.291630
0.845603 0.985221 0.301419
0.990760 0.990760 0.306198
0.006504 0.006504 0.488407
0.177457 0.012915 0.485299
0.429044 0.022422 0.486291
0.686636 0.032170 0.488459
0.882053 0.039553 0.489128
0.029338 0.202963 0.483086
0.200061 0.207275 0.482871
0.460524 0.215350 0.486907
0.725116 0.223896 0.491852
0.904246 0.229469 0.494213
0.063115 0.491248 0.498240
0.235252 0.496290 0.500523
0.502073 0.505304 0.507022
0.771726 0.514752 0.514158
0.938450 0.520564 0.517816
0.097147 0.780992 0.520635
0.272317 0.787133 0.524754
0.543721 0.797279 0.532921
0.817246 0.807799 0.541468
0.972987 0.814076 0.545742
0.118263 0.960763 0.534578
0.298195 0.967620 0.539793
0.573271 0.978115 0.548754
0.850307 0.988685 0.557832
0.994164 0.994164 0.561797
0.010218 0.010218 0.767250
0.181079 0.016587 0.761169
0.433701 0.026100 0.759556
0.692110 0.035849 0.759409
0.885632 0.043132 0.757932
0.032845 0.205795 0.753089
0.203621 0.210196 0.750908
0.464814 0.218382 0.753243
0.729981 0.227030 0.756694
0.907714 0.232624 0.757674
0.066571 0.494221 0.762510
0.238922 0.499375 0.763539
0.506256 0.508506 0.768952
0.776324 0.518059 0.775127
0.941900 0.523910 0.777870
0.100593 0.784246 0.781227
0.276153 0.790504 0.784525
0.547948 0.800757 0.791943
0.821823 0.811372 0.799786
0.976437 0.817676 0.803323
0.121699 0.964199 0.792585
0.302201 0.971069 0.797121
0.577627 0.981568 0.805386
0.855034 0.992143 0.813737
0.997561 0.997561 0.816854
0.011371 0.011371 0.853872
0.182358 0.017907 0.860407
0.436163 0.027609 0.870109
0.695523 0.037523 0.880023
0.887356 0.044856 0.887356
0.034410 0.206720 0.876910
0.205392 0.211346 0.883228
0.467411 0.219763 0.893061
0.733237 0.228616 0.903074
0.909701 0.234325 0.909701
0.068490 0.495694 0.910990
0.241160 0.501047 0.917448
0.509066 0.510368 0.927584
0.779606 0.520091 0.937855
0.944103 0.526036 0.944103
0.102756 0.786254 0.945256
0.278783 0.792682 0.951951
0.551009 0.803088 0.962357
0.825278 0.813839 0.972871
0.978796 0.820208 0.978796
0.124015 0.966515 0.966515
0.305149 0.973439 0.973439
0.580968 0.983982 0.983982
0.858793 0.994602 0.994602
1.000000 1.000000 1.000000
