library/cube/Tuscan_Sun_002.cube
# CINEGRADE LAB — Premium Cinematic LUT
# Title: Tuscan Sun
# Category: Luxury Travel
# Description: Golden hour tones, rich landscapes, and vivid colors for travel content
# Mood: Wanderlust, golden, rich
# Variant: 3
# Generated: 2026-05-21T16:12:24.254311
TITLE "Tuscan Sun"
LUT_3D_SIZE 5
0.000000 0.000000 0.000000
0.242284 0.000000 0.000000
0.541551 0.000000 0.000000
0.841065 0.000000 0.000000
1.000000 0.000000 0.000000
0.000000 0.263309 0.000000
0.225549 0.233372 0.000000
0.525489 0.227298 0.000000
0.825915 0.221237 0.000000
1.000000 0.216457 0.000000
0.000000 0.569839 0.000000
0.206765 0.510912 0.000000
0.507775 0.504981 0.000000
0.809509 0.499068 0.000000
1.000000 0.494554 0.000000
0.000000 0.877316 0.000000
0.182640 0.872794 0.000000
0.491199 0.783651 0.000000
0.794637 0.777951 0.000000
1.000000 0.773809 0.000000
0.000000 1.000000 0.000000
0.174630 1.000000 0.000000
0.479029 1.000000 0.000000
0.784632 1.000000 0.000000
1.000000 1.000000 0.000000
0.000000 0.000000 0.264751
0.240484 0.000000 0.259739
0.539800 0.000000 0.253533
0.839389 0.000000 0.247302
1.000000 0.000000 0.242251
0.000000 0.236487 0.247246
0.223829 0.231577 0.242158
0.523860 0.225510 0.235870
0.824401 0.219454 0.229552
1.000000 0.214690 0.224482
0.000000 0.568097 0.222724
0.201175 0.563357 0.217547
0.506267 0.503251 0.215114
0.808157 0.497348 0.208694
1.000000 0.492857 0.203633
0.000000 0.875661 0.199742
0.181079 0.871154 0.194464
0.489812 0.782007 0.194054
0.793447 0.776319 0.187519
1.000000 0.772208 0.182494
0.000000 1.000000 0.187864
0.173171 1.000000 0.182535
0.477784 1.000000 0.175980
0.783625 1.000000 0.169382
1.000000 1.000000 0.164491
0.000000 0.000000 0.548700
0.238558 0.000000 0.543659
0.537930 0.000000 0.537403
0.837597 0.000000 0.531103
1.000000 0.000000 0.525969
0.000000 0.234555 0.531019
0.221985 0.229653 0.525836
0.522111 0.223592 0.519432
0.822772 0.217542 0.512979
1.000000 0.212793 0.507764
0.000000 0.512062 0.510050
0.203362 0.507306 0.504714
0.504640 0.501394 0.498148
0.806690 0.495500 0.491527
1.000000 0.491032 0.486259
0.000000 0.873881 0.482502
0.179396 0.869389 0.476996
0.482217 0.863748 0.470252
0.792142 0.774562 0.469539
1.000000 0.770481 0.464246
0.000000 1.000000 0.469809
0.171589 1.000000 0.464189
0.476420 1.000000 0.457322
0.782505 1.000000 0.450392
1.000000 1.000000 0.445173
0.000000 0.000000 0.832636
0.236642 0.000000 0.827552
0.536072 0.000000 0.821233
0.835822 0.000000 0.814851
1.000000 0.000000 0.809620
0.000000 0.232626 0.814734
0.220149 0.227731 0.809443
0.520375 0.221676 0.802911
0.821160 0.215633 0.796309
1.000000 0.210900 0.790936
0.000000 0.510189 0.793325
0.201608 0.505444 0.787815
0.503026 0.499541 0.781055
0.805241 0.493657 0.774220
1.000000 0.489212 0.768732
0.000000 0.788688 0.771198
0.183807 0.784157 0.765457
0.486813 0.778472 0.758456
0.790854 0.772810 0.751374
1.000000 0.768760 0.745800
0.000000 1.000000 0.751564
0.170016 1.000000 0.745640
0.475071 1.000000 0.738448
0.781403 1.000000 0.731174
1.000000 1.000000 0.725613
0.000000 0.000000 1.000000
0.234866 0.000000 1.000000
0.534359 0.000000 1.000000
0.834196 0.000000 1.000000
1.000000 0.000000 1.000000
0.000000 0.230833 1.000000
0.218455 0.225945 1.000000
0.518785 0.219897 1.000000
0.819697 0.213860 1.000000
1.000000 0.209143 1.000000
0.000000 0.508453 1.000000
0.199995 0.503718 1.000000
0.501557 0.497825 1.000000
0.803940 0.491950 1.000000
1.000000 0.487529 1.000000
0.000000 0.787034 1.000000
0.182274 0.782518 1.000000
0.485465 0.776846 1.000000
0.789716 0.771196 1.000000
1.000000 0.767178 1.000000
0.000000 1.000000 1.000000
0.168585 1.000000 1.000000
0.473867 1.000000 1.000000
0.780450 1.000000 0.992722
1.000000 1.000000 0.986831
