library/cube/Tuscan_Sun_002.cube
# CINEGRADE LAB — Premium Cinematic LUT
# Title: Tuscan Sun
# Category: Luxury Travel
# Description: Golden hour tones, rich landscapes, and vivid colors for travel content
# Mood: Wanderlust, golden, rich
# Variant: 3
# Generated: 2026-05-21T16:12:24.254311
TITLE "Tuscan Sun"
LUT_3D_SIZE 33
0.000000 0.000000 0.000000
0.000000 0.000000 0.000000
0.017933 0.000000 0.000000
0.055321 0.000000 0.000000
0.092711 0.000000 0.000000
0.130102 0.000000 0.000000
0.167494 0.000000 0.000000
0.204888 0.000000 0.000000
0.242284 0.000000 0.000000
0.279683 0.000000 0.000000
0.317083 0.000000 0.000000
0.354487 0.000000 0.000000
0.391893 0.000000 0.000000
0.429302 0.000000 0.000000
0.466715 0.000000 0.000000
0.504131 0.000000 0.000000
0.541551 0.000000 0.000000
0.578974 0.000000 0.000000
0.616402 0.000000 0.000000
0.653834 0.000000 0.000000
0.691270 0.000000 0.000000
0.728711 0.000000 0.000000
0.766157 0.000000 0.000000
0.803609 0.000000 0.000000
0.841065 0.000000 0.000000
0.878527 0.000000 0.000000
0.915995 0.000000 0.000000
0.953314 0.000000 0.000000
0.990528 0.000000 0.000000
1.000000 0.000000 0.000000
1.000000 0.000000 0.000000
1.000000 0.000000 0.000000
1.000000 0.000000 0.000000
0.000004 0.000001 0.000000
0.000006 0.000002 0.000000
0.017942 0.000000 0.000000
0.055333 0.000000 0.000000
0.092727 0.000000 0.000000
0.130122 0.000000 0.000000
0.167519 0.000000 0.000000
0.204918 0.000000 0.000000
0.242320 0.000000 0.000000
0.279725 0.000000 0.000000
0.317132 0.000000 0.000000
0.354543 0.000000 0.000000
0.391957 0.000000 0.000000
0.429374 0.000000 0.000000
0.466795 0.000000 0.000000
0.504220 0.000000 0.000000
0.541649 0.000000 0.000000
0.579083 0.000000 0.000000
0.616521 0.000000 0.000000
0.653964 0.000000 0.000000
0.691411 0.000000 0.000000
0.728864 0.000000 0.000000
0.766323 0.000000 0.000000
0.803786 0.000000 0.000000
0.841256 0.000000 0.000000
0.878732 0.000000 0.000000
0.916214 0.000000 0.000000
0.953506 0.000000 0.000000
0.990670 0.000000 0.000000
1.000000 0.000000 0.000000
1.000000 0.000000 0.000000
1.000000 0.000000 0.000000
1.000000 0.000000 0.000000
0.000000 0.033791 0.000000
0.000000 0.030582 0.000000
0.015729 0.030214 0.000000
0.053124 0.029445 0.000000
0.090522 0.028676 0.000000
0.127922 0.027907 0.000000
0.165325 0.027139 0.000000
0.202731 0.026371 0.000000
0.240139 0.025603 0.000000
0.277551 0.024835 0.000000
0.314965 0.024067 0.000000
0.352384 0.023299 0.000000
0.389806 0.022532 0.000000
0.427232 0.021765 0.000000
0.464663 0.020998 0.000000
0.502097 0.020231 0.000000
0.539537 0.019464 0.000000
0.576981 0.018697 0.000000
0.614430 0.017930 0.000000
0.651885 0.017164 0.000000
0.689344 0.016397 0.000000
0.726810 0.015631 0.000000
0.764281 0.014865 0.000000
0.801759 0.014099 0.000000
0.839242 0.013333 0.000000
0.876732 0.012567 0.000000
0.914229 0.011801 0.000000
0.951491 0.011040 0.000000
0.988597 0.010283 0.000000
1.000000 0.009527 0.000000
1.000000 0.008772 0.000000
1.000000 0.008414 0.000000
1.000000 0.008423 0.000000
0.000000 0.072030 0.000000
0.000000 0.072033 0.000000
0.013230 0.064821 0.000000
0.050630 0.064053 0.000000
0.088034 0.063285 0.000000
0.125440 0.062518 0.000000
0.162849 0.061750 0.000000
0.200261 0.060983 0.000000
0.237677 0.060216 0.000000
0.275096 0.059449 0.000000
0.312519 0.058682 0.000000
0.349946 0.057916 0.000000
0.387378 0.057149 0.000000
0.424813 0.056383 0.000000
0.462254 0.055617 0.000000
0.499699 0.054851 0.000000
0.537150 0.054085 0.000000
0.574605 0.053319 0.000000
0.612066 0.052554 0.000000
0.649533 0.051788 0.000000
0.687006 0.051023 0.000000
0.724484 0.050258 0.000000
0.761970 0.049493 0.000000
0.799461 0.048728 0.000000
0.836960 0.047963 0.000000
0.874465 0.047199 0.000000
0.911977 0.046434 0.000000
0.949204 0.045676 0.000000
0.986246 0.044921 0.000000
1.000000 0.044168 0.000000
1.000000 0.043416 0.000000
1.000000 0.043061 0.000000
1.000000 0.043071 0.000000
0.000000 0.110274 0.000000
0.000000 0.110278 0.000000
0.010738 0.099433 0.000000
0.048145 0.098666 0.000000
0.085554 0.097899 0.000000
0.122967 0.097132 0.000000
0.160383 0.096366 0.000000
0.197803 0.095600 0.000000
0.235227 0.094834 0.000000
0.272655 0.094068 0.000000
0.310087 0.093303 0.000000
0.347523 0.092537 0.000000
0.384965 0.091772 0.000000
0.422411 0.091007 0.000000
0.459862 0.090242 0.000000
0.497319 0.089477 0.000000
0.534781 0.088713 0.000000
0.572249 0.087948 0.000000
0.609722 0.087184 0.000000
0.647202 0.086420 0.000000
0.684689 0.085656 0.000000
0.722181 0.084892 0.000000
0.759681 0.084128 0.000000
0.797188 0.083364 0.000000
0.834702 0.082601 0.000000
0.872223 0.081837 0.000000
0.909752 0.081074 0.000000
0.946940 0.080318 0.000000
0.983912 0.079567 0.000000
1.000000 0.078817 0.000000
1.000000 0.078068 0.000000
1.000000 0.077716 0.000000
1.000000 0.077728 0.000000
0.000000 0.148523 0.000000
0.000000 0.148528 0.000000
0.007226 0.148164 0.000000
0.045668 0.133284 0.000000
0.083084 0.132518 0.000000
0.120504 0.131753 0.000000
0.157928 0.130988 0.000000
0.195357 0.130223 0.000000
0.232789 0.129458 0.000000
0.270226 0.128694 0.000000
0.307668 0.127929 0.000000
0.345115 0.127165 0.000000
0.382567 0.126401 0.000000
0.420024 0.125637 0.000000
0.457487 0.124874 0.000000
0.494956 0.124110 0.000000
0.532430 0.123347 0.000000
0.569911 0.122584 0.000000
0.607398 0.121821 0.000000
0.644892 0.121058 0.000000
0.682393 0.120295 0.000000
0.719901 0.119533 0.000000
0.757416 0.118771 0.000000
0.794938 0.118008 0.000000
0.832468 0.117246 0.000000
0.870006 0.116484 0.000000
0.907552 0.115722 0.000000
0.944698 0.114969 0.000000
0.981592 0.114221 0.000000
1.000000 0.113475 0.000000
1.000000 0.112730 0.000000
1.000000 0.112380 0.000000
1.000000 0.112394 0.000000
0.000000 0.186778 0.000000
0.000000 0.186785 0.000000
0.004484 0.186422 0.000000
0.043199 0.167908 0.000000
0.080623 0.167143 0.000000
0.118051 0.166379 0.000000
0.155484 0.165616 0.000000
0.192921 0.164852 0.000000
0.230364 0.164089 0.000000
0.267811 0.163325 0.000000
0.305263 0.162563 0.000000
0.342721 0.161800 0.000000
0.380184 0.161037 0.000000
0.417653 0.160275 0.000000
0.455129 0.159513 0.000000
0.492610 0.158751 0.000000
0.530098 0.157989 0.000000
0.567593 0.157227 0.000000
0.605094 0.156466 0.000000
0.642603 0.155704 0.000000
0.680119 0.154943 0.000000
0.717642 0.154182 0.000000
0.755173 0.153421 0.000000
0.792712 0.152661 0.000000
0.830259 0.151900 0.000000
0.867815 0.151140 0.000000
0.905379 0.150379 0.000000
0.942478 0.149629 0.000000
0.979288 0.148885 0.000000
1.000000 0.148142 0.000000
1.000000 0.147401 0.000000
1.000000 0.147054 0.000000
1.000000 0.147070 0.000000
0.000000 0.225040 0.000000
0.000000 0.225048 0.000000
0.001751 0.224687 0.000000
0.039179 0.223925 0.000000
0.078171 0.201775 0.000000
0.115608 0.201013 0.000000
0.153050 0.200250 0.000000
0.190498 0.199488 0.000000
0.227950 0.198726 0.000000
0.265408 0.197965 0.000000
0.302872 0.197203 0.000000
0.340341 0.196442 0.000000
0.377817 0.195681 0.000000
0.415299 0.194920 0.000000
0.452787 0.194160 0.000000
0.490282 0.193399 0.000000
0.527784 0.192639 0.000000
0.565294 0.191879 0.000000
0.602810 0.191119 0.000000
0.640334 0.190359 0.000000
0.677866 0.189600 0.000000
0.715406 0.188840 0.000000
0.752954 0.188081 0.000000
0.790510 0.187322 0.000000
0.828075 0.186563 0.000000
0.865649 0.185805 0.000000
0.903231 0.185046 0.000000
0.940280 0.184299 0.000000
0.977000 0.183559 0.000000
1.000000 0.182820 0.000000
1.000000 0.182083 0.000000
1.000000 0.181740 0.000000
1.000000 0.181758 0.000000
0.000000 0.263309 0.000000
0.000000 0.263320 0.000000
0.000000 0.262960 0.000000
0.036461 0.262200 0.000000
0.075728 0.236415 0.000000
0.113175 0.235654 0.000000
0.150627 0.234893 0.000000
0.188085 0.234133 0.000000
0.225549 0.233372 0.000000
0.263018 0.232612 0.000000
0.300494 0.231852 0.000000
0.337976 0.231093 0.000000
0.375465 0.230334 0.000000
0.412960 0.229574 0.000000
0.450462 0.228815 0.000000
0.487972 0.228057 0.000000
0.525489 0.227298 0.000000
0.563013 0.226540 0.000000
0.600546 0.225782 0.000000
0.638086 0.225024 0.000000
0.675634 0.224266 0.000000
0.713191 0.223508 0.000000
0.750757 0.222751 0.000000
0.788331 0.221994 0.000000
0.825915 0.221237 0.000000
0.863508 0.220480 0.000000
0.901110 0.219723 0.000000
0.938104 0.218979 0.000000
0.974727 0.218243 0.000000
1.000000 0.217509 0.000000
1.000000 0.216776 0.000000
1.000000 0.216436 0.000000
1.000000 0.216457 0.000000
0.000000 0.301588 0.000000
0.000000 0.301600 0.000000
0.000000 0.301243 0.000000
0.033751 0.300484 0.000000
0.071203 0.299726 0.000000
0.110751 0.270303 0.000000
0.148214 0.269544 0.000000
0.185684 0.268785 0.000000
0.223159 0.268027 0.000000
0.260641 0.267269 0.000000
0.298130 0.266511 0.000000
0.335625 0.265753 0.000000
0.373128 0.264995 0.000000
0.410637 0.264238 0.000000
0.448154 0.263481 0.000000
0.485679 0.262724 0.000000
0.523211 0.261967 0.000000
0.560752 0.261211 0.000000
0.598301 0.260454 0.000000
0.635858 0.259698 0.000000
0.673424 0.258942 0.000000
0.710999 0.258187 0.000000
0.748583 0.257431 0.000000
0.786177 0.256676 0.000000
0.823779 0.255921 0.000000
0.861392 0.255166 0.000000
0.899015 0.254411 0.000000
0.935950 0.253670 0.000000
0.972470 0.252939 0.000000
1.000000 0.252210 0.000000
1.000000 0.251482 0.000000
1.000000 0.251145 0.000000
1.000000 0.251168 0.000000
0.000000 0.339875 0.000000
0.000000 0.339889 0.000000
0.000000 0.339534 0.000000
0.031050 0.338778 0.000000
0.068513 0.338022 0.000000
0.108337 0.304962 0.000000
0.145812 0.304204 0.000000
0.183294 0.303447 0.000000
0.220782 0.302691 0.000000
0.258277 0.301934 0.000000
0.295779 0.301178 0.000000
0.333289 0.300422 0.000000
0.370806 0.299667 0.000000
0.408330 0.298911 0.000000
0.445863 0.298156 0.000000
0.483403 0.297401 0.000000
0.520952 0.296646 0.000000
0.558510 0.295892 0.000000
0.596076 0.295137 0.000000
0.633651 0.294383 0.000000
0.671235 0.293629 0.000000
0.708829 0.292876 0.000000
0.746432 0.292122 0.000000
0.784045 0.291369 0.000000
0.821668 0.290616 0.000000
0.859301 0.289863 0.000000
0.896945 0.289110 0.000000
0.933817 0.288374 0.000000
0.970227 0.287647 0.000000
1.000000 0.286923 0.000000
1.000000 0.286200 0.000000
1.000000 0.285867 0.000000
1.000000 0.285893 0.000000
0.000000 0.378172 0.000000
0.000000 0.378189 0.000000
0.000000 0.377836 0.000000
0.028356 0.377082 0.000000
0.065831 0.376328 0.000000
0.103311 0.375574 0.000000
0.143420 0.338875 0.000000
0.180915 0.338120 0.000000
0.218416 0.337365 0.000000
0.255925 0.336611 0.000000
0.293442 0.335856 0.000000
0.330966 0.335102 0.000000
0.368498 0.334349 0.000000
0.406039 0.333595 0.000000
0.443588 0.332842 0.000000
0.481145 0.332089 0.000000
0.518711 0.331337 0.000000
0.556286 0.330584 0.000000
0.593871 0.329832 0.000000
0.631464 0.329080 0.000000
0.669068 0.328328 0.000000
0.706681 0.327577 0.000000
0.744304 0.326825 0.000000
0.781937 0.326074 0.000000
0.819581 0.325323 0.000000
0.857236 0.324573 0.000000
0.894901 0.323822 0.000000
0.931707 0.323090 0.000000
0.968000 0.322368 0.000000
1.000000 0.321649 0.000000
1.000000 0.320931 0.000000
1.000000 0.320602 0.000000
1.000000 0.320631 0.000000
0.000000 0.416481 0.000000
0.000000 0.416500 0.000000
0.000000 0.416149 0.000000
0.025670 0.415397 0.000000
0.063157 0.414646 0.000000
0.100651 0.413894 0.000000
0.141038 0.373555 0.000000
0.178547 0.372802 0.000000
0.216063 0.372050 0.000000
0.253586 0.371298 0.000000
0.291118 0.370546 0.000000
0.328658 0.369794 0.000000
0.366206 0.369042 0.000000
0.403763 0.368291 0.000000
0.441329 0.367540 0.000000
0.478904 0.366789 0.000000
0.516488 0.366039 0.000000
0.554082 0.365289 0.000000
0.591685 0.364539 0.000000
0.629298 0.363789 0.000000
0.666921 0.363040 0.000000
0.704554 0.362290 0.000000
0.742198 0.361541 0.000000
0.779853 0.360792 0.000000
0.817519 0.360044 0.000000
0.855195 0.359295 0.000000
0.892883 0.358547 0.000000
0.929618 0.357819 0.000000
0.965788 0.357103 0.000000
1.000000 0.356389 0.000000
1.000000 0.355677 0.000000
1.000000 0.355352 0.000000
1.000000 0.355384 0.000000
0.000000 0.454801 0.000000
0.000000 0.454823 0.000000
0.000000 0.454475 0.000000
0.022993 0.453725 0.000000
0.060492 0.452976 0.000000
0.098000 0.452227 0.000000
0.135515 0.451478 0.000000
0.176190 0.407497 0.000000
0.213721 0.406746 0.000000
0.251260 0.405996 0.000000
0.288808 0.405247 0.000000
0.326364 0.404497 0.000000
0.363929 0.403748 0.000000
0.401503 0.402999 0.000000
0.439087 0.402250 0.000000
0.476680 0.401502 0.000000
0.514283 0.400754 0.000000
0.551896 0.400006 0.000000
0.589519 0.399258 0.000000
0.627152 0.398511 0.000000
0.664795 0.397764 0.000000
0.702450 0.397017 0.000000
0.740115 0.396270 0.000000
0.777792 0.395524 0.000000
0.815480 0.394778 0.000000
0.853180 0.394032 0.000000
0.890891 0.393286 0.000000
0.927551 0.392562 0.000000
0.963592 0.391852 0.000000
0.999551 0.391143 0.000000
1.000000 0.390437 0.000000
1.000000 0.390117 0.000000
1.000000 0.390152 0.000000
0.000000 0.493133 0.000000
0.000000 0.493158 0.000000
0.000000 0.492813 0.000000
0.020322 0.492066 0.000000
0.057836 0.491319 0.000000
0.095358 0.490573 0.000000
0.132888 0.489827 0.000000
0.173844 0.442203 0.000000
0.211390 0.441455 0.000000
0.248946 0.440707 0.000000
0.286510 0.439960 0.000000
0.324084 0.439213 0.000000
0.361667 0.438466 0.000000
0.399259 0.437720 0.000000
0.436861 0.436974 0.000000
0.474473 0.436228 0.000000
0.512096 0.435482 0.000000
0.549728 0.434737 0.000000
0.587372 0.433991 0.000000
0.625026 0.433247 0.000000
0.662691 0.432502 0.000000
0.700367 0.431757 0.000000
0.738055 0.431013 0.000000
0.775754 0.430269 0.000000
0.813466 0.429526 0.000000
0.851189 0.428782 0.000000
0.888924 0.428039 0.000000
0.925505 0.427320 0.000000
0.961410 0.426616 0.000000
0.997229 0.425913 0.000000
1.000000 0.425214 0.000000
1.000000 0.424898 0.000000
1.000000 0.424936 0.000000
0.000000 0.531479 0.000000
0.000000 0.531507 0.000000
0.000000 0.531164 0.000000
0.017660 0.530420 0.000000
0.055188 0.529676 0.000000
0.092725 0.528932 0.000000
0.130271 0.528189 0.000000
0.167825 0.527446 0.000000
0.209072 0.476177 0.000000
0.246644 0.475432 0.000000
0.284226 0.474687 0.000000
0.321818 0.473942 0.000000
0.359419 0.473198 0.000000
0.397030 0.472454 0.000000
0.434652 0.471710 0.000000
0.472284 0.470967 0.000000
0.509926 0.470224 0.000000
0.547580 0.469481 0.000000
0.585244 0.468739 0.000000
0.622920 0.467996 0.000000
0.660607 0.467254 0.000000
0.698306 0.466513 0.000000
0.736017 0.465771 0.000000
0.773740 0.465030 0.000000
0.811475 0.464289 0.000000
0.849223 0.463548 0.000000
0.886983 0.462808 0.000000
0.923481 0.462094 0.000000
0.959243 0.461395 0.000000
0.994916 0.460700 0.000000
1.000000 0.460006 0.000000
1.000000 0.459695 0.000000
1.000000 0.459736 0.000000
0.000000 0.569839 0.000000
0.000000 0.569869 0.000000
0.000000 0.569530 0.000000
0.015005 0.568788 0.000000
0.052549 0.568047 0.000000
0.090102 0.567307 0.000000
0.127664 0.566566 0.000000
0.165234 0.565827 0.000000
0.206765 0.510912 0.000000
0.244355 0.510170 0.000000
0.281955 0.509428 0.000000
0.319566 0.508686 0.000000
0.357186 0.507944 0.000000
0.394817 0.507203 0.000000
0.432459 0.506462 0.000000
0.470111 0.505721 0.000000
0.507775 0.504981 0.000000
0.545450 0.504241 0.000000
0.583136 0.503501 0.000000
0.620835 0.502761 0.000000
0.658545 0.502022 0.000000
0.696267 0.501283 0.000000
0.734002 0.500545 0.000000
0.771749 0.499806 0.000000
0.809509 0.499068 0.000000
0.847282 0.498330 0.000000
0.885068 0.497592 0.000000
0.921479 0.496883 0.000000
0.957092 0.496192 0.000000
0.992611 0.495502 0.000000
1.000000 0.494815 0.000000
1.000000 0.494510 0.000000
1.000000 0.494554 0.000000
0.000000 0.608213 0.000000
0.000000 0.608247 0.000000
0.000000 0.607911 0.000000
0.012358 0.607172 0.000000
0.049918 0.606434 0.000000
0.087488 0.605697 0.000000
0.125066 0.604959 0.000000
0.162655 0.604223 0.000000
0.200254 0.603486 0.000000
0.242079 0.544922 0.000000
0.279698 0.544183 0.000000
0.317328 0.543444 0.000000
0.354968 0.542705 0.000000
0.392619 0.541967 0.000000
0.430282 0.541228 0.000000
0.467956 0.540491 0.000000
0.505641 0.539753 0.000000
0.543339 0.539016 0.000000
0.581048 0.538279 0.000000
0.618769 0.537542 0.000000
0.656503 0.536806 0.000000
0.694250 0.536070 0.000000
0.732009 0.535334 0.000000
0.769781 0.534598 0.000000
0.807567 0.533863 0.000000
0.845366 0.533128 0.000000
0.883178 0.532394 0.000000
0.919498 0.531690 0.000000
0.954955 0.531005 0.000000
0.990315 0.530322 0.000000
1.000000 0.529643 0.000000
1.000000 0.529342 0.000000
1.000000 0.529390 0.000000
0.000000 0.646603 0.000000
0.000000 0.646641 0.000000
0.000000 0.646308 0.000000
0.009719 0.645572 0.000000
0.047296 0.644837 0.000000
0.084882 0.644103 0.000000
0.122479 0.643369 0.000000
0.160086 0.642635 0.000000
0.197704 0.641902 0.000000
0.239814 0.579690 0.000000
0.277453 0.578954 0.000000
0.315103 0.578218 0.000000
0.352764 0.577482 0.000000
0.390437 0.576746 0.000000
0.428121 0.576011 0.000000
0.465817 0.575276 0.000000
0.503525 0.574541 0.000000
0.541246 0.573807 0.000000
0.578978 0.573073 0.000000
0.616724 0.572340 0.000000
0.654482 0.571606 0.000000
0.692254 0.570873 0.000000
0.730038 0.570140 0.000000
0.767836 0.569408 0.000000
0.805648 0.568676 0.000000
0.843474 0.567944 0.000000
0.881314 0.567212 0.000000
0.917538 0.566514 0.000000
0.952833 0.565836 0.000000
0.988027 0.565161 0.000000
1.000000 0.564488 0.000000
1.000000 0.564193 0.000000
1.000000 0.564245 0.000000
0.000000 0.685010 0.000000
0.000000 0.685051 0.000000
0.000000 0.684721 0.000000
0.007086 0.683989 0.000000
0.044681 0.683258 0.000000
0.082286 0.682526 0.000000
0.119902 0.681796 0.000000
0.157528 0.681065 0.000000
0.195165 0.680336 0.000000
0.232813 0.679606 0.000000
0.275222 0.613741 0.000000
0.312893 0.613007 0.000000
0.350575 0.612275 0.000000
0.388270 0.611542 0.000000
0.425977 0.610810 0.000000
0.463696 0.610078 0.000000
0.501427 0.609347 0.000000
0.539171 0.608616 0.000000
0.576928 0.607885 0.000000
0.614698 0.607154 0.000000
0.652482 0.606424 0.000000
0.690279 0.605694 0.000000
0.728090 0.604964 0.000000
0.765915 0.604235 0.000000
0.803754 0.603506 0.000000
0.841607 0.602777 0.000000
0.879475 0.602049 0.000000
0.915600 0.601357 0.000000
0.950726 0.600686 0.000000
0.985747 0.600018 0.000000
1.000000 0.599353 0.000000
1.000000 0.599064 0.000000
1.000000 0.599120 0.000000
0.000000 0.723434 0.000000
0.000000 0.723478 0.000000
0.000000 0.723152 0.000000
0.004462 0.722424 0.000000
0.042075 0.721695 0.000000
0.079699 0.720968 0.000000
0.117334 0.720241 0.000000
0.154980 0.719514 0.000000
0.192638 0.718787 0.000000
0.230307 0.718061 0.000000
0.273003 0.648544 0.000000
0.310696 0.647814 0.000000
0.348401 0.647085 0.000000
0.386118 0.646355 0.000000
0.423848 0.645626 0.000000
0.461591 0.644898 0.000000
0.499346 0.644170 0.000000
0.537115 0.643442 0.000000
0.574897 0.642714 0.000000
0.612693 0.641987 0.000000
0.650503 0.641260 0.000000
0.688326 0.640533 0.000000
0.726164 0.639807 0.000000
0.764016 0.639081 0.000000
0.801883 0.638355 0.000000
0.839765 0.637630 0.000000
0.877661 0.636904 0.000000
0.913683 0.636219 0.000000
0.948634 0.635555 0.000000
0.983476 0.634895 0.000000
1.000000 0.634238 0.000000
1.000000 0.633954 0.000000
1.000000 0.634014 0.000000
0.000000 0.761875 0.000000
0.000000 0.761924 0.000000
0.000000 0.761601 0.000000
0.001844 0.760876 0.000000
0.039477 0.760152 0.000000
0.077121 0.759428 0.000000
0.114776 0.758704 0.000000
0.152443 0.757981 0.000000
0.190122 0.757258 0.000000
0.227812 0.756536 0.000000
0.265515 0.755814 0.000000
0.308513 0.682639 0.000000
0.346241 0.681913 0.000000
0.383982 0.681187 0.000000
0.421736 0.680461 0.000000
0.459503 0.679736 0.000000
0.497283 0.679011 0.000000
0.535077 0.678286 0.000000
0.572885 0.677562 0.000000
0.610707 0.676838 0.000000
0.648544 0.676114 0.000000
0.686395 0.675391 0.000000
0.724260 0.674668 0.000000
0.762140 0.673946 0.000000
0.800036 0.673223 0.000000
0.837947 0.672501 0.000000
0.875873 0.671780 0.000000
0.911788 0.671100 0.000000
0.946556 0.670445 0.000000
0.981213 0.669792 0.000000
1.000000 0.669143 0.000000
1.000000 0.668866 0.000000
1.000000 0.668930 0.000000
0.000000 0.800336 0.000000
0.000000 0.800388 0.000000
0.000000 0.800070 0.000000
0.000000 0.799348 0.000000
0.036887 0.798628 0.000000
0.074552 0.797907 0.000000
0.112228 0.797187 0.000000
0.149916 0.796468 0.000000
0.187617 0.795749 0.000000
0.225330 0.795031 0.000000
0.263055 0.794313 0.000000
0.306343 0.717482 0.000000
0.344095 0.716759 0.000000
0.381860 0.716036 0.000000
0.419639 0.715314 0.000000
0.457431 0.714592 0.000000
0.495238 0.713871 0.000000
0.533058 0.713150 0.000000
0.570893 0.712429 0.000000
0.608742 0.711708 0.000000
0.646606 0.710988 0.000000
0.684484 0.710269 0.000000
0.722378 0.709549 0.000000
0.760288 0.708830 0.000000
0.798213 0.708111 0.000000
0.836153 0.707393 0.000000
0.874110 0.706675 0.000000
0.909913 0.706002 0.000000
0.944493 0.705355 0.000000
0.978957 0.704711 0.000000
1.000000 0.704070 0.000000
1.000000 0.703799 0.000000
1.000000 0.703867 0.000000
0.000000 0.838816 0.000000
0.000000 0.838873 0.000000
0.000000 0.838558 0.000000
0.000000 0.837841 0.000000
0.034305 0.837124 0.000000
0.071991 0.836407 0.000000
0.109689 0.835691 0.000000
0.147400 0.834976 0.000000
0.185123 0.834261 0.000000
0.222859 0.833546 0.000000
0.260608 0.832832 0.000000
0.298371 0.832118 0.000000
0.341964 0.751624 0.000000
0.379754 0.750905 0.000000
0.417559 0.750187 0.000000
0.455377 0.749468 0.000000
0.493210 0.748751 0.000000
0.531057 0.748033 0.000000
0.568919 0.747316 0.000000
0.606796 0.746599 0.000000
0.644688 0.745883 0.000000
0.682596 0.745167 0.000000
0.720519 0.744451 0.000000
0.758458 0.743735 0.000000
0.796413 0.743020 0.000000
0.834384 0.742306 0.000000
0.872372 0.741591 0.000000
0.908060 0.740925 0.000000
0.942445 0.740286 0.000000
0.976710 0.739651 0.000000
1.000000 0.739018 0.000000
1.000000 0.738754 0.000000
1.000000 0.738827 0.000000
0.000000 0.877316 0.000000
0.000000 0.877377 0.000000
0.000000 0.877067 0.000000
0.000000 0.876353 0.000000
0.031732 0.875640 0.000000
0.069439 0.874928 0.000000
0.107160 0.874216 0.000000
0.144894 0.873505 0.000000
0.182640 0.872794 0.000000
0.220400 0.872083 0.000000
0.258174 0.871373 0.000000
0.295961 0.870664 0.000000
0.339847 0.786510 0.000000
0.377663 0.785795 0.000000
0.415494 0.785080 0.000000
0.453339 0.784365 0.000000
0.491199 0.783651 0.000000
0.529074 0.782937 0.000000
0.566964 0.782224 0.000000
0.604870 0.781511 0.000000
0.642791 0.780798 0.000000
0.680728 0.780086 0.000000
0.718681 0.779374 0.000000
0.756651 0.778662 0.000000
0.794637 0.777951 0.000000
0.832640 0.777240 0.000000
0.870659 0.776529 0.000000
0.906228 0.775870 0.000000
0.940412 0.775240 0.000000
0.974471 0.774613 0.000000
1.000000 0.773990 0.000000
1.000000 0.773732 0.000000
1.000000 0.773809 0.000000
0.000000 0.915838 0.000000
0.000000 0.915903 0.000000
0.000000 0.915597 0.000000
0.000000 0.914888 0.000000
0.029166 0.914179 0.000000
0.066896 0.913471 0.000000
0.104640 0.912763 0.000000
0.142398 0.912056 0.000000
0.180169 0.911349 0.000000
0.217953 0.910643 0.000000
0.255752 0.909937 0.000000
0.293565 0.909232 0.000000
0.331393 0.908527 0.000000
0.375587 0.820704 0.000000
0.413445 0.819993 0.000000
0.451317 0.819283 0.000000
0.489205 0.818572 0.000000
0.527109 0.817862 0.000000
0.565028 0.817153 0.000000
0.602963 0.816444 0.000000
0.640914 0.815735 0.000000
0.678882 0.815026 0.000000
0.716866 0.814318 0.000000
0.754867 0.813611 0.000000
0.792884 0.812903 0.000000
0.830919 0.812196 0.000000
0.868972 0.811490 0.000000
0.904417 0.810838 0.000000
0.938392 0.810217 0.000000
0.972240 0.809599 0.000000
1.000000 0.808984 0.000000
1.000000 0.808733 0.000000
1.000000 0.808816 0.000000
0.000000 0.954381 0.000000
0.000000 0.954451 0.000000
0.000000 0.954150 0.000000
0.000000 0.953445 0.000000
0.026607 0.952740 0.000000
0.064362 0.952036 0.000000
0.102130 0.951333 0.000000
0.139912 0.950630 0.000000
0.177708 0.949927 0.000000
0.215518 0.949225 0.000000
0.253343 0.948524 0.000000
0.291182 0.947823 0.000000
0.329037 0.947123 0.000000
0.373526 0.855636 0.000000
0.411412 0.854929 0.000000
0.449313 0.854222 0.000000
0.487229 0.853516 0.000000
0.525162 0.852810 0.000000
0.563111 0.852104 0.000000
0.601076 0.851399 0.000000
