library/cube/Tuscan_Sun_002.cube
# CINEGRADE LAB — Premium Cinematic LUT
# Title: Tuscan Sun
# Category: Luxury Travel
# Description: Golden hour tones, rich landscapes, and vivid colors for travel content
# Mood: Wanderlust, golden, rich
# Variant: 3
# Generated: 2026-05-21T16:12:24.254311
TITLE "Tuscan Sun"
LUT_3D_SIZE 9
0.000000 0.000000 0.000000
0.092711 0.000000 0.000000
0.242284 0.000000 0.000000
0.391893 0.000000 0.000000
0.541551 0.000000 0.000000
0.691270 0.000000 0.000000
0.841065 0.000000 0.000000
0.990528 0.000000 0.000000
1.000000 0.000000 0.000000
0.000000 0.110274 0.000000
0.085554 0.097899 0.000000
0.235227 0.094834 0.000000
0.384965 0.091772 0.000000
0.534781 0.088713 0.000000
0.684689 0.085656 0.000000
0.834702 0.082601 0.000000
0.983912 0.079567 0.000000
1.000000 0.077728 0.000000
0.000000 0.263309 0.000000
0.075728 0.236415 0.000000
0.225549 0.233372 0.000000
0.375465 0.230334 0.000000
0.525489 0.227298 0.000000
0.675634 0.224266 0.000000
0.825915 0.221237 0.000000
0.974727 0.218243 0.000000
1.000000 0.216457 0.000000
0.000000 0.416481 0.000000
0.063157 0.414646 0.000000
0.216063 0.372050 0.000000
0.366206 0.369042 0.000000
0.516488 0.366039 0.000000
0.666921 0.363040 0.000000
0.817519 0.360044 0.000000
0.965788 0.357103 0.000000
1.000000 0.355384 0.000000
0.000000 0.569839 0.000000
0.052549 0.568047 0.000000
0.206765 0.510912 0.000000
0.357186 0.507944 0.000000
0.507775 0.504981 0.000000
0.658545 0.502022 0.000000
0.809509 0.499068 0.000000
0.957092 0.496192 0.000000
1.000000 0.494554 0.000000
0.000000 0.723434 0.000000
0.042075 0.721695 0.000000
0.192638 0.718787 0.000000
0.348401 0.647085 0.000000
0.499346 0.644170 0.000000
0.650503 0.641260 0.000000
0.801883 0.638355 0.000000
0.948634 0.635555 0.000000
1.000000 0.634014 0.000000
0.000000 0.877316 0.000000
0.031732 0.875640 0.000000
0.182640 0.872794 0.000000
0.339847 0.786510 0.000000
0.491199 0.783651 0.000000
0.642791 0.780798 0.000000
0.794637 0.777951 0.000000
0.940412 0.775240 0.000000
1.000000 0.773809 0.000000
0.000000 1.000000 0.000000
0.021662 1.000000 0.000000
0.172992 1.000000 0.000000
0.324566 1.000000 0.000000
0.483329 0.923471 0.000000
0.635407 0.920683 0.000000
0.787768 0.917901 0.000000
0.932422 0.915291 0.000000
1.000000 0.913985 0.000000
0.000000 1.000000 0.000000
0.022849 1.000000 0.000000
0.174630 1.000000 0.000000
0.326686 1.000000 0.000000
0.479029 1.000000 0.000000
0.631673 1.000000 0.000000
0.784632 1.000000 0.000000
0.928053 1.000000 0.000000
1.000000 1.000000 0.000000
0.000000 0.000000 0.122774
0.091868 0.000000 0.120860
0.241449 0.000000 0.117772
0.391069 0.000000 0.114680
0.540740 0.000000 0.111585
0.690477 0.000000 0.108487
0.840291 0.000000 0.105384
0.989736 0.000000 0.102287
1.000000 0.000000 0.100370
0.000000 0.098952 0.115481
0.084727 0.097057 0.113558
0.234412 0.093994 0.110459
0.384166 0.090933 0.107357
0.534001 0.087875 0.104250
0.683930 0.084819 0.101139
0.833968 0.081765 0.098023
0.983145 0.078733 0.094923
1.000000 0.076898 0.093012
0.000000 0.262476 0.103515
0.073090 0.260608 0.101581
0.224754 0.232541 0.100295
0.374691 0.229504 0.097180
0.524739 0.226470 0.094060
0.674912 0.223439 0.090934
0.825222 0.220411 0.087804
0.973987 0.217421 0.084703
1.000000 0.215639 0.082802
0.000000 0.415660 0.092278
0.062359 0.413827 0.090331
0.215288 0.371231 0.090093
0.365458 0.368225 0.086963
0.515769 0.365224 0.083828
0.666234 0.362226 0.080687
0.816866 0.359232 0.077539
0.965074 0.356295 0.074440
1.000000 0.354582 0.072553
0.000000 0.569034 0.081000
0.051766 0.567245 0.079040
0.202060 0.564288 0.075899
0.356463 0.507143 0.076703
0.507086 0.504182 0.073551
0.657893 0.501225 0.070392
0.808897 0.498273 0.067226
0.956403 0.495402 0.064130
1.000000 0.493771 0.062264
0.000000 0.722648 0.069679
0.041307 0.720914 0.067703
0.191902 0.718009 0.064545
0.347702 0.646302 0.066396
0.498687 0.643390 0.063225
0.649886 0.640483 0.060047
0.801311 0.637581 0.056861
0.947971 0.634787 0.053771
1.000000 0.633253 0.051929
0.000000 0.876554 0.058310
0.030978 0.874882 0.056318
0.181925 0.872039 0.053140
0.333089 0.869204 0.049954
0.490570 0.782894 0.052848
0.642209 0.780044 0.049649
0.794106 0.777200 0.046441
0.939774 0.774496 0.043359
1.000000 0.773074 0.041546
0.000000 1.000000 0.047021
0.020931 1.000000 0.045036
0.172305 1.000000 0.041862
0.323925 1.000000 0.038681
0.482730 0.922740 0.042415
0.634860 0.919955 0.039194
0.787277 0.917177 0.035963
0.931810 0.914574 0.032891
1.000000 0.913278 0.031112
0.000000 1.000000 0.046823
0.022135 1.000000 0.044825
0.173965 1.000000 0.041635
0.326072 1.000000 0.038437
0.478470 1.000000 0.035231
0.631172 1.000000 0.032016
0.784192 1.000000 0.028793
0.927479 1.000000 0.025768
1.000000 1.000000 0.024062
0.000000 0.000000 0.264751
0.090894 0.000000 0.262834
0.240484 0.000000 0.259739
0.390114 0.000000 0.256639
0.539800 0.000000 0.253533
0.689554 0.000000 0.250421
0.839389 0.000000 0.247302
0.988813 0.000000 0.244187
1.000000 0.000000 0.242251
0.000000 0.097977 0.257436
0.083768 0.096083 0.255501
0.233467 0.093021 0.252388
0.383237 0.089961 0.249269
0.533091 0.086904 0.246143
0.683043 0.083850 0.243010
0.833107 0.080797 0.239870
0.982249 0.077768 0.236744
1.000000 0.075935 0.234806
0.000000 0.236487 0.247246
0.073971 0.234617 0.245292
0.223829 0.231577 0.242158
0.373787 0.228542 0.239018
0.523860 0.225510 0.235870
0.674060 0.222481 0.232715
0.824401 0.219454 0.229552
0.973116 0.216467 0.226417
1.000000 0.214690 0.224482
0.000000 0.414707 0.234106
0.061430 0.412877 0.232132
0.211496 0.409878 0.228975
0.364579 0.367276 0.228700
0.514920 0.364277 0.225528
0.665418 0.361281 0.222349
0.816086 0.358289 0.219161
0.964229 0.355356 0.216020
1.000000 0.353648 0.214092
0.000000 0.568097 0.222724
0.050852 0.566312 0.220727
0.201175 0.563357 0.217547
0.355610 0.506210 0.218310
0.506267 0.503251 0.215114
0.657112 0.500298 0.211908
0.808157 0.497348 0.208694
0.955585 0.494481 0.205549
1.000000 0.492857 0.203633
0.000000 0.721732 0.211270
0.040408 0.720001 0.209251
0.191037 0.717099 0.206044
0.341857 0.714205 0.202829
0.497899 0.642479 0.204623
0.649140 0.639575 0.201391
0.800612 0.636676 0.198148
0.947179 0.633887 0.195001
1.000000 0.632361 0.193101
0.000000 0.875661 0.199742
0.030094 0.873994 0.197697
0.181079 0.871154 0.194464
0.332285 0.868322 0.191220
0.489812 0.782007 0.194054
0.641499 0.779160 0.190792
0.793447 0.776319 0.187519
0.939008 0.773621 0.184372
1.000000 0.772208 0.182494
0.000000 1.000000 0.188275
0.020071 1.000000 0.186229
0.171488 1.000000 0.182991
0.323156 1.000000 0.179744
0.475088 1.000000 0.176487
0.634185 0.919098 0.180108
0.786658 0.916323 0.176804
0.931069 0.913728 0.173660
1.000000 0.912441 0.171808
0.000000 1.000000 0.187864
0.021291 1.000000 0.185797
0.173171 1.000000 0.182535
0.325330 1.000000 0.179263
0.477784 1.000000 0.175980
0.630544 1.000000 0.172687
0.783625 1.000000 0.169382
0.926776 1.000000 0.166277
1.000000 1.000000 0.164491
0.000000 0.000000 0.406727
0.089922 0.000000 0.404804
0.239520 0.000000 0.401702
0.389163 0.000000 0.398591
0.538863 0.000000 0.395473
0.688635 0.000000 0.392345
0.838491 0.000000 0.389209
0.987893 0.000000 0.386075
1.000000 0.000000 0.384118
0.000000 0.097002 0.399385
0.082811 0.095110 0.397436
0.232523 0.092049 0.394307
0.382310 0.088991 0.391169
0.532185 0.085935 0.388022
0.682160 0.082881 0.384865
0.832250 0.079830 0.381700
0.981355 0.076803 0.378547
1.000000 0.074974 0.376580
0.000000 0.235520 0.389139
0.073029 0.233652 0.387163
0.222906 0.230615 0.384006
0.372886 0.227581 0.380838
0.522984 0.224550 0.377661
0.673212 0.221523 0.374474
0.823585 0.218498 0.371277
0.972249 0.215514 0.368107
1.000000 0.213741 0.366136
0.000000 0.374171 0.378803
0.063390 0.372335 0.376799
0.213480 0.369330 0.373611
0.363704 0.366328 0.370413
0.514074 0.363331 0.367204
0.664605 0.360337 0.363984
0.815310 0.357347 0.360754
0.963388 0.354418 0.357570
1.000000 0.352716 0.355599
0.000000 0.513000 0.368374
0.049940 0.565380 0.362390
0.200292 0.562428 0.359168
0.350807 0.559482 0.355936
0.505452 0.502322 0.356647
0.656335 0.499371 0.353393
0.807422 0.496423 0.350128
0.954769 0.493562 0.346932
1.000000 0.491944 0.344965
0.000000 0.720817 0.352833
0.039511 0.719089 0.350767
0.190174 0.716191 0.347512
0.341031 0.713300 0.344245
0.497114 0.641570 0.345986
0.648399 0.638669 0.342697
0.799917 0.635772 0.339395
0.946389 0.632989 0.336189
1.000000 0.631471 0.334231
0.000000 0.874770 0.341140
0.029211 0.873107 0.339040
0.180236 0.870271 0.335749
0.331484 0.867443 0.332446
0.482969 0.864622 0.329130
0.640793 0.778277 0.331892
0.792792 0.775440 0.328552
0.938245 0.772748 0.325339
1.000000 0.771343 0.323394
0.000000 1.000000 0.329488
0.019212 1.000000 0.327380
0.170674 1.000000 0.324077
0.322389 1.000000 0.320762
0.474372 1.000000 0.317435
0.633514 0.918242 0.320975
0.786044 0.915471 0.317595
0.930332 0.912883 0.314377
1.000000 0.911606 0.312451
0.000000 1.000000 0.328860
0.020449 1.000000 0.326722
0.172378 1.000000 0.323387
0.324591 1.000000 0.320039
0.477100 1.000000 0.316678
0.629920 1.000000 0.313303
0.783063 1.000000 0.309915
0.926076 1.000000 0.306729
1.000000 1.000000 0.304862
0.000000 0.000000 0.548700
0.088951 0.000000 0.546771
0.238558 0.000000 0.543659
0.388214 0.000000 0.540536
0.537930 0.000000 0.537403
0.687720 0.000000 0.534259
0.837597 0.000000 0.531103
0.986976 0.000000 0.527948
1.000000 0.000000 0.525969
0.000000 0.096028 0.541325
0.081855 0.094137 0.539361
0.231582 0.091077 0.536214
0.381387 0.088020 0.533056
0.531282 0.084966 0.529886
0.681280 0.081913 0.526705
0.831397 0.078863 0.523511
0.980465 0.075839 0.520330
1.000000 0.074013 0.518333
0.000000 0.234555 0.531019
0.072089 0.232689 0.529020
0.221985 0.229653 0.525836
0.371988 0.226621 0.522640
0.522111 0.223592 0.519432
0.672368 0.220566 0.516212
0.822772 0.217542 0.512979
0.971384 0.214562 0.509773
1.000000 0.212793 0.507764
0.000000 0.373218 0.520595
0.062465 0.371384 0.518559
0.212579 0.368380 0.515337
0.362831 0.365381 0.512102
0.513232 0.362386 0.508854
0.663797 0.359394 0.505593
0.814538 0.356406 0.502318
0.962550 0.353481 0.499090
1.000000 0.351784 0.497073
0.000000 0.512062 0.510050
0.052980 0.510269 0.507976
0.203362 0.507306 0.504714
0.353911 0.504348 0.501438
0.504640 0.501394 0.498148
0.655562 0.498445 0.494845
0.806690 0.495500 0.491527
0.953957 0.492643 0.488279
1.000000 0.491032 0.486259
0.000000 0.651134 0.499380
0.043631 0.649391 0.497267
0.189313 0.715285 0.488946
0.340208 0.712396 0.485626
0.491312 0.709515 0.482291
0.647661 0.637764 0.483964
0.799226 0.634870 0.480602
0.945603 0.632093 0.477337
1.000000 0.630582 0.475318
0.000000 0.873881 0.482502
0.028330 0.872221 0.480346
0.179396 0.869389 0.476996
0.330686 0.866565 0.473632
0.482217 0.863748 0.470252
0.640091 0.777396 0.472948
0.792142 0.774562 0.469539
0.937484 0.771876 0.466258
1.000000 0.770481 0.464246
0.000000 1.000000 0.470660
0.018354 1.000000 0.468488
0.169862 1.000000 0.465119
0.321626 1.000000 0.461735
0.473660 1.000000 0.458336
0.625977 1.000000 0.454922
0.785434 0.914621 0.458335
0.929597 0.912040 0.455042
1.000000 0.910773 0.453040
0.000000 1.000000 0.469809
0.019609 1.000000 0.467599
0.171589 1.000000 0.464189
0.323855 1.000000 0.460763
0.476420 1.000000 0.457322
0.629299 1.000000 0.453865
0.782505 1.000000 0.450392
0.925380 1.000000 0.447123
1.000000 1.000000 0.445173
0.000000 0.000000 0.690671
0.087981 0.000000 0.688732
0.237599 0.000000 0.685609
0.387267 0.000000 0.682473
0.536999 0.000000 0.679324
0.686808 0.000000 0.676161
0.836708 0.000000 0.672984
0.986062 0.000000 0.669807
1.000000 0.000000 0.667803
0.000000 0.095054 0.683256
0.080901 0.093165 0.681276
0.230643 0.090106 0.678109
0.380465 0.087051 0.674929
0.530382 0.083997 0.671735
0.680405 0.080946 0.668527
0.830548 0.077897 0.665304
0.979577 0.074875 0.662093
1.000000 0.073053 0.660065
0.000000 0.233590 0.672884
0.071150 0.231726 0.670860
0.221066 0.228692 0.667649
0.371092 0.225661 0.664423
0.521242 0.222634 0.661182
0.671528 0.219609 0.657927
0.821964 0.216587 0.654656
0.970522 0.213610 0.651412
1.000000 0.211846 0.649364
0.000000 0.372265 0.662367
0.061541 0.370434 0.660298
0.211681 0.367432 0.657039
0.361960 0.364435 0.653766
0.512393 0.361442 0.650478
0.662992 0.358452 0.647173
0.813770 0.355466 0.643853
0.961714 0.352545 0.640579
1.000000 0.350854 0.638515
0.000000 0.511125 0.651700
0.052071 0.509335 0.649585
0.202484 0.506374 0.646279
0.353066 0.503418 0.642956
0.503831 0.500467 0.639618
0.654793 0.497520 0.636263
0.805963 0.494578 0.632892
0.953147 0.491726 0.629590
1.000000 0.490122 0.627515
0.000000 0.650216 0.640882
0.042737 0.648475 0.638720
0.193473 0.645563 0.635363
0.344407 0.642657 0.631990
0.495554 0.639756 0.628600
0.646927 0.636860 0.625193
0.798540 0.633969 0.621768
0.944819 0.631198 0.618441
1.000000 0.629695 0.616361
0.000000 0.789582 0.629909
0.033535 0.787901 0.627698
0.184643 0.785045 0.624289
0.329891 0.865688 0.614776
0.481468 0.862875 0.611330
0.633300 0.860069 0.607867
0.791496 0.773685 0.610480
0.936726 0.771006 0.607130
1.000000 0.769620 0.605048
0.000000 0.929271 0.618777
0.017499 1.000000 0.609553
0.169052 1.000000 0.606115
0.320865 1.000000 0.602660
0.472951 1.000000 0.599188
0.625323 1.000000 0.595698
0.784828 0.913772 0.599023
0.928866 0.911198 0.595653
1.000000 0.909941 0.593574
0.000000 1.000000 0.610710
0.018771 1.000000 0.608427
0.170801 1.000000 0.604940
0.323121 1.000000 0.601435
0.475744 1.000000 0.597912
0.628683 1.000000 0.594371
0.781951 1.000000 0.590812
0.924686 1.000000 0.587458
1.000000 1.000000 0.585424
0.000000 0.000000 0.832636
0.087014 0.000000 0.830688
0.236642 0.000000 0.827552
0.386323 0.000000 0.824401
0.536072 0.000000 0.821233
0.685900 0.000000 0.818050
0.835822 0.000000 0.814851
0.985151 0.000000 0.811649
1.000000 0.000000 0.809620
0.000000 0.094081 0.825178
0.079948 0.092193 0.823179
0.229706 0.089136 0.819992
0.379547 0.086081 0.816788
0.529485 0.083029 0.813568
0.679532 0.079979 0.810332
0.829703 0.076931 0.807078
0.978691 0.073912 0.803834
1.000000 0.072093 0.801773
0.000000 0.232626 0.814734
0.070213 0.230763 0.812683
0.220149 0.227731 0.809443
0.370199 0.224702 0.806185
0.520375 0.221676 0.802911
0.670691 0.218654 0.799619
0.821160 0.215633 0.796309
0.969663 0.212659 0.793025
1.000000 0.210900 0.790936
0.000000 0.371314 0.804118
0.060619 0.369484 0.802014
0.210784 0.366485 0.798718
0.361093 0.363490 0.795405
0.511557 0.360499 0.792074
0.662191 0.357511 0.788725
0.813007 0.354527 0.785357
0.960881 0.351610 0.782036
1.000000 0.349925 0.779924
0.000000 0.510189 0.793325
0.051165 0.508402 0.791167
0.201608 0.505444 0.787815
0.352224 0.502490 0.784444
0.503026 0.499541 0.781055
0.654027 0.496597 0.777647
0.805241 0.493657 0.774220
0.952340 0.490810 0.770863
1.000000 0.489212 0.768732
0.000000 0.649298 0.782353
0.041845 0.647562 0.780139
0.192617 0.644652 0.776729
0.343590 0.641749 0.773299
0.494779 0.638851 0.769850
0.646197 0.635957 0.766381
0.797857 0.633069 0.762893
0.944038 0.630304 0.759503
1.000000 0.628809 0.757359
0.000000 0.788688 0.771198
0.032659 0.787009 0.768928
0.183807 0.784157 0.765457
0.335187 0.781312 0.761966
0.486813 0.778472 0.758456
0.638698 0.775638 0.754925
0.790854 0.772810 0.751374
0.935972 0.770138 0.747953
1.000000 0.768760 0.745800
0.000000 0.928402 0.759858
0.023601 0.926791 0.757529
0.175176 0.924004 0.753996
0.327013 0.921224 0.750443
0.472246 1.000000 0.739991
0.624674 1.000000 0.736423
0.777404 1.000000 0.732836
0.928137 0.910359 0.736210
1.000000 0.909112 0.734052
0.000000 1.000000 0.751564
0.017934 1.000000 0.749205
0.170016 1.000000 0.745640
0.322391 1.000000 0.742054
0.475071 1.000000 0.738448
0.628071 1.000000 0.734822
0.781403 1.000000 0.731174
0.923995 1.000000 0.727734
1.000000 1.000000 0.725613
0.000000 0.000000 0.974597
0.086047 0.000000 0.972637
0.235686 0.000000 0.969486
0.385382 0.000000 0.966318
0.535147 0.000000 0.963132
0.684996 0.000000 0.959927
0.834941 0.000000 0.956703
0.984242 0.000000 0.953476
1.000000 0.000000 0.951420
0.000000 0.093108 0.967089
0.078998 0.091222 0.965070
0.228771 0.088166 0.961860
0.378631 0.085113 0.958631
0.528591 0.082062 0.955384
0.678664 0.079013 0.952117
0.828863 0.075966 0.948831
0.977809 0.072949 0.945554
1.000000 0.071135 0.943458
0.000000 0.231663 0.956568
0.069277 0.229802 0.954489
0.219235 0.226771 0.951218
0.369309 0.223744 0.947927
0.519512 0.220720 0.944616
0.669858 0.217699 0.941286
0.820360 0.214680 0.937935
0.968807 0.211709 0.934610
1.000000 0.209955 0.932479
0.000000 0.370363 0.945847
0.059699 0.368536 0.943707
0.209890 0.365539 0.940372
0.360228 0.362546 0.937017
0.510724 0.359556 0.933642
0.661393 0.356571 0.930246
0.812248 0.353588 0.926830
0.960051 0.350676 0.923459
1.000000 0.348996 0.921297
0.000000 0.509254 0.934922
0.050259 0.507470 0.932720
0.200734 0.504514 0.929320
0.351384 0.501563 0.925900
0.502224 0.498617 0.922458
0.653265 0.495675 0.918995
0.804522 0.492737 0.915511
0.951536 0.489895 0.912097
1.000000 0.488304 0.909909
0.000000 0.648383 0.923791
0.040955 0.646649 0.921524
0.191763 0.643743 0.918058
0.342776 0.640842 0.914570
0.494007 0.637947 0.911061
0.645471 0.635056 0.907529
0.797180 0.632171 0.903976
0.943260 0.629411 0.900521
1.000000 0.627924 0.898311
0.000000 0.787794 0.912449
0.031784 0.786120 0.910117
0.182974 0.783271 0.906583
0.334398 0.780429 0.903026
0.486072 0.777592 0.899447
0.638007 0.774762 0.895845
0.790217 0.771937 0.892220
0.935220 0.769271 0.888726
1.000000 0.767902 0.886501
0.000000 0.927534 0.900894
0.022741 0.925927 0.898496
0.174362 0.923144 0.894891
0.326249 0.920368 0.891264
0.478414 0.917599 0.887613
0.630870 0.914836 0.883939
0.783631 0.912080 0.880241
0.927411 0.909521 0.876711
1.000000 0.908284 0.874474
0.000000 1.000000 0.892369
0.017100 1.000000 0.889932
0.169234 1.000000 0.886287
0.321663 1.000000 0.882619
0.474402 1.000000 0.878928
0.627462 1.000000 0.875214
0.780858 1.000000 0.871477
0.923308 1.000000 0.867949
1.000000 1.000000 0.865741
0.000000 0.000000 1.000000
0.085215 0.000000 1.000000
0.234866 0.000000 1.000000
0.384576 0.000000 1.000000
0.534359 0.000000 1.000000
0.684228 0.000000 1.000000
0.834196 0.000000 1.000000
0.983468 0.000000 1.000000
1.000000 0.000000 1.000000
0.000000 0.092269 1.000000
0.078181 0.090384 1.000000
0.227971 0.087329 1.000000
0.377851 0.084277 1.000000
0.527833 0.081227 1.000000
0.677931 0.078180 1.000000
0.828159 0.075134 1.000000
0.977061 0.072119 1.000000
1.000000 0.070309 1.000000
0.000000 0.230833 1.000000
0.068476 0.228974 1.000000
0.218455 0.225945 1.000000
0.368554 0.222919 1.000000
0.518785 0.219897 1.000000
0.669161 0.216877 1.000000
0.819697 0.213860 1.000000
0.968086 0.210892 1.000000
1.000000 0.209143 1.000000
0.000000 0.369546 1.000000
0.058913 0.367721 1.000000
0.209131 0.364726 1.000000
0.359498 0.361735 1.000000
0.510027 0.358747 1.000000
0.660732 0.355764 1.000000
0.811625 0.352783 1.000000
0.959355 0.349875 1.000000
1.000000 0.348201 1.000000
0.000000 0.508453 1.000000
0.049488 0.506671 1.000000
0.199995 0.503718 1.000000
0.350680 0.500769 1.000000
0.501557 0.497825 1.000000
0.652639 0.494886 1.000000
0.803940 0.491950 1.000000
0.950867 0.489113 1.000000
1.000000 0.487529 1.000000
0.000000 0.647601 1.000000
0.040199 0.645870 1.000000
0.191044 0.642967 1.000000
0.342096 0.640069 1.000000
0.493371 0.637176 1.000000
0.644880 0.634289 1.000000
0.796638 0.631406 1.000000
0.942617 0.628652 1.000000
1.000000 0.627173 1.000000
0.000000 0.787034 1.000000
0.031043 0.785363 1.000000
0.182274 0.782518 1.000000
0.333744 0.779679 1.000000
0.485465 0.776846 1.000000
0.637452 0.774018 1.000000
0.789716 0.771196 1.000000
0.934602 0.768538 1.000000
1.000000 0.767178 1.000000
0.000000 0.926800 1.000000
0.022015 0.925197 1.000000
0.173683 0.922418 1.000000
0.325620 0.919645 1.000000
0.477838 0.916880 1.000000
0.630350 0.914121 1.000000
0.783170 0.911367 1.000000
0.926820 0.908816 0.998133
1.000000 0.907589 0.995824
0.000000 1.000000 1.000000
0.016399 1.000000 1.000000
0.168585 1.000000 1.000000
0.321070 1.000000 1.000000
0.473867 1.000000 1.000000
0.626989 1.000000 0.996540
0.780450 1.000000 0.992722
0.922754 1.000000 0.989116
1.000000 1.000000 0.986831
