library/cube/Urban_Decay_003.cube
# CINEGRADE LAB — Premium Cinematic LUT
# Title: Urban Decay
# Category: Moody Documentary
# Description: Desaturated, contrasty, journalistic style for documentary storytelling
# Mood: Raw, honest, gritty
# Variant: 4
# Generated: 2026-05-21T16:12:17.082991
TITLE "Urban Decay"
LUT_3D_SIZE 5
0.000000 0.000000 0.003600
0.115421 0.010175 0.013459
0.352584 0.031036 0.034132
0.590883 0.051941 0.054815
0.746549 0.065543 0.068104
0.034057 0.141131 0.036858
0.150493 0.151477 0.046797
0.389386 0.172523 0.067530
0.629071 0.193587 0.088280
0.785299 0.207304 0.101652
0.104419 0.431176 0.106602
0.221598 0.441692 0.116611
0.461683 0.462904 0.137405
0.702254 0.484101 0.158219
0.858762 0.497910 0.171669
0.175294 0.722157 0.176554
0.292892 0.732689 0.186647
0.533633 0.753912 0.207515
0.774605 0.775100 0.228406
0.931117 0.788872 0.241938
0.221496 0.911317 0.221925
0.339247 0.921739 0.232106
0.580214 0.942857 0.253053
0.821232 0.963938 0.274021
0.977587 0.977604 0.287625
0.003411 0.003453 0.115029
0.118951 0.013637 0.124816
0.356317 0.034509 0.145421
0.594783 0.055424 0.166043
0.750521 0.069032 0.179279
0.037523 0.144644 0.148071
0.154043 0.154991 0.157959
0.393077 0.176041 0.178647
0.632871 0.197108 0.199356
0.789136 0.210825 0.212696
0.107935 0.434750 0.217664
0.225164 0.445258 0.227643
0.465334 0.466463 0.248410
0.705962 0.487654 0.269204
0.862478 0.501453 0.282638
0.178824 0.725739 0.287532
0.296447 0.736256 0.297611
0.537225 0.757466 0.318468
0.778214 0.778640 0.339353
0.934714 0.792400 0.352882
0.225012 0.914862 0.332871
0.342768 0.925268 0.343050
0.583740 0.946373 0.363998
0.824750 0.967441 0.384968
0.981089 0.981097 0.398576
0.010402 0.010523 0.343159
0.126067 0.020720 0.352794
0.363638 0.041607 0.373259
0.602273 0.062535 0.393754
0.758088 0.076152 0.406878
0.044597 0.151786 0.375744
0.161204 0.162138 0.385525
0.400380 0.183194 0.406116
0.640283 0.204265 0.426741
0.796588 0.217983 0.440008
0.115077 0.441959 0.445019
0.232359 0.452460 0.454931
0.472613 0.473661 0.475640
0.713296 0.494846 0.496385
0.869821 0.508638 0.509781
0.185992 0.732959 0.514697
0.303639 0.743463 0.524741
0.544453 0.764661 0.545572
0.785458 0.785823 0.566439
0.941945 0.799571 0.579956
0.232171 0.922048 0.559952
0.349931 0.932439 0.570121
0.590908 0.953532 0.591064
0.831910 0.974589 0.612034
0.988233 0.988236 0.625645
0.017407 0.017600 0.571179
0.133192 0.027808 0.580672
0.370962 0.048710 0.601005
0.609759 0.069650 0.621383
0.765646 0.083275 0.634404
0.051680 0.158930 0.603338
0.168371 0.169286 0.613020
0.407682 0.190348 0.633522
0.647688 0.211423 0.654070
0.804030 0.225143 0.667273
0.122223 0.449167 0.672322
0.239555 0.459662 0.682174
0.479887 0.480858 0.702831
0.720622 0.502037 0.723535
0.877153 0.515821 0.736899
0.193160 0.740175 0.741833
0.310829 0.750666 0.751849
0.551676 0.771852 0.772659
0.792692 0.793002 0.793511
0.949166 0.806737 0.807021
0.239329 0.929229 0.787022
0.357092 0.939607 0.797185
0.598071 0.960687 0.818128
0.839063 0.981733 0.839101
0.995372 0.995372 0.852715
0.021964 0.022196 0.718911
0.137859 0.032413 0.728325
0.375815 0.053326 0.748586
0.614762 0.074276 0.768899
0.770713 0.087906 0.781865
0.056292 0.163583 0.750837
0.173059 0.173941 0.760468
0.412495 0.195006 0.780924
0.652594 0.216083 0.801434
0.808966 0.229802 0.814606
0.126880 0.453872 0.819673
0.244256 0.464360 0.829496
0.484658 0.485549 0.850131
0.725438 0.506721 0.870818
0.881970 0.520497 0.884171
0.197828 0.744883 0.889111
0.315514 0.755359 0.899118
0.556389 0.776533 0.919923
0.797412 0.797671 0.940720
0.953871 0.811394 0.954235
0.243980 0.933899 0.934259
0.361744 0.944263 0.944427
0.602721 0.965331 0.965382
0.843704 0.986368 0.986375
1.000000 1.000000 1.000000
