library/cube/Urban_Decay_003.cube
# CINEGRADE LAB — Premium Cinematic LUT
# Title: Urban Decay
# Category: Moody Documentary
# Description: Desaturated, contrasty, journalistic style for documentary storytelling
# Mood: Raw, honest, gritty
# Variant: 4
# Generated: 2026-05-21T16:12:17.082991
TITLE "Urban Decay"
LUT_3D_SIZE 9
0.000000 0.000000 0.003600
0.000000 0.000000 0.003366
0.115421 0.010175 0.013459
0.233850 0.020600 0.023795
0.352584 0.031036 0.034132
0.471601 0.041484 0.044472
0.590883 0.051941 0.054815
0.710410 0.062408 0.065161
0.746549 0.065543 0.068104
0.000000 0.000000 0.002849
0.000000 0.000000 0.002645
0.115929 0.010195 0.012758
0.234832 0.020638 0.023112
0.353995 0.031091 0.033470
0.473399 0.041553 0.043830
0.593025 0.052024 0.054194
0.712854 0.062503 0.064561
0.748983 0.065638 0.067532
0.034057 0.141131 0.036858
0.034094 0.141200 0.036675
0.150493 0.151477 0.046797
0.269831 0.161997 0.057162
0.389386 0.172523 0.067530
0.509138 0.183053 0.077903
0.629071 0.193587 0.088280
0.749167 0.204124 0.098661
0.785299 0.207304 0.101652
0.069147 0.285987 0.071708
0.069210 0.286103 0.071546
0.185998 0.296439 0.081680
0.305692 0.307014 0.092058
0.425561 0.317590 0.102441
0.545588 0.328166 0.112829
0.665756 0.338742 0.123221
0.786051 0.349317 0.133618
0.822164 0.352523 0.136630
0.104419 0.431176 0.106602
0.104498 0.431320 0.106462
0.221598 0.441692 0.116611
0.341572 0.452299 0.127005
0.461683 0.462904 0.137405
0.581916 0.473504 0.147809
0.702254 0.484101 0.158219
0.822685 0.494694 0.168634
0.858762 0.497910 0.171669
0.139819 0.576597 0.141548
0.139902 0.576749 0.141431
0.257244 0.587137 0.151598
0.377429 0.597758 0.162010
0.497717 0.608371 0.172428
0.618092 0.618979 0.182851
0.738542 0.629579 0.193280
0.859053 0.640172 0.203715
0.895080 0.643382 0.206771
0.175294 0.722157 0.176554
0.175373 0.722302 0.176461
0.292892 0.732689 0.186647
0.413227 0.743305 0.197078
0.533633 0.753912 0.207515
0.654096 0.764511 0.217958
0.774605 0.775100 0.228406
0.895150 0.785680 0.238861
0.931117 0.788872 0.241938
0.210801 0.867776 0.211625
0.210870 0.867901 0.211555
0.328509 0.878271 0.221761
0.448937 0.888870 0.232212
0.569409 0.899458 0.242669
0.689914 0.910035 0.253131
0.810441 0.920603 0.263599
0.930981 0.931160 0.274073
0.966886 0.934328 0.277170
0.221496 0.911317 0.221925
0.221543 0.911403 0.221879
0.339247 0.921739 0.232106
0.459720 0.932303 0.242577
0.580214 0.942857 0.253053
0.700720 0.953402 0.263535
0.821232 0.963938 0.274021
0.941742 0.974466 0.284512
0.977587 0.977604 0.287625
0.000000 0.000000 0.003519
0.000000 0.000000 0.003288
0.115476 0.010177 0.013384
0.233956 0.020604 0.023721
0.352737 0.031042 0.034061
0.471796 0.041491 0.044403
0.591116 0.051950 0.054748
0.710676 0.062419 0.065095
0.746815 0.065554 0.068042
0.000000 0.000000 0.002778
0.000000 0.000000 0.002578
0.115976 0.010197 0.012693
0.234923 0.020641 0.023049
0.354126 0.031096 0.033409
0.473565 0.041560 0.043771
0.593221 0.052032 0.054137
0.713078 0.062512 0.064506
0.749205 0.065646 0.067480
0.034070 0.141155 0.036795
0.034107 0.141222 0.036614
0.150544 0.151500 0.046738
0.269919 0.162020 0.057106
0.389505 0.172546 0.067476
0.509286 0.183076 0.077851
0.629243 0.193610 0.088230
0.749359 0.204148 0.098613
0.785487 0.207326 0.101607
0.069169 0.286027 0.071652
0.069231 0.286141 0.071492
0.186051 0.296476 0.081629
0.305773 0.307050 0.092010
0.425667 0.317625 0.102395
0.545715 0.328200 0.112784
0.665902 0.338774 0.123179
0.786210 0.349348 0.133579
0.822319 0.352553 0.136594
0.104447 0.431226 0.106553
0.104523 0.431367 0.106416
0.221648 0.441736 0.116568
0.341645 0.452342 0.126964
0.461775 0.462944 0.137366
0.582022 0.473543 0.147773
0.702373 0.484138 0.158185
0.822812 0.494728 0.168603
0.858883 0.497941 0.171640
0.139848 0.576650 0.141507
0.139929 0.576799 0.141393
0.257289 0.587184 0.151563
0.377491 0.597801 0.161977
0.497792 0.608412 0.172397
0.618177 0.619016 0.182822
0.738633 0.629614 0.193254
0.859148 0.640204 0.203691
0.895169 0.643410 0.206750
0.175322 0.722208 0.176522
0.175399 0.722349 0.176431
0.292931 0.732732 0.186619
0.413276 0.743344 0.197053
0.533689 0.753948 0.207492
0.654158 0.764543 0.217937
0.774670 0.775129 0.228388
0.895215 0.785705 0.238845
0.931175 0.788894 0.241925
0.210825 0.867820 0.211601
0.210891 0.867940 0.211533
0.328538 0.878307 0.221741
0.448973 0.888901 0.232194
0.569449 0.899485 0.242653
0.689954 0.910059 0.253118
0.810481 0.920623 0.263588
0.931019 0.931177 0.274063
0.966917 0.934341 0.277162
0.221513 0.911348 0.221909
0.221557 0.911429 0.221865
0.339266 0.921761 0.232094
0.459741 0.932322 0.242567
0.580235 0.942873 0.253045
0.700740 0.953415 0.263528
0.821249 0.963947 0.274016
0.941756 0.974472 0.284509
0.977596 0.977608 0.287623
0.003411 0.003453 0.115029
0.003416 0.003455 0.114759
0.118951 0.013637 0.124816
0.237486 0.024067 0.135117
0.356317 0.034509 0.145421
0.475422 0.044961 0.155730
0.594783 0.055424 0.166043
0.714380 0.065895 0.176361
0.750521 0.069032 0.179279
0.003427 0.003460 0.114164
0.003431 0.003462 0.113930
0.119458 0.013662 0.124012
0.238452 0.024110 0.134337
0.357697 0.034568 0.144667
0.477174 0.045034 0.155001
0.596864 0.055509 0.165341
0.716750 0.065992 0.175685
0.752878 0.069127 0.178636
0.037523 0.144644 0.148071
0.037563 0.144712 0.147862
0.154043 0.154991 0.157959
0.273456 0.165514 0.168300
0.393077 0.176041 0.178647
0.512888 0.186573 0.188999
0.632871 0.197108 0.199356
0.753009 0.207646 0.209720
0.789136 0.210825 0.212696
0.072643 0.289538 0.182837
0.072707 0.289651 0.182654
0.189560 0.299986 0.192769
0.309314 0.310561 0.203129
0.429235 0.321135 0.213494
0.549306 0.331710 0.223866
0.669512 0.342284 0.234244
0.789836 0.352858 0.244628
0.825942 0.356061 0.247630
0.107935 0.434750 0.217664
0.108013 0.434889 0.217509
0.225164 0.445258 0.227643
0.345185 0.455862 0.238024
0.465334 0.466463 0.248410
0.585599 0.477060 0.258804
0.705962 0.487654 0.269204
0.826411 0.498242 0.279610
0.862478 0.501453 0.282638
0.143345 0.580181 0.252561
0.143427 0.580326 0.252433
0.260807 0.590709 0.262589
0.381026 0.601324 0.272992
0.501340 0.611933 0.283401
0.621736 0.622535 0.293817
0.742200 0.633130 0.304240
0.862720 0.643718 0.314669
0.898735 0.646922 0.317722
0.178824 0.725739 0.287532
0.178901 0.725876 0.287431
0.296447 0.736256 0.297611
0.416803 0.746865 0.308036
0.537225 0.757466 0.318468
0.657699 0.768058 0.328907
0.778214 0.778640 0.339353
0.898760 0.789214 0.349806
0.934714 0.792400 0.352882
0.214329 0.871346 0.322581
0.214393 0.871462 0.322507
0.332049 0.881825 0.332709
0.452490 0.892416 0.343158
0.572969 0.902996 0.353613
0.693477 0.913567 0.364074
0.814002 0.924127 0.374542
0.934538 0.934678 0.385016
0.970430 0.937838 0.388114
0.225012 0.914862 0.332871
0.225055 0.914939 0.332824
0.342768 0.925268 0.343050
0.463245 0.935825 0.353521
0.583740 0.946373 0.363998
0.704244 0.956911 0.374480
0.824750 0.967441 0.384968
0.945254 0.977964 0.395460
0.981089 0.981097 0.398576
0.006905 0.006987 0.229108
0.006915 0.006992 0.228799
0.122508 0.017177 0.238818
0.241097 0.027612 0.249082
0.359977 0.038058 0.259352
0.479127 0.048513 0.269627
0.598529 0.058979 0.279909
0.718161 0.069453 0.290197
0.754306 0.072591 0.293088
0.006937 0.007001 0.228119
0.006945 0.007005 0.227852
0.123021 0.017209 0.237901
0.242061 0.027661 0.248196
0.361348 0.038121 0.258496
0.480862 0.048591 0.268803
0.600586 0.059068 0.279116
0.720500 0.069553 0.289436
0.756630 0.072690 0.292365
0.041059 0.148215 0.261918
0.041102 0.148283 0.261681
0.157623 0.158564 0.271751
0.277074 0.169088 0.282067
0.396729 0.179617 0.292389
0.516569 0.190150 0.302719
0.636577 0.200686 0.313056
0.756738 0.211225 0.323400
0.792863 0.214404 0.326358
0.076199 0.293129 0.296594
0.076265 0.293242 0.296389
0.193152 0.303577 0.306481
0.312935 0.314152 0.316821
0.432882 0.324727 0.327167
0.552976 0.335301 0.337522
0.673200 0.345875 0.347883
0.793540 0.356448 0.358253
0.829642 0.359650 0.361241
0.111505 0.438355 0.331348
0.111584 0.438491 0.331175
0.228762 0.448859 0.341293
0.348805 0.459462 0.351658
0.468974 0.470062 0.362030
0.589254 0.480658 0.372410
0.709630 0.491250 0.382798
0.830089 0.501837 0.393194
0.866151 0.505046 0.396213
0.146925 0.583791 0.366189
0.147006 0.583934 0.366047
0.264406 0.594315 0.376191
0.384641 0.604928 0.386582
0.504969 0.615534 0.396981
0.625375 0.626134 0.407388
0.745846 0.636726 0.417803
0.866371 0.647312 0.428226
0.902380 0.650513 0.431273
0.182408 0.729349 0.401118
0.182483 0.729483 0.401008
0.300043 0.739860 0.411179
0.420411 0.750466 0.421597
0.540840 0.761064 0.432023
0.661319 0.771653 0.442456
0.781837 0.782232 0.452898
0.902383 0.792803 0.463346
0.938331 0.795986 0.466420
0.217913 0.874951 0.436139
0.217976 0.875063 0.436059
0.335640 0.885423 0.446257
0.456087 0.896010 0.456701
0.576569 0.906587 0.467152
0.697078 0.917154 0.477611
0.817603 0.927711 0.488077
0.938137 0.938259 0.498550
0.974022 0.941416 0.501648
0.228592 0.918455 0.446413
0.228633 0.918529 0.446363
0.346350 0.928854 0.456586
0.466830 0.939408 0.467056
0.587325 0.949953 0.477531
0.707827 0.960488 0.488013
0.828331 0.971016 0.498501
0.948831 0.981535 0.508994
0.984662 0.984667 0.512110
0.010402 0.010523 0.343159
0.010417 0.010530 0.342813
0.126067 0.020720 0.352794
0.244710 0.031158 0.363023
0.363638 0.041607 0.373259
0.482833 0.052067 0.383502
0.602273 0.062535 0.393754
0.721941 0.073012 0.404014
0.758088 0.076152 0.406878
0.010449 0.010544 0.342050
0.010462 0.010550 0.341751
0.126587 0.020757 0.351769
0.245672 0.031212 0.362033
0.365000 0.041676 0.372306
0.484551 0.052148 0.382586
0.604306 0.062628 0.392874
0.724249 0.073115 0.403171
0.760379 0.076253 0.406078
0.044597 0.151786 0.375744
0.044643 0.151855 0.375481
0.161204 0.162138 0.385525
0.280693 0.172663 0.395816
0.400380 0.183194 0.406116
0.520249 0.193728 0.416424
0.640283 0.204265 0.426741
0.760464 0.214805 0.437066
0.796588 0.217983 0.440008
0.079756 0.296721 0.410334
0.079824 0.296832 0.410107
0.196744 0.307168 0.420179
0.316557 0.317743 0.430499
0.436529 0.328318 0.440828
0.556645 0.338892 0.451165
0.676887 0.349466 0.461512
0.797242 0.360038 0.471867
0.833341 0.363239 0.474843
0.115077 0.441959 0.445019
0.115156 0.442093 0.444829
0.232359 0.452460 0.454931
0.352425 0.463063 0.465281
0.472613 0.473661 0.475640
0.592908 0.484256 0.486008
0.713296 0.494846 0.496385
0.833764 0.505432 0.506771
0.869821 0.508638 0.509781
0.150505 0.587401 0.479806
0.150585 0.587541 0.479652
0.268004 0.597920 0.489785
0.388256 0.608530 0.500165
0.508596 0.619135 0.510555
0.629012 0.629732 0.520953
0.749490 0.640322 0.531361
0.870018 0.650905 0.541778
0.906021 0.654103 0.544820
0.185992 0.732959 0.514697
0.186066 0.733089 0.514579
0.303639 0.743463 0.524741
0.424017 0.754066 0.535153
0.544453 0.764661 0.545572
0.664938 0.775247 0.556001
0.785458 0.785823 0.566439
0.906004 0.796391 0.576884
0.941945 0.799571 0.579956
0.221497 0.878556 0.549692
0.221558 0.878664 0.549607
0.339230 0.889019 0.559800
0.459682 0.899603 0.570240
0.580168 0.910177 0.580689
0.700678 0.920740 0.591146
0.821202 0.931294 0.601611
0.941732 0.941839 0.612083
0.977612 0.944993 0.615180
0.232171 0.922048 0.559952
0.232211 0.922118 0.559899
0.349931 0.932439 0.570121
0.470413 0.942990 0.580589
0.590908 0.953532 0.591064
0.711409 0.964064 0.601546
0.831910 0.974589 0.612034
0.952406 0.985106 0.622528
0.988233 0.988236 0.625645
0.013903 0.014061 0.457183
0.013922 0.014070 0.456800
0.129628 0.024263 0.466745
0.248323 0.034706 0.476940
0.367300 0.045158 0.487143
0.486537 0.055621 0.497356
0.606017 0.066092 0.507578
0.725719 0.076572 0.517810
0.761868 0.079713 0.520650
0.013965 0.014089 0.455958
0.013982 0.014096 0.455628
0.130154 0.024307 0.465615
0.249284 0.034765 0.475851
0.368652 0.045231 0.486096
0.488238 0.055706 0.496351
0.608025 0.066189 0.506615
0.727995 0.076678 0.516889
0.764126 0.079818 0.519776
0.048137 0.155358 0.489550
0.048186 0.155427 0.489262
0.164787 0.165712 0.499281
0.284312 0.176239 0.509549
0.404031 0.186771 0.519827
0.523928 0.197306 0.530114
0.643986 0.207844 0.540412
0.764188 0.218385 0.550720
0.800310 0.221563 0.553646
0.083315 0.300313 0.524057
0.083385 0.300423 0.523810
0.200336 0.310760 0.533862
0.320178 0.321334 0.544164
0.440176 0.331909 0.554475
0.560312 0.342483 0.564797
0.680572 0.353057 0.575129
0.800940 0.363628 0.585472
0.837036 0.366828 0.588437
0.118649 0.445563 0.558677
0.118729 0.445695 0.558471
0.235957 0.456061 0.568558
0.356044 0.466662 0.578894
0.476250 0.477260 0.589240
0.596560 0.487853 0.599597
0.716960 0.498442 0.609964
0.837436 0.509026 0.620341
0.873488 0.512230 0.623343
0.154085 0.591010 0.593414
0.154166 0.591147 0.593248
0.271603 0.601524 0.603370
0.391870 0.612132 0.613740
0.512222 0.622734 0.624121
0.632647 0.633329 0.634513
0.753131 0.643917 0.644914
0.873663 0.654498 0.655325
0.909660 0.657693 0.658362
0.189576 0.736568 0.628268
0.189649 0.736694 0.628142
0.307234 0.747065 0.638298
0.427622 0.757665 0.648703
0.548066 0.768257 0.659118
0.668554 0.778839 0.669542
0.789076 0.789413 0.679976
0.909622 0.799978 0.690420
0.945557 0.803154 0.693489
0.225081 0.882159 0.663240
0.225141 0.882263 0.663151
0.342819 0.892615 0.673340
0.463277 0.903195 0.683777
0.583765 0.913765 0.694224
0.704275 0.924326 0.704679
0.824798 0.934876 0.715143
0.945326 0.945418 0.725615
0.981200 0.948569 0.728712
0.235750 0.925639 0.673488
0.235788 0.925705 0.673433
0.353512 0.936024 0.683654
0.473995 0.946571 0.694121
0.594490 0.957110 0.704596
0.714989 0.967639 0.715079
0.835488 0.978161 0.725568
0.955980 0.988677 0.736062
0.991803 0.991804 0.739180
0.017407 0.017600 0.571179
0.017431 0.017611 0.570761
0.133192 0.027808 0.580672
0.251939 0.038254 0.590833
0.370962 0.048710 0.601005
0.490242 0.059176 0.611188
0.609759 0.069650 0.621383
0.729495 0.080133 0.631588
0.765646 0.083275 0.634404
0.017483 0.017634 0.569842
0.017504 0.017643 0.569483
0.133724 0.027857 0.579441
0.252897 0.038318 0.589649
0.372304 0.048788 0.599868
0.491925 0.059266 0.610098
0.611743 0.069750 0.620339
0.731740 0.080242 0.630592
0.767870 0.083382 0.633460
0.051680 0.158930 0.603338
0.051731 0.159000 0.603025
0.168371 0.169286 0.613020
0.287931 0.179815 0.623265
0.407682 0.190348 0.633522
0.527606 0.200884 0.643790
0.647688 0.211423 0.654070
0.767909 0.221965 0.664361
0.804030 0.225143 0.667273
0.086876 0.303905 0.637765
0.086947 0.304014 0.637498
0.203930 0.314351 0.647532
0.323800 0.324926 0.657816
0.443821 0.335500 0.668111
0.563978 0.346074 0.678418
0.684255 0.356647 0.688737
0.804637 0.367218 0.699067
0.840728 0.370417 0.702021
0.122223 0.449167 0.672322
0.122303 0.449297 0.672101
0.239555 0.459662 0.682174
0.359663 0.470262 0.692496
0.479887 0.480858 0.702831
0.600211 0.491449 0.713177
0.720622 0.502037 0.723535
0.841106 0.512619 0.733904
0.877153 0.515821 0.736899
0.157666 0.594619 0.707012
0.157746 0.594753 0.706835
0.275201 0.605127 0.716947
0.395483 0.615734 0.727308
0.515847 0.626333 0.737682
0.636280 0.636926 0.748066
0.756770 0.647511 0.758461
0.877305 0.658089 0.768868
0.913296 0.661282 0.771901
0.193160 0.740175 0.741833
0.193232 0.740298 0.741700
0.310829 0.750666 0.751849
0.431226 0.761263 0.762249
0.551676 0.771852 0.772659
0.672169 0.782431 0.783080
0.792692 0.793002 0.793511
0.913237 0.803564 0.803953
0.949166 0.806737 0.807021
0.228664 0.885761 0.776784
0.228723 0.885861 0.776691
0.346408 0.896209 0.786876
0.466870 0.906786 0.797311
0.587361 0.917353 0.807756
0.707871 0.927910 0.818211
0.828393 0.938457 0.828674
0.948917 0.948995 0.839146
0.984785 0.952144 0.842244
0.239329 0.929229 0.787022
0.239365 0.929292 0.786966
0.357092 0.939607 0.797185
0.477576 0.950151 0.807652
0.598071 0.960687 0.818128
0.718568 0.971214 0.828611
0.839063 0.981733 0.839101
0.959552 0.992246 0.849596
0.995372 0.995372 0.852715
0.020914 0.021141 0.685150
0.020942 0.021153 0.684697
0.136757 0.031355 0.694575
0.255555 0.041804 0.704704
0.374624 0.052263 0.714846
0.493946 0.062732 0.725000
0.613500 0.073209 0.735168
0.733269 0.083695 0.745348
0.769422 0.086838 0.748140
0.021005 0.021181 0.683705
0.021029 0.021191 0.683316
0.137295 0.031409 0.693246
0.256511 0.041873 0.703428
0.375956 0.052345 0.713622
0.495611 0.062825 0.723828
0.615459 0.073313 0.734048
0.735482 0.083806 0.744280
0.771612 0.086948 0.747129
0.055225 0.162504 0.717106
0.055278 0.162573 0.716770
0.171956 0.172862 0.726742
0.291551 0.183392 0.736966
0.411333 0.193926 0.747203
0.531284 0.204463 0.757453
0.651387 0.215003 0.767716
0.771628 0.225545 0.777991
0.807746 0.228723 0.780888
0.090439 0.307497 0.751458
0.090511 0.307605 0.751172
0.207524 0.317942 0.761188
0.327421 0.328517 0.771455
0.447466 0.339091 0.781735
0.567643 0.349665 0.792029
0.687936 0.360237 0.802335
0.808330 0.370808 0.812654
0.844418 0.374005 0.815598
0.125797 0.452770 0.785955
0.125878 0.452898 0.785720
0.243153 0.463262 0.795779
0.363282 0.473861 0.806090
0.483522 0.484455 0.816414
0.603860 0.495045 0.826750
0.724281 0.505631 0.837099
0.844772 0.516212 0.847460
0.880814 0.519412 0.850449
0.161248 0.598227 0.820600
0.161327 0.598358 0.820414
0.278799 0.608730 0.830516
0.399095 0.619334 0.840870
0.519470 0.629931 0.851236
0.639911 0.640521 0.861614
0.760407 0.651104 0.872004
0.880945 0.661680 0.882407
0.916930 0.664870 0.885437
0.196745 0.743782 0.855391
0.196816 0.743901 0.855252
0.314423 0.754266 0.865395
0.434829 0.764860 0.875790
0.555285 0.775446 0.886197
0.675781 0.786022 0.896615
0.796306 0.796590 0.907044
0.916850 0.807149 0.917483
0.952773 0.810319 0.920551
0.232248 0.889361 0.890324
0.232304 0.889457 0.890227
0.349996 0.899802 0.900410
0.470462 0.910376 0.910843
0.590955 0.920939 0.921287
0.711465 0.931493 0.931727
0.831985 0.942037 0.942183
0.952507 0.952572 0.952656
0.988368 0.955718 0.955763
0.242907 0.932818 0.900553
0.242942 0.932877 0.900496
0.360671 0.943189 0.910715
0.481156 0.953730 0.921183
0.601650 0.964262 0.931654
0.722145 0.974787 0.942137
0.842638 0.985304 0.952630
0.963123 0.995815 0.963130
0.998939 0.998940 0.966251
0.021964 0.022196 0.718911
0.021994 0.022209 0.718453
0.137859 0.032413 0.728325
0.256703 0.042865 0.738449
0.375815 0.053326 0.748586
0.495174 0.063797 0.758736
0.614762 0.074276 0.768899
0.734560 0.084762 0.779076
0.770713 0.087906 0.781865
0.022058 0.022238 0.717450
0.022083 0.022249 0.717058
0.138392 0.032468 0.726983
0.257647 0.042934 0.737161
0.377128 0.053408 0.747352
0.496814 0.063890 0.757555
0.616689 0.074378 0.767772
0.736734 0.084873 0.778002
0.772863 0.088014 0.780850
0.056292 0.163583 0.750837
0.056346 0.163652 0.750499
0.173059 0.173941 0.760468
0.292685 0.184471 0.770689
0.412495 0.195006 0.780924
0.532470 0.205543 0.791173
0.652594 0.216083 0.801434
0.772851 0.226625 0.811709
0.808966 0.229802 0.814606
0.091516 0.308591 0.785179
0.091587 0.308698 0.784893
0.208628 0.319034 0.794907
0.328550 0.329608 0.805173
0.448616 0.340181 0.815453
0.568810 0.350754 0.825746
0.689117 0.361325 0.836052
0.809523 0.371894 0.846371
0.845606 0.375089 0.849316
0.126880 0.453872 0.819673
0.126959 0.453998 0.819438
0.244256 0.464360 0.829496
0.364403 0.474956 0.839807
0.484658 0.485549 0.850131
0.605008 0.496137 0.860468
0.725438 0.506721 0.870818
0.845935 0.517299 0.881181
0.881970 0.520497 0.884171
0.162332 0.599331 0.854317
0.162410 0.599459 0.854132
0.279897 0.609828 0.864235
0.400205 0.620429 0.874589
0.520590 0.631024 0.884956
0.641038 0.641611 0.895336
0.761538 0.652191 0.905728
0.882077 0.662764 0.916132
0.918056 0.665951 0.919165
0.197828 0.744883 0.889111
0.197896 0.744998 0.888973
0.315514 0.755359 0.899118
0.435927 0.765951 0.909515
0.556389 0.776533 0.919923
0.676887 0.787106 0.930317
0.797412 0.797671 0.940720
0.917955 0.808227 0.951151
0.953871 0.811394 0.954235
0.233327 0.890455 0.924049
0.233381 0.890547 0.923954
0.351079 0.900888 0.934100
0.471548 0.911458 0.944515
0.592042 0.922018 0.954955
0.712552 0.932568 0.965415
0.833069 0.943109 0.975893
0.953587 0.953642 0.986382
0.989443 0.956785 0.989499
0.243980 0.933899 0.934259
0.244012 0.933955 0.934212
0.361744 0.944263 0.944427
0.482229 0.954801 0.954897
0.602721 0.965331 0.965382
0.723215 0.975853 0.975875
0.843704 0.986368 0.986375
0.964186 0.996877 0.996878
1.000000 1.000000 1.000000
