library/cube/Urban_Decay_003.cube
# CINEGRADE LAB — Premium Cinematic LUT
# Title: Urban Decay
# Category: Moody Documentary
# Description: Desaturated, contrasty, journalistic style for documentary storytelling
# Mood: Raw, honest, gritty
# Variant: 4
# Generated: 2026-05-21T16:12:17.082991
TITLE "Urban Decay"
LUT_3D_SIZE 33
0.000000 0.000000 0.003600
0.000000 0.000000 0.003541
0.000000 0.000000 0.003482
0.000000 0.000000 0.003423
0.000000 0.000000 0.003366
0.026812 0.002365 0.005709
0.056328 0.004968 0.008292
0.085864 0.007571 0.010876
0.115421 0.010175 0.013459
0.144999 0.012780 0.016043
0.174597 0.015386 0.018627
0.204214 0.017993 0.021211
0.233850 0.020600 0.023795
0.263506 0.023208 0.026379
0.293180 0.025817 0.028963
0.322873 0.028426 0.031548
0.352584 0.031036 0.034132
0.382312 0.033647 0.036717
0.412058 0.036259 0.039302
0.441822 0.038871 0.041887
0.471601 0.041484 0.044472
0.501398 0.044097 0.047058
0.531211 0.046711 0.049643
0.561039 0.049326 0.052229
0.590883 0.051941 0.054815
0.620743 0.054557 0.057401
0.650617 0.057174 0.059988
0.680506 0.059791 0.062574
0.710410 0.062408 0.065161
0.740328 0.065027 0.067748
0.746149 0.065528 0.068198
0.746350 0.065536 0.068151
0.746549 0.065543 0.068104
0.000000 0.000000 0.003402
0.000000 0.000000 0.003345
0.000000 0.000000 0.003288
0.000000 0.000000 0.003231
0.000000 0.000000 0.003176
0.026844 0.002366 0.005520
0.056394 0.004970 0.008105
0.085965 0.007575 0.010689
0.115555 0.010181 0.013274
0.145166 0.012787 0.015859
0.174795 0.015394 0.018444
0.204443 0.018001 0.021029
0.234110 0.020610 0.023614
0.263795 0.023219 0.026200
0.293499 0.025829 0.028785
0.323219 0.028440 0.031371
0.352958 0.031051 0.033957
0.382713 0.033663 0.036543
0.412485 0.036275 0.039129
0.442274 0.038888 0.041715
0.472078 0.041502 0.044302
0.501899 0.044117 0.046889
0.531735 0.046732 0.049475
0.561586 0.049347 0.052063
0.591453 0.051963 0.054650
0.621334 0.054580 0.057237
0.651229 0.057197 0.059825
0.681138 0.059815 0.062413
0.711061 0.062434 0.065001
0.740998 0.065053 0.067589
0.746816 0.065554 0.068041
0.747009 0.065561 0.067996
0.747199 0.065569 0.067951
0.000000 0.000000 0.003211
0.000000 0.000000 0.003156
0.000000 0.000000 0.003101
0.000000 0.000000 0.003046
0.000000 0.000000 0.002992
0.026875 0.002368 0.005338
0.056459 0.004973 0.007924
0.086062 0.007579 0.010509
0.115685 0.010186 0.013095
0.145326 0.012793 0.015681
0.174986 0.015401 0.018268
0.204664 0.018010 0.020854
0.234360 0.020620 0.023440
0.264074 0.023230 0.026027
0.293805 0.025841 0.028614
0.323553 0.028452 0.031201
0.353318 0.031065 0.033788
0.383099 0.033678 0.036375
0.412896 0.036291 0.038963
0.442709 0.038905 0.041550
0.472537 0.041520 0.044138
0.502381 0.044135 0.046726
0.532239 0.046751 0.049314
0.562112 0.049368 0.051903
0.591999 0.051985 0.054491
0.621900 0.054602 0.057080
0.651815 0.057220 0.059669
0.681744 0.059839 0.062258
0.711685 0.062458 0.064848
0.741640 0.065077 0.067437
0.747454 0.065578 0.067891
0.747639 0.065586 0.067848
0.747821 0.065593 0.067805
0.000000 0.000000 0.003027
0.000000 0.000000 0.002973
0.000000 0.000000 0.002920
0.000000 0.000000 0.002867
0.000000 0.000000 0.002816
0.026905 0.002369 0.005162
0.056521 0.004975 0.007749
0.086156 0.007582 0.010336
0.115809 0.010190 0.012923
0.145481 0.012799 0.015511
0.175170 0.015408 0.018098
0.204877 0.018018 0.020686
0.234601 0.020629 0.023273
0.264342 0.023240 0.025861
0.294099 0.025852 0.028449
0.323873 0.028465 0.031037
0.353663 0.031078 0.033626
0.383469 0.033692 0.036214
0.413290 0.036306 0.038803
0.443126 0.038921 0.041392
0.472977 0.041537 0.043981
0.502843 0.044153 0.046570
0.532722 0.046770 0.049160
0.562616 0.049387 0.051749
0.592523 0.052005 0.054339
0.622444 0.054623 0.056929
0.652377 0.057242 0.059520
0.682324 0.059861 0.062110
0.712283 0.062481 0.064701
0.742254 0.065101 0.067292
0.748065 0.065602 0.067748
0.748242 0.065609 0.067706
0.748416 0.065616 0.067666
0.000000 0.000000 0.002849
0.000000 0.000000 0.002797
0.000000 0.000000 0.002746
0.000000 0.000000 0.002695
0.000000 0.000000 0.002645
0.026934 0.002370 0.004993
0.056581 0.004978 0.007581
0.086246 0.007586 0.010169
0.115929 0.010195 0.012758
0.145629 0.012805 0.015346
0.175347 0.015415 0.017935
0.205081 0.018026 0.020524
0.234832 0.020638 0.023112
0.264599 0.023250 0.025702
0.294383 0.025863 0.028291
0.324181 0.028477 0.030880
0.353995 0.031091 0.033470
0.383825 0.033706 0.036060
0.413668 0.036321 0.038650
0.443527 0.038937 0.041240
0.473399 0.041553 0.043830
0.503286 0.044170 0.046421
0.533186 0.046788 0.049012
0.563099 0.049406 0.051603
0.593025 0.052024 0.054194
0.622964 0.054643 0.056785
0.652915 0.057263 0.059377
0.682879 0.059883 0.061969
0.712854 0.062503 0.064561
0.742841 0.065124 0.067153
0.748649 0.065625 0.067611
0.748817 0.065631 0.067571
0.748983 0.065638 0.067532
0.007896 0.032776 0.010743
0.007898 0.032780 0.010692
0.007901 0.032785 0.010643
0.007903 0.032789 0.010593
0.007906 0.032793 0.010545
0.034870 0.035169 0.012893
0.064549 0.037782 0.015482
0.094245 0.040396 0.018070
0.123959 0.043010 0.020659
0.153690 0.045625 0.023248
0.183436 0.048241 0.025837
0.213200 0.050857 0.028427
0.242978 0.053474 0.031016
0.272773 0.056091 0.033606
0.302582 0.058709 0.036196
0.332407 0.061327 0.038786
0.362246 0.063946 0.041377
0.392100 0.066565 0.043967
0.421968 0.069185 0.046558
0.451849 0.071805 0.049149
0.481744 0.074426 0.051740
0.511652 0.077048 0.054331
0.541573 0.079669 0.056923
0.571507 0.082292 0.059515
0.601453 0.084914 0.062107
0.631411 0.087537 0.064699
0.661381 0.090161 0.067291
0.691363 0.092785 0.069884
0.721355 0.095409 0.072477
0.751359 0.098034 0.075070
0.757165 0.098537 0.075529
0.757327 0.098547 0.075491
0.757486 0.098556 0.075453
0.016599 0.068863 0.019446
0.016604 0.068872 0.019397
0.016609 0.068882 0.019348
0.016614 0.068891 0.019300
0.016619 0.068900 0.019253
0.043612 0.071280 0.021602
0.073322 0.073899 0.024191
0.103050 0.076518 0.026780
0.132793 0.079138 0.029370
0.162552 0.081758 0.031959
0.192327 0.084379 0.034549
0.222118 0.087000 0.037139
0.251924 0.089622 0.039729
0.281744 0.092244 0.042320
0.311579 0.094867 0.044910
0.341429 0.097490 0.047501
0.371292 0.100113 0.050092
0.401169 0.102738 0.052683
0.431060 0.105362 0.055275
0.460963 0.107987 0.057866
0.490880 0.110612 0.060458
0.520809 0.113238 0.063050
0.550750 0.115864 0.065643
0.580703 0.118490 0.068235
0.610668 0.121117 0.070828
0.640644 0.123744 0.073421
0.670632 0.126371 0.076014
0.700630 0.128999 0.078608
0.730639 0.131627 0.081202
0.760659 0.134256 0.083796
0.766462 0.134762 0.084256
0.766618 0.134775 0.084219
0.766772 0.134787 0.084183
0.025320 0.104982 0.028151
0.025327 0.104996 0.028103
0.025335 0.105009 0.028056
0.025342 0.105023 0.028009
0.025349 0.105036 0.027963
0.052370 0.107421 0.030312
0.082110 0.110045 0.032902
0.111866 0.112669 0.035492
0.141638 0.115294 0.038082
0.171425 0.117919 0.040672
0.201227 0.120545 0.043263
0.231044 0.123171 0.045853
0.260875 0.125797 0.048444
0.290720 0.128424 0.051035
0.320580 0.131051 0.053627
0.350453 0.133678 0.056218
0.380339 0.136306 0.058810
0.410238 0.138935 0.061402
0.440150 0.141563 0.063994
0.470075 0.144192 0.066586
0.500011 0.146821 0.069179
0.529960 0.149451 0.071772
0.559920 0.152081 0.074365
0.589892 0.154711 0.076959
0.619874 0.157342 0.079552
0.649868 0.159972 0.082146
0.679872 0.162603 0.084740
0.709886 0.165235 0.087335
0.739910 0.167866 0.089930
0.769944 0.170498 0.092525
0.775745 0.171008 0.092986
0.775895 0.171022 0.092951
0.776043 0.171037 0.092916
0.034057 0.141131 0.036858
0.034066 0.141149 0.036811
0.034076 0.141166 0.036765
0.034085 0.141183 0.036720
0.034094 0.141200 0.036675
0.061142 0.143590 0.039025
0.090910 0.146219 0.041615
0.120694 0.148848 0.044206
0.150493 0.151477 0.046797
0.180306 0.154106 0.049388
0.210134 0.156736 0.051979
0.239976 0.159367 0.054570
0.269831 0.161997 0.057162
0.299700 0.164628 0.059753
0.329583 0.167259 0.062346
0.359478 0.169891 0.064938
0.389386 0.172523 0.067530
0.419306 0.175155 0.070123
0.449239 0.177787 0.072716
0.479183 0.180420 0.075309
0.509138 0.183053 0.077903
0.539105 0.185686 0.080497
0.569083 0.188320 0.083091
0.599072 0.190953 0.085685
0.629071 0.193587 0.088280
0.659081 0.196221 0.090874
0.689100 0.198855 0.093470
0.719129 0.201490 0.096065
0.749167 0.204124 0.098661
0.779215 0.206759 0.101257
0.785014 0.207271 0.101719
0.785157 0.207288 0.101685
0.785299 0.207304 0.101652
0.042809 0.177308 0.045567
0.042820 0.177329 0.045522
0.042832 0.177350 0.045477
0.042843 0.177370 0.045432
0.042854 0.177391 0.045389
0.069927 0.179785 0.047740
0.099723 0.182418 0.050331
0.129533 0.185051 0.052922
0.159357 0.187684 0.055514
0.189196 0.190318 0.058105
0.219048 0.192952 0.060697
0.248913 0.195586 0.063289
0.278792 0.198221 0.065882
0.308684 0.200855 0.068474
0.338588 0.203490 0.071067
0.368504 0.206126 0.073660
0.398432 0.208761 0.076254
0.428372 0.211397 0.078847
0.458324 0.214032 0.081441
0.488287 0.216668 0.084035
0.518260 0.219305 0.086630
0.548244 0.221941 0.089224
0.578239 0.224578 0.091819
0.608244 0.227214 0.094414
0.638258 0.229851 0.097010
0.668283 0.232488 0.099606
0.698316 0.235125 0.102202
0.728359 0.237763 0.104798
0.758410 0.240400 0.107395
0.788470 0.243038 0.109992
0.794266 0.243551 0.110456
0.794404 0.243570 0.110423
0.794539 0.243588 0.110391
0.051575 0.213511 0.054278
0.051589 0.213535 0.054234
0.051602 0.213559 0.054191
0.051615 0.213582 0.054148
0.051627 0.213606 0.054105
0.078724 0.216004 0.056457
0.108546 0.218641 0.059049
0.138381 0.221278 0.061641
0.168230 0.223915 0.064233
0.198092 0.226552 0.066825
0.227968 0.229190 0.069418
0.257856 0.231828 0.072011
0.287756 0.234466 0.074604
0.317669 0.237104 0.077198
0.347593 0.239742 0.079791
0.377530 0.242381 0.082385
0.407477 0.245019 0.084980
0.437436 0.247658 0.087574
0.467406 0.250297 0.090169
0.497386 0.252936 0.092764
0.527376 0.255575 0.095359
0.557376 0.258214 0.097955
0.587387 0.260854 0.100551
0.617406 0.263493 0.103147
0.647435 0.266133 0.105743
0.677473 0.268772 0.108340
0.707520 0.271412 0.110937
0.737575 0.274052 0.113535
0.767639 0.276692 0.116132
0.797710 0.279331 0.118730
0.803503 0.279847 0.119196
0.803635 0.279867 0.119165
0.803764 0.279887 0.119134
0.060355 0.249738 0.062992
0.060370 0.249765 0.062949
0.060384 0.249792 0.062907
0.060399 0.249818 0.062865
0.060413 0.249844 0.062824
0.087533 0.252246 0.065177
0.117379 0.254886 0.067769
0.147238 0.257527 0.070362
0.177111 0.260167 0.072955
0.206995 0.262808 0.075548
0.236893 0.265449 0.078142
0.266802 0.268090 0.080736
0.296723 0.270731 0.083330
0.326656 0.273372 0.085924
0.356600 0.276013 0.088519
0.386555 0.278655 0.091114
0.416520 0.281296 0.093709
0.446497 0.283938 0.096304
0.476483 0.286579 0.098900
0.506479 0.289221 0.101496
0.536485 0.291863 0.104092
0.566501 0.294505 0.106689
0.596526 0.297146 0.109286
0.626559 0.299788 0.111883
0.656601 0.302430 0.114480
0.686652 0.305072 0.117078
0.716711 0.307714 0.119676
0.746778 0.310356 0.122275
0.776852 0.312998 0.124873
0.806934 0.315639 0.127472
0.812724 0.316157 0.127939
0.812849 0.316178 0.127910
0.812972 0.316199 0.127880
0.069147 0.285987 0.071708
0.069163 0.286017 0.071667
0.069179 0.286046 0.071626
0.069195 0.286075 0.071585
0.069210 0.286103 0.071546
0.096352 0.288509 0.073899
0.126222 0.291152 0.076493
0.156104 0.293796 0.079086
0.185998 0.296439 0.081680
0.215904 0.299083 0.084274
0.245822 0.301726 0.086869
0.275751 0.304370 0.089463
0.305692 0.307014 0.092058
0.335643 0.309658 0.094654
0.365606 0.312302 0.097249
0.395578 0.314946 0.099845
0.425561 0.317590 0.102441
0.455553 0.320234 0.105038
0.485555 0.322878 0.107634
0.515567 0.325522 0.110231
0.545588 0.328166 0.112829
0.575617 0.330810 0.115426
0.605655 0.333454 0.118024
0.635702 0.336098 0.120622
0.665756 0.338742 0.123221
0.695819 0.341385 0.125820
0.725889 0.344029 0.128419
0.755966 0.346673 0.131018
0.786051 0.349317 0.133618
0.816142 0.351960 0.136218
0.821929 0.352478 0.136686
0.822047 0.352501 0.136658
0.822164 0.352523 0.136630
0.077950 0.322257 0.080427
0.077968 0.322289 0.080387
0.077985 0.322321 0.080348
0.078002 0.322352 0.080308
0.078018 0.322382 0.080270
0.105181 0.324790 0.082625
0.135073 0.327437 0.085219
0.164976 0.330083 0.087813
0.194891 0.332729 0.090408
0.224817 0.335375 0.093003
0.254755 0.338022 0.095599
0.284703 0.340668 0.098194
0.314662 0.343314 0.100790
0.344631 0.345960 0.103386
0.374610 0.348607 0.105983
0.404599 0.351253 0.108580
0.434598 0.353899 0.111177
0.464606 0.356545 0.113774
0.494623 0.359191 0.116372
0.524648 0.361837 0.118970
0.554682 0.364483 0.121568
0.584725 0.367129 0.124167
0.614775 0.369775 0.126766
0.644834 0.372420 0.129365
0.674899 0.375066 0.131965
0.704972 0.377711 0.134565
0.735053 0.380357 0.137165
0.765140 0.383002 0.139765
0.795233 0.385647 0.142366
0.825333 0.388292 0.144968
0.831116 0.388811 0.145437
0.831229 0.388835 0.145410
0.831339 0.388857 0.145384
0.086764 0.358547 0.089149
0.086782 0.358580 0.089110
0.086801 0.358614 0.089072
0.086819 0.358647 0.089034
0.086836 0.358679 0.088997
0.114019 0.361090 0.091353
0.143931 0.363738 0.093948
0.173855 0.366387 0.096544
0.203789 0.369035 0.099139
0.233734 0.371684 0.101735
0.263690 0.374333 0.104332
0.293656 0.376981 0.106928
0.323632 0.379629 0.109525
0.353618 0.382278 0.112122
0.383613 0.384926 0.114720
0.413618 0.387574 0.117318
0.443631 0.390222 0.119916
0.473653 0.392870 0.122514
0.503684 0.395518 0.125113
0.533722 0.398165 0.127712
0.563769 0.400813 0.130311
0.593823 0.403460 0.132911
0.623885 0.406107 0.135511
0.653954 0.408755 0.138112
0.684030 0.411402 0.140712
0.714113 0.414048 0.143313
0.744203 0.416695 0.145915
0.774298 0.419341 0.148516
0.804400 0.421988 0.151118
0.834508 0.424634 0.153721
0.840287 0.425154 0.154192
0.840393 0.425177 0.154167
0.840497 0.425201 0.154142
0.095587 0.394854 0.097874
0.095607 0.394889 0.097837
0.095626 0.394924 0.097800
0.095645 0.394958 0.097764
0.095663 0.394992 0.097728
0.122864 0.397405 0.100084
0.152796 0.400056 0.102680
0.182739 0.402706 0.105277
0.212692 0.405357 0.107874
0.242655 0.408007 0.110471
0.272628 0.410658 0.113068
0.302611 0.413308 0.115666
0.332603 0.415958 0.118264
0.362604 0.418608 0.120862
0.392614 0.421258 0.123460
0.422633 0.423908 0.126059
0.452660 0.426557 0.128658
0.482695 0.429207 0.131258
0.512738 0.431856 0.133858
0.542789 0.434505 0.136458
0.572847 0.437154 0.139058
0.602912 0.439802 0.141659
0.632984 0.442451 0.144260
0.663063 0.445099 0.146862
0.693149 0.447747 0.149464
0.723240 0.450395 0.152066
0.753338 0.453043 0.154668
0.783441 0.455690 0.157271
0.813550 0.458337 0.159874
0.843665 0.460984 0.162478
0.849440 0.461504 0.162950
0.849540 0.461528 0.162927
0.849638 0.461552 0.162903
0.104419 0.431176 0.106602
0.104440 0.431213 0.106566
0.104459 0.431249 0.106531
0.104479 0.431285 0.106496
0.104498 0.431320 0.106462
0.131716 0.433734 0.108819
0.161667 0.436387 0.111416
0.191627 0.439040 0.114014
0.221598 0.441692 0.116611
0.251578 0.444344 0.119209
0.281567 0.446996 0.121808
0.311565 0.449648 0.124406
0.341572 0.452299 0.127005
0.371588 0.454951 0.129605
0.401612 0.457602 0.132204
0.431644 0.460253 0.134804
0.461683 0.462904 0.137405
0.491731 0.465554 0.140005
0.521785 0.468204 0.142606
0.551847 0.470855 0.145207
0.581916 0.473504 0.147809
0.611991 0.476154 0.150411
0.642073 0.478803 0.153013
0.672160 0.481452 0.155616
0.702254 0.484101 0.158219
0.732354 0.486750 0.160822
0.762459 0.489398 0.163426
0.792569 0.492046 0.166030
0.822685 0.494694 0.168634
0.852805 0.497341 0.171239
0.858576 0.497862 0.171713
0.858670 0.497886 0.171691
0.858762 0.497910 0.171669
0.113259 0.467514 0.115333
0.113280 0.467551 0.115299
0.113300 0.467589 0.115265
0.113320 0.467625 0.115231
0.113340 0.467661 0.115199
0.140575 0.470077 0.117557
0.170543 0.472731 0.120155
0.200520 0.475385 0.122754
0.230507 0.478039 0.125353
0.260502 0.480692 0.127952
0.290507 0.483345 0.130551
0.320519 0.485998 0.133151
0.350540 0.488651 0.135751
0.380569 0.491304 0.138351
0.410606 0.493956 0.140952
0.440650 0.496608 0.143553
0.470701 0.499259 0.146155
0.500760 0.501911 0.148756
0.530825 0.504562 0.151358
0.560897 0.507213 0.153961
0.590975 0.509864 0.156564
0.621059 0.512514 0.159167
0.651150 0.515164 0.161770
0.681245 0.517813 0.164374
0.711347 0.520463 0.166978
0.741453 0.523112 0.169583
0.771565 0.525761 0.172188
0.801681 0.528409 0.174793
0.831802 0.531057 0.177398
0.861927 0.533705 0.180004
0.867695 0.534225 0.180480
0.867782 0.534249 0.180459
0.867868 0.534273 0.180438
0.122106 0.503864 0.124068
0.122128 0.503902 0.124035
0.122148 0.503940 0.124002
0.122169 0.503977 0.123971
0.122189 0.504014 0.123939
0.149439 0.506431 0.126299
0.179423 0.509086 0.128898
0.209416 0.511741 0.131498
0.239418 0.514396 0.134097
0.269428 0.517051 0.136698
0.299446 0.519705 0.139298
0.329472 0.522359 0.141899
0.359506 0.525012 0.144500
0.389547 0.527666 0.147102
0.419596 0.530319 0.149704
0.449651 0.532971 0.152306
0.479713 0.535624 0.154908
0.509782 0.538276 0.157511
0.539857 0.540927 0.160114
0.569938 0.543579 0.162718
0.600025 0.546230 0.165322
0.630117 0.548880 0.167926
0.660215 0.551531 0.170531
0.690318 0.554181 0.173136
0.720426 0.556830 0.175741
0.750538 0.559480 0.178347
0.780655 0.562129 0.180953
0.810777 0.564777 0.183560
0.840903 0.567425 0.186166
0.871032 0.570073 0.188773
0.876795 0.570593 0.189250
0.876877 0.570617 0.189231
0.876956 0.570640 0.189212
0.130960 0.540226 0.132806
0.130981 0.540264 0.132775
0.131002 0.540303 0.132744
0.131023 0.540340 0.132713
0.131043 0.540377 0.132683
0.158307 0.542795 0.135044
0.188307 0.545451 0.137644
0.218314 0.548107 0.140245
0.248330 0.550763 0.142846
0.278354 0.553418 0.145447
0.308385 0.556073 0.148049
0.338424 0.558727 0.150651
0.368469 0.561382 0.153253
0.398522 0.564035 0.155856
0.428581 0.566689 0.158459
0.458647 0.569342 0.161062
0.488719 0.571995 0.163666
0.518797 0.574647 0.166270
0.548880 0.577299 0.168875
0.578969 0.579951 0.171479
0.609064 0.582602 0.174084
0.639163 0.585253 0.176690
0.669268 0.587903 0.179296
0.699377 0.590553 0.181902
0.729491 0.593203 0.184509
0.759609 0.595852 0.187115
0.789731 0.598501 0.189723
0.819857 0.601149 0.192330
0.849986 0.603798 0.194938
0.880119 0.606445 0.197547
0.885878 0.606965 0.198025
0.885954 0.606988 0.198007
0.886027 0.607010 0.197989
0.139819 0.576597 0.141548
0.139840 0.576636 0.141518
0.139861 0.576675 0.141489
0.139882 0.576712 0.141460
0.139902 0.576749 0.141431
0.167180 0.579168 0.143793
0.197193 0.581825 0.146394
0.227215 0.584481 0.148996
0.257244 0.587137 0.151598
0.287280 0.589793 0.154201
0.317323 0.592448 0.156804
0.347373 0.595103 0.159407
0.377429 0.597758 0.162010
0.407492 0.600412 0.164614
0.437561 0.603065 0.167218
0.467636 0.605719 0.169823
0.497717 0.608371 0.172428
0.527803 0.611024 0.175033
0.557895 0.613676 0.177639
0.587991 0.616327 0.180245
0.618092 0.618979 0.182851
0.648198 0.621629 0.185458
0.678309 0.624280 0.188065
0.708423 0.626930 0.190672
0.738542 0.629579 0.193280
0.768664 0.632228 0.195888
0.798791 0.634877 0.198496
0.828920 0.637525 0.201105
0.859053 0.640172 0.203715
0.889189 0.642820 0.206324
0.894943 0.643338 0.206804
0.895013 0.643361 0.206787
0.895080 0.643382 0.206771
0.148682 0.612978 0.150294
0.148704 0.613017 0.150265
0.148724 0.613055 0.150237
0.148745 0.613093 0.150210
0.148765 0.613129 0.150183
0.176055 0.615548 0.152546
0.206082 0.618205 0.155148
0.236116 0.620862 0.157751
0.266157 0.623518 0.160355
0.296205 0.626174 0.162958
0.326259 0.628830 0.165562
0.356319 0.631485 0.168166
0.386386 0.634139 0.170771
0.416458 0.636793 0.173376
0.446536 0.639447 0.175982
0.476619 0.642100 0.178587
0.506708 0.644753 0.181193
0.536802 0.647405 0.183800
0.566900 0.650057 0.186407
0.597003 0.652708 0.189014
0.627110 0.655359 0.191621
0.657222 0.658009 0.194229
0.687337 0.660659 0.196838
0.717456 0.663309 0.199446
0.747579 0.665958 0.202055
0.777705 0.668606 0.204665
0.807835 0.671254 0.207274
0.837967 0.673902 0.209885
0.868103 0.676549 0.212495
0.898240 0.679196 0.215106
0.903990 0.679714 0.215587
0.904054 0.679735 0.215571
0.904116 0.679755 0.215557
0.157550 0.649365 0.159043
0.157571 0.649404 0.159016
0.157592 0.649442 0.158990
0.157612 0.649479 0.158964
0.157632 0.649516 0.158938
0.184934 0.651935 0.161302
0.214973 0.654592 0.163906
0.245018 0.657249 0.166510
0.275070 0.659905 0.169115
0.305128 0.662561 0.171719
0.335192 0.665216 0.174325
0.365262 0.667871 0.176930
0.395338 0.670525 0.179536
0.425419 0.673179 0.182142
0.455505 0.675832 0.184749
0.485596 0.678485 0.187356
0.515691 0.681137 0.189963
0.545791 0.683789 0.192571
0.575896 0.686441 0.195179
0.606004 0.689091 0.197787
0.636117 0.691742 0.200396
0.666233 0.694392 0.203005
0.696353 0.697041 0.205615
0.726476 0.699690 0.208225
0.756602 0.702338 0.210835
0.786731 0.704986 0.213445
0.816863 0.707633 0.216056
0.846998 0.710280 0.218668
0.877135 0.712927 0.221280
0.907274 0.715572 0.223892
0.913020 0.716089 0.224374
0.913078 0.716109 0.224360
0.913133 0.716129 0.224346
0.166421 0.685759 0.167797
0.166441 0.685797 0.167771
0.166462 0.685834 0.167746
0.166482 0.685871 0.167722
0.166502 0.685907 0.167697
0.193814 0.688326 0.170063
0.223864 0.690983 0.172668
0.253920 0.693639 0.175273
0.283982 0.696295 0.177879
0.314050 0.698951 0.180485
0.344123 0.701606 0.183091
0.374201 0.704260 0.185698
0.404285 0.706914 0.188305
0.434374 0.709567 0.190912
0.464467 0.712220 0.193520
0.494564 0.714872 0.196128
0.524666 0.717524 0.198737
0.554772 0.720175 0.201346
0.584882 0.722826 0.203955
0.614995 0.725476 0.206565
0.645112 0.728126 0.209175
0.675232 0.730775 0.211785
0.705356 0.733424 0.214396
0.735482 0.736072 0.217007
0.765611 0.738719 0.219619
0.795742 0.741366 0.222230
0.825876 0.744013 0.224843
0.856013 0.746659 0.227455
0.886151 0.749304 0.230068
0.916291 0.751949 0.232682
0.922032 0.752464 0.233165
0.922084 0.752483 0.233153
0.922134 0.752501 0.233140
0.175294 0.722157 0.176554
0.175314 0.722195 0.176530
0.175335 0.722231 0.176507
0.175354 0.722267 0.176483
0.175373 0.722302 0.176461
0.202695 0.724721 0.178828
0.232755 0.727377 0.181434
0.262821 0.730033 0.184040
0.292892 0.732689 0.186647
0.322969 0.735344 0.189254
0.353050 0.737998 0.191862
0.383136 0.740652 0.194470
0.413227 0.743305 0.197078
0.443323 0.745958 0.199687
0.473422 0.748610 0.202296
0.503525 0.751261 0.204905
0.533633 0.753912 0.207515
0.563743 0.756563 0.210125
0.593858 0.759212 0.212736
0.623975 0.761862 0.215347
0.654096 0.764511 0.217958
0.684219 0.767159 0.220569
0.714346 0.769806 0.223181
0.744474 0.772453 0.225794
0.774605 0.775100 0.228406
0.804739 0.777746 0.231020
0.834874 0.780391 0.233633
0.865011 0.783036 0.236247
0.895150 0.785680 0.238861
0.925290 0.788324 0.241476
0.931026 0.788838 0.241960
0.931073 0.788856 0.241949
0.931117 0.788872 0.241938
0.184169 0.758559 0.185316
0.184189 0.758596 0.185293
0.184209 0.758632 0.185271
0.184228 0.758666 0.185249
0.184247 0.758701 0.185228
0.211577 0.761118 0.187596
0.241647 0.763774 0.190204
0.271721 0.766429 0.192811
0.301801 0.769084 0.195419
0.331885 0.771738 0.198028
0.361974 0.774392 0.200637
0.392067 0.777045 0.203246
0.422164 0.779697 0.205855
0.452265 0.782349 0.208465
0.482370 0.785000 0.211076
0.512479 0.787650 0.213686
0.542590 0.790300 0.216297
0.572705 0.792950 0.218909
0.602824 0.795599 0.221520
0.632944 0.798247 0.224132
0.663068 0.800895 0.226745
0.693194 0.803542 0.229358
0.723322 0.806188 0.231971
0.753453 0.808834 0.234585
0.783585 0.811479 0.237199
0.813720 0.814124 0.239813
0.843856 0.816768 0.242427
0.873993 0.819412 0.245043
0.904132 0.822055 0.247658
0.934272 0.824697 0.250274
0.940004 0.825210 0.250760
0.940045 0.825226 0.250750
0.940084 0.825241 0.250740
0.193046 0.794964 0.194081
0.193066 0.794999 0.194060
0.193084 0.795034 0.194040
0.193103 0.795067 0.194019
0.193121 0.795100 0.194000
0.220460 0.797517 0.196369
0.250537 0.800172 0.198977
0.280620 0.802827 0.201586
0.310706 0.805480 0.204196
0.340798 0.808133 0.206805
0.370893 0.810786 0.209415
0.400992 0.813438 0.212026
0.431095 0.816089 0.214637
0.461201 0.818740 0.217248
0.491311 0.821390 0.219859
0.521424 0.824039 0.222471
0.551539 0.826688 0.225083
0.581658 0.829336 0.227696
0.611779 0.831984 0.230309
0.641903 0.834631 0.232922
