library/cube/Velvet_Shadows_004.cube
# CINEGRADE LAB — Premium Cinematic LUT
# Title: Velvet Shadows
# Category: Neo Noir
# Description: Dramatic shadows, high contrast, moody lighting inspired by noir cinema
# Mood: Mysterious, dramatic, dark
# Variant: 5
# Generated: 2026-05-21T16:12:31.146249
TITLE "Velvet Shadows"
LUT_3D_SIZE 9
0.000000 0.000000 0.000000
0.000004 0.000001 0.000000
0.044693 0.007583 0.008131
0.144273 0.024151 0.025738
0.244602 0.040450 0.042854
0.346874 0.056729 0.059770
0.451275 0.073058 0.076579
0.548628 0.087998 0.091800
0.558016 0.088753 0.092167
0.000040 0.000013 0.000000
0.000067 0.000022 0.000000
0.048378 0.007896 0.008273
0.155067 0.025033 0.026160
0.261401 0.041812 0.043511
0.368778 0.058499 0.060626
0.477484 0.075172 0.077602
0.577933 0.090360 0.092940
0.585445 0.090969 0.093230
0.024855 0.072622 0.028000
0.025336 0.073260 0.028114
0.077010 0.081955 0.036609
0.189833 0.100095 0.054820
0.301313 0.117763 0.072450
0.413024 0.135241 0.089804
0.525345 0.152614 0.106985
0.628374 0.168389 0.122483
0.634505 0.169244 0.122772
0.082317 0.234650 0.089257
0.083471 0.236227 0.089541
0.138118 0.245976 0.098284
0.256054 0.265272 0.116815
0.371777 0.283967 0.134719
0.487011 0.302353 0.152308
0.602216 0.320528 0.169689
0.707264 0.336982 0.185342
0.712336 0.338225 0.185660
0.141921 0.396617 0.149289
0.143410 0.398634 0.149650
0.200188 0.408917 0.158531
0.321880 0.428831 0.177253
0.440631 0.448042 0.195312
0.558295 0.466859 0.213026
0.675404 0.485387 0.230503
0.781670 0.502105 0.246220
0.785679 0.503407 0.246511
0.202999 0.558924 0.208726
0.204575 0.561015 0.209094
0.262800 0.571450 0.218029
0.387130 0.591580 0.236845
0.507927 0.610938 0.254969
0.627153 0.629843 0.272725
0.745408 0.648406 0.290224
0.851419 0.665106 0.305939
0.854241 0.666254 0.306169
0.264675 0.720772 0.267613
0.266163 0.722677 0.267940
0.325295 0.732991 0.276868
0.451366 0.753055 0.295704
0.573442 0.772305 0.313828
0.693576 0.791069 0.331568
0.812426 0.809467 0.349039
0.914523 0.825974 0.364712
0.916224 0.826858 0.364864
0.320939 0.866969 0.320575
0.322213 0.868502 0.320826
0.381833 0.878506 0.329704
0.508950 0.898312 0.348507
0.631737 0.917291 0.366589
0.752319 0.935781 0.384277
0.868980 0.953013 0.401691
0.967965 0.968307 0.417301
0.968731 0.968759 0.417378
0.324769 0.871415 0.321282
0.325683 0.872382 0.321424
0.385431 0.881902 0.330216
0.513053 0.901294 0.348950
0.636134 0.919889 0.366961
0.756865 0.937978 0.384582
0.872822 0.954664 0.401930
0.969909 0.969490 0.417480
0.970214 0.969697 0.417498
0.000000 0.000000 0.000000
0.000006 0.000002 0.000000
0.045093 0.007616 0.008147
0.145457 0.024247 0.025785
0.246451 0.040599 0.042927
0.349293 0.056923 0.059865
0.454177 0.073291 0.076693
0.551883 0.088260 0.091928
0.561070 0.088998 0.092286
0.000048 0.000015 0.000000
0.000078 0.000025 0.000000
0.048716 0.007926 0.008286
0.156046 0.025114 0.026198
0.262916 0.041936 0.043570
0.370745 0.058659 0.060702
0.479828 0.075362 0.077692
0.580543 0.090571 0.093041
0.587879 0.091167 0.093323
0.025020 0.072843 0.028039
0.025494 0.073467 0.028151
0.077424 0.082171 0.036654
0.190751 0.100339 0.054882
0.302645 0.118029 0.072526
0.414698 0.135523 0.089892
0.527295 0.152907 0.107081
0.630510 0.168686 0.122584
0.636480 0.169519 0.122864
0.082717 0.235198 0.089356
0.083848 0.236738 0.089632
0.138679 0.246467 0.098377
0.256991 0.265760 0.116916
0.373014 0.284447 0.134826
0.488486 0.302822 0.152419
0.603877 0.320982 0.169802
0.709036 0.337417 0.185454
0.713960 0.338623 0.185761
0.142439 0.397320 0.149415
0.143893 0.399283 0.149765
0.200796 0.409527 0.158643
0.322756 0.429414 0.177367
0.441714 0.448597 0.195426
0.559532 0.467383 0.213137
0.676754 0.485878 0.230611
0.783076 0.502563 0.246323
0.786952 0.503819 0.246602
0.203548 0.559656 0.208855
0.205083 0.561682 0.209211
0.263385 0.572065 0.218139
0.387895 0.592154 0.236951
0.508824 0.611470 0.255071
0.628141 0.630332 0.272821
0.746453 0.648854 0.290313
0.852416 0.665512 0.306021
0.855124 0.666612 0.306239
0.265195 0.721442 0.267728
0.266639 0.723279 0.268042
0.325813 0.733535 0.276961
0.451995 0.753550 0.295790
0.574146 0.772752 0.313908
0.694325 0.791470 0.331640
0.813197 0.809824 0.349103
0.915131 0.826289 0.364767
0.916742 0.827129 0.364909
0.321386 0.867512 0.320665
0.322618 0.868980 0.320903
0.382255 0.878928 0.329771
0.509436 0.898686 0.348567
0.632260 0.917620 0.366640
0.752861 0.936068 0.384321
0.869449 0.953232 0.401727
0.968246 0.968472 0.417330
0.968950 0.968891 0.417399
0.325090 0.871760 0.321334
0.325973 0.872679 0.321466
0.385731 0.882158 0.330250
0.513390 0.901516 0.348979
0.636494 0.920081 0.366984
0.757238 0.938136 0.384599
0.873128 0.954778 0.401942
0.970022 0.969566 0.417487
0.970299 0.969757 0.417502
0.002169 0.002531 0.049117
0.002239 0.002567 0.049414
0.047775 0.010243 0.057857
0.148962 0.026965 0.075790
0.250660 0.043397 0.093207
0.354108 0.059793 0.110402
0.459511 0.076223 0.127470
0.557603 0.091242 0.142925
0.566634 0.091987 0.143469
0.002420 0.002653 0.050052
0.002503 0.002691 0.050297
0.051511 0.010643 0.058825
0.159512 0.027905 0.076977
0.266949 0.044792 0.094572
0.375258 0.061572 0.111910
0.484746 0.078324 0.129090
0.585753 0.093572 0.144613
0.592948 0.094171 0.145040
0.027706 0.075780 0.078895
0.028215 0.076413 0.079202
0.080434 0.085146 0.087897
0.194288 0.103361 0.106314
0.306620 0.121089 0.124130
0.419036 0.138615 0.141654
0.531930 0.156026 0.158989
0.635351 0.171823 0.174621
0.641188 0.172647 0.175009
0.085760 0.238522 0.140882
0.086902 0.240043 0.141307
0.141944 0.249769 0.150196
0.260649 0.269074 0.168876
0.376989 0.287765 0.186914
0.492717 0.306142 0.204622
0.608308 0.324299 0.222107
0.713594 0.340725 0.237851
0.718391 0.341904 0.238231
0.145698 0.400847 0.201444
0.147144 0.402771 0.201902
0.204192 0.412988 0.210884
0.326433 0.432860 0.229708
0.445609 0.452025 0.247856
0.563595 0.470790 0.265646
0.680940 0.489262 0.283189
0.787329 0.505920 0.298959
0.791088 0.507137 0.299284
0.206915 0.563249 0.261245
0.208427 0.565222 0.261675
0.266822 0.575563 0.270673
0.391522 0.595619 0.289552
0.512590 0.614901 0.307728
0.632006 0.633728 0.325527
0.750384 0.652215 0.343060
0.856163 0.668836 0.358802
0.858758 0.669893 0.359045
0.268589 0.725002 0.320360
0.270003 0.726779 0.320720
0.329229 0.736985 0.329682
0.455530 0.756957 0.348551
0.577761 0.776118 0.366700
0.697991 0.794795 0.384459
0.816891 0.813109 0.401941
0.918481 0.829536 0.417621
0.919998 0.830336 0.417773
0.324748 0.870965 0.373442
0.325949 0.872375 0.373706
0.385610 0.882273 0.382596
0.512859 0.901988 0.401411
0.635725 0.920881 0.419498
0.756349 0.939152 0.437189
0.872651 0.956231 0.454601
0.971248 0.971409 0.470208
0.971881 0.971787 0.470277
0.328357 0.875035 0.374178
0.329218 0.875911 0.374322
0.388988 0.885353 0.383115
0.516689 0.904680 0.401850
0.639819 0.923217 0.419860
0.760580 0.941058 0.437476
0.876137 0.957646 0.454819
0.972825 0.972385 0.470363
0.973063 0.972552 0.470376
0.006893 0.008002 0.154940
0.007095 0.008108 0.155856
0.053136 0.015881 0.164900
0.155192 0.032725 0.183415
0.257637 0.049266 0.201379
0.361732 0.065760 0.219084
0.467693 0.082278 0.236629
0.566209 0.097373 0.252527
0.575130 0.098148 0.253465
0.007560 0.008345 0.157826
0.007752 0.008441 0.158580
0.057174 0.016472 0.167599
0.165883 0.033833 0.186224
0.273921 0.050808 0.204258
0.382743 0.067666 0.222005
0.492664 0.084488 0.239564
0.593994 0.099794 0.255435
0.601084 0.100416 0.256169
0.033331 0.081859 0.188300
0.033920 0.082526 0.189013
0.086464 0.091309 0.198098
0.200873 0.109590 0.216887
0.313668 0.127377 0.235046
0.426471 0.144952 0.252886
0.539686 0.162404 0.270510
0.643334 0.178235 0.286405
0.649068 0.179064 0.287022
0.091877 0.245055 0.251613
0.093064 0.246575 0.252351
0.148344 0.256315 0.261538
0.267463 0.275647 0.280499
0.384141 0.294359 0.298792
0.500142 0.312749 0.316733
0.615950 0.330916 0.334428
0.721379 0.347345 0.350359
0.726070 0.348507 0.350900
0.152135 0.407635 0.313184
0.153599 0.409533 0.313875
0.210813 0.419737 0.323074
0.333350 0.439607 0.342101
0.452758 0.458764 0.360430
0.570925 0.477518 0.378382
0.688405 0.495975 0.396068
0.794872 0.512616 0.411964
0.798532 0.513802 0.412393
0.213539 0.570142 0.373720
0.215050 0.572073 0.374314
0.273553 0.582382 0.383463
0.398451 0.602414 0.402479
0.519668 0.621670 0.420776
0.639193 0.640470 0.438678
0.757645 0.658927 0.456301
0.863073 0.675519 0.472118
0.865552 0.676539 0.472420
0.275300 0.731890 0.433343
0.276700 0.733616 0.433810
0.335988 0.743779 0.442867
0.462413 0.763716 0.461820
0.584731 0.782840 0.480041
0.705019 0.801482 0.497858
0.823952 0.819762 0.515389
0.924977 0.836156 0.531106
0.926392 0.836920 0.531285
0.331469 0.877770 0.486744
0.332650 0.879128 0.487069
0.392343 0.888981 0.496012
0.519663 0.908657 0.514872
0.642576 0.927514 0.532995
0.763227 0.945410 0.550712
0.878981 0.962414 0.568143
0.977364 0.977522 0.583762
0.977916 0.977849 0.583839
0.335015 0.881679 0.487649
0.335860 0.882516 0.487823
0.395649 0.891926 0.496640
0.523393 0.911225 0.515393
0.646553 0.929738 0.533415
0.767334 0.947141 0.551038
0.882237 0.963664 0.568384
0.978701 0.978343 0.583929
0.978887 0.978474 0.583942
0.011528 0.013313 0.257160
0.011851 0.013484 0.258649
0.058381 0.021347 0.268249
0.161282 0.038307 0.287304
0.264453 0.054953 0.305771
0.369174 0.071540 0.323948
0.475673 0.088141 0.341933
0.574598 0.103306 0.358237
0.583403 0.104108 0.359535
0.012579 0.013860 0.261849
0.012872 0.014009 0.263072
0.062694 0.022115 0.272543
0.172089 0.039570 0.291603
0.280708 0.056628 0.310042
0.390026 0.073560 0.328163
0.500365 0.090447 0.346069
0.602004 0.105807 0.362257
0.608985 0.106448 0.363270
0.038805 0.087742 0.293823
0.039467 0.088439 0.294910
0.092323 0.097269 0.304351
0.207269 0.115613 0.323480
0.320511 0.133452 0.341953
0.433687 0.151073 0.360080
0.547209 0.168564 0.377966
0.651073 0.184424 0.394100
0.656700 0.185257 0.394922
0.097815 0.251371 0.358352
0.099041 0.252889 0.359376
0.154550 0.262640 0.368832
0.274068 0.281996 0.388048
0.391068 0.300725 0.406573
0.507330 0.319127 0.424723
0.623344 0.337300 0.442606
0.728908 0.353730 0.458705
0.733493 0.354873 0.459388
0.158370 0.414190 0.420840
0.159849 0.416062 0.421740
0.217221 0.426251 0.431135
0.340041 0.446116 0.450344
0.459670 0.465263 0.468835
0.578007 0.484004 0.486931
0.695614 0.502446 0.504743
0.802154 0.519067 0.520749
0.805713 0.520222 0.521267
0.219944 0.576791 0.482038
0.221451 0.578680 0.482777
0.280055 0.588955 0.492059
0.405142 0.608962 0.511196
0.526500 0.628191 0.529597
0.646126 0.646962 0.547590
0.764646 0.665390 0.565290
0.869712 0.681951 0.581170
0.872077 0.682935 0.581522
0.281779 0.738528 0.542108
0.283162 0.740202 0.542668
0.342508 0.750322 0.551808
0.469050 0.770223 0.570833
0.591450 0.789311 0.589114
0.711790 0.807917 0.606980
0.830753 0.826162 0.624550
0.931205 0.842523 0.640297
0.932520 0.843252 0.640497
0.337950 0.884320 0.595784
0.339109 0.885626 0.596161
0.398831 0.895435 0.605148
0.526218 0.915073 0.624044
0.649173 0.933894 0.642194
0.769850 0.951414 0.659931
0.885052 0.968344 0.677376
0.983219 0.983382 0.693003
0.983693 0.983660 0.693083
0.341429 0.888071 0.596827
0.342259 0.888870 0.597025
0.402064 0.898247 0.605860
0.529850 0.917520 0.624626
0.653038 0.936010 0.642655
0.773839 0.952975 0.660282
0.888086 0.969435 0.677629
0.984328 0.984056 0.693173
0.984465 0.984152 0.693184
0.016150 0.018558 0.357636
0.016588 0.018789 0.359664
0.063593 0.026740 0.369786
0.167318 0.043811 0.389348
0.271194 0.060556 0.408288
0.376524 0.077231 0.426907
0.483545 0.093912 0.445302
0.582863 0.109143 0.461987
0.591551 0.109969 0.463620
0.017563 0.019297 0.364017
0.017950 0.019495 0.365678
0.068161 0.027672 0.375573
0.178223 0.045217 0.395040
0.287407 0.062354 0.413856
0.397203 0.079356 0.432327
0.507947 0.096305 0.450555
0.609881 0.111716 0.467038
0.616752 0.112374 0.468308
0.044222 0.093532 0.397396
0.044951 0.094256 0.398829
0.098109 0.103129 0.408601
0.213576 0.121532 0.428047
0.327250 0.139421 0.446810
0.440785 0.157085 0.465203
0.554601 0.174612 0.483331
0.658672 0.190500 0.499684
0.664191 0.191334 0.500694
0.103672 0.257576 0.463055
0.104935 0.259090 0.464342
0.160662 0.268850 0.474048
0.280565 0.288227 0.493499
0.397877 0.306971 0.512236
0.514388 0.325382 0.530577
0.630599 0.343560 0.548632
0.736289 0.359989 0.564883
0.740767 0.361113 0.565693
0.164507 0.420622 0.526390
0.165998 0.422466 0.527481
0.223520 0.432638 0.537054
0.346611 0.452496 0.556428
0.466452 0.471632 0.575066
0.584951 0.490359 0.593291
0.702678 0.508784 0.611216
0.809283 0.525385 0.627319
0.812743 0.526508 0.627916
0.226237 0.583306 0.588191
0.227738 0.585152 0.589060
0.286437 0.595393 0.598461
0.411704 0.615374 0.617706
0.533195 0.634575 0.636200
0.652916 0.653317 0.654272
0.771499 0.671716 0.672038
0.876187 0.688246 0.687973
0.878439 0.689193 0.688366
0.288135 0.745025 0.648663
0.289501 0.746648 0.649303
0.348901 0.756725 0.658515
0.475553 0.776590 0.677602
0.598028 0.795641 0.695934
0.718417 0.814212 0.713841
0.837295 0.832423 0.731442
0.937272 0.848751 0.747213
0.938491 0.849447 0.747428
0.344302 0.890727 0.702577
0.345439 0.891982 0.702998
0.405188 0.901748 0.712020
0.532637 0.921348 0.730945
0.655632 0.939953 0.749116
0.776331 0.957270 0.766868
0.890970 0.974129 0.784322
0.988919 0.989098 0.799955
0.989319 0.989328 0.800035
0.347714 0.894323 0.703733
0.348527 0.895085 0.703949
0.408348 0.904431 0.712797
0.536173 0.923678 0.731572
0.659387 0.941843 0.749605
0.780210 0.958668 0.767233
0.893792 0.975066 0.784579
0.989811 0.989629 0.800121
0.989902 0.989693 0.800129
0.020786 0.023769 0.457022
0.021333 0.024058 0.459560
0.068799 0.032092 0.470175
0.173328 0.049270 0.490216
0.277891 0.066110 0.509603
0.383813 0.082871 0.528637
0.491340 0.099627 0.547419
0.591038 0.114922 0.564459
0.599606 0.115769 0.566404
0.022541 0.024689 0.465000
0.023018 0.024935 0.467074
0.073605 0.033178 0.477366
0.184316 0.050810 0.497217
0.294048 0.068023 0.516387
0.404309 0.085092 0.535184
0.515443 0.102099 0.553713
0.617662 0.117559 0.570471
0.624421 0.118232 0.571978
0.049612 0.099263 0.499699
0.050404 0.100012 0.501456
0.103855 0.108927 0.511538
0.219826 0.127385 0.531280
0.333919 0.145322 0.550313
0.447800 0.163026 0.568952
0.561899 0.180586 0.587305
0.666166 0.196499 0.603859
0.671578 0.197334 0.605040
0.109484 0.263708 0.566416
0.110779 0.265215 0.567947
0.166717 0.274983 0.577883
0.286992 0.294379 0.597551
0.404602 0.313135 0.616484
0.521353 0.331554 0.635000
0.637751 0.349735 0.653212
0.743561 0.366162 0.669601
0.747931 0.367266 0.670525
0.170582 0.426967 0.630534
0.172082 0.428782 0.631800
0.229747 0.438937 0.641536
0.353099 0.458786 0.661061
0.473142 0.477910 0.679832
0.591795 0.496622 0.698173
0.709634 0.515029 0.716199
0.816300 0.531609 0.732388
0.819661 0.532701 0.733054
0.232455 0.589727 0.692887
0.233948 0.591529 0.693874
0.292736 0.601736 0.703381
0.418176 0.621691 0.722722
0.539792 0.640863 0.741299
0.659603 0.659576 0.759440
0.778244 0.677944 0.777263
0.882538 0.694444 0.793244
0.884679 0.695355 0.793670
0.294408 0.751423 0.753719
0.295755 0.752995 0.754430
0.355204 0.763028 0.763704
0.481961 0.782856 0.782845
0.604507 0.801872 0.801220
0.724940 0.820408 0.819160
0.843435 0.838586 0.836787
0.943217 0.854882 0.852576
0.944341 0.855544 0.852801
0.350565 0.897032 0.807841
0.351680 0.898237 0.808297
0.411452 0.907960 0.817349
0.538960 0.927524 0.836296
0.661991 0.945775 0.854484
0.782713 0.963019 0.872246
0.896774 0.979806 0.889705
0.994504 0.994708 0.905338
0.994831 0.994892 0.905418
0.353908 0.900476 0.809087
0.354705 0.901202 0.809316
0.414540 0.910518 0.818172
0.542402 0.929741 0.836952
0.665643 0.947496 0.854987
0.786486 0.964257 0.872614
0.899390 0.980594 0.889957
0.995188 0.995102 0.905496
0.995236 0.995135 0.905502
0.025032 0.028490 0.546571
0.025672 0.028828 0.549542
0.073578 0.036936 0.560579
0.178882 0.054213 0.581028
0.284106 0.071139 0.600796
0.390594 0.087977 0.620183
0.498605 0.104802 0.639292
0.598663 0.120153 0.656634
0.607102 0.121016 0.658840
0.027080 0.029564 0.555904
0.027632 0.029850 0.558328
0.078577 0.038153 0.568957
0.189913 0.055864 0.589132
0.300170 0.073146 0.608602
0.410875 0.090275 0.627675
0.522379 0.107335 0.646456
0.624866 0.122838 0.663444
0.631507 0.123521 0.665148
0.054518 0.104451 0.591720
0.055362 0.105219 0.593749
0.109089 0.114168 0.604092
0.225544 0.132677 0.624082
0.340036 0.150656 0.643341
0.454246 0.168394 0.662186
0.568612 0.185983 0.680724
0.673063 0.201917 0.697444
0.678362 0.202748 0.698765
0.114771 0.269269 0.659329
0.116089 0.270766 0.661062
0.172225 0.280536 0.671188
0.292855 0.299946 0.691036
0.410749 0.318712 0.710129
0.527726 0.337134 0.728789
0.644298 0.355315 0.747128
0.750216 0.371737 0.763628
0.754477 0.372819 0.764642
0.176101 0.432722 0.724098
0.177603 0.434505 0.725506
0.235401 0.444639 0.735373
0.359001 0.464477 0.755020
0.479234 0.483586 0.773897
0.598030 0.502280 0.792331
0.715972 0.520667 0.810436
0.822692 0.537225 0.826691
0.825953 0.538283 0.827408
0.238094 0.595543 0.786899
0.239573 0.597299 0.787978
0.298444 0.607469 0.797569
0.424045 0.627396 0.816985
0.545778 0.646538 0.835624
0.665670 0.665220 0.853817
0.784363 0.683558 0.871683
0.888274 0.700027 0.887696
0.890307 0.700901 0.888146
0.300084 0.757205 0.848014
0.301409 0.758725 0.848778
0.360902 0.768715 0.858097
0.487756 0.788506 0.877278
0.610366 0.807486 0.895683
0.730840 0.825986 0.913646
0.848970 0.844131 0.931288
0.948556 0.860395 0.947087
0.949589 0.861025 0.947317
0.356220 0.902717 0.902289
0.357310 0.903873 0.902769
0.417103 0.913553 0.911840
0.544665 0.933080 0.930801
0.667730 0.950997 0.948997
0.788471 0.968171 0.966763
0.901982 0.984888 0.984222
0.999495 0.999725 0.999854
0.999755 0.999866 0.999928
0.359490 0.906011 0.903592
0.360270 0.906701 0.903827
0.420118 0.915989 0.912686
0.548015 0.935188 0.931466
0.671281 0.952558 0.949499
0.792145 0.969259 0.967122
0.904410 0.985538 0.984462
0.999989 0.999994 0.999997
1.000000 1.000000 1.000000
0.025252 0.028607 0.547599
0.025884 0.028939 0.550512
0.074125 0.037069 0.561506
0.180098 0.054394 0.581928
0.285885 0.071361 0.601665
0.392847 0.088232 0.621021
0.501255 0.105084 0.640096
0.601593 0.120453 0.657401
0.609840 0.121296 0.659553
0.027270 0.029663 0.556744
0.027814 0.029943 0.559116
0.079031 0.038264 0.569705
0.190905 0.056013 0.589853
0.301608 0.073327 0.609293
0.412681 0.090481 0.628335
0.524486 0.107560 0.647085
0.627177 0.123075 0.664038
0.633650 0.123742 0.665695
0.054810 0.104717 0.592426
0.055638 0.105468 0.594406
0.109573 0.114419 0.604710
0.226442 0.132946 0.624671
0.341269 0.150937 0.643900
0.455749 0.168683 0.662713
0.570328 0.186275 0.681220
0.674913 0.202207 0.697907
0.680061 0.203015 0.699185
0.115228 0.269790 0.659934
0.116517 0.271248 0.661618
0.172797 0.280995 0.671706
0.293727 0.300396 0.691523
0.411855 0.319148 0.710584
0.529012 0.337555 0.729212
0.645718 0.355717 0.747518
0.751709 0.372116 0.763985
0.755834 0.373162 0.764961
0.176624 0.433345 0.724591
0.178087 0.435076 0.725954
0.235978 0.445170 0.735784
0.359784 0.464979 0.755399
0.480170 0.484057 0.774245
0.599076 0.502719 0.792647
0.717091 0.521074 0.810721
0.823839 0.537598 0.826946
0.826983 0.538615 0.827630
0.238610 0.596159 0.787279
0.240048 0.597856 0.788317
0.298971 0.607977 0.797873
0.424703 0.627863 0.817259
0.546527 0.646965 0.835869
0.666477 0.665607 0.854034
0.785201 0.683907 0.871871
0.888997 0.700338 0.887858
0.890933 0.701171 0.888280
0.300548 0.757742 0.848286
0.301831 0.759201 0.849014
0.361349 0.769140 0.858303
0.488278 0.788886 0.877456
0.610936 0.807823 0.895836
0.731434 0.826284 0.913775
0.849527 0.844391 0.931394
0.948931 0.860621 0.947172
0.949894 0.861217 0.947381
0.356603 0.903128 0.902462
0.357656 0.904229 0.902913
0.417456 0.913862 0.911959
0.545059 0.933349 0.930899
0.668147 0.951203 0.949074
0.788899 0.968323 0.966822
0.902281 0.984990 0.984265
0.999597 0.999781 0.999883
0.999817 0.999900 0.999946
0.359763 0.906258 0.903678
0.360519 0.906911 0.903893
0.420372 0.916168 0.912736
0.548297 0.935342 0.931502
0.671582 0.952668 0.949522
0.792463 0.969328 0.967136
0.904609 0.985572 0.984468
0.999995 0.999997 0.999999
1.000000 1.000000 1.000000
