library/cube/Velvet_Noir_001.cube
# CINEGRADE LAB — Premium Cinematic LUT
# Title: Velvet Noir
# Category: Luxury Editorial
# Description: Rich blacks, soft contrast, warm skin tones for high-end editorial photography
# Mood: Sophisticated, elegant, polished
# Variant: 2
# Generated: 2026-05-21T16:12:10.425497
TITLE "Velvet Noir"
LUT_3D_SIZE 5
0.000000 0.000000 0.000000
0.182915 0.003881 0.003880
0.427898 0.009082 0.009076
0.680256 0.014443 0.014429
0.927167 0.019691 0.019667
0.013529 0.198137 0.013464
0.196569 0.202039 0.017348
0.441778 0.207265 0.022550
0.694453 0.212654 0.027911
0.940635 0.217910 0.033135
0.031258 0.456128 0.030997
0.214529 0.460070 0.034888
0.460108 0.465342 0.040101
0.713245 0.470781 0.045475
0.958175 0.476054 0.050675
0.049446 0.718905 0.048859
0.233054 0.722907 0.052760
0.479144 0.728244 0.057988
0.732890 0.733754 0.063378
0.976045 0.739050 0.068545
0.067223 0.973679 0.066179
0.251263 0.977582 0.070082
0.497993 0.982815 0.075315
0.752481 0.988213 0.080713
0.993321 0.993321 0.085821
0.001138 0.001137 0.155632
0.184060 0.005020 0.159512
0.429060 0.010222 0.164709
0.681443 0.015584 0.170063
0.928304 0.020832 0.175299
0.014681 0.199280 0.169097
0.197739 0.203184 0.172981
0.442979 0.208412 0.178184
0.695694 0.213804 0.183546
0.941773 0.219060 0.188768
0.032424 0.457284 0.186631
0.215724 0.461229 0.190523
0.461347 0.466504 0.195737
0.714539 0.471947 0.201112
0.959314 0.477219 0.206309
0.050627 0.720078 0.204494
0.234275 0.724085 0.208396
0.480423 0.729427 0.213625
0.734239 0.734941 0.219018
0.977185 0.740236 0.224180
0.068415 0.974817 0.221812
0.252505 0.978721 0.225716
0.499308 0.983956 0.230951
0.753879 0.989356 0.236351
0.994458 0.994458 0.241453
0.002939 0.002937 0.401901
0.185870 0.006821 0.405781
0.430887 0.012024 0.410979
0.683298 0.017388 0.416333
0.930104 0.022636 0.421569
0.016496 0.201086 0.415366
0.199573 0.204993 0.419251
0.444846 0.210223 0.424455
0.697602 0.215617 0.429819
0.943573 0.220873 0.435038
0.034254 0.459102 0.432902
0.217584 0.463051 0.436795
0.463253 0.468329 0.442010
0.716502 0.473776 0.447386
0.961115 0.479047 0.452580
0.052471 0.721915 0.450766
0.236160 0.725926 0.454670
0.482369 0.731272 0.459901
0.736255 0.736792 0.465295
0.978988 0.742085 0.470453
0.070270 0.976617 0.468082
0.254411 0.980523 0.471988
0.501289 0.985759 0.477224
0.755946 0.991160 0.482625
0.996258 0.996258 0.487723
0.004833 0.004829 0.660729
0.187774 0.008714 0.664609
0.432811 0.013919 0.669807
0.685250 0.019284 0.675162
0.931995 0.024532 0.680397
0.018404 0.202985 0.674195
0.201502 0.206893 0.678080
0.446808 0.212126 0.683285
0.699607 0.217523 0.688649
0.945465 0.222778 0.693867
0.036176 0.461013 0.691732
0.219537 0.464965 0.695625
0.465255 0.470247 0.700841
0.718561 0.475697 0.706219
0.963008 0.480968 0.711410
0.054408 0.723845 0.709597
0.238139 0.727859 0.713502
0.484410 0.733211 0.718734
0.738369 0.738736 0.724130
0.980882 0.744028 0.729284
0.072218 0.978509 0.726911
0.256412 0.982416 0.730818
0.503365 0.987654 0.736055
0.758109 0.993057 0.741459
0.998148 0.998148 0.746550
0.006690 0.006682 0.914179
0.189642 0.010568 0.918060
0.434699 0.015775 0.923258
0.687167 0.021142 0.928614
0.933847 0.026389 0.933847
0.020274 0.204845 0.927646
0.203394 0.208755 0.931531
0.448735 0.213991 0.936737
0.701578 0.219390 0.942103
0.947318 0.224644 0.947318
0.038061 0.462886 0.945184
0.221454 0.466841 0.949078
0.467221 0.472126 0.954295
0.720586 0.477581 0.959675
0.964862 0.482850 0.964862
0.056307 0.725736 0.963051
0.240081 0.729755 0.966957
0.486416 0.735112 0.972190
0.740449 0.740641 0.977588
0.982737 0.745932 0.982737
0.074128 0.980362 0.980362
0.258376 0.984270 0.984270
0.505406 0.989509 0.989509
0.760238 0.994915 0.994915
1.000000 1.000000 1.000000
