library/cube/Velvet_Noir_001.cube
# CINEGRADE LAB — Premium Cinematic LUT
# Title: Velvet Noir
# Category: Luxury Editorial
# Description: Rich blacks, soft contrast, warm skin tones for high-end editorial photography
# Mood: Sophisticated, elegant, polished
# Variant: 2
# Generated: 2026-05-21T16:12:10.425497
TITLE "Velvet Noir"
LUT_3D_SIZE 9
0.000000 0.000000 0.000000
0.065644 0.001393 0.001392
0.182915 0.003881 0.003880
0.304193 0.006456 0.006452
0.427898 0.009082 0.009076
0.553374 0.011747 0.011738
0.680256 0.014443 0.014429
0.808312 0.017164 0.017146
0.927167 0.019691 0.019667
0.004943 0.072505 0.004927
0.070604 0.073901 0.006320
0.187907 0.076394 0.008808
0.309227 0.078973 0.011382
0.432985 0.081605 0.014007
0.558526 0.084275 0.016670
0.685484 0.086976 0.019364
0.813626 0.089704 0.022082
0.932096 0.092227 0.024596
0.013529 0.198137 0.013464
0.079218 0.199539 0.014858
0.196569 0.202039 0.017348
0.317949 0.204625 0.019923
0.441778 0.207265 0.022550
0.567401 0.209943 0.025216
0.694453 0.212654 0.027911
0.822701 0.215391 0.030633
0.940635 0.217910 0.033135
0.022324 0.326351 0.022177
0.088049 0.327762 0.023572
0.205466 0.330271 0.026064
0.326924 0.332867 0.028642
0.450842 0.335517 0.031271
0.576566 0.338206 0.033939
0.703730 0.340928 0.036638
0.832102 0.343677 0.039363
0.949352 0.346192 0.041852
0.031258 0.456128 0.030997
0.097030 0.457550 0.032394
0.214529 0.460070 0.034888
0.336082 0.462679 0.037468
0.460108 0.465342 0.040101
0.585950 0.468045 0.042773
0.713245 0.470781 0.045475
0.841759 0.473545 0.048203
0.958175 0.476054 0.050675
0.040304 0.587055 0.039896
0.106132 0.588489 0.041295
0.223730 0.591024 0.043792
0.345396 0.593648 0.046375
0.469546 0.596326 0.049012
0.595526 0.599045 0.051687
0.722970 0.601798 0.054393
0.851646 0.604579 0.057126
0.967078 0.607081 0.059578
0.049446 0.718905 0.048859
0.115339 0.720355 0.050260
0.233054 0.722907 0.052760
0.354850 0.725548 0.055347
0.479144 0.728244 0.057988
0.605279 0.730982 0.060667
0.732890 0.733754 0.063378
0.861745 0.736555 0.066116
0.976045 0.739050 0.068545
0.058674 0.851539 0.057875
0.124643 0.853007 0.059279
0.242492 0.855579 0.061783
0.364435 0.858240 0.064374
0.488889 0.860957 0.067019
0.615198 0.863716 0.069704
0.742995 0.866510 0.072420
0.872049 0.869333 0.075163
0.985066 0.871819 0.077566
0.067223 0.973679 0.066179
0.133271 0.975080 0.067580
0.251263 0.977582 0.070082
0.373366 0.980172 0.072672
0.497993 0.982815 0.075315
0.624486 0.985498 0.077998
0.752481 0.988213 0.080713
0.881744 0.990955 0.083455
0.993321 0.993321 0.085821
0.000306 0.000306 0.041858
0.065951 0.001699 0.043250
0.183224 0.004188 0.045738
0.304506 0.006762 0.048310
0.428216 0.009389 0.050935
0.553697 0.012055 0.053596
0.680586 0.014751 0.056288
0.808650 0.017472 0.059005
0.927473 0.019999 0.061525
0.005252 0.072812 0.046785
0.070916 0.074209 0.048178
0.188223 0.076702 0.050666
0.309548 0.079281 0.053240
0.433313 0.081913 0.055866
0.558861 0.084584 0.058529
0.685827 0.087286 0.061223
0.813980 0.090014 0.063941
0.932402 0.092537 0.066454
0.013842 0.198446 0.055322
0.079534 0.199849 0.056716
0.196891 0.202349 0.059206
0.318278 0.204936 0.061782
0.442115 0.207576 0.064409
0.567748 0.210255 0.067075
0.694810 0.212966 0.069771
0.823070 0.215704 0.072492
0.940942 0.218222 0.074994
0.022641 0.326662 0.064036
0.088370 0.328074 0.065431
0.205794 0.330583 0.067923
0.327261 0.333180 0.070501
0.451189 0.335831 0.073131
0.576924 0.338521 0.075799
0.704100 0.341244 0.078498
0.832486 0.343994 0.081223
0.949658 0.346508 0.083710
0.031578 0.456443 0.072856
0.097355 0.457865 0.074253
0.214864 0.460387 0.076747
0.336427 0.462996 0.079328
0.460464 0.465660 0.081961
0.586320 0.468364 0.084633
0.713629 0.471101 0.087335
0.842159 0.473866 0.090064
0.958482 0.476373 0.092534
0.040628 0.587374 0.081755
0.106462 0.588809 0.083154
0.224071 0.591345 0.085652
0.345749 0.593970 0.088235
0.469913 0.596649 0.090872
0.595908 0.599369 0.093548
0.723368 0.602123 0.096254
0.852060 0.604905 0.098988
0.967385 0.607406 0.101437
0.049773 0.719229 0.090718
0.115674 0.720680 0.092119
0.233402 0.723233 0.094620
0.355211 0.725875 0.097208
0.479520 0.728573 0.099848
0.605672 0.731312 0.102528
0.733301 0.734085 0.105240
0.862175 0.736887 0.107978
0.976352 0.739380 0.110404
0.059006 0.851869 0.099735
0.124982 0.853338 0.101139
0.242845 0.855910 0.103644
0.364804 0.858573 0.106235
0.489276 0.861291 0.108881
0.615603 0.864052 0.111566
0.743420 0.866847 0.114282
0.872494 0.869671 0.117026
0.985374 0.872155 0.119426
0.067556 0.973985 0.108037
0.133612 0.975386 0.109438
0.251621 0.977889 0.111941
0.373741 0.980479 0.114531
0.498387 0.983123 0.117175
0.624901 0.985806 0.119859
0.752917 0.988522 0.122574
0.882202 0.991264 0.125316
0.993627 0.993627 0.127679
0.001138 0.001137 0.155632
0.066784 0.002530 0.157024
0.184060 0.005020 0.159512
0.305345 0.007595 0.162085
0.429060 0.010222 0.164709
0.554547 0.012888 0.167371
0.681443 0.015584 0.170063
0.809515 0.018306 0.172779
0.928304 0.020832 0.175299
0.006088 0.073644 0.160559
0.071754 0.075042 0.161952
0.189065 0.077535 0.164441
0.310395 0.080115 0.167014
0.434167 0.082747 0.169640
0.559722 0.085419 0.172304
0.686697 0.088121 0.174998
0.814860 0.090850 0.177717
0.933233 0.093372 0.180228
0.014681 0.199280 0.169097
0.080376 0.200684 0.170491
0.197739 0.203184 0.172981
0.319133 0.205772 0.175556
0.442979 0.208412 0.178184
0.568621 0.211092 0.180850
0.695694 0.213804 0.183546
0.823965 0.216543 0.186268
0.941773 0.219060 0.188768
0.023483 0.327500 0.177810
0.089217 0.328912 0.179206
0.206648 0.331422 0.181698
0.328124 0.334019 0.184276
0.452062 0.336671 0.186906
0.577808 0.339362 0.189575
0.704997 0.342086 0.192274
0.833397 0.344836 0.194999
0.950490 0.347349 0.197485
0.032424 0.457284 0.186631
0.098206 0.458707 0.188028
0.215724 0.461229 0.190523
0.337298 0.463839 0.193103
0.461347 0.466504 0.195737
0.587216 0.469209 0.198409
0.714539 0.471947 0.201112
0.843085 0.474712 0.203841
0.959314 0.477219 0.206309
0.041477 0.588218 0.195531
0.107317 0.589655 0.196930
0.224938 0.592192 0.199427
0.346628 0.594817 0.202011
0.470806 0.597497 0.204648
0.596816 0.600219 0.207324
0.724292 0.602974 0.210032
0.853002 0.605757 0.212765
0.968218 0.608256 0.215212
0.050627 0.720078 0.204494
0.116534 0.721531 0.205895
0.234275 0.724085 0.208396
0.356099 0.726728 0.210984
0.480423 0.729427 0.213625
0.606592 0.732167 0.216306
0.734239 0.734941 0.219018
0.863133 0.737745 0.221756
0.977185 0.740236 0.224180
0.059862 0.852724 0.213511
0.125847 0.854194 0.214915
0.243725 0.856768 0.217420
0.365700 0.859431 0.220012
0.490189 0.862151 0.222658
0.616535 0.864913 0.225344
0.744372 0.867710 0.228061
0.873467 0.870536 0.230805
0.986207 0.873018 0.233202
0.068415 0.974817 0.221812
0.134480 0.976218 0.223213
0.252505 0.978721 0.225716
0.374643 0.981312 0.228307
0.499308 0.983956 0.230951
0.625842 0.986640 0.233635
0.753879 0.989356 0.236351
0.883188 0.992098 0.239093
0.994458 0.994458 0.241453
0.002023 0.002022 0.276673
0.067671 0.003415 0.278066
0.184950 0.005905 0.280553
0.306239 0.008480 0.283126
0.429958 0.011108 0.285750
0.555451 0.013774 0.288412
0.682355 0.016471 0.291104
0.810435 0.019193 0.293821
0.929189 0.021719 0.296341
0.006976 0.074530 0.281600
0.072645 0.075928 0.282993
0.189960 0.078422 0.285482
0.311297 0.081002 0.288056
0.435074 0.083635 0.290682
0.560638 0.086307 0.293346
0.687622 0.089010 0.296040
0.815795 0.091739 0.298759
0.934118 0.094260 0.301270
0.015573 0.200168 0.290138
0.081271 0.201572 0.291532
0.198640 0.204073 0.294022
0.320042 0.206661 0.296598
0.443897 0.209302 0.299226
0.569548 0.211983 0.301892
0.696632 0.214695 0.304589
0.824915 0.217434 0.307311
0.942658 0.219951 0.309810
0.024378 0.328390 0.298852
0.090117 0.329803 0.300248
0.207556 0.332314 0.302740
0.329041 0.334912 0.305318
0.452990 0.337564 0.307949
0.578747 0.340256 0.310618
0.705949 0.342980 0.313317
0.834362 0.345732 0.316043
0.951375 0.348243 0.318527
0.033323 0.458177 0.307673
0.099111 0.459601 0.309070
0.216638 0.462124 0.311565
0.338223 0.464735 0.314146
0.462285 0.467401 0.316780
0.588167 0.470107 0.319452
0.715505 0.472846 0.322156
0.844066 0.475612 0.324885
0.960199 0.478117 0.327351
0.042380 0.589116 0.316573
0.108227 0.590554 0.317972
0.225858 0.593091 0.320470
0.347561 0.595718 0.323055
0.471753 0.598399 0.325692
0.597778 0.601122 0.328368
0.725270 0.603878 0.331076
0.853998 0.606662 0.333810
0.969103 0.609160 0.336255
0.051533 0.720981 0.325537
0.117448 0.722434 0.326938
0.235202 0.724990 0.329440
0.357040 0.727634 0.332028
0.481380 0.730334 0.334669
0.607566 0.733076 0.337350
0.735231 0.735851 0.340063
0.864144 0.738656 0.342801
0.978071 0.741145 0.345223
0.060773 0.853632 0.334554
0.126766 0.855104 0.335959
0.244658 0.857679 0.338464
0.366649 0.860344 0.341057
0.491156 0.863065 0.343703
0.617520 0.865828 0.346389
0.745377 0.868626 0.349106
0.874494 0.871453 0.351851
0.987093 0.873933 0.354245
0.069327 0.975702 0.342853
0.135401 0.977103 0.344255
0.253443 0.979607 0.346759
0.375598 0.982198 0.349349
0.500282 0.984842 0.351994
0.626837 0.987527 0.354678
0.754897 0.990243 0.357395
0.884228 0.992986 0.360138
0.995343 0.995343 0.362494
0.002939 0.002937 0.401901
0.068588 0.004331 0.403294
0.185870 0.006821 0.405781
0.307163 0.009396 0.408354
0.430887 0.012024 0.410979
0.556387 0.014691 0.413641
0.683298 0.017388 0.416333
0.811387 0.020111 0.419050
0.930104 0.022636 0.421569
0.007896 0.075447 0.406829
0.073567 0.076845 0.408222
0.190887 0.079339 0.410711
0.312229 0.081920 0.413285
0.436014 0.084553 0.415911
0.561585 0.087225 0.418575
0.688579 0.089929 0.421269
0.816762 0.092659 0.423989
0.935033 0.095179 0.426498
0.016496 0.201086 0.415366
0.082198 0.202491 0.416761
0.199573 0.204993 0.419251
0.320983 0.207581 0.421827
0.444846 0.210223 0.424455
0.570507 0.212904 0.427122
0.697602 0.215617 0.429819
0.825898 0.218357 0.432541
0.943573 0.220873 0.435038
0.025305 0.329311 0.424081
0.091048 0.330724 0.425476
0.208495 0.333236 0.427969
0.329989 0.335835 0.430547
0.453949 0.338488 0.433178
0.579718 0.341181 0.435847
0.706932 0.343906 0.438547
0.835360 0.346658 0.441273
0.952290 0.349169 0.443755
0.034254 0.459102 0.432902
0.100047 0.460527 0.434300
0.217584 0.463051 0.436795
0.339180 0.465663 0.439376
0.463253 0.468329 0.442010
0.589149 0.471036 0.444683
0.716502 0.473776 0.447386
0.845079 0.476543 0.450116
0.961115 0.479047 0.452580
0.043314 0.590045 0.441802
0.109167 0.591483 0.443202
0.226810 0.594022 0.445700
0.348526 0.596650 0.448285
0.472732 0.599332 0.450922
0.598772 0.602056 0.453599
0.726281 0.604813 0.456307
0.855027 0.607598 0.459041
0.970019 0.610094 0.461484
0.052471 0.721915 0.450766
0.118393 0.723369 0.452168
0.236160 0.725926 0.454670
0.358013 0.728571 0.457259
0.482369 0.731272 0.459901
0.608571 0.734015 0.462582
0.736255 0.736792 0.465295
0.865188 0.739598 0.468034
0.978988 0.742085 0.470453
0.061714 0.854572 0.459784
0.127715 0.856044 0.461189
0.245622 0.858621 0.463695
0.367630 0.861287 0.466288
0.492155 0.864009 0.468935
0.618538 0.866774 0.471621
0.746415 0.869573 0.474339
0.875554 0.872402 0.477084
0.988010 0.874880 0.479475
0.070270 0.976617 0.468082
0.136353 0.978019 0.469484
0.254411 0.980523 0.471988
0.376585 0.983114 0.474579
0.501289 0.985759 0.477224
0.627864 0.988444 0.479909
0.755946 0.991160 0.482625
0.885301 0.993904 0.485369
0.996258 0.996258 0.487723
0.003877 0.003874 0.530134
0.069528 0.005268 0.531527
0.186813 0.007759 0.534015
0.308111 0.010335 0.536588
0.431840 0.012963 0.539212
0.557346 0.015630 0.541875
0.684264 0.018328 0.544567
0.812362 0.021051 0.547285
0.931041 0.023576 0.549802
0.008837 0.076385 0.535062
0.074511 0.077783 0.536455
0.191836 0.080278 0.538944
0.313184 0.082859 0.541518
0.436976 0.085493 0.544145
0.562556 0.088166 0.546809
0.689559 0.090870 0.549503
0.817752 0.093600 0.552223
0.935970 0.096120 0.554731
0.017441 0.202027 0.543600
0.083147 0.203432 0.544994
0.200529 0.205934 0.547485
0.321946 0.208523 0.550061
0.445818 0.211166 0.552690
0.571489 0.213848 0.555356
0.698595 0.216562 0.558053
0.826903 0.219302 0.560776
0.944511 0.221817 0.563272
0.026254 0.330254 0.552315
0.092001 0.331668 0.553710
0.209457 0.334181 0.556203
0.330960 0.336780 0.558782
0.454930 0.339434 0.561413
0.580712 0.342128 0.564082
0.707939 0.344854 0.566783
0.836381 0.347607 0.569509
0.953228 0.350116 0.571989
0.035206 0.460049 0.561136
0.101005 0.461474 0.562534
0.218552 0.463999 0.565029
0.340159 0.466612 0.567611
0.464245 0.469279 0.570245
0.590154 0.471987 0.572918
0.717522 0.474728 0.575622
0.846115 0.477496 0.578352
0.962053 0.479999 0.580814
0.044270 0.590996 0.570037
0.110130 0.592435 0.571437
0.227784 0.594975 0.573935
0.349513 0.597604 0.576520
0.473733 0.600287 0.579158
0.599789 0.603012 0.581835
0.727315 0.605770 0.584544
0.856079 0.608557 0.587278
0.970957 0.611051 0.589719
0.053430 0.722871 0.579001
0.119360 0.724326 0.580403
0.237140 0.726884 0.582905
0.359008 0.729530 0.585494
0.483380 0.732233 0.588137
0.609600 0.734977 0.590818
0.737303 0.737755 0.593532
0.866256 0.740562 0.596272
0.979926 0.743048 0.598687
0.062677 0.855533 0.588020
0.128687 0.857007 0.589425
0.246609 0.859585 0.591931
0.368634 0.862252 0.594524
0.493176 0.864976 0.597171
0.619579 0.867742 0.599858
0.747477 0.870543 0.602577
0.876637 0.873373 0.605322
0.988949 0.875849 0.607711
0.071235 0.977554 0.596316
0.137328 0.978956 0.597718
0.255403 0.981461 0.600222
0.377595 0.984052 0.602814
0.502318 0.986698 0.605459
0.628914 0.989383 0.608144
0.757018 0.992100 0.610862
0.886397 0.994844 0.613606
0.997194 0.997194 0.615956
0.004833 0.004829 0.660729
0.070486 0.006223 0.662121
0.187774 0.008714 0.664609
0.309076 0.011290 0.667182
0.432811 0.013919 0.669807
0.558324 0.016586 0.672470
0.685250 0.019284 0.675162
0.813356 0.022008 0.677880
0.931995 0.024532 0.680397
0.009797 0.077341 0.665656
0.075473 0.078740 0.667050
0.192803 0.081235 0.669539
0.314158 0.083817 0.672113
0.437957 0.086451 0.674740
0.563545 0.089124 0.677404
0.690557 0.091829 0.680099
0.818761 0.094560 0.682819
0.936924 0.097078 0.685326
0.018404 0.202985 0.674195
0.084114 0.204390 0.675589
0.201502 0.206893 0.678080
0.322927 0.209483 0.680656
0.446808 0.212126 0.683285
0.572490 0.214809 0.685952
0.699607 0.217523 0.688649
0.827928 0.220264 0.691372
0.945465 0.222778 0.693867
0.027220 0.331215 0.682910
0.092972 0.332630 0.684306
0.210437 0.335143 0.686798
0.331949 0.337743 0.689377
0.455931 0.340398 0.692009
0.581724 0.343092 0.694678
0.708965 0.345819 0.697379
0.837421 0.348573 0.700106
0.954183 0.351081 0.702584
0.036176 0.461013 0.691732
0.101980 0.462439 0.693129
0.219537 0.464965 0.695625
0.341156 0.467579 0.698207
0.465255 0.470247 0.700841
0.591178 0.472956 0.703515
0.718561 0.475697 0.706219
0.847170 0.478467 0.708950
0.963008 0.480968 0.711410
0.045244 0.591965 0.700633
0.111110 0.593405 0.702032
0.228777 0.595945 0.704531
0.350518 0.598575 0.707117
0.474753 0.601260 0.709755
0.600824 0.603985 0.712432
0.728367 0.606745 0.715141
0.857149 0.609532 0.717876
0.971913 0.612025 0.720314
0.054408 0.723845 0.709597
0.120345 0.725301 0.711000
0.238139 0.727859 0.713502
0.360021 0.730507 0.716091
0.484410 0.733211 0.718734
0.610648 0.735956 0.721416
0.738369 0.738736 0.724130
0.867342 0.741544 0.726870
0.980882 0.744028 0.729284
0.063659 0.856513 0.718616
0.129677 0.857988 0.720021
0.247614 0.860567 0.722528
0.369656 0.863235 0.725122
0.494216 0.865961 0.727769
0.620638 0.868728 0.730457
0.748556 0.871530 0.733176
0.877738 0.874362 0.735922
0.989906 0.876836 0.738307
0.072218 0.978509 0.726911
0.138320 0.979911 0.728313
0.256412 0.982416 0.730818
0.378622 0.985008 0.733410
0.503365 0.987654 0.736055
0.629983 0.990340 0.738741
0.758109 0.993057 0.741459
0.887511 0.995802 0.744203
0.998148 0.998148 0.746550
0.005804 0.005798 0.793275
0.071459 0.007192 0.794668
0.188750 0.009683 0.797156
0.310056 0.012260 0.799729
0.433797 0.014889 0.802354
0.559317 0.017557 0.805017
0.686250 0.020256 0.807710
0.814366 0.022980 0.810427
0.932964 0.025503 0.812943
0.010771 0.078311 0.798203
0.076450 0.079710 0.799597
0.193785 0.082206 0.802086
0.315146 0.084788 0.804660
0.438952 0.087423 0.807287
0.564549 0.090097 0.809952
0.691571 0.092802 0.812647
0.819786 0.095533 0.815367
0.937893 0.098051 0.817873
0.019382 0.203957 0.806742
0.085095 0.205363 0.808136
0.202490 0.207867 0.810627
0.323923 0.210457 0.813204
0.447814 0.213101 0.815833
0.573506 0.215784 0.818500
0.700635 0.218499 0.821197
0.828968 0.221241 0.823921
0.946434 0.223754 0.826414
0.028201 0.332190 0.815457
0.093958 0.333606 0.816853
0.211431 0.336119 0.819346
0.332954 0.338721 0.821925
0.456946 0.341376 0.824557
0.582751 0.344071 0.827227
0.710006 0.346799 0.829928
0.838476 0.349554 0.832655
0.955152 0.352060 0.835132
0.037161 0.461992 0.824279
0.102971 0.463419 0.825677
0.220538 0.465945 0.828173
0.342168 0.468560 0.830755
0.466280 0.471229 0.833390
0.592217 0.473939 0.836064
0.719615 0.476682 0.838768
0.848241 0.479452 0.841499
0.963977 0.481951 0.843957
0.046232 0.592948 0.833180
0.112105 0.594389 0.834580
0.229784 0.596930 0.837080
0.351539 0.599561 0.839665
0.475788 0.602247 0.842304
0.601875 0.604974 0.844982
0.729436 0.607734 0.847691
0.858236 0.610523 0.850427
0.972883 0.613014 0.852862
0.055400 0.724833 0.842146
0.121345 0.726290 0.843548
0.239152 0.728850 0.846051
0.361050 0.731499 0.848641
0.485455 0.734204 0.851284
0.611710 0.736950 0.853966
0.739451 0.739731 0.856680
0.868444 0.742541 0.859421
0.981852 0.745022 0.861832
0.064654 0.857507 0.851165
0.130682 0.858983 0.852570
0.248634 0.861563 0.855077
0.370692 0.864233 0.857672
0.495271 0.866960 0.860320
0.621712 0.869728 0.863007
0.749652 0.872532 0.865727
0.878856 0.875365 0.868474
0.990876 0.877837 0.870856
0.073215 0.979478 0.859458
0.139327 0.980880 0.860860
0.257436 0.983385 0.863365
0.379665 0.985978 0.865958
0.504428 0.988624 0.868604
0.631067 0.991310 0.871290
0.759216 0.994028 0.874008
0.888642 0.996774 0.876753
0.999117 0.999117 0.879096
0.006690 0.006682 0.914179
0.072347 0.008077 0.915572
0.189642 0.010568 0.918060
0.310953 0.013145 0.920633
0.434699 0.015775 0.923258
0.560226 0.018443 0.925921
0.687167 0.021142 0.928614
0.815292 0.023867 0.931332
0.933847 0.026389 0.933847
0.011660 0.079197 0.919107
0.077343 0.080596 0.920500
0.194683 0.083092 0.922990
0.316050 0.085675 0.925565
0.439864 0.088310 0.928191
0.565470 0.090985 0.930856
0.692502 0.093690 0.933551
0.820728 0.096422 0.936272
0.938777 0.098939 0.938777
0.020274 0.204845 0.927646
0.085992 0.206251 0.929040
0.203394 0.208755 0.931531
0.324835 0.211346 0.934108
0.448735 0.213991 0.936737
0.574438 0.216675 0.939405
0.701578 0.219390 0.942103
0.829925 0.222133 0.944826
0.947318 0.224644 0.947318
0.029098 0.333081 0.936361
0.094859 0.334497 0.937757
0.212341 0.337011 0.940251
0.333874 0.339613 0.942830
0.457877 0.342269 0.945462
0.583695 0.344965 0.948132
0.710963 0.347693 0.950834
0.839448 0.350449 0.953561
0.956036 0.352954 0.956036
0.038061 0.462886 0.945184
0.103877 0.464313 0.946582
0.221454 0.466841 0.949078
0.343096 0.469456 0.951660
0.467221 0.472126 0.954295
0.593173 0.474837 0.956969
0.720586 0.477581 0.959675
0.849229 0.480352 0.962406
0.964862 0.482850 0.964862
0.047136 0.593846 0.954085
0.113015 0.595288 0.955486
0.230706 0.597831 0.957985
0.352475 0.600462 0.960571
0.476739 0.603149 0.963210
0.602843 0.605877 0.965888
0.730420 0.608638 0.968598
0.859239 0.611428 0.971334
0.973767 0.613918 0.973767
0.056307 0.725736 0.963051
0.122260 0.727194 0.964454
0.240081 0.729755 0.966957
0.361994 0.732406 0.969547
0.486416 0.735112 0.972190
0.612689 0.737859 0.974873
0.740449 0.740641 0.977588
0.869462 0.743452 0.980329
0.982737 0.745932 0.982737
0.065566 0.858416 0.972071
0.131601 0.859893 0.973476
0.249570 0.862475 0.975984
0.371645 0.865146 0.978579
0.496242 0.867874 0.981227
0.622703 0.870644 0.983915
0.750663 0.873449 0.986635
0.879890 0.876284 0.989382
0.991762 0.878753 0.991762
0.074128 0.980362 0.980362
0.140250 0.981764 0.981764
0.258376 0.984270 0.984270
0.380623 0.986863 0.986863
0.505406 0.989509 0.989509
0.632067 0.992196 0.992196
0.760238 0.994915 0.994915
0.889689 0.997660 0.997660
1.000000 1.000000 1.000000
