library/cube/Velvet_Noir_001.cube
# CINEGRADE LAB — Premium Cinematic LUT
# Title: Velvet Noir
# Category: Luxury Editorial
# Description: Rich blacks, soft contrast, warm skin tones for high-end editorial photography
# Mood: Sophisticated, elegant, polished
# Variant: 2
# Generated: 2026-05-21T16:12:10.425497
TITLE "Velvet Noir"
LUT_3D_SIZE 33
0.000000 0.000000 0.000000
0.000000 0.000000 0.000000
0.010412 0.000221 0.000221
0.037491 0.000795 0.000795
0.065644 0.001393 0.001392
0.094402 0.002003 0.002002
0.123591 0.002622 0.002621
0.153115 0.003249 0.003248
0.182915 0.003881 0.003880
0.212949 0.004519 0.004517
0.243189 0.005161 0.005158
0.273609 0.005806 0.005804
0.304193 0.006456 0.006452
0.334925 0.007108 0.007104
0.365793 0.007763 0.007759
0.396787 0.008422 0.008416
0.427898 0.009082 0.009076
0.459118 0.009745 0.009739
0.490441 0.010410 0.010403
0.521862 0.011078 0.011069
0.553374 0.011747 0.011738
0.584973 0.012418 0.012408
0.616656 0.013091 0.013080
0.648418 0.013766 0.013754
0.680256 0.014443 0.014429
0.712167 0.015121 0.015106
0.744149 0.015800 0.015785
0.776198 0.016481 0.016465
0.808312 0.017164 0.017146
0.840489 0.017848 0.017828
0.872578 0.018530 0.018509
0.904699 0.019213 0.019191
0.927167 0.019691 0.019667
0.000001 0.000000 0.000000
0.000002 0.000001 0.000000
0.010415 0.000222 0.000221
0.037495 0.000796 0.000795
0.065648 0.001394 0.001393
0.094408 0.002004 0.002003
0.123598 0.002624 0.002622
0.153124 0.003250 0.003248
0.182926 0.003883 0.003880
0.212962 0.004521 0.004517
0.243204 0.005163 0.005159
0.273626 0.005809 0.005804
0.304213 0.006458 0.006453
0.334947 0.007111 0.007105
0.365818 0.007767 0.007760
0.396815 0.008425 0.008417
0.427929 0.009086 0.009077
0.459153 0.009749 0.009739
0.490480 0.010415 0.010404
0.521904 0.011082 0.011071
0.553420 0.011752 0.011739
0.585023 0.012423 0.012410
0.616710 0.013097 0.013082
0.648476 0.013772 0.013756
0.680319 0.014448 0.014431
0.712235 0.015127 0.015108
0.744221 0.015806 0.015787
0.776275 0.016488 0.016467
0.808395 0.017171 0.017148
0.840578 0.017855 0.017831
0.872637 0.018536 0.018511
0.904724 0.019219 0.019191
0.927168 0.019696 0.019668
0.000813 0.011911 0.000809
0.000815 0.011912 0.000809
0.011229 0.012133 0.001030
0.038310 0.012708 0.001605
0.066465 0.013306 0.002202
0.095226 0.013916 0.002812
0.124418 0.014536 0.003431
0.153946 0.015163 0.004058
0.183749 0.015796 0.004690
0.213788 0.016434 0.005327
0.244032 0.017076 0.005969
0.274457 0.017722 0.006614
0.305046 0.018372 0.007263
0.335784 0.019025 0.007915
0.366658 0.019681 0.008570
0.397658 0.020339 0.009227
0.428776 0.021001 0.009887
0.460003 0.021664 0.010550
0.491334 0.022330 0.011214
0.522762 0.022998 0.011881
0.554282 0.023668 0.012550
0.585889 0.024339 0.013220
0.617581 0.025013 0.013893
0.649352 0.025688 0.014567
0.681199 0.026365 0.015242
0.713120 0.027044 0.015919
0.745112 0.027724 0.016598
0.777171 0.028406 0.017278
0.809296 0.029089 0.017960
0.841485 0.029774 0.018642
0.873510 0.030455 0.019322
0.905561 0.031137 0.020002
0.927977 0.031614 0.020477
0.002853 0.041854 0.002844
0.002855 0.041855 0.002844
0.013270 0.042076 0.003065
0.040353 0.042651 0.003640
0.068509 0.043249 0.004237
0.097272 0.043860 0.004847
0.126466 0.044480 0.005466
0.155996 0.045108 0.006093
0.185802 0.045741 0.006725
0.215844 0.046379 0.007362
0.246090 0.047022 0.008004
0.276518 0.047668 0.008649
0.307110 0.048318 0.009298
0.337851 0.048972 0.009950
0.368729 0.049628 0.010605
0.399732 0.050287 0.011263
0.430854 0.050948 0.011923
0.462085 0.051612 0.012586
0.493419 0.052278 0.013250
0.524852 0.052947 0.013917
0.556376 0.053617 0.014586
0.587989 0.054289 0.015257
0.619685 0.054963 0.015929
0.651461 0.055639 0.016603
0.683313 0.056316 0.017279
0.715240 0.056995 0.017956
0.747237 0.057676 0.018635
0.779302 0.058358 0.019315
0.811433 0.059042 0.019997
0.843627 0.059727 0.020680
0.875616 0.060408 0.021358
0.907626 0.061089 0.022037
0.930012 0.061566 0.022512
0.004943 0.072505 0.004927
0.004946 0.072506 0.004927
0.015361 0.072728 0.005148
0.042446 0.073303 0.005722
0.070604 0.073901 0.006320
0.099369 0.074512 0.006930
0.128566 0.075133 0.007549
0.158098 0.075760 0.008176
0.187907 0.076394 0.008808
0.217951 0.077033 0.009445
0.248200 0.077676 0.010087
0.278632 0.078322 0.010733
0.309227 0.078973 0.011382
0.339971 0.079627 0.012034
0.370853 0.080283 0.012689
0.401860 0.080943 0.013347
0.432985 0.081605 0.014007
0.464221 0.082269 0.014670
0.495560 0.082935 0.015335
0.526996 0.083604 0.016001
0.558526 0.084275 0.016670
0.590143 0.084948 0.017341
0.621844 0.085622 0.018014
0.653626 0.086298 0.018688
0.685484 0.086976 0.019364
0.717415 0.087656 0.020041
0.749418 0.088337 0.020720
0.781489 0.089020 0.021400
0.813626 0.089704 0.022082
0.845827 0.090389 0.022765
0.877776 0.091069 0.023443
0.909742 0.091750 0.024121
0.932096 0.092227 0.024596
0.007062 0.103551 0.007036
0.007065 0.103552 0.007037
0.017482 0.103774 0.007258
0.044568 0.104350 0.007832
0.072729 0.104949 0.008430
0.101497 0.105560 0.009040
0.130695 0.106181 0.009659
0.160230 0.106809 0.010286
0.190042 0.107443 0.010918
0.220089 0.108082 0.011556
0.250342 0.108725 0.012197
0.280777 0.109372 0.012843
0.311376 0.110023 0.013492
0.342124 0.110677 0.014144
0.373009 0.111334 0.014800
0.404021 0.111994 0.015458
0.435150 0.112657 0.016118
0.466390 0.113321 0.016781
0.497734 0.113988 0.017446
0.529175 0.114658 0.018113
0.560709 0.115329 0.018782
0.592332 0.116002 0.019453
0.624038 0.116677 0.020125
0.655825 0.117354 0.020800
0.687689 0.118032 0.021476
0.719627 0.118712 0.022153
0.751636 0.119394 0.022832
0.783713 0.120077 0.023513
0.815856 0.120762 0.024195
0.848064 0.121448 0.024878
0.879968 0.122128 0.025555
0.911887 0.122808 0.026232
0.934206 0.123284 0.026706
0.009202 0.134876 0.009165
0.009206 0.134877 0.009165
0.019624 0.135100 0.009386
0.046712 0.135676 0.009961
0.074875 0.136275 0.010558
0.103646 0.136887 0.011169
0.132847 0.137508 0.011788
0.162385 0.138137 0.012415
0.192200 0.138771 0.013047
0.222251 0.139410 0.013685
0.252507 0.140054 0.014327
0.282945 0.140702 0.014973
0.313548 0.141353 0.015622
0.344300 0.142008 0.016274
0.375189 0.142665 0.016930
0.406206 0.143325 0.017588
0.437340 0.143988 0.018248
0.468584 0.144654 0.018911
0.499933 0.145321 0.019576
0.531379 0.145991 0.020243
0.562919 0.146663 0.020912
0.594547 0.147336 0.021583
0.626259 0.148012 0.022256
0.658052 0.148689 0.022931
0.689922 0.149368 0.023607
0.721865 0.150049 0.024285
0.753881 0.150731 0.024964
0.785964 0.151415 0.025645
0.818115 0.152100 0.026327
0.850329 0.152787 0.027010
0.882187 0.153466 0.027686
0.914053 0.154145 0.028362
0.936335 0.154622 0.028835
0.011358 0.166417 0.011308
0.011363 0.166419 0.011309
0.021782 0.166642 0.011530
0.048873 0.167219 0.012104
0.077039 0.167818 0.012702
0.105812 0.168431 0.013312
0.135017 0.169052 0.013932
0.164558 0.169681 0.014559
0.194376 0.170316 0.015191
0.224431 0.170956 0.015829
0.254691 0.171600 0.016471
0.285133 0.172248 0.017117
0.315740 0.172900 0.017766
0.346496 0.173555 0.018419
0.377390 0.174213 0.019074
0.408411 0.174874 0.019732
0.439550 0.175537 0.020393
0.470800 0.176203 0.021056
0.502153 0.176871 0.021721
0.533605 0.177541 0.022389
0.565151 0.178214 0.023058
0.596784 0.178888 0.023729
0.628502 0.179564 0.024402
0.660301 0.180242 0.025077
0.692177 0.180922 0.025753
0.724127 0.181603 0.026431
0.756149 0.182286 0.027110
0.788240 0.182970 0.027791
0.820397 0.183656 0.028474
0.852619 0.184343 0.029157
0.884425 0.185022 0.029832
0.916237 0.185701 0.030507
0.938479 0.186177 0.030979
0.013529 0.198137 0.013464
0.013534 0.198139 0.013464
0.023955 0.198362 0.013685
0.051049 0.198939 0.014260
0.079218 0.199539 0.014858
0.107994 0.200152 0.015468
0.137202 0.200774 0.016088
0.166747 0.201404 0.016715
0.196569 0.202039 0.017348
0.226627 0.202679 0.017985
0.256891 0.203324 0.018627
0.287338 0.203973 0.019273
0.317949 0.204625 0.019923
0.348710 0.205281 0.020576
0.379608 0.205939 0.021231
0.410634 0.206601 0.021889
0.441778 0.207265 0.022550
0.473033 0.207931 0.023213
0.504393 0.208600 0.023879
0.535850 0.209270 0.024546
0.567401 0.209943 0.025216
0.599041 0.210618 0.025887
0.630765 0.211295 0.026560
0.662570 0.211973 0.027235
0.694453 0.212654 0.027911
0.726410 0.213336 0.028590
0.758439 0.214019 0.029269
0.790537 0.214704 0.029950
0.822701 0.215391 0.030633
0.854930 0.216079 0.031317
0.886683 0.216757 0.031990
0.918435 0.217435 0.032664
0.940635 0.217910 0.033135
0.015712 0.230007 0.015630
0.015718 0.230010 0.015630
0.026140 0.230234 0.015851
0.053237 0.230811 0.016426
0.081409 0.231412 0.017024
0.110189 0.232025 0.017635
0.139400 0.232647 0.018254
0.168949 0.233277 0.018881
0.198775 0.233913 0.019514
0.228837 0.234554 0.020152
0.259106 0.235199 0.020794
0.289557 0.235849 0.021440
0.320173 0.236502 0.022090
0.350939 0.237158 0.022743
0.381842 0.237817 0.023398
0.412873 0.238479 0.024057
0.444023 0.239143 0.024718
0.475283 0.239810 0.025381
0.506648 0.240480 0.026047
0.538112 0.241151 0.026714
0.569669 0.241825 0.027384
0.601315 0.242500 0.028055
0.633046 0.243178 0.028729
0.664858 0.243857 0.029404
0.696747 0.244538 0.030080
0.728712 0.245220 0.030759
0.760748 0.245905 0.031439
0.792853 0.246590 0.032120
0.825025 0.247278 0.032802
0.857261 0.247966 0.033487
0.888957 0.248644 0.034159
0.920647 0.249321 0.034832
0.942802 0.249796 0.035302
0.017907 0.262009 0.017805
0.017913 0.262012 0.017805
0.028337 0.262236 0.018026
0.055437 0.262814 0.018601
0.083612 0.263415 0.019199
0.112396 0.264029 0.019810
0.141611 0.264652 0.020430
0.171164 0.265283 0.021057
0.200994 0.265919 0.021690
0.231061 0.266561 0.022328
0.261334 0.267207 0.022970
0.291790 0.267857 0.023616
0.322411 0.268510 0.024266
0.353182 0.269167 0.024919
0.384091 0.269827 0.025575
0.415127 0.270489 0.026233
0.446282 0.271154 0.026894
0.477549 0.271822 0.027558
0.508920 0.272492 0.028224
0.540390 0.273164 0.028891
0.571953 0.273838 0.029561
0.603606 0.274515 0.030233
0.635343 0.275193 0.030906
0.667162 0.275873 0.031582
0.699059 0.276554 0.032259
0.731030 0.277238 0.032937
0.763074 0.277922 0.033617
0.795187 0.278609 0.034298
0.827367 0.279297 0.034981
0.859612 0.279986 0.035666
0.891245 0.280663 0.036337
0.922870 0.281339 0.037008
0.944977 0.281814 0.037477
0.020111 0.294127 0.019987
0.020118 0.294131 0.019988
0.030543 0.294356 0.020209
0.057647 0.294935 0.020784
0.085826 0.295536 0.021382
0.114613 0.296151 0.021993
0.143833 0.296774 0.022613
0.173390 0.297405 0.023240
0.203224 0.298042 0.023873
0.233296 0.298684 0.024511
0.263574 0.299331 0.025154
0.294035 0.299982 0.025800
0.324661 0.300636 0.026450
0.355438 0.301293 0.027103
0.386352 0.301954 0.027759
0.417394 0.302617 0.028418
0.448556 0.303283 0.029079
0.479828 0.303951 0.029743
0.511206 0.304622 0.030409
0.542682 0.305295 0.031077
0.574252 0.305969 0.031747
0.605912 0.306646 0.032419
0.637657 0.307325 0.033092
0.669483 0.308006 0.033768
0.701387 0.308688 0.034445
0.733366 0.309372 0.035123
0.765417 0.310058 0.035804
0.797538 0.310745 0.036485
0.829726 0.311434 0.037168
0.861979 0.312124 0.037853
0.893549 0.312800 0.038523
0.925103 0.313476 0.039193
0.947161 0.313950 0.039661
0.022324 0.326351 0.022177
0.022332 0.326355 0.022178
0.032759 0.326580 0.022399
0.059866 0.327160 0.022974
0.088049 0.327762 0.023572
0.116841 0.328377 0.024183
0.146065 0.329001 0.024803
0.175626 0.329633 0.025431
0.205466 0.330271 0.026064
0.235542 0.330913 0.026702
0.265825 0.331561 0.027345
0.296292 0.332212 0.027991
0.326924 0.332867 0.028642
0.357706 0.333525 0.029295
0.388626 0.334186 0.029951
0.419675 0.334850 0.030610
0.450842 0.335517 0.031271
0.482121 0.336186 0.031935
0.513505 0.336857 0.032601
0.544988 0.337531 0.033269
0.576566 0.338206 0.033939
0.608232 0.338884 0.034612
0.639984 0.339564 0.035285
0.671818 0.340245 0.035961
0.703730 0.340928 0.036638
0.735717 0.341613 0.037317
0.767776 0.342300 0.037998
0.799905 0.342988 0.038680
0.832102 0.343677 0.039363
0.864364 0.344368 0.040048
0.895865 0.345043 0.040716
0.927347 0.345718 0.041384
0.949352 0.346192 0.041852
0.024546 0.358670 0.024374
0.024554 0.358675 0.024374
0.034984 0.358901 0.024596
0.062095 0.359480 0.025171
0.090282 0.360083 0.025769
0.119078 0.360699 0.026380
0.148306 0.361324 0.027001
0.177873 0.361956 0.027628
0.207718 0.362595 0.028261
0.237799 0.363238 0.028900
0.268088 0.363886 0.029543
0.298560 0.364538 0.030189
0.329197 0.365194 0.030840
0.359986 0.365852 0.031493
0.390912 0.366514 0.032149
0.421967 0.367179 0.032808
0.453141 0.367846 0.033470
0.484427 0.368516 0.034134
0.515818 0.369188 0.034800
0.547308 0.369863 0.035469
0.578893 0.370539 0.036139
0.610567 0.371218 0.036811
0.642326 0.371898 0.037485
0.674168 0.372581 0.038161
0.706088 0.373265 0.038839
0.738083 0.373950 0.039518
0.770151 0.374638 0.040198
0.802288 0.375327 0.040881
0.834494 0.376017 0.041564
0.866764 0.376709 0.042249
0.898194 0.377383 0.042916
0.929599 0.378057 0.043583
0.951549 0.378530 0.044049
0.026776 0.391077 0.026576
0.026785 0.391082 0.026577
0.037216 0.391308 0.026798
0.064332 0.391889 0.027374
0.092523 0.392492 0.027972
0.121324 0.393109 0.028583
0.150557 0.393735 0.029204
0.180129 0.394368 0.029831
0.209979 0.395007 0.030465
0.240066 0.395651 0.031103
0.270360 0.396300 0.031746
0.300838 0.396952 0.032393
0.331482 0.397609 0.033044
0.362276 0.398268 0.033697
0.393210 0.398931 0.034354
0.424271 0.399597 0.035013
0.455452 0.400265 0.035675
0.486745 0.400935 0.036339
0.518143 0.401608 0.037005
0.549641 0.402284 0.037674
0.581233 0.402961 0.038345
0.612915 0.403640 0.039017
0.644682 0.404322 0.039691
0.676532 0.405005 0.040367
0.708460 0.405690 0.041045
0.740463 0.406376 0.041724
0.772540 0.407064 0.042405
0.804686 0.407754 0.043088
0.836901 0.408446 0.043772
0.869181 0.409139 0.044457
0.900536 0.409812 0.045122
0.931860 0.410485 0.045787
0.953752 0.410958 0.046252
0.029014 0.423565 0.028784
0.029023 0.423571 0.028785
0.039457 0.423798 0.029006
0.066576 0.424379 0.029582
0.094773 0.424983 0.030181
0.123578 0.425600 0.030792
0.152817 0.426227 0.031412
0.182394 0.426861 0.032040
0.212250 0.427501 0.032674
0.242343 0.428146 0.033313
0.272643 0.428795 0.033956
0.303127 0.429449 0.034603
0.333777 0.430106 0.035253
0.364578 0.430766 0.035907
0.395518 0.431430 0.036564
0.426586 0.432096 0.037223
0.457774 0.432765 0.037885
0.489074 0.433437 0.038550
0.520480 0.434110 0.039216
0.551985 0.434786 0.039885
0.583585 0.435465 0.040556
0.615275 0.436145 0.041229
0.647051 0.436827 0.041903
0.678909 0.437511 0.042579
0.710846 0.438197 0.043257
0.742858 0.438884 0.043937
0.774943 0.439574 0.044618
0.807099 0.440264 0.045301
0.839323 0.440957 0.045985
0.871612 0.441651 0.046670
0.902889 0.442323 0.047334
0.934129 0.442995 0.047997
0.955961 0.443467 0.048461
0.031258 0.456128 0.030997
0.031269 0.456135 0.030998
0.041704 0.456363 0.031220
0.068829 0.456945 0.031796
0.097030 0.457550 0.032394
0.125841 0.458168 0.033006
0.155085 0.458795 0.033626
0.184668 0.459430 0.034254
0.214529 0.460070 0.034888
0.244628 0.460716 0.035527
0.274935 0.461366 0.036170
0.305425 0.462021 0.036818
0.336082 0.462679 0.037468
0.366890 0.463340 0.038122
0.397837 0.464005 0.038779
0.428912 0.464672 0.039439
0.460108 0.465342 0.040101
0.491415 0.466014 0.040766
0.522829 0.466689 0.041433
0.554342 0.467366 0.042102
0.585950 0.468045 0.042773
0.617648 0.468726 0.043446
0.649433 0.469409 0.044120
0.681299 0.470094 0.044797
0.713245 0.470781 0.045475
0.745266 0.471469 0.046155
0.777361 0.472160 0.046836
0.809526 0.472851 0.047519
0.841759 0.473545 0.048203
0.874059 0.474239 0.048889
0.905253 0.474911 0.049551
0.936406 0.475582 0.050213
0.958175 0.476054 0.050675
0.033510 0.488763 0.033215
0.033521 0.488770 0.033216
0.043959 0.488999 0.033438
0.071088 0.489582 0.034014
0.099295 0.490188 0.034613
0.128111 0.490806 0.035224
0.157361 0.491435 0.035845
0.186950 0.492070 0.036473
0.216817 0.492711 0.037107
0.246923 0.493358 0.037747
0.277236 0.494009 0.038390
0.307733 0.494665 0.039037
0.338397 0.495323 0.039688
0.369212 0.495986 0.040343
0.400166 0.496651 0.041000
0.431249 0.497319 0.041660
0.462452 0.497990 0.042322
0.493767 0.498663 0.042987
0.525189 0.499339 0.043654
0.556710 0.500017 0.044323
0.588327 0.500697 0.044994
0.620034 0.501379 0.045667
0.651827 0.502063 0.046342
0.683702 0.502749 0.047019
0.715657 0.503437 0.047698
0.747688 0.504126 0.048378
0.779792 0.504817 0.049059
0.811967 0.505510 0.049742
0.844210 0.506205 0.050427
0.876520 0.506901 0.051113
0.907629 0.507571 0.051774
0.938690 0.508241 0.052433
0.960394 0.508712 0.052894
0.035769 0.521465 0.035438
0.035780 0.521473 0.035439
0.046220 0.521702 0.035661
0.073355 0.522286 0.036237
0.101567 0.522892 0.036836
0.130389 0.523512 0.037448
0.159645 0.524141 0.038069
0.189240 0.524777 0.038697
0.219114 0.525420 0.039331
0.249226 0.526067 0.039971
0.279545 0.526720 0.040614
0.310050 0.527376 0.041262
0.340721 0.528035 0.041913
0.371543 0.528699 0.042567
0.402505 0.529365 0.043225
0.433595 0.530034 0.043885
0.464806 0.530706 0.044548
0.496130 0.531380 0.045213
0.527560 0.532057 0.045880
0.559090 0.532736 0.046549
0.590715 0.533417 0.047221
0.622431 0.534100 0.047894
0.654233 0.534785 0.048569
0.686118 0.535472 0.049246
0.718082 0.536161 0.049925
0.750123 0.536851 0.050605
0.782237 0.537543 0.051287
0.814422 0.538237 0.051971
0.846675 0.538933 0.052656
0.878995 0.539630 0.053342
0.910015 0.540299 0.054001
0.940981 0.540968 0.054658
0.962618 0.541438 0.055118
0.038033 0.554230 0.037665
0.038046 0.554238 0.037666
0.048488 0.554469 0.037888
0.075628 0.555053 0.038464
0.103846 0.555661 0.039063
0.132674 0.556281 0.039675
0.161936 0.556911 0.040297
0.191538 0.557548 0.040925
0.221418 0.558192 0.041560
0.251537 0.558840 0.042199
0.281864 0.559493 0.042843
0.312375 0.560150 0.043491
0.343054 0.560811 0.044142
0.373884 0.561475 0.044797
0.404853 0.562143 0.045454
0.435952 0.562813 0.046115
0.467171 0.563485 0.046778
0.498504 0.564161 0.047443
0.529942 0.564838 0.048110
0.561481 0.565518 0.048780
0.593115 0.566201 0.049452
0.624840 0.566885 0.050125
0.656652 0.567571 0.050801
0.688546 0.568259 0.051478
0.720520 0.568949 0.052157
0.752571 0.569640 0.052838
0.784695 0.570334 0.053520
0.816890 0.571029 0.054204
0.849154 0.571725 0.054889
0.881484 0.572423 0.055575
0.912412 0.573092 0.056232
0.943279 0.573759 0.056888
0.964846 0.574229 0.057346
0.040304 0.587055 0.039896
0.040317 0.587064 0.039897
0.050762 0.587295 0.040119
0.077908 0.587881 0.040696
0.106132 0.588489 0.041295
0.134966 0.589111 0.041907
0.164235 0.589742 0.042529
0.193843 0.590380 0.043157
0.223730 0.591024 0.043792
0.253856 0.591674 0.044432
0.284191 0.592328 0.045076
0.314710 0.592986 0.045724
0.345396 0.593648 0.046375
0.376234 0.594313 0.047030
0.407212 0.594981 0.047688
0.438319 0.595652 0.048349
0.469546 0.596326 0.049012
0.500887 0.597002 0.049677
0.532335 0.597681 0.050345
0.563883 0.598362 0.051015
0.595526 0.599045 0.051687
0.627261 0.599731 0.052361
0.659082 0.600418 0.053037
0.690986 0.601107 0.053714
0.722970 0.601798 0.054393
0.755031 0.602491 0.055074
0.787165 0.603185 0.055757
0.819371 0.603881 0.056441
0.851646 0.604579 0.057126
0.883987 0.605278 0.057813
0.914819 0.605946 0.058468
0.945584 0.606612 0.059121
0.967078 0.607081 0.059578
0.042581 0.619937 0.042131
0.042595 0.619948 0.042132
0.053043 0.620180 0.042355
0.080194 0.620766 0.042931
0.108424 0.621375 0.043531
0.137265 0.621998 0.044143
0.166541 0.622630 0.044765
0.196156 0.623269 0.045394
0.226050 0.623914 0.046028
0.256184 0.624565 0.046668
0.286526 0.625220 0.047313
0.317053 0.625879 0.047961
0.347747 0.626542 0.048613
0.378593 0.627208 0.049268
0.409579 0.627877 0.049926
0.440695 0.628550 0.050587
0.471931 0.629225 0.051250
0.503281 0.629902 0.051916
0.534738 0.630582 0.052584
0.566295 0.631264 0.053254
0.597948 0.631948 0.053926
0.629692 0.632635 0.054600
0.661523 0.633323 0.055276
0.693438 0.634013 0.055954
0.725432 0.634705 0.056634
0.757503 0.635399 0.057315
0.789649 0.636095 0.057998
0.821865 0.636792 0.058682
0.854151 0.637491 0.059368
0.886504 0.638192 0.060055
0.917236 0.638858 0.060708
0.947896 0.639523 0.061359
0.969314 0.639992 0.061814
0.044864 0.652875 0.044370
0.044878 0.652886 0.044371
0.055329 0.653119 0.044594
0.082487 0.653706 0.045170
0.110723 0.654317 0.045770
0.139571 0.654940 0.046383
0.168853 0.655573 0.047005
0.198476 0.656213 0.047634
0.228378 0.656860 0.048269
0.258519 0.657511 0.048909
0.288869 0.658167 0.049553
0.319404 0.658828 0.050202
0.350106 0.659492 0.050854
0.380961 0.660159 0.051509
0.411956 0.660829 0.052168
0.443080 0.661503 0.052829
0.474326 0.662179 0.053492
0.505685 0.662857 0.054158
0.537151 0.663538 0.054827
0.568718 0.664221 0.055497
0.600381 0.664907 0.056170
0.632135 0.665594 0.056844
0.663977 0.666284 0.057520
0.695901 0.666976 0.058198
0.727906 0.667669 0.058878
0.759988 0.668364 0.059560
0.792145 0.669061 0.060243
0.824372 0.669759 0.060927
0.856670 0.670459 0.061613
0.889034 0.671161 0.062301
0.919664 0.671826 0.062951
0.950214 0.672490 0.063600
0.971554 0.672958 0.064054
0.047152 0.685865 0.046613
0.047167 0.685877 0.046614
0.057621 0.686111 0.046836
0.084785 0.686699 0.047413
0.113028 0.687311 0.048013
0.141883 0.687935 0.048626
0.171173 0.688569 0.049248
0.200802 0.689210 0.049877
0.230713 0.689858 0.050513
0.260862 0.690511 0.051153
0.291219 0.691168 0.051798
0.321763 0.691829 0.052447
0.352474 0.692494 0.053099
0.383337 0.693163 0.053754
0.414341 0.693834 0.054413
0.445475 0.694509 0.055074
0.476730 0.695186 0.055738
0.508099 0.695866 0.056404
0.539574 0.696548 0.057073
0.571151 0.697232 0.057744
0.602825 0.697919 0.058417
0.634589 0.698608 0.059091
0.666441 0.699298 0.059768
0.698377 0.699991 0.060446
0.730392 0.700686 0.061126
0.762485 0.701382 0.061808
0.794653 0.702080 0.062491
0.826892 0.702780 0.063176
0.859201 0.703481 0.063863
0.891577 0.704184 0.064550
0.922101 0.704848 0.065199
0.952538 0.705510 0.065846
0.973798 0.705978 0.066298
0.049446 0.718905 0.048859
0.049462 0.718918 0.048860
0.059918 0.719153 0.049082
0.087089 0.719743 0.049660
0.115339 0.720355 0.050260
0.144201 0.720981 0.050873
0.173499 0.721616 0.051495
0.203136 0.722258 0.052125
0.233054 0.722907 0.052760
0.263212 0.723561 0.053401
0.293578 0.724219 0.054046
0.324130 0.724882 0.054695
0.354850 0.725548 0.055347
0.385723 0.726218 0.056003
0.416736 0.726890 0.056662
0.447879 0.727566 0.057323
0.479144 0.728244 0.057988
0.510522 0.728925 0.058654
0.542008 0.729609 0.059323
0.573595 0.730294 0.059994
0.605279 0.730982 0.060667
0.637054 0.731672 0.061342
0.668916 0.732364 0.062019
0.700863 0.733058 0.062698
0.732890 0.733754 0.063378
0.764994 0.734452 0.064060
0.797174 0.735151 0.064744
0.829425 0.735852 0.065429
0.861745 0.736555 0.066116
0.894133 0.737259 0.066804
0.924547 0.737922 0.067450
0.954868 0.738583 0.068094
0.976045 0.739050 0.068545
0.051745 0.751994 0.051108
0.051762 0.752009 0.051109
0.062221 0.752245 0.051332
0.089399 0.752835 0.051909
0.117657 0.753449 0.052510
0.146526 0.754076 0.053123
0.175831 0.754712 0.053745
0.205477 0.755356 0.054375
0.235403 0.756005 0.055011
0.265569 0.756660 0.055652
0.295944 0.757320 0.056297
0.326505 0.757984 0.056946
0.357234 0.758651 0.057599
0.388116 0.759322 0.058255
0.419139 0.759996 0.058914
0.450292 0.760673 0.059576
0.481566 0.761352 0.060241
0.512955 0.762034 0.060907
0.544451 0.762719 0.061577
0.576049 0.763406 0.062248
0.607743 0.764095 0.062921
0.639529 0.764787 0.063597
0.671403 0.765480 0.064274
0.703361 0.766175 0.064953
0.735399 0.766872 0.065634
0.767515 0.767571 0.066316
0.799706 0.768272 0.067000
0.831969 0.768974 0.067685
0.864302 0.769679 0.068372
0.896703 0.770384 0.069061
0.927004 0.771045 0.069705
0.957204 0.771705 0.070347
0.978295 0.772171 0.070795
0.054050 0.785131 0.053360
0.054067 0.785146 0.053362
0.064529 0.785383 0.053585
0.091714 0.785975 0.054162
0.119980 0.786590 0.054763
0.148857 0.787218 0.055376
0.178170 0.787855 0.055999
0.207824 0.788500 0.056629
0.237759 0.789151 0.057265
0.267934 0.789807 0.057906
0.298318 0.790468 0.058552
0.328888 0.791133 0.059201
0.359627 0.791801 0.059854
0.390518 0.792474 0.060511
0.421551 0.793149 0.061170
0.452714 0.793827 0.061832
0.483998 0.794508 0.062497
0.515397 0.795191 0.063164
0.546904 0.795877 0.063834
