library/cube/Velvet_Shadows_004.cube
# CINEGRADE LAB — Premium Cinematic LUT
# Title: Velvet Shadows
# Category: Neo Noir
# Description: Dramatic shadows, high contrast, moody lighting inspired by noir cinema
# Mood: Mysterious, dramatic, dark
# Variant: 5
# Generated: 2026-05-21T16:12:31.146249
TITLE "Velvet Shadows"
LUT_3D_SIZE 5
0.000000 0.000000 0.000000
0.044693 0.007583 0.008131
0.244602 0.040450 0.042854
0.451275 0.073058 0.076579
0.558016 0.088753 0.092167
0.024855 0.072622 0.028000
0.077010 0.081955 0.036609
0.301313 0.117763 0.072450
0.525345 0.152614 0.106985
0.634505 0.169244 0.122772
0.141921 0.396617 0.149289
0.200188 0.408917 0.158531
0.440631 0.448042 0.195312
0.675404 0.485387 0.230503
0.785679 0.503407 0.246511
0.264675 0.720772 0.267613
0.325295 0.732991 0.276868
0.573442 0.772305 0.313828
0.812426 0.809467 0.349039
0.916224 0.826858 0.364864
0.324769 0.871415 0.321282
0.385431 0.881902 0.330216
0.636134 0.919889 0.366961
0.872822 0.954664 0.401930
0.970214 0.969697 0.417498
0.002169 0.002531 0.049117
0.047775 0.010243 0.057857
0.250660 0.043397 0.093207
0.459511 0.076223 0.127470
0.566634 0.091987 0.143469
0.027706 0.075780 0.078895
0.080434 0.085146 0.087897
0.306620 0.121089 0.124130
0.531930 0.156026 0.158989
0.641188 0.172647 0.175009
0.145698 0.400847 0.201444
0.204192 0.412988 0.210884
0.445609 0.452025 0.247856
0.680940 0.489262 0.283189
0.791088 0.507137 0.299284
0.268589 0.725002 0.320360
0.329229 0.736985 0.329682
0.577761 0.776118 0.366700
0.816891 0.813109 0.401941
0.919998 0.830336 0.417773
0.328357 0.875035 0.374178
0.388988 0.885353 0.383115
0.639819 0.923217 0.419860
0.876137 0.957646 0.454819
0.973063 0.972552 0.470376
0.011528 0.013313 0.257160
0.058381 0.021347 0.268249
0.264453 0.054953 0.305771
0.475673 0.088141 0.341933
0.583403 0.104108 0.359535
0.038805 0.087742 0.293823
0.092323 0.097269 0.304351
0.320511 0.133452 0.341953
0.547209 0.168564 0.377966
0.656700 0.185257 0.394922
0.158370 0.414190 0.420840
0.217221 0.426251 0.431135
0.459670 0.465263 0.468835
0.695614 0.502446 0.504743
0.805713 0.520222 0.521267
0.281779 0.738528 0.542108
0.342508 0.750322 0.551808
0.591450 0.789311 0.589114
0.830753 0.826162 0.624550
0.932520 0.843252 0.640497
0.341429 0.888071 0.596827
0.402064 0.898247 0.605860
0.653038 0.936010 0.642655
0.888086 0.969435 0.677629
0.984465 0.984152 0.693184
0.020786 0.023769 0.457022
0.068799 0.032092 0.470175
0.277891 0.066110 0.509603
0.491340 0.099627 0.547419
0.599606 0.115769 0.566404
0.049612 0.099263 0.499699
0.103855 0.108927 0.511538
0.333919 0.145322 0.550313
0.561899 0.180586 0.587305
0.671578 0.197334 0.605040
0.170582 0.426967 0.630534
0.229747 0.438937 0.641536
0.473142 0.477910 0.679832
0.709634 0.515029 0.716199
0.819661 0.532701 0.733054
0.294408 0.751423 0.753719
0.355204 0.763028 0.763704
0.604507 0.801872 0.801220
0.843435 0.838586 0.836787
0.944341 0.855544 0.852801
0.353908 0.900476 0.809087
0.414540 0.910518 0.818172
0.665643 0.947496 0.854987
0.899390 0.980594 0.889957
0.995236 0.995135 0.905502
0.025252 0.028607 0.547599
0.074125 0.037069 0.561506
0.285885 0.071361 0.601665
0.501255 0.105084 0.640096
0.609840 0.121296 0.659553
0.054810 0.104717 0.592426
0.109573 0.114419 0.604710
0.341269 0.150937 0.643900
0.570328 0.186275 0.681220
0.680061 0.203015 0.699185
0.176624 0.433345 0.724591
0.235978 0.445170 0.735784
0.480170 0.484057 0.774245
0.717091 0.521074 0.810721
0.826983 0.538615 0.827630
0.300548 0.757742 0.848286
0.361349 0.769140 0.858303
0.610936 0.807823 0.895836
0.849527 0.844391 0.931394
0.949894 0.861217 0.947381
0.359763 0.906258 0.903678
0.420372 0.916168 0.912736
0.671582 0.952668 0.949522
0.904609 0.985572 0.984468
1.000000 1.000000 1.000000
