library/cube/Velvet_Shadows_004.cube
# CINEGRADE LAB — Premium Cinematic LUT
# Title: Velvet Shadows
# Category: Neo Noir
# Description: Dramatic shadows, high contrast, moody lighting inspired by noir cinema
# Mood: Mysterious, dramatic, dark
# Variant: 5
# Generated: 2026-05-21T16:12:31.146249
TITLE "Velvet Shadows"
LUT_3D_SIZE 33
0.000000 0.000000 0.000000
0.000000 0.000000 0.000000
0.000001 0.000000 0.000000
0.000002 0.000001 0.000000
0.000004 0.000001 0.000000
0.000006 0.000002 0.000000
0.000008 0.000003 0.000000
0.019216 0.003273 0.003513
0.044693 0.007583 0.008131
0.069712 0.011786 0.012619
0.094578 0.015936 0.017036
0.119410 0.020054 0.021404
0.144273 0.024151 0.025738
0.169204 0.028235 0.030045
0.194226 0.032311 0.034331
0.219355 0.036382 0.038599
0.244602 0.040450 0.042854
0.269973 0.044518 0.047097
0.295474 0.048586 0.051329
0.321108 0.052656 0.055553
0.346874 0.056729 0.059770
0.372775 0.060805 0.063980
0.398809 0.064885 0.068185
0.424976 0.068969 0.072384
0.451275 0.073058 0.076579
0.477703 0.077151 0.080771
0.504259 0.081249 0.084959
0.530939 0.085352 0.089144
0.548628 0.087998 0.091800
0.551031 0.088191 0.091894
0.553396 0.088381 0.091987
0.555724 0.088568 0.092078
0.558016 0.088753 0.092167
0.000002 0.000001 0.000000
0.000004 0.000001 0.000000
0.000006 0.000002 0.000000
0.000009 0.000003 0.000000
0.000012 0.000004 0.000000
0.000015 0.000005 0.000000
0.000019 0.000006 0.000000
0.019653 0.003310 0.003530
0.045672 0.007664 0.008169
0.071203 0.011908 0.012678
0.096556 0.016097 0.017113
0.121855 0.020252 0.021500
0.147165 0.024385 0.025852
0.172526 0.028504 0.030176
0.197961 0.032612 0.034478
0.223488 0.036715 0.038762
0.249117 0.040814 0.043031
0.274856 0.044911 0.047288
0.300710 0.049008 0.051535
0.326683 0.053105 0.055772
0.352776 0.057204 0.060001
0.378990 0.061305 0.064224
0.405325 0.065409 0.068440
0.431780 0.069516 0.072651
0.458354 0.073627 0.076857
0.485046 0.077741 0.081058
0.511854 0.081859 0.085256
0.538775 0.085981 0.089450
0.556563 0.088636 0.092110
0.558841 0.088819 0.092199
0.561083 0.088999 0.092287
0.563289 0.089177 0.092373
0.565460 0.089352 0.092457
0.000010 0.000003 0.000000
0.000013 0.000004 0.000000
0.000017 0.000005 0.000000
0.000021 0.000007 0.000000
0.000025 0.000008 0.000000
0.000030 0.000010 0.000000
0.000036 0.000011 0.000000
0.020075 0.003348 0.003546
0.046612 0.007743 0.008206
0.072631 0.012026 0.012733
0.098448 0.016252 0.017187
0.124190 0.020443 0.021592
0.149926 0.024610 0.025960
0.175695 0.028761 0.030300
0.201523 0.032901 0.034617
0.227426 0.037034 0.038916
0.253418 0.041162 0.043200
0.279505 0.045287 0.047470
0.305694 0.049410 0.051730
0.331988 0.053533 0.055980
0.358389 0.057657 0.060221
0.384898 0.061782 0.064455
0.411516 0.065908 0.068682
0.438242 0.070037 0.072903
0.465075 0.074168 0.077119
0.492015 0.078302 0.081330
0.519059 0.082439 0.085537
0.546205 0.086579 0.089740
0.564083 0.089241 0.092404
0.566241 0.089415 0.092487
0.568364 0.089586 0.092570
0.570451 0.089755 0.092651
0.572504 0.089921 0.092730
0.000022 0.000007 0.000000
0.000027 0.000009 0.000000
0.000032 0.000010 0.000000
0.000038 0.000012 0.000000
0.000044 0.000014 0.000000
0.000050 0.000016 0.000000
0.000057 0.000018 0.000000
0.020483 0.003386 0.003561
0.047514 0.007820 0.008240
0.073996 0.012141 0.012786
0.100254 0.016402 0.017258
0.126419 0.020626 0.021679
0.152559 0.024826 0.026062
0.178715 0.029008 0.030418
0.204915 0.033178 0.034750
0.231176 0.037339 0.039063
0.257511 0.041494 0.043360
0.283927 0.045646 0.047643
0.310432 0.049794 0.051915
0.337029 0.053942 0.056176
0.363720 0.058088 0.060429
0.390507 0.062235 0.064674
0.417391 0.066383 0.068911
0.444372 0.070532 0.073142
0.471448 0.074683 0.077367
0.498620 0.078836 0.081587
0.525885 0.082990 0.085803
0.553242 0.087147 0.090014
0.571203 0.089815 0.092680
0.573243 0.089980 0.092759
0.575250 0.090143 0.092837
0.577223 0.090302 0.092913
0.579162 0.090459 0.092988
0.000040 0.000013 0.000000
0.000046 0.000015 0.000000
0.000053 0.000017 0.000000
0.000060 0.000019 0.000000
0.000067 0.000022 0.000000
0.000075 0.000024 0.000000
0.000084 0.000027 0.000000
0.020877 0.003424 0.003576
0.048378 0.007896 0.008273
0.075301 0.012252 0.012836
0.101979 0.016546 0.017324
0.128544 0.020802 0.021761
0.155067 0.025033 0.026160
0.181591 0.029244 0.030529
0.208144 0.033442 0.034875
0.234743 0.037631 0.039201
0.261401 0.041812 0.043511
0.288129 0.045988 0.047807
0.314931 0.050160 0.052090
0.341813 0.054330 0.056362
0.368778 0.058499 0.060626
0.395827 0.062667 0.064880
0.422961 0.066835 0.069127
0.450180 0.071003 0.073368
0.477484 0.075172 0.077602
0.504872 0.079342 0.081830
0.532344 0.083513 0.086053
0.559897 0.087685 0.090271
0.577933 0.090360 0.092940
0.579860 0.090516 0.093015
0.581754 0.090669 0.093088
0.583616 0.090820 0.093160
0.585445 0.090969 0.093230
0.000062 0.000020 0.000000
0.000070 0.000022 0.000000
0.000078 0.000025 0.000000
0.000087 0.000028 0.000000
0.000096 0.000031 0.000000
0.000105 0.000034 0.000000
0.000115 0.000037 0.000000
0.021259 0.003462 0.003590
0.049206 0.007970 0.008305
0.076548 0.012359 0.012884
0.103624 0.016685 0.017388
0.130568 0.020972 0.021839
0.157455 0.025231 0.026252
0.184327 0.029470 0.030635
0.211212 0.033695 0.034994
0.238131 0.037909 0.039333
0.265095 0.042115 0.043654
0.292116 0.046314 0.047961
0.319199 0.050509 0.052255
0.346350 0.054701 0.056538
0.373571 0.058890 0.060811
0.400865 0.063077 0.065075
0.428233 0.067264 0.069331
0.455676 0.071450 0.073580
0.483192 0.075635 0.077822
0.510783 0.079821 0.082058
0.538447 0.084008 0.086289
0.566182 0.088195 0.090514
0.584286 0.090875 0.093185
0.586103 0.091022 0.093255
0.587889 0.091168 0.093324
0.589643 0.091310 0.093391
0.591365 0.091451 0.093457
0.000090 0.000029 0.000000
0.000099 0.000032 0.000000
0.000109 0.000035 0.000000
0.000119 0.000038 0.000000
0.000129 0.000041 0.000000
0.000140 0.000045 0.000000
0.000151 0.000048 0.000000
0.021628 0.003500 0.003603
0.049998 0.008042 0.008334
0.077738 0.012463 0.012929
0.105191 0.016819 0.017448
0.132495 0.021135 0.021913
0.159725 0.025421 0.026340
0.186926 0.029687 0.030736
0.214126 0.033937 0.035107
0.241346 0.038175 0.039457
0.268599 0.042403 0.043790
0.295895 0.046625 0.048107
0.323242 0.050841 0.052411
0.350645 0.055053 0.056704
0.378107 0.059261 0.060986
0.405631 0.063467 0.065259
0.433218 0.067671 0.069524
0.460869 0.071873 0.073780
0.488584 0.076075 0.078030
0.516363 0.080276 0.082273
0.544205 0.084476 0.086510
0.572109 0.088677 0.090741
0.590274 0.091362 0.093415
0.591985 0.091501 0.093481
0.593666 0.091638 0.093545
0.595316 0.091773 0.093608
0.596935 0.091905 0.093669
0.010643 0.031203 0.012072
0.010704 0.031279 0.012085
0.010764 0.031354 0.012099
0.010824 0.031428 0.012111
0.010884 0.031501 0.012124
0.010944 0.031573 0.012137
0.011003 0.031644 0.012149
0.032840 0.035187 0.015776
0.061657 0.039826 0.020535
0.089817 0.044340 0.025157
0.117671 0.048788 0.029700
0.145358 0.053192 0.034191
0.172955 0.057566 0.038641
0.200507 0.061916 0.043060
0.228045 0.066248 0.047453
0.255588 0.070566 0.051825
0.283152 0.074873 0.056178
0.310746 0.079171 0.060516
0.338379 0.083461 0.064840
0.366055 0.087745 0.069151
0.393779 0.092024 0.073452
0.421554 0.096299 0.077742
0.449380 0.100570 0.082024
0.477260 0.104838 0.086297
0.505194 0.109103 0.090562
0.533181 0.113366 0.094821
0.561221 0.117627 0.099073
0.589313 0.121886 0.103318
0.607564 0.124620 0.106002
0.609204 0.124796 0.106071
0.610814 0.124969 0.106139
0.612393 0.125139 0.106206
0.613943 0.125305 0.106271
0.024855 0.072622 0.028000
0.024977 0.072785 0.028029
0.025098 0.072946 0.028058
0.025217 0.073104 0.028086
0.025336 0.073260 0.028114
0.025453 0.073413 0.028141
0.025569 0.073564 0.028168
0.047759 0.077209 0.031821
0.077010 0.081955 0.036609
0.105578 0.086574 0.041258
0.133821 0.091123 0.045829
0.161880 0.095625 0.050345
0.189833 0.100095 0.054820
0.217726 0.104538 0.059263
0.245591 0.108962 0.063680
0.273448 0.113369 0.068074
0.301313 0.117763 0.072450
0.329196 0.122146 0.076809
0.357105 0.126519 0.081153
0.385047 0.130883 0.085484
0.413024 0.135241 0.089804
0.441041 0.139592 0.094113
0.469100 0.143938 0.098413
0.497201 0.148278 0.102703
0.525345 0.152614 0.106985
0.553533 0.156946 0.111260
0.581764 0.161273 0.115527
0.610038 0.165598 0.119788
0.628374 0.168389 0.122483
0.629952 0.168609 0.122557
0.631499 0.168824 0.122630
0.633016 0.169036 0.122702
0.634505 0.169244 0.122772
0.039037 0.113348 0.043543
0.039212 0.113586 0.043586
0.039385 0.113820 0.043628
0.039556 0.114050 0.043669
0.039725 0.114277 0.043710
0.039892 0.114500 0.043750
0.040056 0.114720 0.043789
0.062576 0.118454 0.047466
0.092232 0.123294 0.052280
0.121182 0.128004 0.056954
0.149786 0.132642 0.061548
0.178191 0.137231 0.066087
0.206475 0.141784 0.070585
0.234685 0.146309 0.075049
0.262853 0.150812 0.079486
0.291001 0.155297 0.083901
0.319144 0.159766 0.088296
0.347293 0.164222 0.092674
0.375457 0.168666 0.097036
0.403642 0.173101 0.101385
0.431852 0.177526 0.105721
0.460091 0.181942 0.110047
0.488361 0.186352 0.114362
0.516664 0.190754 0.118667
0.545000 0.195150 0.122964
0.573370 0.199541 0.127253
0.601774 0.203925 0.131533
0.630211 0.208305 0.135807
0.648621 0.211143 0.138511
0.650133 0.211398 0.138589
0.651616 0.211648 0.138666
0.653069 0.211894 0.138741
0.654493 0.212134 0.138814
0.053322 0.153835 0.058890
0.053543 0.154137 0.058945
0.053761 0.154434 0.058999
0.053977 0.154727 0.059051
0.054189 0.155015 0.059103
0.054399 0.155298 0.059154
0.054606 0.155576 0.059204
0.077433 0.159389 0.062901
0.107467 0.164312 0.067738
0.136772 0.169103 0.072435
0.165714 0.173818 0.077050
0.194441 0.178482 0.081610
0.223032 0.183109 0.086127
0.251536 0.187706 0.090611
0.279985 0.192278 0.095067
0.308402 0.196830 0.099499
0.336801 0.201364 0.103911
0.365196 0.205884 0.108305
0.393594 0.210390 0.112684
0.422003 0.214884 0.117048
0.450426 0.219367 0.121399
0.478868 0.223840 0.125739
0.507331 0.228304 0.130067
0.535817 0.232759 0.134386
0.564327 0.237207 0.138695
0.592862 0.241647 0.142996
0.621422 0.246080 0.147288
0.650007 0.250506 0.151572
0.668479 0.253383 0.154284
0.669925 0.253667 0.154365
0.671341 0.253944 0.154444
0.672729 0.254216 0.154521
0.674088 0.254483 0.154596
0.067746 0.194245 0.074116
0.068007 0.194602 0.074180
0.068264 0.194954 0.074244
0.068518 0.195300 0.074306
0.068768 0.195640 0.074367
0.069015 0.195974 0.074427
0.069257 0.196302 0.074486
0.092370 0.200184 0.078202
0.122758 0.205180 0.083060
0.152395 0.210041 0.087777
0.181651 0.214824 0.092412
0.210677 0.219555 0.096990
0.239553 0.224245 0.101525
0.268329 0.228903 0.106025
0.297038 0.233536 0.110497
0.325702 0.238146 0.114945
0.354338 0.242737 0.119372
0.382959 0.247311 0.123781
0.411572 0.251869 0.128173
0.440185 0.256414 0.132551
0.468804 0.260947 0.136915
0.497431 0.265468 0.141266
0.526069 0.269979 0.145607
0.554722 0.274479 0.149937
0.583389 0.278970 0.154256
0.612073 0.283451 0.158567
0.640773 0.287924 0.162869
0.669490 0.292389 0.167163
0.688016 0.295299 0.169880
0.689394 0.295604 0.169963
0.690743 0.295903 0.170043
0.692064 0.296195 0.170121
0.693357 0.296481 0.170198
0.082317 0.234650 0.089257
0.082612 0.235055 0.089330
0.082903 0.235452 0.089401
0.083189 0.235843 0.089472
0.083471 0.236227 0.089541
0.083749 0.236604 0.089608
0.084023 0.236975 0.089675
0.107402 0.240916 0.093407
0.138118 0.245976 0.098284
0.168063 0.250897 0.103018
0.197611 0.255740 0.107670
0.226914 0.260527 0.112264
0.256054 0.265272 0.116815
0.285082 0.269984 0.121330
0.314030 0.274668 0.125817
0.342923 0.279328 0.130279
0.371777 0.283967 0.134719
0.400604 0.288587 0.139140
0.429414 0.293190 0.143544
0.458215 0.297779 0.147933
0.487011 0.302353 0.152308
0.515806 0.306914 0.156670
0.544604 0.311464 0.161021
0.573407 0.316001 0.165360
0.602216 0.320528 0.169689
0.631033 0.325044 0.174008
0.659859 0.329550 0.178318
0.688693 0.334047 0.182619
0.707264 0.336982 0.185342
0.708573 0.337303 0.185425
0.709855 0.337618 0.185505
0.711109 0.337925 0.185584
0.712336 0.338225 0.185660
0.097031 0.275083 0.104334
0.097355 0.275527 0.104414
0.097674 0.275963 0.104492
0.097988 0.276391 0.104569
0.098297 0.276811 0.104645
0.098601 0.277224 0.104719
0.098900 0.277629 0.104791
0.122526 0.281622 0.108538
0.153548 0.286736 0.113432
0.183779 0.291710 0.118182
0.213598 0.296603 0.122849
0.243157 0.301439 0.127457
0.272541 0.306231 0.132021
0.301800 0.310988 0.136550
0.330969 0.315716 0.141049
0.360072 0.320417 0.145522
0.389125 0.325096 0.149974
0.418142 0.329756 0.154406
0.447132 0.334397 0.158820
0.476102 0.339021 0.163219
0.505059 0.343630 0.167603
0.534007 0.348224 0.171974
0.562949 0.352805 0.176333
0.591887 0.357373 0.180680
0.620824 0.361929 0.185017
0.649760 0.366473 0.189343
0.678698 0.371006 0.193660
0.707636 0.375528 0.197967
0.726242 0.378482 0.200693
0.727484 0.378815 0.200775
0.728698 0.379139 0.200855
0.729885 0.379457 0.200933
0.731046 0.379766 0.201009
0.111878 0.315556 0.119361
0.112226 0.316032 0.119446
0.112568 0.316498 0.119530
0.112905 0.316957 0.119612
0.113236 0.317406 0.119693
0.113562 0.317847 0.119772
0.113882 0.318280 0.119849
0.137737 0.322316 0.123609
0.169043 0.327478 0.128517
0.199539 0.332497 0.133281
0.229607 0.337432 0.137961
0.259403 0.342309 0.142582
0.289011 0.347141 0.147158
0.318484 0.351935 0.151697
0.347855 0.356699 0.156207
0.377150 0.361435 0.160691
0.406385 0.366148 0.165152
0.435574 0.370839 0.169593
0.464727 0.375510 0.174016
0.493852 0.380163 0.178423
0.522955 0.384800 0.182815
0.552040 0.389421 0.187194
0.581111 0.394027 0.191559
0.610171 0.398619 0.195913
0.639221 0.403198 0.200255
0.668264 0.407764 0.204587
0.697300 0.412317 0.208909
0.726330 0.416859 0.213221
0.744964 0.419827 0.215950
0.746138 0.420166 0.216031
0.747285 0.420496 0.216109
0.748405 0.420819 0.216186
0.749500 0.421134 0.216260
0.126846 0.356069 0.134344
0.127213 0.356570 0.134434
0.127574 0.357061 0.134522
0.127929 0.357543 0.134608
0.128278 0.358015 0.134693
0.128621 0.358479 0.134776
0.128959 0.358933 0.134857
0.153025 0.363005 0.138627
0.184593 0.368206 0.143548
0.215333 0.373262 0.148324
0.245631 0.378233 0.153015
0.275645 0.383143 0.157647
0.305460 0.388007 0.162233
0.335128 0.392832 0.166782
0.364684 0.397625 0.171301
0.394154 0.402390 0.175793
0.423555 0.407129 0.180263
0.452901 0.411845 0.184711
0.482202 0.416541 0.189142
0.511466 0.421217 0.193556
0.540700 0.425875 0.197954
0.569908 0.430517 0.202338
0.599095 0.435142 0.206709
0.628262 0.439753 0.211068
0.657413 0.444349 0.215415
0.686549 0.448931 0.219751
0.715672 0.453499 0.224077
0.744782 0.458055 0.228393
0.763438 0.461033 0.231123
0.764544 0.461373 0.231202
0.765624 0.461705 0.231278
0.766679 0.462029 0.231353
0.767708 0.462344 0.231425
0.141921 0.396617 0.149289
0.142303 0.397136 0.149382
0.142679 0.397645 0.149473
0.143048 0.398145 0.149563
0.143410 0.398634 0.149650
0.143767 0.399113 0.149735
0.144117 0.399583 0.149819
0.168378 0.403684 0.153599
0.200188 0.408917 0.158531
0.231154 0.414004 0.163317
0.261663 0.419003 0.168018
0.291877 0.423941 0.172659
0.321880 0.428831 0.177253
0.351726 0.433680 0.181811
0.381451 0.438496 0.186337
0.411080 0.443282 0.190837
0.440631 0.448042 0.195312
0.470119 0.452778 0.199767
0.499554 0.457492 0.204204
0.528943 0.462185 0.208623
0.558295 0.466859 0.213026
0.587613 0.471516 0.217415
0.616902 0.476155 0.221790
0.646165 0.480779 0.226153
0.675404 0.485387 0.230503
0.704622 0.489980 0.234843
0.733820 0.494558 0.239171
0.763000 0.499123 0.243490
0.781670 0.502105 0.246220
0.782710 0.502444 0.246296
0.783724 0.502774 0.246370
0.784713 0.503095 0.246442
0.785679 0.503407 0.246511
0.157088 0.437189 0.164199
0.157482 0.437721 0.164294
0.157868 0.438243 0.164387
0.158247 0.438754 0.164478
0.158620 0.439254 0.164567
0.158985 0.439744 0.164654
0.159345 0.440224 0.164739
0.183784 0.444348 0.168527
0.215817 0.449607 0.173469
0.246990 0.454717 0.178264
0.277693 0.459739 0.182973
0.308090 0.464698 0.187621
0.338265 0.469607 0.192223
0.368273 0.474475 0.196787
0.398151 0.479308 0.201319
0.427924 0.484111 0.205824
0.457611 0.488885 0.210305
0.487226 0.493635 0.214765
0.516780 0.498361 0.219206
0.546282 0.503067 0.223629
0.575738 0.507752 0.228036
0.605153 0.512418 0.232428
0.634533 0.517067 0.236807
0.663880 0.521698 0.241172
0.693197 0.526313 0.245525
0.722486 0.530913 0.249866
0.751749 0.535497 0.254197
0.780987 0.540066 0.258517
0.799667 0.543049 0.261246
0.800641 0.543382 0.261319
0.801590 0.543707 0.261390
0.802516 0.544022 0.261458
0.803418 0.544329 0.261525
0.172333 0.477773 0.179075
0.172734 0.478313 0.179171
0.173127 0.478842 0.179265
0.173513 0.479359 0.179357
0.173892 0.479866 0.179447
0.174264 0.480362 0.179534
0.174629 0.480847 0.179620
0.199232 0.484987 0.183414
0.231470 0.490265 0.188364
0.262831 0.495394 0.193166
0.293712 0.500432 0.197881
0.324275 0.505406 0.202536
0.354606 0.510330 0.207143
0.384762 0.515211 0.211713
0.414778 0.520056 0.216250
0.444681 0.524869 0.220759
0.474490 0.529653 0.225245
0.504219 0.534412 0.229708
0.533880 0.539146 0.234152
0.563481 0.543858 0.238578
0.593029 0.548550 0.242988
0.622530 0.553221 0.247382
0.651989 0.557874 0.251763
0.681409 0.562509 0.256129
0.710793 0.567127 0.260484
0.740143 0.571729 0.264826
0.769462 0.576314 0.269157
0.798750 0.580885 0.273478
0.817434 0.583865 0.276206
0.818344 0.584190 0.276276
0.819230 0.584505 0.276343
0.820093 0.584812 0.276407
0.820934 0.585110 0.276470
0.187641 0.518356 0.193917
0.188046 0.518899 0.194013
0.188443 0.519430 0.194107
0.188833 0.519949 0.194199
0.189215 0.520457 0.194289
0.189590 0.520954 0.194376
0.189957 0.521439 0.194462
0.214709 0.525591 0.198261
0.247134 0.530883 0.203217
0.278668 0.536024 0.208025
0.309710 0.541074 0.212746
0.340424 0.546058 0.217405
0.370897 0.550990 0.222017
0.401185 0.555879 0.226590
0.431326 0.560731 0.231131
0.461345 0.565550 0.235644
0.491263 0.570340 0.240132
0.521094 0.575102 0.244598
0.550849 0.579840 0.249044
0.580538 0.584555 0.253472
0.610168 0.589248 0.257883
0.639744 0.593921 0.262279
0.669272 0.598574 0.266660
0.698754 0.603209 0.271028
0.728196 0.607826 0.275383
0.757598 0.612426 0.279725
0.786963 0.617009 0.284056
0.816293 0.621577 0.288376
0.834874 0.624551 0.291103
0.835688 0.624865 0.291168
0.836479 0.625169 0.291231
0.837248 0.625465 0.291292
0.837995 0.625752 0.291350
0.202999 0.558924 0.208726
0.203405 0.559465 0.208821
0.203803 0.559993 0.208914
0.204193 0.560510 0.209005
0.204575 0.561015 0.209094
0.204950 0.561508 0.209180
0.205318 0.561990 0.209265
0.230205 0.566149 0.213068
0.262800 0.571450 0.218029
0.294491 0.576598 0.222842
0.325679 0.581654 0.227567
0.356529 0.586643 0.232230
0.387130 0.591580 0.236845
0.417537 0.596472 0.241421
0.447790 0.601326 0.245964
0.477913 0.606147 0.250479
0.507927 0.610938 0.254969
0.537848 0.615701 0.259437
0.567687 0.620438 0.263884
0.597452 0.625151 0.268313
0.627153 0.629843 0.272725
0.656794 0.634513 0.277121
0.686381 0.639163 0.281502
0.715918 0.643794 0.285869
0.745408 0.648406 0.290224
0.774853 0.653001 0.294565
0.804257 0.657579 0.298896
0.833589 0.662140 0.303215
0.851419 0.665106 0.305939
0.852157 0.665406 0.306000
0.852873 0.665698 0.306058
0.853568 0.665980 0.306114
0.854241 0.666254 0.306169
0.218394 0.599463 0.223500
0.218797 0.599998 0.223594
0.219193 0.600520 0.223686
0.219581 0.601030 0.223775
0.219961 0.601528 0.223862
0.220333 0.602014 0.223947
0.220698 0.602488 0.224029
0.245708 0.606649 0.227835
0.278458 0.611954 0.232801
0.310291 0.617105 0.237616
0.341611 0.622163 0.242344
0.372583 0.627153 0.247010
0.403299 0.632089 0.251627
0.433813 0.636981 0.256205
0.464164 0.641834 0.260750
0.494380 0.646652 0.265266
0.524479 0.651440 0.269757
0.554479 0.656199 0.274225
0.584391 0.660932 0.278672
0.614223 0.665641 0.283101
0.643985 0.670327 0.287513
0.673682 0.674991 0.291908
0.703320 0.679635 0.296289
0.732902 0.684258 0.300655
0.762432 0.688864 0.305008
0.791914 0.693451 0.309349
0.821349 0.698020 0.313677
0.849906 0.702573 0.317995
0.867653 0.705527 0.320716
0.868316 0.705813 0.320772
0.868958 0.706089 0.320826
0.869580 0.706357 0.320878
0.870183 0.706616 0.320927
0.233812 0.639960 0.238240
0.234211 0.640484 0.238332
0.234603 0.640996 0.238421
0.234986 0.641496 0.238508
0.235361 0.641984 0.238593
0.235729 0.642459 0.238675
0.236088 0.642922 0.238755
0.261209 0.647081 0.242563
0.294099 0.652385 0.247531
0.326060 0.657535 0.252349
0.357498 0.662591 0.257079
0.388580 0.667578 0.261746
0.419397 0.672511 0.266364
0.450006 0.677398 0.270943
0.480445 0.682245 0.275488
0.510742 0.687058 0.280004
0.540917 0.691839 0.284495
0.570986 0.696592 0.288963
0.600960 0.701318 0.293410
0.630851 0.706018 0.297838
0.660665 0.710696 0.302249
0.690410 0.715351 0.306643
0.720090 0.719985 0.311022
0.749710 0.724600 0.315387
0.779274 0.729195 0.319738
0.808784 0.733772 0.324077
0.838018 0.738331 0.328403
0.865921 0.742873 0.332718
0.883579 0.745813 0.335436
0.884169 0.746082 0.335487
0.884739 0.746343 0.335536
0.885291 0.746594 0.335583
0.885823 0.746837 0.335628
0.249243 0.680400 0.252945
0.249635 0.680912 0.253034
0.250020 0.681410 0.253120
0.250396 0.681896 0.253204
0.250765 0.682370 0.253286
0.251125 0.682832 0.253365
0.251478 0.683281 0.253442
0.276698 0.687433 0.257251
0.309713 0.692734 0.262220
0.341789 0.697879 0.267040
0.373333 0.702929 0.271770
0.404513 0.707909 0.276438
0.435421 0.712835 0.281056
0.466114 0.717714 0.285635
0.496630 0.722554 0.290180
0.526998 0.727358 0.294696
0.557238 0.732130 0.299186
0.587367 0.736872 0.303652
0.617396 0.741588 0.308098
0.647336 0.746278 0.312525
0.677195 0.750945 0.316934
0.706979 0.755589 0.321326
0.736694 0.760211 0.325703
0.766346 0.764814 0.330066
0.795936 0.769397 0.334415
0.825470 0.773961 0.338751
0.853837 0.778508 0.343074
0.881636 0.783037 0.347387
0.899200 0.785963 0.350101
0.899720 0.786214 0.350147
0.900220 0.786457 0.350191
0.900703 0.786691 0.350233
0.901168 0.786917 0.350273
0.264675 0.720772 0.267613
0.265059 0.721268 0.267698
0.265435 0.721750 0.267781
0.265803 0.722220 0.267861
0.266163 0.722677 0.267940
0.266514 0.723122 0.268015
0.266858 0.723555 0.268089
0.292167 0.727698 0.271897
0.325295 0.732991 0.276868
0.357473 0.738127 0.281688
0.389111 0.743168 0.286418
0.420378 0.748139 0.291085
0.451366 0.753055 0.295704
0.482132 0.757924 0.300281
0.512716 0.762752 0.304825
0.543146 0.767545 0.309340
0.573442 0.772305 0.313828
0.603622 0.777035 0.318293
0.633698 0.781738 0.322737
0.663680 0.786416 0.327162
0.693576 0.791069 0.331568
0.723393 0.795700 0.335958
0.753137 0.800309 0.340333
0.782814 0.804898 0.344693
0.812426 0.809467 0.349039
0.841566 0.814017 0.353372
0.869369 0.818549 0.357692
0.897057 0.823064 0.362001
0.914523 0.825974 0.364712
0.914974 0.826208 0.364753
0.915407 0.826433 0.364792
0.915824 0.826649 0.364829
0.916224 0.826858 0.364864
0.280099 0.761065 0.282243
0.280473 0.761541 0.282325
0.280839 0.762005 0.282404
0.281196 0.762456 0.282480
0.281546 0.762894 0.282554
0.281887 0.763320 0.282626
0.282221 0.763735 0.282696
0.307608 0.767865 0.286503
0.340836 0.773148 0.291474
0.373106 0.778273 0.296293
0.404827 0.783302 0.301023
0.436170 0.788261 0.305689
0.467228 0.793164 0.310306
0.498058 0.798020 0.314882
0.528701 0.802835 0.319424
0.559184 0.807614 0.323937
0.589529 0.812360 0.328423
0.619753 0.817076 0.332886
0.649868 0.821765 0.337328
0.679884 0.826427 0.341749
0.709811 0.831066 0.346153
0.739656 0.835682 0.350540
0.769424 0.840276 0.354912
0.799120 0.844849 0.359269
0.828749 0.849403 0.363612
0.856930 0.853938 0.367941
0.884618 0.858455 0.372259
0.912188 0.862955 0.376564
0.929553 0.865848 0.379270
0.929937 0.866063 0.379306
0.930306 0.866270 0.379340
0.930659 0.866469 0.379373
0.930997 0.866660 0.379403
0.295507 0.801267 0.296835
0.295869 0.801723 0.296913
0.296223 0.802165 0.296987
0.296568 0.802595 0.297059
0.296906 0.803013 0.297129
0.297236 0.803418 0.297197
0.297558 0.803812 0.297262
0.323014 0.807928 0.301068
0.356332 0.813197 0.306038
0.388682 0.818309 0.310856
0.420476 0.823324 0.315584
0.451886 0.828268 0.320249
0.483005 0.833156 0.324863
0.513891 0.837997 0.329438
0.544584 0.842797 0.333978
0.575113 0.847560 0.338488
0.605499 0.852290 0.342971
0.635760 0.856991 0.347431
0.665908 0.861663 0.351870
