library/cube/Vogue_Voltage_004.cube
# CINEGRADE LAB — Premium Cinematic LUT
# Title: Vogue Voltage
# Category: Hyperreal Fashion
# Description: Punchy, saturated, with flawless skin rendering for fashion editorials
# Mood: Bold, vibrant, high-impact
# Variant: 5
# Generated: 2026-05-21T16:12:21.431294
TITLE "Vogue Voltage"
LUT_3D_SIZE 5
0.000000 0.000000 0.000000
0.206693 0.000000 0.000000
0.590551 0.000000 0.000000
0.974409 0.000000 0.000000
1.000000 0.000000 0.000000
0.000000 0.186463 0.000000
0.177906 0.177906 0.000000
0.637941 0.175254 0.000000
1.000000 0.159045 0.000000
1.000000 0.150317 0.000000
0.000000 0.532752 0.000000
0.124445 0.524195 0.000000
0.508303 0.508303 0.000000
1.000000 0.512259 0.000000
1.000000 0.503531 0.000000
0.000000 0.879041 0.000000
0.070984 0.870484 0.000000
0.454842 0.854592 0.000000
0.838700 0.838700 0.000000
1.000000 0.830143 0.000000
0.000000 1.000000 0.000000
0.042197 1.000000 0.000000
0.426055 1.000000 0.000000
0.809913 1.000000 0.000000
1.000000 1.000000 0.000000
0.000000 0.000000 0.212344
0.203787 0.000000 0.203787
0.587645 0.000000 0.187895
0.971503 0.000000 0.172003
1.000000 0.000000 0.163446
0.000000 0.183557 0.183557
0.175000 0.175000 0.175000
0.558858 0.159108 0.159108
0.942716 0.143216 0.143216
1.000000 0.134659 0.134659
0.000000 0.529846 0.130096
0.121539 0.521289 0.121539
0.505397 0.505397 0.105647
0.998181 0.509295 0.089755
1.000000 0.500567 0.081198
0.000000 0.876135 0.076635
0.068078 0.867578 0.068078
0.451936 0.851686 0.052186
0.835794 0.835794 0.036294
1.000000 0.853781 0.027737
0.000000 1.000000 0.047848
0.039291 1.000000 0.039291
0.423149 1.000000 0.023399
0.807007 1.000000 0.007507
1.000000 1.000000 0.000000
0.000000 0.000000 0.606697
0.198390 0.000000 0.598140
0.582248 0.000000 0.582248
0.966106 0.000000 0.566356
1.000000 0.000000 0.557799
0.000000 0.178160 0.577910
0.169603 0.169603 0.569353
0.553461 0.153711 0.553461
0.937319 0.137819 0.537569
1.000000 0.129262 0.529012
0.000000 0.524449 0.524449
0.116142 0.515892 0.515892
0.500000 0.500000 0.500000
0.883858 0.484108 0.484108
1.000000 0.475551 0.475551
0.000000 0.870738 0.470988
0.062681 0.862181 0.462431
0.446539 0.846289 0.446539
0.830397 0.830397 0.430647
1.000000 0.848277 0.422090
0.000000 1.000000 0.442201
0.033894 1.000000 0.433644
0.417752 1.000000 0.417752
0.801610 1.000000 0.401860
1.000000 1.000000 0.393303
0.000000 0.000000 1.000000
0.192993 0.000000 0.992493
0.576851 0.000000 0.976601
0.960709 0.000000 0.960709
1.000000 0.000000 0.952152
0.000000 0.172763 0.972263
0.164206 0.164206 0.963706
0.548064 0.148314 0.947814
0.931922 0.132422 0.931922
1.000000 0.123865 0.923365
0.000000 0.519052 0.918802
0.110745 0.510495 0.910245
0.494603 0.494603 0.894353
0.878461 0.478711 0.878461
1.000000 0.470154 0.869904
0.000000 0.865341 0.865341
0.057284 0.856784 0.856784
0.441142 0.840892 0.840892
0.825000 0.825000 0.825000
1.000000 0.816443 0.816443
0.000000 1.000000 0.836554
0.028497 1.000000 0.827997
0.412355 1.000000 0.812105
0.796213 1.000000 0.796213
1.000000 1.000000 0.787656
0.000000 0.000000 1.000000
0.190087 0.000000 1.000000
0.573945 0.000000 1.000000
0.957803 0.000000 1.000000
1.000000 0.000000 1.000000
0.000000 0.169857 1.000000
0.161300 0.161300 1.000000
0.545158 0.145408 1.000000
0.929016 0.129516 1.000000
1.000000 0.120959 1.000000
0.000000 0.516146 1.000000
0.107839 0.507589 1.000000
0.491697 0.491697 1.000000
0.875555 0.475805 1.000000
1.000000 0.467248 1.000000
0.000000 0.862435 1.000000
0.054378 0.853878 1.000000
0.438236 0.837986 1.000000
0.822094 0.822094 1.000000
1.000000 0.813537 1.000000
0.000000 1.000000 1.000000
0.025591 1.000000 1.000000
0.409449 1.000000 1.000000
0.793307 1.000000 1.000000
1.000000 1.000000 1.000000
