library/cube/Vogue_Voltage_004.cube
# CINEGRADE LAB — Premium Cinematic LUT
# Title: Vogue Voltage
# Category: Hyperreal Fashion
# Description: Punchy, saturated, with flawless skin rendering for fashion editorials
# Mood: Bold, vibrant, high-impact
# Variant: 5
# Generated: 2026-05-21T16:12:21.431294
TITLE "Vogue Voltage"
LUT_3D_SIZE 9
0.000000 0.000000 0.000000
0.014764 0.000000 0.000000
0.206693 0.000000 0.000000
0.398622 0.000000 0.000000
0.590551 0.000000 0.000000
0.782480 0.000000 0.000000
0.974409 0.000000 0.000000
1.000000 0.000000 0.000000
1.000000 0.000000 0.000000
0.000000 0.013319 0.000000
0.012708 0.012708 0.000000
0.245100 0.014857 0.000000
0.456222 0.006752 0.000000
0.667344 0.000000 0.000000
0.878466 0.000000 0.000000
0.972353 0.000000 0.000000
1.000000 0.000000 0.000000
1.000000 0.000000 0.000000
0.000000 0.186463 0.000000
0.000000 0.185852 0.000000
0.177906 0.177906 0.000000
0.426819 0.183359 0.000000
0.637941 0.175254 0.000000
0.849063 0.167150 0.000000
1.000000 0.159045 0.000000
1.000000 0.150940 0.000000
1.000000 0.150317 0.000000
0.000000 0.359608 0.000000
0.000000 0.358996 0.000000
0.151175 0.351050 0.000000
0.343105 0.343105 0.000000
0.535034 0.335159 0.000000
0.819659 0.343757 0.000000
1.000000 0.335652 0.000000
1.000000 0.327547 0.000000
1.000000 0.326924 0.000000
0.000000 0.532752 0.000000
0.000000 0.532141 0.000000
0.124445 0.524195 0.000000
0.316374 0.516249 0.000000
0.508303 0.508303 0.000000
0.700232 0.500357 0.000000
1.000000 0.512259 0.000000
1.000000 0.504155 0.000000
1.000000 0.503531 0.000000
0.000000 0.705896 0.000000
0.000000 0.705285 0.000000
0.097714 0.697339 0.000000
0.289643 0.689393 0.000000
0.481572 0.681447 0.000000
0.673501 0.673501 0.000000
0.865431 0.665556 0.000000
1.000000 0.680762 0.000000
1.000000 0.680138 0.000000
0.000000 0.879041 0.000000
0.000000 0.878430 0.000000
0.070984 0.870484 0.000000
0.262913 0.862538 0.000000
0.454842 0.854592 0.000000
0.646771 0.846646 0.000000
0.838700 0.838700 0.000000
1.000000 0.830754 0.000000
1.000000 0.830143 0.000000
0.000000 1.000000 0.000000
0.000000 1.000000 0.000000
0.044253 1.000000 0.000000
0.236182 1.000000 0.000000
0.428111 1.000000 0.000000
0.620040 1.000000 0.000000
0.811969 1.000000 0.000000
1.000000 1.000000 0.000000
1.000000 1.000000 0.000000
0.000000 1.000000 0.000000
0.000000 1.000000 0.000000
0.042197 1.000000 0.000000
0.234126 1.000000 0.000000
0.426055 1.000000 0.000000
0.617984 1.000000 0.000000
0.809913 1.000000 0.000000
1.000000 1.000000 0.000000
1.000000 1.000000 0.000000
0.000000 0.000000 0.015167
0.014556 0.000000 0.014556
0.206485 0.000000 0.006610
0.398414 0.000000 0.000000
0.590343 0.000000 0.000000
0.782272 0.000000 0.000000
0.974202 0.000000 0.000000
1.000000 0.000000 0.000000
1.000000 0.000000 0.000000
0.000000 0.013111 0.013111
0.012500 0.012500 0.012500
0.204429 0.004554 0.004554
0.396358 0.000000 0.000000
0.588287 0.000000 0.000000
0.780216 0.000000 0.000000
0.972145 0.000000 0.000000
1.000000 0.000000 0.000000
1.000000 0.000000 0.000000
0.000000 0.186256 0.000000
0.000000 0.185644 0.000000
0.177698 0.177698 0.000000
0.426590 0.183148 0.000000
0.637712 0.175043 0.000000
0.848834 0.166938 0.000000
1.000000 0.158833 0.000000
1.000000 0.137969 0.000000
1.000000 0.137358 0.000000
0.000000 0.359400 0.000000
0.000000 0.358789 0.000000
0.150968 0.350843 0.000000
0.342897 0.342897 0.000000
0.608309 0.351650 0.000000
0.819431 0.343545 0.000000
1.000000 0.335440 0.000000
1.000000 0.327336 0.000000
1.000000 0.326712 0.000000
0.000000 0.532544 0.000000
0.000000 0.531933 0.000000
0.124237 0.523987 0.000000
0.316166 0.516041 0.000000
0.508095 0.508095 0.000000
0.700024 0.500150 0.000000
1.000000 0.512048 0.000000
1.000000 0.503943 0.000000
1.000000 0.503319 0.000000
0.000000 0.705689 0.000000
0.000000 0.705078 0.000000
0.097507 0.697132 0.000000
0.289436 0.689186 0.000000
0.481365 0.681240 0.000000
0.673294 0.673294 0.000000
0.865223 0.665348 0.000000
1.000000 0.680550 0.000000
1.000000 0.679927 0.000000
0.000000 0.878833 0.000000
0.000000 0.878222 0.000000
0.070776 0.870276 0.000000
0.262705 0.862330 0.000000
0.454634 0.854384 0.000000
0.646563 0.846438 0.000000
0.838492 0.838492 0.000000
1.000000 0.830546 0.000000
1.000000 0.856534 0.000000
0.000000 1.000000 0.000000
0.000000 1.000000 0.000000
0.044045 1.000000 0.000000
0.235975 1.000000 0.000000
0.427904 1.000000 0.000000
0.619833 1.000000 0.000000
0.811762 1.000000 0.000000
1.000000 1.000000 0.000000
1.000000 1.000000 0.000000
0.000000 1.000000 0.000000
0.000000 1.000000 0.000000
0.041989 1.000000 0.000000
0.233918 1.000000 0.000000
0.425847 1.000000 0.000000
0.617776 1.000000 0.000000
0.809706 1.000000 0.000000
1.000000 1.000000 0.000000
1.000000 1.000000 0.000000
0.000000 0.000000 0.212344
0.011858 0.000000 0.211733
0.203787 0.000000 0.203787
0.395716 0.000000 0.195841
0.587645 0.000000 0.187895
0.779574 0.000000 0.179949
0.971503 0.000000 0.172003
1.000000 0.000000 0.164057
1.000000 0.000000 0.163446
0.000000 0.010413 0.210288
0.009802 0.009802 0.209677
0.201731 0.001856 0.201731
0.393660 0.000000 0.193785
0.585589 0.000000 0.185839
0.777518 0.000000 0.177893
0.969447 0.000000 0.169947
1.000000 0.000000 0.162001
1.000000 0.000000 0.161390
0.000000 0.183557 0.183557
0.000000 0.182946 0.182946
0.175000 0.175000 0.175000
0.366929 0.167054 0.167054
0.558858 0.159108 0.159108
0.750787 0.151162 0.151162
0.942716 0.143216 0.143216
1.000000 0.135270 0.135270
1.000000 0.134659 0.134659
0.000000 0.356702 0.156827
0.000000 0.356090 0.156215
0.148269 0.348144 0.148269
0.340198 0.340198 0.140323
0.605340 0.348898 0.132378
0.816462 0.340793 0.124432
1.000000 0.332688 0.116486
1.000000 0.324583 0.108540
1.000000 0.307804 0.107929
0.000000 0.529846 0.130096
0.000000 0.529235 0.129485
0.121539 0.521289 0.121539
0.313468 0.513343 0.113593
0.505397 0.505397 0.105647
0.787059 0.517400 0.097701
0.998181 0.509295 0.089755
1.000000 0.501190 0.081809
1.000000 0.500567 0.081198
0.000000 0.702990 0.103365
0.000000 0.702379 0.102754
0.094808 0.694433 0.094808
0.286737 0.686487 0.086862
0.478666 0.678541 0.078916
0.670595 0.670595 0.070970
0.862524 0.662650 0.063025
1.000000 0.677798 0.055079
1.000000 0.677174 0.054467
0.000000 0.876135 0.076635
0.000000 0.875524 0.076024
0.068078 0.867578 0.068078
0.260007 0.859632 0.060132
0.451936 0.851686 0.052186
0.643865 0.843740 0.044240
0.835794 0.835794 0.036294
1.000000 0.827848 0.028348
1.000000 0.853781 0.027737
0.000000 1.000000 0.049904
0.000000 1.000000 0.049293
0.041347 1.000000 0.041347
0.233276 1.000000 0.033401
0.425205 1.000000 0.025455
0.617134 1.000000 0.017509
0.809063 1.000000 0.009563
1.000000 1.000000 0.001617
1.000000 1.000000 0.001006
0.000000 1.000000 0.047848
0.000000 1.000000 0.047237
0.039291 1.000000 0.039291
0.231220 1.000000 0.031345
0.423149 1.000000 0.023399
0.615078 1.000000 0.015453
0.807007 1.000000 0.007507
0.998936 1.000000 0.000000
1.000000 1.000000 0.000000
0.000000 0.000000 0.409520
0.009159 0.000000 0.408909
0.201088 0.000000 0.400963
0.393017 0.000000 0.393017
0.584946 0.000000 0.385071
0.776876 0.000000 0.377126
0.968805 0.000000 0.369180
1.000000 0.000000 0.361234
1.000000 0.000000 0.360622
0.000000 0.007714 0.407464
0.007103 0.007103 0.406853
0.199032 0.000000 0.398907
0.390961 0.000000 0.390961
0.582890 0.000000 0.383015
0.774819 0.000000 0.375069
0.966748 0.000000 0.367123
1.000000 0.000000 0.359178
1.000000 0.000000 0.358566
0.000000 0.180859 0.380734
0.000000 0.180247 0.380122
0.172302 0.172302 0.372177
0.364231 0.164356 0.364231
0.556160 0.156410 0.356285
0.748089 0.148464 0.348339
0.940018 0.140518 0.340393
1.000000 0.132572 0.332447
1.000000 0.131961 0.331836
0.000000 0.354003 0.354003
0.000000 0.353392 0.353392
0.145571 0.345446 0.345446
0.337500 0.337500 0.337500
0.529429 0.329554 0.329554
0.721358 0.321608 0.321608
0.913287 0.313662 0.313662
1.000000 0.305716 0.305716
1.000000 0.305105 0.305105
0.000000 0.527147 0.327272
0.000000 0.526536 0.326661
0.118840 0.518590 0.318715
0.310769 0.510644 0.310769
0.502698 0.502698 0.302823
0.784090 0.514648 0.294878
0.995212 0.506543 0.286932
1.000000 0.498438 0.278986
1.000000 0.497814 0.278374
0.000000 0.700292 0.300542
0.000000 0.699681 0.299931
0.092110 0.691735 0.291985
0.284039 0.683789 0.284039
0.475968 0.675843 0.276093
0.667897 0.667897 0.268147
0.965809 0.683150 0.260201
1.000000 0.675045 0.252255
1.000000 0.674422 0.251644
0.000000 0.873436 0.273811
0.000000 0.872825 0.273200
0.065379 0.864879 0.265254
0.257308 0.856933 0.257308
0.449237 0.848987 0.249362
0.641166 0.841041 0.241416
0.833095 0.833095 0.233470
1.000000 0.825149 0.225525
1.000000 0.851029 0.224913
0.000000 1.000000 0.247081
0.000000 1.000000 0.246469
0.038649 1.000000 0.238524
0.230578 1.000000 0.230578
0.422507 1.000000 0.222632
0.614436 1.000000 0.214686
0.806365 1.000000 0.206740
0.998294 0.998294 0.198794
1.000000 0.997683 0.198183
0.000000 1.000000 0.245024
0.000000 1.000000 0.244413
0.036592 1.000000 0.236467
0.228521 1.000000 0.228521
0.420450 1.000000 0.220575
0.612380 1.000000 0.212630
0.804309 1.000000 0.204684
0.996238 1.000000 0.196738
1.000000 1.000000 0.196126
0.000000 0.000000 0.606697
0.006461 0.000000 0.606086
0.198390 0.000000 0.598140
0.390319 0.000000 0.590194
0.582248 0.000000 0.582248
0.774177 0.000000 0.574302
0.966106 0.000000 0.566356
1.000000 0.000000 0.558410
1.000000 0.000000 0.557799
0.000000 0.005016 0.604641
0.004405 0.004405 0.604030
0.196334 0.000000 0.596084
0.388263 0.000000 0.588138
0.580192 0.000000 0.580192
0.772121 0.000000 0.572246
0.964050 0.000000 0.564300
1.000000 0.000000 0.556354
1.000000 0.000000 0.555743
0.000000 0.178160 0.577910
0.000000 0.177549 0.577299
0.169603 0.169603 0.569353
0.361532 0.161657 0.561407
0.553461 0.153711 0.553461
0.745390 0.145765 0.545515
0.937319 0.137819 0.537569
1.000000 0.129873 0.529623
1.000000 0.129262 0.529012
0.000000 0.351305 0.551180
0.000000 0.350693 0.550568
0.142872 0.342747 0.542622
0.334802 0.334802 0.534677
0.526731 0.326856 0.526731
0.718660 0.318910 0.518785
0.910589 0.310964 0.510839
1.000000 0.303018 0.502893
1.000000 0.302407 0.502282
0.000000 0.524449 0.524449
0.000000 0.523838 0.523838
0.116142 0.515892 0.515892
0.308071 0.507946 0.507946
0.500000 0.500000 0.500000
0.691929 0.492054 0.492054
0.883858 0.484108 0.484108
1.000000 0.476162 0.476162
1.000000 0.475551 0.475551
0.000000 0.697593 0.497718
0.000000 0.696982 0.497107
0.089411 0.689036 0.489161
0.281340 0.681090 0.481215
0.473269 0.673144 0.473269
0.665198 0.665198 0.465323
0.962840 0.680398 0.457378
1.000000 0.672293 0.449432
1.000000 0.671669 0.448820
0.000000 0.870738 0.470988
0.000000 0.870127 0.470377
0.062681 0.862181 0.462431
0.254610 0.854235 0.454485
0.446539 0.846289 0.446539
0.638468 0.838343 0.438593
0.830397 0.830397 0.430647
1.000000 0.848900 0.422701
1.000000 0.848277 0.422090
0.000000 1.000000 0.444257
0.000000 1.000000 0.443646
0.035950 1.000000 0.435700
0.227879 1.000000 0.427754
0.419808 1.000000 0.419808
0.611737 1.000000 0.411862
0.803666 1.000000 0.403916
0.995595 0.995595 0.395970
1.000000 0.994984 0.395359
0.000000 1.000000 0.442201
0.000000 1.000000 0.441590
0.033894 1.000000 0.433644
0.225823 1.000000 0.425698
0.417752 1.000000 0.417752
0.609681 1.000000 0.409806
0.801610 1.000000 0.401860
0.993539 1.000000 0.393914
1.000000 1.000000 0.393303
0.000000 0.000000 0.803874
0.003762 0.000000 0.803262
0.195691 0.000000 0.795316
0.387620 0.000000 0.787370
0.579550 0.000000 0.779425
0.771479 0.000000 0.771479
0.963408 0.000000 0.763533
1.000000 0.000000 0.755587
1.000000 0.000000 0.754976
0.000000 0.002317 0.801817
0.001706 0.001706 0.801206
0.193635 0.000000 0.793260
0.385564 0.000000 0.785314
0.577493 0.000000 0.777368
0.769422 0.000000 0.769422
0.961351 0.000000 0.761476
1.000000 0.000000 0.753531
1.000000 0.000000 0.752919
0.000000 0.175462 0.775087
0.000000 0.174850 0.774475
0.166905 0.166905 0.766530
0.358834 0.158959 0.758584
0.550763 0.151013 0.750638
0.742692 0.143067 0.742692
0.934621 0.135121 0.734746
1.000000 0.127175 0.726800
1.000000 0.126564 0.726189
0.000000 0.348606 0.748356
0.000000 0.347995 0.747745
0.140174 0.340049 0.739799
0.332103 0.332103 0.731853
0.524032 0.324157 0.723907
0.715961 0.316211 0.715961
0.907890 0.308265 0.708015
1.000000 0.300319 0.700069
1.000000 0.299708 0.699458
0.000000 0.521751 0.721626
0.000000 0.521139 0.721014
0.113443 0.513193 0.713068
0.305372 0.505247 0.705122
0.497302 0.497302 0.697177
0.689231 0.489356 0.689231
0.881160 0.481410 0.681285
1.000000 0.473464 0.673339
1.000000 0.472853 0.672728
0.000000 0.694895 0.694895
0.000000 0.694284 0.694284
0.086713 0.686338 0.686338
0.278642 0.678392 0.678392
0.470571 0.670446 0.670446
0.662500 0.662500 0.662500
0.854429 0.654554 0.654554
1.000000 0.646608 0.646608
1.000000 0.645997 0.645997
0.000000 0.868039 0.668164
0.000000 0.867428 0.667553
0.059982 0.859482 0.659607
0.251911 0.851536 0.651661
0.443840 0.843590 0.643715
0.635769 0.835644 0.635769
0.827698 0.827698 0.627823
1.000000 0.846148 0.619878
1.000000 0.845524 0.619266
0.000000 1.000000 0.641434
0.000000 1.000000 0.640822
0.033252 1.000000 0.632877
0.225181 1.000000 0.624931
0.417110 1.000000 0.616985
0.609039 1.000000 0.609039
0.800968 1.000000 0.601093
0.992897 0.992897 0.593147
1.000000 1.000000 0.592536
0.000000 1.000000 0.639378
0.000000 1.000000 0.638766
0.031195 1.000000 0.630820
0.223124 1.000000 0.622874
0.415054 1.000000 0.614929
0.606983 1.000000 0.606983
0.798912 1.000000 0.599037
0.990841 1.000000 0.591091
1.000000 1.000000 0.590480
0.000000 0.000000 1.000000
0.001064 0.000000 1.000000
0.192993 0.000000 0.992493
0.384922 0.000000 0.984547
0.576851 0.000000 0.976601
0.768780 0.000000 0.968655
0.960709 0.000000 0.960709
1.000000 0.000000 0.952763
1.000000 0.000000 0.952152
0.000000 0.000000 0.998994
0.000000 0.000000 0.998383
0.190937 0.000000 0.990437
0.382866 0.000000 0.982491
0.574795 0.000000 0.974545
0.766724 0.000000 0.966599
0.958653 0.000000 0.958653
1.000000 0.000000 0.950707
1.000000 0.000000 0.950096
0.000000 0.172763 0.972263
0.000000 0.172152 0.971652
0.164206 0.164206 0.963706
0.356135 0.156260 0.955760
0.548064 0.148314 0.947814
0.739993 0.140368 0.939868
0.931922 0.132422 0.931922
1.000000 0.124476 0.923976
1.000000 0.123865 0.923365
0.000000 0.345908 0.945533
0.000000 0.345296 0.944921
0.137476 0.337351 0.936975
0.329405 0.329405 0.929030
0.521334 0.321459 0.921084
0.713263 0.313513 0.913138
0.905192 0.305567 0.905192
1.000000 0.297621 0.897246
1.000000 0.297010 0.896635
0.000000 0.519052 0.918802
0.000000 0.518441 0.918191
0.110745 0.510495 0.910245
0.302674 0.502549 0.902299
0.494603 0.494603 0.894353
0.686532 0.486657 0.886407
0.878461 0.478711 0.878461
1.000000 0.470765 0.870515
1.000000 0.470154 0.869904
0.000000 0.692196 0.892071
0.000000 0.691585 0.891460
0.084014 0.683639 0.883514
0.275943 0.675693 0.875568
0.467872 0.667747 0.867622
0.659802 0.659802 0.859677
0.851731 0.651856 0.851731
1.000000 0.643910 0.843785
1.000000 0.643298 0.843173
0.000000 0.865341 0.865341
0.000000 0.864730 0.864730
0.057284 0.856784 0.856784
0.249213 0.848838 0.848838
0.441142 0.840892 0.840892
0.633071 0.832946 0.832946
0.825000 0.825000 0.825000
1.000000 0.817054 0.817054
1.000000 0.816443 0.816443
0.000000 1.000000 0.838610
0.000000 1.000000 0.837999
0.030553 1.000000 0.830053
0.222482 1.000000 0.822107
0.414411 1.000000 0.814161
0.606340 1.000000 0.806215
0.798269 0.998144 0.798269
0.990198 0.990198 0.790323
1.000000 1.000000 0.789712
0.000000 1.000000 0.836554
0.000000 1.000000 0.835943
0.028497 1.000000 0.827997
0.220426 1.000000 0.820051
0.412355 1.000000 0.812105
0.604284 1.000000 0.804159
0.796213 1.000000 0.796213
0.988142 1.000000 0.788267
1.000000 1.000000 0.787656
0.000000 0.000000 1.000000
0.000000 0.000000 1.000000
0.190294 0.000000 1.000000
0.382224 0.000000 1.000000
0.574153 0.000000 1.000000
0.766082 0.000000 1.000000
0.958011 0.000000 1.000000
1.000000 0.000000 1.000000
1.000000 0.000000 1.000000
0.000000 0.000000 1.000000
0.000000 0.000000 1.000000
0.188238 0.000000 1.000000
0.380167 0.000000 1.000000
0.572096 0.000000 1.000000
0.764025 0.000000 1.000000
0.955955 0.000000 1.000000
1.000000 0.000000 1.000000
1.000000 0.000000 1.000000
0.000000 0.170065 1.000000
0.000000 0.169454 1.000000
0.161508 0.161508 1.000000
0.353437 0.153562 1.000000
0.545366 0.145616 1.000000
0.737295 0.137670 1.000000
0.929224 0.129724 1.000000
1.000000 0.121778 1.000000
1.000000 0.121167 1.000000
0.000000 0.343209 1.000000
0.000000 0.342598 1.000000
0.134777 0.334652 1.000000
0.326706 0.326706 1.000000
0.518635 0.318760 1.000000
0.710564 0.310814 1.000000
0.902493 0.302868 1.000000
1.000000 0.294922 1.000000
1.000000 0.294311 1.000000
0.000000 0.516354 1.000000
0.000000 0.515742 1.000000
0.108046 0.507796 1.000000
0.299976 0.499851 1.000000
0.491905 0.491905 1.000000
0.683834 0.483959 1.000000
0.875763 0.476013 1.000000
1.000000 0.468067 1.000000
1.000000 0.467456 1.000000
0.000000 0.689498 1.000000
0.000000 0.688887 1.000000
0.081316 0.680941 1.000000
0.273245 0.672995 1.000000
0.465174 0.665049 1.000000
0.657103 0.657103 1.000000
0.849032 0.649157 1.000000
1.000000 0.641211 1.000000
1.000000 0.640600 1.000000
0.000000 0.862642 1.000000
0.000000 0.862031 1.000000
0.054585 0.854085 1.000000
0.246514 0.846139 1.000000
0.438443 0.838193 1.000000
0.630372 0.830247 1.000000
0.822302 0.822302 1.000000
1.000000 0.814356 1.000000
1.000000 0.813744 1.000000
0.000000 1.000000 1.000000
0.000000 1.000000 1.000000
0.027855 1.000000 1.000000
0.219784 1.000000 1.000000
0.411713 1.000000 1.000000
0.603642 1.000000 1.000000
0.795571 0.995446 0.995446
0.987500 0.987500 0.987500
1.000000 0.986889 0.986889
0.000000 1.000000 1.000000
0.000000 1.000000 1.000000
0.025798 1.000000 1.000000
0.217728 1.000000 1.000000
0.409657 1.000000 1.000000
0.601586 1.000000 1.000000
0.793515 1.000000 0.993390
0.985444 1.000000 0.985444
1.000000 1.000000 0.984833
0.000000 0.000000 1.000000
0.000000 0.000000 1.000000
0.190087 0.000000 1.000000
0.382016 0.000000 1.000000
0.573945 0.000000 1.000000
0.765874 0.000000 1.000000
0.957803 0.000000 1.000000
1.000000 0.000000 1.000000
1.000000 0.000000 1.000000
0.000000 0.000000 1.000000
0.000000 0.000000 1.000000
0.188031 0.000000 1.000000
0.379960 0.000000 1.000000
0.571889 0.000000 1.000000
0.763818 0.000000 1.000000
0.955747 0.000000 1.000000
1.000000 0.000000 1.000000
1.000000 0.000000 1.000000
0.000000 0.169857 1.000000
0.000000 0.169246 1.000000
0.161300 0.161300 1.000000
0.353229 0.153354 1.000000
0.545158 0.145408 1.000000
0.737087 0.137462 1.000000
0.929016 0.129516 1.000000
1.000000 0.121570 1.000000
1.000000 0.120959 1.000000
0.000000 0.343002 1.000000
0.000000 0.342390 1.000000
0.134569 0.334444 1.000000
0.326499 0.326499 1.000000
0.518428 0.318553 1.000000
0.710357 0.310607 1.000000
0.902286 0.302661 1.000000
1.000000 0.294715 1.000000
1.000000 0.294104 1.000000
0.000000 0.516146 1.000000
0.000000 0.515535 1.000000
0.107839 0.507589 1.000000
0.299768 0.499643 1.000000
0.491697 0.491697 1.000000
0.683626 0.483751 1.000000
0.875555 0.475805 1.000000
1.000000 0.467859 1.000000
1.000000 0.467248 1.000000
0.000000 0.689290 1.000000
0.000000 0.688679 1.000000
0.081108 0.680733 1.000000
0.273037 0.672787 1.000000
0.464966 0.664841 1.000000
0.656895 0.656895 1.000000
0.848825 0.648950 1.000000
1.000000 0.641004 1.000000
1.000000 0.640392 1.000000
0.000000 0.862435 1.000000
0.000000 0.861824 1.000000
0.054378 0.853878 1.000000
0.246307 0.845932 1.000000
0.438236 0.837986 1.000000
0.630165 0.830040 1.000000
0.822094 0.822094 1.000000
1.000000 0.814148 1.000000
1.000000 0.813537 1.000000
0.000000 1.000000 1.000000
0.000000 1.000000 1.000000
0.027647 1.000000 1.000000
0.219576 1.000000 1.000000
0.411505 1.000000 1.000000
0.603434 1.000000 1.000000
0.795363 0.995238 1.000000
0.987292 0.987292 1.000000
1.000000 0.986681 1.000000
0.000000 1.000000 1.000000
0.000000 1.000000 1.000000
0.025591 1.000000 1.000000
0.217520 1.000000 1.000000
0.409449 1.000000 1.000000
0.601378 1.000000 1.000000
0.793307 1.000000 1.000000
0.985236 1.000000 1.000000
1.000000 1.000000 1.000000
