library/cube/Vogue_Voltage_004.cube
# CINEGRADE LAB — Premium Cinematic LUT
# Title: Vogue Voltage
# Category: Hyperreal Fashion
# Description: Punchy, saturated, with flawless skin rendering for fashion editorials
# Mood: Bold, vibrant, high-impact
# Variant: 5
# Generated: 2026-05-21T16:12:21.431294
TITLE "Vogue Voltage"
LUT_3D_SIZE 33
0.000000 0.000000 0.000000
0.000000 0.000000 0.000000
0.000000 0.000000 0.000000
0.000000 0.000000 0.000000
0.014764 0.000000 0.000000
0.062746 0.000000 0.000000
0.110728 0.000000 0.000000
0.158711 0.000000 0.000000
0.206693 0.000000 0.000000
0.254675 0.000000 0.000000
0.302657 0.000000 0.000000
0.350640 0.000000 0.000000
0.398622 0.000000 0.000000
0.446604 0.000000 0.000000
0.494586 0.000000 0.000000
0.542569 0.000000 0.000000
0.590551 0.000000 0.000000
0.638533 0.000000 0.000000
0.686516 0.000000 0.000000
0.734498 0.000000 0.000000
0.782480 0.000000 0.000000
0.830462 0.000000 0.000000
0.878445 0.000000 0.000000
0.926427 0.000000 0.000000
0.974409 0.000000 0.000000
1.000000 0.000000 0.000000
1.000000 0.000000 0.000000
1.000000 0.000000 0.000000
1.000000 0.000000 0.000000
1.000000 0.000000 0.000000
1.000000 0.000000 0.000000
1.000000 0.000000 0.000000
1.000000 0.000000 0.000000
0.000000 0.000000 0.000000
0.000000 0.000000 0.000000
0.020000 0.010000 0.000000
0.020000 0.010000 0.000000
0.036240 0.009377 0.000000
0.089021 0.007350 0.000000
0.110728 0.000000 0.000000
0.158711 0.000000 0.000000
0.206693 0.000000 0.000000
0.254675 0.000000 0.000000
0.302657 0.000000 0.000000
0.350640 0.000000 0.000000
0.398622 0.000000 0.000000
0.446604 0.000000 0.000000
0.494586 0.000000 0.000000
0.542569 0.000000 0.000000
0.590551 0.000000 0.000000
0.638533 0.000000 0.000000
0.686516 0.000000 0.000000
0.734498 0.000000 0.000000
0.782480 0.000000 0.000000
0.830462 0.000000 0.000000
0.878445 0.000000 0.000000
0.926427 0.000000 0.000000
0.974409 0.000000 0.000000
1.000000 0.000000 0.000000
1.000000 0.000000 0.000000
1.000000 0.000000 0.000000
1.000000 0.000000 0.000000
1.000000 0.000000 0.000000
1.000000 0.000000 0.000000
1.000000 0.000000 0.000000
1.000000 0.000000 0.000000
0.000000 0.000000 0.000000
0.000000 0.000000 0.000000
0.000000 0.000000 0.000000
0.020000 0.010000 0.000000
0.036240 0.009377 0.000000
0.089021 0.007350 0.000000
0.141801 0.005324 0.000000
0.194582 0.003298 0.000000
0.247362 0.001272 0.000000
0.300143 0.000000 0.000000
0.352923 0.000000 0.000000
0.405704 0.000000 0.000000
0.398622 0.000000 0.000000
0.446604 0.000000 0.000000
0.494586 0.000000 0.000000
0.542569 0.000000 0.000000
0.590551 0.000000 0.000000
0.638533 0.000000 0.000000
0.686516 0.000000 0.000000
0.734498 0.000000 0.000000
0.782480 0.000000 0.000000
0.830462 0.000000 0.000000
0.878445 0.000000 0.000000
0.926427 0.000000 0.000000
0.974409 0.000000 0.000000
1.000000 0.000000 0.000000
1.000000 0.000000 0.000000
1.000000 0.000000 0.000000
1.000000 0.000000 0.000000
1.000000 0.000000 0.000000
1.000000 0.000000 0.000000
1.000000 0.000000 0.000000
1.000000 0.000000 0.000000
0.000000 0.000000 0.000000
0.000000 0.000000 0.000000
0.000000 0.000000 0.000000
0.000000 0.000000 0.000000
0.014764 0.000000 0.000000
0.089021 0.007350 0.000000
0.141801 0.005324 0.000000
0.194582 0.003298 0.000000
0.247362 0.001272 0.000000
0.300143 0.000000 0.000000
0.352923 0.000000 0.000000
0.405704 0.000000 0.000000
0.458484 0.000000 0.000000
0.511265 0.000000 0.000000
0.564045 0.000000 0.000000
0.616826 0.000000 0.000000
0.669606 0.000000 0.000000
0.638533 0.000000 0.000000
0.686516 0.000000 0.000000
0.734498 0.000000 0.000000
0.782480 0.000000 0.000000
0.830462 0.000000 0.000000
0.878445 0.000000 0.000000
0.926427 0.000000 0.000000
0.974409 0.000000 0.000000
1.000000 0.000000 0.000000
1.000000 0.000000 0.000000
1.000000 0.000000 0.000000
1.000000 0.000000 0.000000
1.000000 0.000000 0.000000
1.000000 0.000000 0.000000
1.000000 0.000000 0.000000
1.000000 0.000000 0.000000
0.000000 0.013319 0.000000
0.000000 0.013319 0.000000
0.000000 0.013319 0.000000
0.000000 0.013319 0.000000
0.012708 0.012708 0.000000
0.060690 0.010721 0.000000
0.139539 0.018909 0.000000
0.192320 0.016883 0.000000
0.245100 0.014857 0.000000
0.297881 0.012831 0.000000
0.350661 0.010804 0.000000
0.403442 0.008778 0.000000
0.456222 0.006752 0.000000
0.509003 0.004726 0.000000
0.561783 0.002700 0.000000
0.614564 0.000673 0.000000
0.667344 0.000000 0.000000
0.720125 0.000000 0.000000
0.772905 0.000000 0.000000
0.825686 0.000000 0.000000
0.878466 0.000000 0.000000
0.931247 0.000000 0.000000
0.984027 0.000000 0.000000
0.924371 0.000000 0.000000
0.972353 0.000000 0.000000
1.000000 0.000000 0.000000
1.000000 0.000000 0.000000
1.000000 0.000000 0.000000
1.000000 0.000000 0.000000
1.000000 0.000000 0.000000
1.000000 0.000000 0.000000
1.000000 0.000000 0.000000
1.000000 0.000000 0.000000
0.000000 0.056605 0.000000
0.000000 0.056605 0.000000
0.000000 0.056605 0.000000
0.000000 0.056605 0.000000
0.006025 0.055994 0.000000
0.054007 0.054007 0.000000
0.101989 0.052021 0.000000
0.184969 0.061035 0.000000
0.237749 0.059009 0.000000
0.290530 0.056982 0.000000
0.343310 0.054956 0.000000
0.396091 0.052930 0.000000
0.448871 0.050904 0.000000
0.501652 0.048878 0.000000
0.554432 0.046851 0.000000
0.607213 0.044825 0.000000
0.659993 0.042799 0.000000
0.712774 0.040773 0.000000
0.765554 0.038747 0.000000
0.818335 0.036720 0.000000
0.871115 0.034694 0.000000
0.923896 0.032668 0.000000
0.976676 0.030642 0.000000
1.000000 0.028616 0.000000
1.000000 0.026589 0.000000
1.000000 0.024563 0.000000
1.000000 0.022537 0.000000
1.000000 0.020511 0.000000
1.000000 0.008318 0.000000
1.000000 0.007707 0.000000
1.000000 0.007707 0.000000
1.000000 0.007707 0.000000
1.000000 0.007707 0.000000
0.000000 0.099891 0.000000
0.000000 0.099891 0.000000
0.000000 0.099891 0.000000
0.000000 0.099891 0.000000
0.000000 0.099280 0.000000
0.047325 0.097293 0.000000
0.095307 0.095307 0.000000
0.143289 0.093320 0.000000
0.191271 0.091334 0.000000
0.283179 0.101134 0.000000
0.335959 0.099108 0.000000
0.388740 0.097082 0.000000
0.441520 0.095056 0.000000
0.494301 0.093029 0.000000
0.547081 0.091003 0.000000
0.599862 0.088977 0.000000
0.652642 0.086951 0.000000
0.705423 0.084925 0.000000
0.758203 0.082898 0.000000
0.810984 0.080872 0.000000
0.863764 0.078846 0.000000
0.916545 0.076820 0.000000
0.969325 0.074794 0.000000
1.000000 0.072767 0.000000
1.000000 0.070741 0.000000
1.000000 0.068715 0.000000
1.000000 0.066689 0.000000
1.000000 0.064663 0.000000
1.000000 0.062636 0.000000
1.000000 0.062013 0.000000
1.000000 0.062013 0.000000
1.000000 0.062013 0.000000
1.000000 0.062013 0.000000
0.000000 0.143177 0.000000
0.000000 0.143177 0.000000
0.000000 0.143177 0.000000
0.000000 0.143177 0.000000
0.000000 0.142566 0.000000
0.040642 0.140579 0.000000
0.088624 0.138593 0.000000
0.136606 0.136606 0.000000
0.184589 0.134620 0.000000
0.232571 0.132633 0.000000
0.328609 0.143260 0.000000
0.381389 0.141234 0.000000
0.434170 0.139208 0.000000
0.486950 0.137181 0.000000
0.539731 0.135155 0.000000
0.592511 0.133129 0.000000
0.645292 0.131103 0.000000
0.698072 0.129076 0.000000
0.750853 0.127050 0.000000
0.803633 0.125024 0.000000
0.856414 0.122998 0.000000
0.909194 0.120972 0.000000
0.961975 0.118945 0.000000
1.000000 0.116919 0.000000
1.000000 0.114893 0.000000
1.000000 0.112867 0.000000
1.000000 0.110841 0.000000
1.000000 0.108814 0.000000
1.000000 0.106788 0.000000
1.000000 0.106165 0.000000
1.000000 0.106165 0.000000
1.000000 0.106165 0.000000
1.000000 0.106165 0.000000
0.000000 0.186463 0.000000
0.000000 0.186463 0.000000
0.000000 0.186463 0.000000
0.000000 0.186463 0.000000
0.000000 0.185852 0.000000
0.033959 0.183865 0.000000
0.081942 0.181879 0.000000
0.129924 0.179893 0.000000
0.177906 0.177906 0.000000
0.225888 0.175920 0.000000
0.273871 0.173933 0.000000
0.321853 0.171947 0.000000
0.426819 0.183359 0.000000
0.479599 0.181333 0.000000
0.532380 0.179307 0.000000
0.585160 0.177281 0.000000
0.637941 0.175254 0.000000
0.690721 0.173228 0.000000
0.743502 0.171202 0.000000
0.796282 0.169176 0.000000
0.849063 0.167150 0.000000
0.901843 0.165123 0.000000
0.954624 0.163097 0.000000
1.000000 0.161071 0.000000
1.000000 0.159045 0.000000
1.000000 0.157019 0.000000
1.000000 0.154992 0.000000
1.000000 0.152966 0.000000
1.000000 0.150940 0.000000
1.000000 0.150317 0.000000
1.000000 0.150317 0.000000
1.000000 0.150317 0.000000
1.000000 0.150317 0.000000
0.000000 0.229749 0.000000
0.000000 0.229749 0.000000
0.000000 0.229749 0.000000
0.000000 0.229749 0.000000
0.000000 0.229138 0.000000
0.027277 0.227152 0.000000
0.075259 0.225165 0.000000
0.123241 0.223179 0.000000
0.171223 0.221192 0.000000
0.219206 0.219206 0.000000
0.267188 0.217219 0.000000
0.315170 0.215233 0.000000
0.363152 0.213246 0.000000
0.472248 0.225485 0.000000
0.525029 0.223459 0.000000
0.577809 0.221433 0.000000
0.630590 0.219406 0.000000
0.683370 0.217380 0.000000
0.736151 0.215354 0.000000
0.788931 0.213328 0.000000
0.841712 0.211301 0.000000
0.894492 0.209275 0.000000
0.947273 0.207249 0.000000
1.000000 0.205223 0.000000
1.000000 0.203197 0.000000
1.000000 0.201170 0.000000
1.000000 0.199144 0.000000
1.000000 0.197118 0.000000
1.000000 0.195092 0.000000
1.000000 0.194468 0.000000
1.000000 0.194468 0.000000
1.000000 0.194468 0.000000
1.000000 0.194468 0.000000
0.000000 0.273035 0.000000
0.000000 0.273035 0.000000
0.000000 0.273035 0.000000
0.000000 0.273035 0.000000
0.000000 0.272424 0.000000
0.020594 0.270438 0.000000
0.068576 0.268451 0.000000
0.116558 0.266465 0.000000
0.164541 0.264478 0.000000
0.212523 0.262492 0.000000
0.260505 0.260505 0.000000
0.308488 0.258519 0.000000
0.356470 0.256532 0.000000
0.404452 0.254546 0.000000
0.517678 0.267611 0.000000
0.570458 0.265584 0.000000
0.623239 0.263558 0.000000
0.676019 0.261532 0.000000
0.728800 0.259506 0.000000
0.781580 0.257479 0.000000
0.834361 0.255453 0.000000
0.887141 0.253427 0.000000
0.939922 0.251401 0.000000
0.992702 0.249375 0.000000
1.000000 0.247348 0.000000
1.000000 0.245322 0.000000
1.000000 0.243296 0.000000
1.000000 0.241270 0.000000
1.000000 0.239244 0.000000
1.000000 0.238620 0.000000
1.000000 0.238620 0.000000
1.000000 0.238620 0.000000
1.000000 0.238620 0.000000
0.000000 0.316322 0.000000
0.000000 0.316322 0.000000
0.000000 0.316322 0.000000
0.000000 0.316322 0.000000
0.000000 0.315710 0.000000
0.013911 0.313724 0.000000
0.061894 0.311737 0.000000
0.109876 0.309751 0.000000
0.157858 0.307764 0.000000
0.205840 0.305778 0.000000
0.253823 0.303791 0.000000
0.301805 0.301805 0.000000
0.349787 0.299818 0.000000
0.397769 0.297832 0.000000
0.445752 0.295845 0.000000
0.493734 0.293859 0.000000
0.615888 0.307710 0.000000
0.668668 0.305684 0.000000
0.721449 0.303658 0.000000
0.774229 0.301631 0.000000
0.827010 0.299605 0.000000
0.879790 0.297579 0.000000
0.932571 0.295553 0.000000
0.985351 0.293526 0.000000
1.000000 0.291500 0.000000
1.000000 0.289474 0.000000
1.000000 0.287448 0.000000
1.000000 0.285422 0.000000
1.000000 0.283395 0.000000
1.000000 0.282772 0.000000
1.000000 0.282772 0.000000
1.000000 0.282772 0.000000
1.000000 0.282772 0.000000
0.000000 0.359608 0.000000
0.000000 0.359608 0.000000
0.000000 0.359608 0.000000
0.000000 0.359608 0.000000
0.000000 0.358996 0.000000
0.007229 0.357010 0.000000
0.055211 0.355023 0.000000
0.103193 0.353037 0.000000
0.151175 0.351050 0.000000
0.199158 0.349064 0.000000
0.247140 0.347077 0.000000
0.295122 0.345091 0.000000
0.343105 0.343105 0.000000
0.391087 0.341118 0.000000
0.439069 0.339132 0.000000
0.487051 0.337145 0.000000
0.535034 0.335159 0.000000
0.661317 0.349836 0.000000
0.714098 0.347809 0.000000
0.766878 0.345783 0.000000
0.819659 0.343757 0.000000
0.872439 0.341731 0.000000
0.925220 0.339705 0.000000
0.978000 0.337678 0.000000
1.000000 0.335652 0.000000
1.000000 0.333626 0.000000
1.000000 0.331600 0.000000
1.000000 0.329573 0.000000
1.000000 0.327547 0.000000
1.000000 0.326924 0.000000
1.000000 0.326924 0.000000
1.000000 0.326924 0.000000
1.000000 0.326924 0.000000
0.000000 0.402894 0.000000
0.000000 0.402894 0.000000
0.000000 0.402894 0.000000
0.000000 0.402894 0.000000
0.000000 0.402282 0.000000
0.000546 0.400296 0.000000
0.048528 0.398310 0.000000
0.096511 0.396323 0.000000
0.144493 0.394337 0.000000
0.192475 0.392350 0.000000
0.240457 0.390364 0.000000
0.288440 0.388377 0.000000
0.336422 0.386391 0.000000
0.384404 0.384404 0.000000
0.432386 0.382418 0.000000
0.480369 0.380431 0.000000
0.528351 0.378445 0.000000
0.576333 0.376458 0.000000
0.624315 0.374472 0.000000
0.759528 0.389935 0.000000
0.812308 0.387909 0.000000
0.865089 0.385883 0.000000
0.917869 0.383856 0.000000
0.970650 0.381830 0.000000
1.000000 0.379804 0.000000
1.000000 0.377778 0.000000
1.000000 0.375751 0.000000
1.000000 0.373725 0.000000
1.000000 0.371699 0.000000
1.000000 0.371076 0.000000
1.000000 0.371076 0.000000
1.000000 0.371076 0.000000
1.000000 0.371076 0.000000
0.000000 0.446180 0.000000
0.000000 0.446180 0.000000
0.000000 0.446180 0.000000
0.000000 0.446180 0.000000
0.000000 0.445569 0.000000
0.000000 0.443582 0.000000
0.041846 0.441596 0.000000
0.089828 0.439609 0.000000
0.137810 0.437623 0.000000
0.185792 0.435636 0.000000
0.233775 0.433650 0.000000
0.281757 0.431663 0.000000
0.329739 0.429677 0.000000
0.377721 0.427690 0.000000
0.425704 0.425704 0.000000
0.473686 0.423717 0.000000
0.521668 0.421731 0.000000
0.569651 0.419744 0.000000
0.617633 0.417758 0.000000
0.665615 0.415771 0.000000
0.804957 0.432061 0.000000
0.857738 0.430034 0.000000
0.910518 0.428008 0.000000
0.963299 0.425982 0.000000
1.000000 0.423956 0.000000
1.000000 0.421930 0.000000
1.000000 0.419903 0.000000
1.000000 0.417877 0.000000
1.000000 0.415851 0.000000
1.000000 0.415227 0.000000
1.000000 0.415227 0.000000
1.000000 0.415227 0.000000
1.000000 0.415227 0.000000
0.000000 0.489466 0.000000
0.000000 0.489466 0.000000
0.000000 0.489466 0.000000
0.000000 0.489466 0.000000
0.000000 0.488855 0.000000
0.000000 0.486868 0.000000
0.035163 0.484882 0.000000
0.083145 0.482895 0.000000
0.131128 0.480909 0.000000
0.179110 0.478922 0.000000
0.227092 0.476936 0.000000
0.275074 0.474949 0.000000
0.323057 0.472963 0.000000
0.371039 0.470976 0.000000
0.419021 0.468990 0.000000
0.467003 0.467003 0.000000
0.514986 0.465017 0.000000
0.562968 0.463030 0.000000
0.610950 0.461044 0.000000
0.658932 0.459057 0.000000
0.706915 0.457071 0.000000
0.850387 0.474186 0.000000
0.903167 0.472160 0.000000
0.955948 0.470134 0.000000
1.000000 0.468108 0.000000
1.000000 0.466081 0.000000
1.000000 0.464055 0.000000
1.000000 0.462029 0.000000
1.000000 0.460003 0.000000
1.000000 0.459379 0.000000
1.000000 0.459379 0.000000
1.000000 0.459379 0.000000
1.000000 0.459379 0.000000
0.000000 0.532752 0.000000
0.000000 0.532752 0.000000
0.000000 0.532752 0.000000
0.000000 0.532752 0.000000
0.000000 0.532141 0.000000
0.000000 0.530154 0.000000
0.028480 0.528168 0.000000
0.076463 0.526181 0.000000
0.124445 0.524195 0.000000
0.172427 0.522208 0.000000
0.220409 0.520222 0.000000
0.268392 0.518235 0.000000
0.316374 0.516249 0.000000
0.364356 0.514262 0.000000
0.412338 0.512276 0.000000
0.460321 0.510289 0.000000
0.508303 0.508303 0.000000
0.556285 0.506317 0.000000
0.604268 0.504330 0.000000
0.652250 0.502344 0.000000
0.700232 0.500357 0.000000
0.748214 0.498371 0.000000
0.796197 0.496384 0.000000
0.948597 0.514286 0.000000
1.000000 0.512259 0.000000
1.000000 0.510233 0.000000
1.000000 0.508207 0.000000
1.000000 0.506181 0.000000
1.000000 0.504155 0.000000
1.000000 0.503531 0.000000
1.000000 0.503531 0.000000
1.000000 0.503531 0.000000
1.000000 0.503531 0.000000
0.000000 0.576038 0.000000
0.000000 0.576038 0.000000
0.000000 0.576038 0.000000
0.000000 0.576038 0.000000
0.000000 0.575427 0.000000
0.000000 0.573440 0.000000
0.021798 0.571454 0.000000
0.069780 0.569467 0.000000
0.117762 0.567481 0.000000
0.165744 0.565494 0.000000
0.213727 0.563508 0.000000
0.261709 0.561522 0.000000
0.309691 0.559535 0.000000
0.357674 0.557549 0.000000
0.405656 0.555562 0.000000
0.453638 0.553576 0.000000
0.501620 0.551589 0.000000
0.549603 0.549603 0.000000
0.597585 0.547616 0.000000
0.645567 0.545630 0.000000
0.693549 0.543643 0.000000
0.741532 0.541657 0.000000
0.789514 0.539670 0.000000
0.837496 0.537684 0.000000
0.994026 0.556411 0.000000
1.000000 0.554385 0.000000
1.000000 0.552359 0.000000
1.000000 0.550333 0.000000
1.000000 0.548306 0.000000
1.000000 0.547683 0.000000
1.000000 0.547683 0.000000
1.000000 0.547683 0.000000
1.000000 0.547683 0.000000
0.000000 0.619324 0.000000
0.000000 0.619324 0.000000
0.000000 0.619324 0.000000
0.000000 0.619324 0.000000
0.000000 0.618713 0.000000
0.000000 0.616726 0.000000
0.015115 0.614740 0.000000
0.063097 0.612754 0.000000
0.111080 0.610767 0.000000
0.159062 0.608781 0.000000
0.207044 0.606794 0.000000
0.255026 0.604808 0.000000
0.303009 0.602821 0.000000
0.350991 0.600835 0.000000
0.398973 0.598848 0.000000
0.446955 0.596862 0.000000
0.494938 0.594875 0.000000
0.542920 0.592889 0.000000
0.590902 0.590902 0.000000
0.638885 0.588916 0.000000
0.686867 0.586929 0.000000
0.734849 0.584943 0.000000
0.782831 0.582956 0.000000
0.830814 0.580970 0.000000
0.878796 0.578983 0.000000
1.000000 0.598537 0.000000
1.000000 0.596511 0.000000
1.000000 0.594484 0.000000
1.000000 0.592458 0.000000
1.000000 0.591835 0.000000
1.000000 0.591835 0.000000
1.000000 0.591835 0.000000
1.000000 0.591835 0.000000
0.000000 0.662610 0.000000
0.000000 0.662610 0.000000
0.000000 0.662610 0.000000
0.000000 0.662610 0.000000
0.000000 0.661999 0.000000
0.000000 0.660013 0.000000
0.008432 0.658026 0.000000
0.056415 0.656040 0.000000
0.104397 0.654053 0.000000
0.152379 0.652067 0.000000
0.200361 0.650080 0.000000
0.248344 0.648094 0.000000
0.296326 0.646107 0.000000
0.344308 0.644121 0.000000
0.392291 0.642134 0.000000
0.440273 0.640148 0.000000
0.488255 0.638161 0.000000
0.536237 0.636175 0.000000
0.584220 0.634188 0.000000
0.632202 0.632202 0.000000
0.680184 0.630215 0.000000
0.728166 0.628229 0.000000
0.776149 0.626242 0.000000
0.824131 0.624256 0.000000
0.872113 0.622269 0.000000
0.920095 0.620283 0.000000
0.968078 0.618296 0.000000
1.000000 0.638636 0.000000
1.000000 0.636610 0.000000
1.000000 0.635987 0.000000
1.000000 0.635987 0.000000
1.000000 0.635987 0.000000
1.000000 0.635987 0.000000
0.000000 0.705896 0.000000
0.000000 0.705896 0.000000
0.000000 0.705896 0.000000
0.000000 0.705896 0.000000
0.000000 0.705285 0.000000
0.000000 0.703299 0.000000
0.001750 0.701312 0.000000
0.049732 0.699326 0.000000
0.097714 0.697339 0.000000
0.145697 0.695353 0.000000
0.193679 0.693366 0.000000
0.241661 0.691380 0.000000
0.289643 0.689393 0.000000
0.337626 0.687407 0.000000
0.385608 0.685420 0.000000
0.433590 0.683434 0.000000
0.481572 0.681447 0.000000
0.529555 0.679461 0.000000
0.577537 0.677474 0.000000
0.625519 0.675488 0.000000
0.673501 0.673501 0.000000
0.721484 0.671515 0.000000
0.769466 0.669529 0.000000
0.817448 0.667542 0.000000
0.865431 0.665556 0.000000
0.913413 0.663569 0.000000
0.961395 0.661583 0.000000
1.000000 0.659596 0.000000
1.000000 0.680762 0.000000
1.000000 0.680138 0.000000
1.000000 0.680138 0.000000
1.000000 0.680138 0.000000
1.000000 0.680138 0.000000
0.000000 0.749182 0.000000
0.000000 0.749182 0.000000
0.000000 0.749182 0.000000
0.000000 0.749182 0.000000
0.000000 0.748571 0.000000
0.000000 0.746585 0.000000
0.000000 0.744598 0.000000
0.043049 0.742612 0.000000
0.091032 0.740625 0.000000
0.139014 0.738639 0.000000
0.186996 0.736652 0.000000
0.234978 0.734666 0.000000
0.282961 0.732679 0.000000
0.330943 0.730693 0.000000
0.378925 0.728706 0.000000
0.426907 0.726720 0.000000
0.474890 0.724734 0.000000
0.522872 0.722747 0.000000
0.570854 0.720761 0.000000
0.618837 0.718774 0.000000
0.666819 0.716788 0.000000
0.714801 0.714801 0.000000
0.762783 0.712815 0.000000
0.810766 0.710828 0.000000
0.858748 0.708842 0.000000
0.906730 0.706855 0.000000
0.954712 0.704869 0.000000
1.000000 0.702882 0.000000
1.000000 0.700896 0.000000
1.000000 0.700284 0.000000
1.000000 0.724290 0.000000
1.000000 0.724290 0.000000
1.000000 0.724290 0.000000
0.000000 0.792469 0.000000
0.000000 0.792469 0.000000
0.000000 0.792469 0.000000
0.000000 0.792469 0.000000
0.000000 0.791857 0.000000
0.000000 0.789871 0.000000
0.000000 0.787884 0.000000
0.036367 0.785898 0.000000
0.084349 0.783911 0.000000
0.132331 0.781925 0.000000
0.180313 0.779938 0.000000
0.228296 0.777952 0.000000
0.276278 0.775966 0.000000
0.324260 0.773979 0.000000
0.372243 0.771993 0.000000
0.420225 0.770006 0.000000
0.468207 0.768020 0.000000
0.516189 0.766033 0.000000
0.564172 0.764047 0.000000
0.612154 0.762060 0.000000
0.660136 0.760074 0.000000
0.708118 0.758087 0.000000
0.756101 0.756101 0.000000
0.804083 0.754114 0.000000
0.852065 0.752128 0.000000
0.900048 0.750141 0.000000
0.948030 0.748155 0.000000
0.996012 0.746168 0.000000
1.000000 0.744182 0.000000
1.000000 0.743571 0.000000
1.000000 0.743571 0.000000
1.000000 0.768442 0.000000
1.000000 0.768442 0.000000
0.000000 0.835755 0.000000
0.000000 0.835755 0.000000
0.000000 0.835755 0.000000
0.000000 0.835755 0.000000
0.000000 0.835143 0.000000
0.000000 0.833157 0.000000
0.000000 0.831171 0.000000
0.029684 0.829184 0.000000
0.077666 0.827198 0.000000
0.125649 0.825211 0.000000
0.173631 0.823225 0.000000
0.221613 0.821238 0.000000
0.269595 0.819252 0.000000
0.317578 0.817265 0.000000
0.365560 0.815279 0.000000
0.413542 0.813292 0.000000
0.461524 0.811306 0.000000
0.509507 0.809319 0.000000
0.557489 0.807333 0.000000
0.605471 0.805346 0.000000
0.653454 0.803360 0.000000
0.701436 0.801373 0.000000
0.749418 0.799387 0.000000
0.797400 0.797400 0.000000
0.845383 0.795414 0.000000
0.893365 0.793427 0.000000
0.941347 0.791441 0.000000
0.989329 0.789454 0.000000
1.000000 0.787468 0.000000
1.000000 0.786857 0.000000
1.000000 0.786857 0.000000
1.000000 0.786857 0.000000
1.000000 0.812594 0.000000
0.000000 0.879041 0.000000
0.000000 0.879041 0.000000
0.000000 0.879041 0.000000
0.000000 0.879041 0.000000
0.000000 0.878430 0.000000
0.000000 0.876443 0.000000
0.000000 0.874457 0.000000
0.023001 0.872470 0.000000
0.070984 0.870484 0.000000
0.118966 0.868497 0.000000
0.166948 0.866511 0.000000
0.214930 0.864524 0.000000
0.262913 0.862538 0.000000
0.310895 0.860551 0.000000
0.358877 0.858565 0.000000
0.406860 0.856578 0.000000
0.454842 0.854592 0.000000
0.502824 0.852605 0.000000
0.550806 0.850619 0.000000
0.598789 0.848632 0.000000
0.646771 0.846646 0.000000
0.694753 0.844659 0.000000
0.742735 0.842673 0.000000
0.790718 0.840686 0.000000
0.838700 0.838700 0.000000
0.886682 0.836713 0.000000
0.934664 0.834727 0.000000
0.982647 0.832741 0.000000
1.000000 0.830754 0.000000
1.000000 0.830143 0.000000
1.000000 0.830143 0.000000
1.000000 0.830143 0.000000
1.000000 0.830143 0.000000
0.000000 0.922327 0.000000
0.000000 0.922327 0.000000
0.000000 0.922327 0.000000
0.000000 0.922327 0.000000
0.000000 0.921716 0.000000
0.000000 0.919729 0.000000
0.000000 0.917743 0.000000
0.016319 0.915756 0.000000
0.064301 0.913770 0.000000
0.112283 0.911783 0.000000
0.160266 0.909797 0.000000
0.208248 0.907810 0.000000
0.256230 0.905824 0.000000
0.304212 0.903837 0.000000
0.352195 0.901851 0.000000
0.400177 0.899864 0.000000
0.448159 0.897878 0.000000
0.496141 0.895891 0.000000
0.544124 0.893905 0.000000
0.592106 0.891918 0.000000
0.640088 0.889932 0.000000
0.688070 0.887945 0.000000
0.736053 0.885959 0.000000
0.784035 0.883973 0.000000
0.832017 0.881986 0.000000
0.880000 0.880000 0.000000
0.927982 0.878013 0.000000
0.975964 0.876027 0.000000
1.000000 0.874040 0.000000
1.000000 0.873429 0.000000
1.000000 0.873429 0.000000
1.000000 0.873429 0.000000
1.000000 0.873429 0.000000
0.000000 0.965613 0.000000
0.000000 0.965613 0.000000
0.000000 0.965613 0.000000
0.000000 0.965613 0.000000
0.000000 0.965002 0.000000
0.000000 0.963015 0.000000
0.000000 0.961029 0.000000
0.009636 0.959042 0.000000
0.057618 0.957056 0.000000
0.105601 0.955069 0.000000
0.153583 0.953083 0.000000
0.201565 0.951096 0.000000
0.249547 0.949110 0.000000
0.297530 0.947123 0.000000
0.345512 0.945137 0.000000
0.393494 0.943150 0.000000
0.441476 0.941164 0.000000
0.489459 0.939178 0.000000
0.537441 0.937191 0.000000
