library/cube/Wanderlust_Gold_004.cube
# CINEGRADE LAB — Premium Cinematic LUT
# Title: Wanderlust Gold
# Category: Luxury Travel
# Description: Golden hour tones, rich landscapes, and vivid colors for travel content
# Mood: Wanderlust, golden, rich
# Variant: 5
# Generated: 2026-05-21T16:12:24.958575
TITLE "Wanderlust Gold"
LUT_3D_SIZE 5
0.000000 0.000000 0.000000
0.239804 0.000000 0.000000
0.551427 0.000000 0.000000
0.863343 0.000000 0.000000
1.000000 0.000000 0.000000
0.000000 0.263819 0.000000
0.219606 0.227542 0.000000
0.532021 0.219834 0.000000
0.845010 0.212136 0.000000
1.000000 0.206384 0.000000
0.000000 0.586864 0.000000
0.195633 0.513576 0.000000
0.509308 0.506025 0.000000
0.823841 0.498489 0.000000
1.000000 0.493066 0.000000
0.000000 0.911025 0.000000
0.163090 0.905557 0.000000
0.487899 0.793349 0.000000
0.804447 0.786049 0.000000
1.000000 0.781085 0.000000
0.000000 1.000000 0.000000
0.155391 1.000000 0.000000
0.473084 1.000000 0.000000
0.792206 1.000000 0.000000
1.000000 1.000000 0.000000
0.000000 0.000000 0.266144
0.237607 0.000000 0.260112
0.549289 0.000000 0.252255
0.861293 0.000000 0.244367
1.000000 0.000000 0.238291
0.000000 0.231269 0.245053
0.217502 0.225351 0.238927
0.530024 0.217649 0.230967
0.843150 0.209958 0.222968
1.000000 0.204226 0.216878
0.000000 0.584738 0.212946
0.187563 0.579017 0.206706
0.507452 0.503909 0.204680
0.822170 0.496383 0.196549
1.000000 0.490988 0.190485
0.000000 0.909001 0.183197
0.161167 0.903550 0.176826
0.486184 0.791332 0.178005
0.802965 0.784046 0.169723
1.000000 0.779120 0.163724
0.000000 1.000000 0.170990
0.153591 1.000000 0.164562
0.471538 1.000000 0.156260
0.790945 1.000000 0.147899
1.000000 1.000000 0.142103
0.000000 0.000000 0.560296
0.235185 0.000000 0.554227
0.546932 0.000000 0.546308
0.859027 0.000000 0.538334
1.000000 0.000000 0.532155
0.000000 0.228839 0.538986
0.215174 0.222929 0.532741
0.527808 0.215234 0.524637
0.841075 0.207549 0.516470
1.000000 0.201837 0.510201
0.000000 0.514840 0.512440
0.191385 0.509094 0.506003
0.505378 0.501564 0.497694
0.820286 0.494049 0.489312
1.000000 0.488684 0.482993
0.000000 0.906751 0.475869
0.159022 0.901318 0.469215
0.474836 0.894106 0.460673
0.801270 0.781817 0.461474
1.000000 0.776930 0.455144
0.000000 1.000000 0.462652
0.151569 1.000000 0.455862
0.469777 1.000000 0.447171
0.789472 1.000000 0.438398
1.000000 1.000000 0.432197
0.000000 0.000000 0.854431
0.232773 0.000000 0.848308
0.544588 0.000000 0.840312
0.856782 0.000000 0.832235
1.000000 0.000000 0.825937
0.000000 0.226412 0.832847
0.212855 0.220511 0.826467
0.525607 0.212823 0.818203
0.839021 0.205144 0.809851
1.000000 0.199453 0.803388
0.000000 0.512478 0.805754
0.189160 0.506744 0.799100
0.503319 0.499225 0.790548
0.818422 0.491720 0.781900
1.000000 0.486385 0.775310
0.000000 0.799622 0.777763
0.166299 0.794131 0.770818
0.482334 0.786853 0.761959
0.799597 0.779595 0.752995
1.000000 0.774748 0.746318
0.000000 1.000000 0.754078
0.149560 1.000000 0.746910
0.468032 1.000000 0.737815
0.788021 1.000000 0.728612
1.000000 1.000000 0.721990
0.000000 0.000000 1.000000
0.230605 0.000000 1.000000
0.542494 0.000000 1.000000
0.854791 0.000000 1.000000
1.000000 0.000000 1.000000
0.000000 0.224224 1.000000
0.210781 0.218330 1.000000
0.523656 0.210649 1.000000
0.837221 0.202977 1.000000
1.000000 0.197306 1.000000
0.000000 0.510355 1.000000
0.187179 0.504633 1.000000
0.501509 0.497124 1.000000
0.816812 0.489630 1.000000
1.000000 0.484325 1.000000
0.000000 0.797596 1.000000
0.164410 0.792121 1.000000
0.480665 0.784857 1.000000
0.798176 0.777612 1.000000
1.000000 0.772807 1.000000
0.000000 1.000000 1.000000
0.147794 1.000000 1.000000
0.466536 1.000000 1.000000
0.786824 1.000000 0.990881
1.000000 1.000000 0.983863
