library/cube/Wanderlust_Gold_004.cube
# CINEGRADE LAB — Premium Cinematic LUT
# Title: Wanderlust Gold
# Category: Luxury Travel
# Description: Golden hour tones, rich landscapes, and vivid colors for travel content
# Mood: Wanderlust, golden, rich
# Variant: 5
# Generated: 2026-05-21T16:12:24.958575
TITLE "Wanderlust Gold"
LUT_3D_SIZE 33
0.000000 0.000000 0.000000
0.000000 0.000000 0.000000
0.006202 0.000000 0.000000
0.045132 0.000000 0.000000
0.084063 0.000000 0.000000
0.122995 0.000000 0.000000
0.161929 0.000000 0.000000
0.200866 0.000000 0.000000
0.239804 0.000000 0.000000
0.278745 0.000000 0.000000
0.317690 0.000000 0.000000
0.356637 0.000000 0.000000
0.395587 0.000000 0.000000
0.434541 0.000000 0.000000
0.473499 0.000000 0.000000
0.512461 0.000000 0.000000
0.551427 0.000000 0.000000
0.590398 0.000000 0.000000
0.629374 0.000000 0.000000
0.668355 0.000000 0.000000
0.707341 0.000000 0.000000
0.746332 0.000000 0.000000
0.785330 0.000000 0.000000
0.824333 0.000000 0.000000
0.863343 0.000000 0.000000
0.902359 0.000000 0.000000
0.941382 0.000000 0.000000
0.980163 0.000000 0.000000
1.000000 0.000000 0.000000
1.000000 0.000000 0.000000
1.000000 0.000000 0.000000
1.000000 0.000000 0.000000
1.000000 0.000000 0.000000
0.000004 0.000001 0.000000
0.000007 0.000002 0.000000
0.006212 0.000000 0.000000
0.045145 0.000000 0.000000
0.084080 0.000000 0.000000
0.123018 0.000000 0.000000
0.161958 0.000000 0.000000
0.200900 0.000000 0.000000
0.239845 0.000000 0.000000
0.278794 0.000000 0.000000
0.317746 0.000000 0.000000
0.356701 0.000000 0.000000
0.395661 0.000000 0.000000
0.434624 0.000000 0.000000
0.473592 0.000000 0.000000
0.512565 0.000000 0.000000
0.551542 0.000000 0.000000
0.590524 0.000000 0.000000
0.629512 0.000000 0.000000
0.668506 0.000000 0.000000
0.707505 0.000000 0.000000
0.746511 0.000000 0.000000
0.785522 0.000000 0.000000
0.824541 0.000000 0.000000
0.863566 0.000000 0.000000
0.902598 0.000000 0.000000
0.941638 0.000000 0.000000
0.980371 0.000000 0.000000
1.000000 0.000000 0.000000
1.000000 0.000000 0.000000
1.000000 0.000000 0.000000
1.000000 0.000000 0.000000
1.000000 0.000000 0.000000
0.000000 0.021978 0.000000
0.000000 0.019451 0.000000
0.004487 0.019298 0.000000
0.043425 0.018324 0.000000
0.082366 0.017350 0.000000
0.121309 0.016376 0.000000
0.160255 0.015403 0.000000
0.199205 0.014430 0.000000
0.238158 0.013457 0.000000
0.277114 0.012484 0.000000
0.316075 0.011511 0.000000
0.355039 0.010538 0.000000
0.394009 0.009566 0.000000
0.432982 0.008594 0.000000
0.471961 0.007622 0.000000
0.510945 0.006649 0.000000
0.549935 0.005678 0.000000
0.588930 0.004706 0.000000
0.627931 0.003734 0.000000
0.666938 0.002762 0.000000
0.705951 0.001791 0.000000
0.744972 0.000819 0.000000
0.783999 0.000000 0.000000
0.823033 0.000000 0.000000
0.862075 0.000000 0.000000
0.901124 0.000000 0.000000
0.940181 0.000000 0.000000
0.978859 0.000000 0.000000
1.000000 0.000000 0.000000
1.000000 0.000000 0.000000
1.000000 0.000000 0.000000
1.000000 0.000000 0.000000
1.000000 0.000000 0.000000
0.000000 0.062269 0.000000
0.000000 0.062272 0.000000
0.001318 0.054955 0.000000
0.040261 0.053982 0.000000
0.079208 0.053010 0.000000
0.118158 0.052037 0.000000
0.157112 0.051065 0.000000
0.196069 0.050093 0.000000
0.235031 0.049121 0.000000
0.273997 0.048149 0.000000
0.312967 0.047177 0.000000
0.351942 0.046206 0.000000
0.390921 0.045234 0.000000
0.429907 0.044263 0.000000
0.468897 0.043292 0.000000
0.507893 0.042321 0.000000
0.546896 0.041350 0.000000
0.585904 0.040380 0.000000
0.624919 0.039409 0.000000
0.663941 0.038439 0.000000
0.702970 0.037468 0.000000
0.742006 0.036498 0.000000
0.781049 0.035528 0.000000
0.820100 0.034558 0.000000
0.859159 0.033588 0.000000
0.898226 0.032618 0.000000
0.937302 0.031648 0.000000
0.975917 0.030690 0.000000
1.000000 0.029735 0.000000
1.000000 0.028781 0.000000
1.000000 0.027829 0.000000
1.000000 0.027687 0.000000
1.000000 0.027698 0.000000
0.000000 0.102565 0.000000
0.000000 0.102569 0.000000
0.000000 0.090618 0.000000
0.037107 0.089646 0.000000
0.076061 0.088674 0.000000
0.115019 0.087703 0.000000
0.153981 0.086732 0.000000
0.192947 0.085761 0.000000
0.231918 0.084790 0.000000
0.270894 0.083819 0.000000
0.309875 0.082849 0.000000
0.348860 0.081879 0.000000
0.387852 0.080909 0.000000
0.426849 0.079939 0.000000
0.465853 0.078969 0.000000
0.504862 0.077999 0.000000
0.543878 0.077030 0.000000
0.582901 0.076060 0.000000
0.621931 0.075091 0.000000
0.660968 0.074122 0.000000
0.700013 0.073153 0.000000
0.739066 0.072184 0.000000
0.778126 0.071215 0.000000
0.817195 0.070246 0.000000
0.856272 0.069278 0.000000
0.895358 0.068309 0.000000
0.934453 0.067341 0.000000
0.972999 0.066386 0.000000
1.000000 0.065435 0.000000
1.000000 0.064486 0.000000
1.000000 0.063538 0.000000
1.000000 0.063399 0.000000
1.000000 0.063412 0.000000
0.000000 0.142867 0.000000
0.000000 0.142873 0.000000
0.000000 0.142724 0.000000
0.033962 0.125315 0.000000
0.072925 0.124345 0.000000
0.111891 0.123375 0.000000
0.150862 0.122405 0.000000
0.189838 0.121436 0.000000
0.228820 0.120466 0.000000
0.267806 0.119497 0.000000
0.306798 0.118528 0.000000
0.345796 0.117559 0.000000
0.384800 0.116590 0.000000
0.423810 0.115622 0.000000
0.462827 0.114653 0.000000
0.501851 0.113685 0.000000
0.540882 0.112717 0.000000
0.579920 0.111749 0.000000
0.618966 0.110781 0.000000
0.658020 0.109814 0.000000
0.697081 0.108846 0.000000
0.736151 0.107879 0.000000
0.775230 0.106911 0.000000
0.814317 0.105944 0.000000
0.853414 0.104977 0.000000
0.892520 0.104010 0.000000
0.931635 0.103043 0.000000
0.970105 0.102092 0.000000
1.000000 0.101146 0.000000
1.000000 0.100201 0.000000
1.000000 0.099258 0.000000
1.000000 0.099121 0.000000
1.000000 0.099137 0.000000
0.000000 0.183176 0.000000
0.000000 0.183184 0.000000
0.000000 0.183036 0.000000
0.030827 0.160992 0.000000
0.069798 0.160023 0.000000
0.108774 0.159054 0.000000
0.147756 0.158086 0.000000
0.186742 0.157118 0.000000
0.225735 0.156150 0.000000
0.264733 0.155182 0.000000
0.303737 0.154214 0.000000
0.342748 0.153247 0.000000
0.381766 0.152280 0.000000
0.420790 0.151313 0.000000
0.459822 0.150346 0.000000
0.498861 0.149379 0.000000
0.537907 0.148413 0.000000
0.576962 0.147447 0.000000
0.616024 0.146480 0.000000
0.655095 0.145514 0.000000
0.694175 0.144548 0.000000
0.733263 0.143582 0.000000
0.772361 0.142617 0.000000
0.811468 0.141651 0.000000
0.850584 0.140686 0.000000
0.889710 0.139720 0.000000
0.928847 0.138755 0.000000
0.967234 0.137809 0.000000
1.000000 0.136867 0.000000
1.000000 0.135927 0.000000
1.000000 0.134989 0.000000
1.000000 0.134855 0.000000
1.000000 0.134873 0.000000
0.000000 0.223493 0.000000
0.000000 0.223503 0.000000
0.000000 0.223357 0.000000
0.025395 0.222391 0.000000
0.066682 0.195708 0.000000
0.105668 0.194741 0.000000
0.144661 0.193774 0.000000
0.183659 0.192808 0.000000
0.222664 0.191842 0.000000
0.261675 0.190875 0.000000
0.300692 0.189910 0.000000
0.339717 0.188944 0.000000
0.378749 0.187978 0.000000
0.417788 0.187013 0.000000
0.456835 0.186048 0.000000
0.495890 0.185083 0.000000
0.534953 0.184118 0.000000
0.574025 0.183153 0.000000
0.613105 0.182189 0.000000
0.652194 0.181225 0.000000
0.691293 0.180260 0.000000
0.730400 0.179296 0.000000
0.769518 0.178333 0.000000
0.808645 0.177369 0.000000
0.847783 0.176405 0.000000
0.886931 0.175441 0.000000
0.926089 0.174478 0.000000
0.964387 0.173537 0.000000
1.000000 0.172600 0.000000
1.000000 0.171665 0.000000
1.000000 0.170733 0.000000
1.000000 0.170601 0.000000
1.000000 0.170622 0.000000
0.000000 0.263819 0.000000
0.000000 0.263831 0.000000
0.000000 0.263688 0.000000
0.021862 0.262724 0.000000
0.063575 0.231402 0.000000
0.102574 0.230437 0.000000
0.141578 0.229472 0.000000
0.180589 0.228507 0.000000
0.219606 0.227542 0.000000
0.258631 0.226578 0.000000
0.297663 0.225614 0.000000
0.336702 0.224650 0.000000
0.375749 0.223686 0.000000
0.414805 0.222723 0.000000
0.453868 0.221760 0.000000
0.492940 0.220797 0.000000
0.532021 0.219834 0.000000
0.571110 0.218871 0.000000
0.610209 0.217908 0.000000
0.649317 0.216946 0.000000
0.688435 0.215983 0.000000
0.727563 0.215021 0.000000
0.766702 0.214059 0.000000
0.805850 0.213097 0.000000
0.845010 0.212136 0.000000
0.884180 0.211174 0.000000
0.923362 0.210213 0.000000
0.961564 0.209276 0.000000
0.999571 0.208345 0.000000
1.000000 0.207416 0.000000
1.000000 0.206489 0.000000
1.000000 0.206361 0.000000
1.000000 0.206384 0.000000
0.000000 0.304156 0.000000
0.000000 0.304170 0.000000
0.000000 0.304029 0.000000
0.018337 0.303066 0.000000
0.057341 0.302105 0.000000
0.099490 0.266142 0.000000
0.138507 0.265179 0.000000
0.177531 0.264216 0.000000
0.216563 0.263253 0.000000
0.255602 0.262291 0.000000
0.294649 0.261329 0.000000
0.333704 0.260367 0.000000
0.372767 0.259405 0.000000
0.411839 0.258443 0.000000
0.450920 0.257482 0.000000
0.490010 0.256521 0.000000
0.529109 0.255560 0.000000
0.568217 0.254599 0.000000
0.607336 0.253639 0.000000
0.646464 0.252678 0.000000
0.685603 0.251718 0.000000
0.724752 0.250758 0.000000
0.763912 0.249798 0.000000
0.803083 0.248838 0.000000
0.842265 0.247879 0.000000
0.881459 0.246919 0.000000
0.920665 0.245960 0.000000
0.958764 0.245028 0.000000
0.996647 0.244103 0.000000
1.000000 0.243180 0.000000
1.000000 0.242259 0.000000
1.000000 0.242135 0.000000
1.000000 0.242161 0.000000
0.000000 0.344502 0.000000
0.000000 0.344519 0.000000
0.000000 0.344380 0.000000
0.014822 0.343421 0.000000
0.053838 0.342461 0.000000
0.096416 0.301857 0.000000
0.135447 0.300896 0.000000
0.174486 0.299935 0.000000
0.213533 0.298975 0.000000
0.252587 0.298014 0.000000
0.291650 0.297054 0.000000
0.330722 0.296094 0.000000
0.369802 0.295135 0.000000
0.408892 0.294175 0.000000
0.447991 0.293216 0.000000
0.487099 0.292257 0.000000
0.526218 0.291298 0.000000
0.565346 0.290340 0.000000
0.604485 0.289381 0.000000
0.643635 0.288423 0.000000
0.682795 0.287465 0.000000
0.721966 0.286507 0.000000
0.761149 0.285549 0.000000
0.800343 0.284592 0.000000
0.839549 0.283634 0.000000
0.878767 0.282677 0.000000
0.917998 0.281720 0.000000
0.955987 0.280794 0.000000
0.993738 0.279875 0.000000
1.000000 0.278959 0.000000
1.000000 0.278044 0.000000
1.000000 0.277923 0.000000
1.000000 0.277952 0.000000
0.000000 0.384861 0.000000
0.000000 0.384880 0.000000
0.000000 0.384744 0.000000
0.011315 0.383787 0.000000
0.050345 0.382830 0.000000
0.089383 0.381874 0.000000
0.132400 0.336625 0.000000
0.171454 0.335666 0.000000
0.210516 0.334708 0.000000
0.249587 0.333750 0.000000
0.288667 0.332792 0.000000
0.327756 0.331834 0.000000
0.366855 0.330877 0.000000
0.405963 0.329920 0.000000
0.445081 0.328963 0.000000
0.484209 0.328006 0.000000
0.523348 0.327049 0.000000
0.562497 0.326093 0.000000
0.601657 0.325137 0.000000
0.640829 0.324181 0.000000
0.680011 0.323225 0.000000
0.719206 0.322270 0.000000
0.758412 0.321314 0.000000
0.797630 0.320359 0.000000
0.836861 0.319404 0.000000
0.876104 0.318449 0.000000
0.915361 0.317494 0.000000
0.953233 0.316575 0.000000
0.990845 0.315662 0.000000
1.000000 0.314752 0.000000
1.000000 0.313845 0.000000
1.000000 0.313728 0.000000
1.000000 0.313760 0.000000
0.000000 0.425233 0.000000
0.000000 0.425255 0.000000
0.000000 0.425122 0.000000
0.007817 0.424167 0.000000
0.046862 0.423213 0.000000
0.085915 0.422259 0.000000
0.129363 0.372366 0.000000
0.168434 0.371409 0.000000
0.207513 0.370453 0.000000
0.246601 0.369498 0.000000
0.285699 0.368542 0.000000
0.324806 0.367587 0.000000
0.363924 0.366632 0.000000
0.403052 0.365677 0.000000
0.442190 0.364722 0.000000
0.481339 0.363768 0.000000
0.520499 0.362814 0.000000
0.559670 0.361860 0.000000
0.598852 0.360906 0.000000
0.638046 0.359953 0.000000
0.677252 0.359000 0.000000
0.716471 0.358047 0.000000
0.755701 0.357094 0.000000
0.794945 0.356141 0.000000
0.834201 0.355188 0.000000
0.873471 0.354236 0.000000
0.912754 0.353284 0.000000
0.950502 0.352371 0.000000
0.987967 0.351465 0.000000
1.000000 0.350562 0.000000
1.000000 0.349662 0.000000
1.000000 0.349549 0.000000
1.000000 0.349584 0.000000
0.000000 0.465618 0.000000
0.000000 0.465643 0.000000
0.000000 0.465513 0.000000
0.004328 0.464561 0.000000
0.043388 0.463609 0.000000
0.082457 0.462658 0.000000
0.121534 0.461707 0.000000
0.165426 0.407166 0.000000
0.204523 0.406212 0.000000
0.243629 0.405259 0.000000
0.282746 0.404306 0.000000
0.321873 0.403353 0.000000
0.361010 0.402401 0.000000
0.400158 0.401448 0.000000
0.439318 0.400496 0.000000
0.478488 0.399545 0.000000
0.517670 0.398593 0.000000
0.556864 0.397642 0.000000
0.596069 0.396691 0.000000
0.635287 0.395740 0.000000
0.674518 0.394789 0.000000
0.713761 0.393839 0.000000
0.753017 0.392888 0.000000
0.792286 0.391938 0.000000
0.831569 0.390988 0.000000
0.870866 0.390039 0.000000
0.910176 0.389089 0.000000
0.947795 0.388182 0.000000
0.985105 0.387284 0.000000
1.000000 0.386389 0.000000
1.000000 0.385496 0.000000
1.000000 0.385387 0.000000
1.000000 0.385426 0.000000
0.000000 0.506017 0.000000
0.000000 0.506046 0.000000
0.000000 0.505919 0.000000
0.000847 0.504970 0.000000
0.039923 0.504021 0.000000
0.079009 0.503073 0.000000
0.118104 0.502125 0.000000
0.162431 0.442936 0.000000
0.201546 0.441985 0.000000
0.240672 0.441034 0.000000
0.279808 0.440084 0.000000
0.318955 0.439134 0.000000
0.358114 0.438184 0.000000
0.397283 0.437234 0.000000
0.436464 0.436285 0.000000
0.475657 0.435336 0.000000
0.514862 0.434387 0.000000
0.554079 0.433439 0.000000
0.593309 0.432490 0.000000
0.632552 0.431542 0.000000
0.671807 0.430594 0.000000
0.711076 0.429647 0.000000
0.750359 0.428699 0.000000
0.789655 0.427752 0.000000
0.828965 0.426805 0.000000
0.868290 0.425858 0.000000
0.907629 0.424911 0.000000
0.945110 0.424011 0.000000
0.982258 0.423121 0.000000
1.000000 0.422233 0.000000
1.000000 0.421348 0.000000
1.000000 0.421244 0.000000
1.000000 0.421286 0.000000
0.000000 0.546433 0.000000
0.000000 0.546464 0.000000
0.000000 0.546341 0.000000
0.000000 0.545395 0.000000
0.036468 0.544450 0.000000
0.075572 0.543505 0.000000
0.114685 0.542560 0.000000
0.153809 0.541616 0.000000
0.198583 0.477773 0.000000
0.237729 0.476825 0.000000
0.276886 0.475877 0.000000
0.316054 0.474930 0.000000
0.355234 0.473983 0.000000
0.394426 0.473036 0.000000
0.433629 0.472090 0.000000
0.472846 0.471144 0.000000
0.512075 0.470198 0.000000
0.551316 0.469252 0.000000
0.590571 0.468306 0.000000
0.629839 0.467361 0.000000
0.669121 0.466416 0.000000
0.708417 0.465471 0.000000
0.747726 0.464527 0.000000
0.787051 0.463582 0.000000
0.826389 0.462638 0.000000
0.865743 0.461694 0.000000
0.905111 0.460750 0.000000
0.942449 0.459858 0.000000
0.979426 0.458975 0.000000
1.000000 0.458096 0.000000
1.000000 0.457220 0.000000
1.000000 0.457119 0.000000
1.000000 0.457166 0.000000
0.000000 0.586864 0.000000
0.000000 0.586900 0.000000
0.000000 0.586780 0.000000
0.000000 0.585837 0.000000
0.033022 0.584895 0.000000
0.072144 0.583954 0.000000
0.111277 0.583012 0.000000
0.150421 0.582071 0.000000
0.195633 0.513576 0.000000
0.234799 0.512631 0.000000
0.273978 0.511687 0.000000
0.313168 0.510742 0.000000
0.352371 0.509798 0.000000
0.391586 0.508854 0.000000
0.430813 0.507911 0.000000
0.470054 0.506968 0.000000
0.509308 0.506025 0.000000
0.548575 0.505082 0.000000
0.587856 0.504139 0.000000
0.627150 0.503197 0.000000
0.666459 0.502255 0.000000
0.705782 0.501313 0.000000
0.745120 0.500372 0.000000
0.784473 0.499431 0.000000
0.823841 0.498489 0.000000
0.863224 0.497549 0.000000
0.902623 0.496608 0.000000
0.939810 0.495723 0.000000
0.976608 0.494849 0.000000
1.000000 0.493978 0.000000
1.000000 0.493110 0.000000
1.000000 0.493015 0.000000
1.000000 0.493066 0.000000
0.000000 0.627313 0.000000
0.000000 0.627353 0.000000
0.000000 0.627237 0.000000
0.000000 0.626298 0.000000
0.029585 0.625359 0.000000
0.068727 0.624421 0.000000
0.107880 0.623483 0.000000
0.147045 0.622545 0.000000
0.186221 0.621608 0.000000
0.231884 0.548455 0.000000
0.271085 0.547513 0.000000
0.310298 0.546572 0.000000
0.349524 0.545631 0.000000
0.388763 0.544690 0.000000
0.428016 0.543750 0.000000
0.467282 0.542809 0.000000
0.506561 0.541870 0.000000
0.545854 0.540930 0.000000
0.585162 0.539991 0.000000
0.624484 0.539051 0.000000
0.663821 0.538113 0.000000
0.703173 0.537174 0.000000
0.742540 0.536236 0.000000
0.781922 0.535298 0.000000
0.821320 0.534360 0.000000
0.860734 0.533422 0.000000
0.900165 0.532485 0.000000
0.937194 0.531608 0.000000
0.973806 0.530742 0.000000
1.000000 0.529880 0.000000
1.000000 0.529022 0.000000
1.000000 0.528931 0.000000
1.000000 0.528986 0.000000
0.000000 0.667781 0.000000
0.000000 0.667824 0.000000
0.000000 0.667712 0.000000
0.000000 0.666777 0.000000
0.026158 0.665842 0.000000
0.065320 0.664907 0.000000
0.104494 0.663973 0.000000
0.143680 0.663039 0.000000
0.182879 0.662106 0.000000
0.228982 0.584295 0.000000
0.268207 0.583357 0.000000
0.307444 0.582419 0.000000
0.346695 0.581481 0.000000
0.385959 0.580544 0.000000
0.425237 0.579606 0.000000
0.464529 0.578669 0.000000
0.503835 0.577733 0.000000
0.543155 0.576797 0.000000
0.582491 0.575861 0.000000
0.621841 0.574925 0.000000
0.661207 0.573989 0.000000
0.700588 0.573054 0.000000
0.739985 0.572119 0.000000
0.779398 0.571184 0.000000
0.818828 0.570250 0.000000
0.858273 0.569315 0.000000
0.897736 0.568381 0.000000
0.934601 0.567513 0.000000
0.971019 0.566657 0.000000
1.000000 0.565804 0.000000
1.000000 0.564955 0.000000
1.000000 0.564869 0.000000
1.000000 0.564928 0.000000
0.000000 0.708268 0.000000
0.000000 0.708315 0.000000
0.000000 0.708207 0.000000
0.000000 0.707276 0.000000
0.022739 0.706344 0.000000
0.061923 0.705413 0.000000
0.101119 0.704483 0.000000
0.140328 0.703553 0.000000
0.179549 0.702624 0.000000
0.218784 0.701695 0.000000
0.265343 0.619219 0.000000
0.304605 0.618285 0.000000
0.343881 0.617350 0.000000
0.383172 0.616416 0.000000
0.422476 0.615482 0.000000
0.461795 0.614549 0.000000
0.501129 0.613616 0.000000
0.540478 0.612683 0.000000
0.579842 0.611750 0.000000
0.619221 0.610818 0.000000
0.658617 0.609886 0.000000
0.698029 0.608954 0.000000
0.737457 0.608022 0.000000
0.776901 0.607091 0.000000
0.816362 0.606160 0.000000
0.855841 0.605229 0.000000
0.895336 0.604299 0.000000
0.932030 0.603439 0.000000
0.968247 0.602592 0.000000
1.000000 0.601749 0.000000
1.000000 0.600910 0.000000
1.000000 0.600829 0.000000
1.000000 0.600893 0.000000
0.000000 0.748775 0.000000
0.000000 0.748827 0.000000
0.000000 0.748723 0.000000
0.000000 0.747795 0.000000
0.019329 0.746868 0.000000
0.058536 0.745941 0.000000
0.097755 0.745015 0.000000
0.136987 0.744089 0.000000
0.176233 0.743163 0.000000
0.215492 0.742238 0.000000
0.262495 0.655101 0.000000
0.301783 0.654170 0.000000
0.341085 0.653239 0.000000
0.380402 0.652308 0.000000
0.419734 0.651378 0.000000
0.459081 0.650448 0.000000
0.498443 0.649519 0.000000
0.537821 0.648589 0.000000
0.577215 0.647660 0.000000
0.616624 0.646732 0.000000
0.656051 0.645803 0.000000
0.695494 0.644875 0.000000
0.734953 0.643947 0.000000
0.774430 0.643019 0.000000
0.813924 0.642092 0.000000
0.853436 0.641165 0.000000
0.892966 0.640238 0.000000
0.929482 0.639387 0.000000
0.965489 0.638550 0.000000
1.000000 0.637717 0.000000
1.000000 0.636888 0.000000
1.000000 0.636813 0.000000
1.000000 0.636881 0.000000
0.000000 0.789303 0.000000
0.000000 0.789360 0.000000
0.000000 0.789260 0.000000
0.000000 0.788337 0.000000
0.015928 0.787414 0.000000
0.055158 0.786491 0.000000
0.094401 0.785569 0.000000
0.133658 0.784647 0.000000
0.172928 0.783725 0.000000
0.212213 0.782805 0.000000
0.251512 0.781884 0.000000
0.298975 0.690076 0.000000
0.338305 0.689148 0.000000
0.377649 0.688221 0.000000
0.417009 0.687295 0.000000
0.456385 0.686369 0.000000
0.495777 0.685443 0.000000
0.535185 0.684517 0.000000
0.574609 0.683592 0.000000
0.614050 0.682667 0.000000
0.653508 0.681742 0.000000
0.692983 0.680818 0.000000
0.732476 0.679893 0.000000
0.771986 0.678970 0.000000
0.811514 0.678046 0.000000
0.851060 0.677123 0.000000
0.890625 0.676200 0.000000
0.926956 0.675358 0.000000
0.962746 0.674531 0.000000
0.998402 0.673708 0.000000
1.000000 0.672889 0.000000
1.000000 0.672821 0.000000
1.000000 0.672894 0.000000
0.000000 0.829854 0.000000
0.000000 0.829915 0.000000
0.000000 0.829820 0.000000
0.000000 0.828901 0.000000
0.012536 0.827982 0.000000
0.051790 0.827064 0.000000
0.091058 0.826146 0.000000
0.130340 0.825228 0.000000
0.169636 0.824311 0.000000
0.208948 0.823395 0.000000
0.248274 0.822478 0.000000
0.296183 0.726002 0.000000
0.335541 0.725079 0.000000
0.374914 0.724156 0.000000
0.414304 0.723233 0.000000
0.453709 0.722311 0.000000
0.493131 0.721389 0.000000
0.532570 0.720467 0.000000
0.572026 0.719545 0.000000
0.611499 0.718624 0.000000
0.650990 0.717703 0.000000
0.690498 0.716783 0.000000
0.730024 0.715863 0.000000
0.769568 0.714943 0.000000
0.809131 0.714023 0.000000
0.848713 0.713104 0.000000
0.888313 0.712184 0.000000
0.924453 0.711353 0.000000
0.960018 0.710536 0.000000
0.995444 0.709724 0.000000
1.000000 0.708916 0.000000
1.000000 0.708853 0.000000
1.000000 0.708931 0.000000
0.000000 0.870427 0.000000
0.000000 0.870493 0.000000
0.000000 0.870404 0.000000
0.000000 0.869489 0.000000
0.009153 0.868574 0.000000
0.048432 0.867660 0.000000
0.087725 0.866747 0.000000
0.127034 0.865834 0.000000
0.166357 0.864921 0.000000
0.205695 0.864009 0.000000
0.245050 0.863098 0.000000
0.284420 0.862186 0.000000
0.332793 0.761032 0.000000
0.372196 0.760113 0.000000
0.411616 0.759194 0.000000
0.451052 0.758275 0.000000
0.490505 0.757357 0.000000
0.529976 0.756439 0.000000
0.569464 0.755522 0.000000
0.608970 0.754605 0.000000
0.648494 0.753688 0.000000
0.688037 0.752772 0.000000
0.727597 0.751855 0.000000
0.767177 0.750940 0.000000
0.806776 0.750024 0.000000
0.846393 0.749109 0.000000
0.886031 0.748193 0.000000
0.921972 0.747372 0.000000
0.957304 0.746566 0.000000
0.992493 0.745765 0.000000
1.000000 0.744968 0.000000
1.000000 0.744911 0.000000
1.000000 0.744995 0.000000
0.000000 0.911025 0.000000
0.000000 0.911096 0.000000
0.000000 0.911011 0.000000
0.000000 0.910101 0.000000
0.005778 0.909191 0.000000
0.045083 0.908282 0.000000
0.084403 0.907373 0.000000
0.123738 0.906464 0.000000
0.163090 0.905557 0.000000
0.202456 0.904649 0.000000
0.241839 0.903742 0.000000
0.281239 0.902836 0.000000
0.330062 0.797007 0.000000
0.369495 0.796092 0.000000
0.408946 0.795178 0.000000
0.448414 0.794263 0.000000
0.487899 0.793349 0.000000
0.527403 0.792436 0.000000
0.566924 0.791522 0.000000
0.606464 0.790610 0.000000
0.646023 0.789697 0.000000
0.685600 0.788785 0.000000
0.725196 0.787873 0.000000
0.764812 0.786961 0.000000
0.804447 0.786049 0.000000
0.844102 0.785138 0.000000
0.883777 0.784227 0.000000
0.919513 0.783416 0.000000
0.954605 0.782622 0.000000
0.989548 0.781832 0.000000
1.000000 0.781047 0.000000
1.000000 0.780996 0.000000
1.000000 0.781085 0.000000
0.000000 0.951648 0.000000
0.000000 0.951724 0.000000
0.000000 0.951644 0.000000
0.000000 0.950739 0.000000
0.002412 0.949834 0.000000
0.041744 0.948929 0.000000
0.081091 0.948025 0.000000
0.120455 0.947121 0.000000
0.159834 0.946218 0.000000
0.199230 0.945316 0.000000
0.238643 0.944414 0.000000
0.278073 0.943512 0.000000
0.317520 0.942611 0.000000
0.366811 0.832096 0.000000
0.406294 0.831186 0.000000
0.445795 0.830276 0.000000
0.485313 0.829366 0.000000
0.524850 0.828457 0.000000
0.564406 0.827548 0.000000
0.603981 0.826639 0.000000
0.643575 0.825731 0.000000
0.683188 0.824823 0.000000
0.722820 0.823915 0.000000
0.762473 0.823008 0.000000
0.802146 0.822100 0.000000
0.841839 0.821194 0.000000
0.881553 0.820287 0.000000
0.917077 0.819487 0.000000
0.951920 0.818704 0.000000
0.986610 0.817926 0.000000
1.000000 0.817153 0.000000
1.000000 0.817108 0.000000
1.000000 0.817203 0.000000
0.000000 0.992296 0.000000
0.000000 0.992378 0.000000
0.000000 0.992304 0.000000
0.000000 0.991403 0.000000
0.000000 0.990503 0.000000
0.038413 0.989603 0.000000
0.077790 0.988704 0.000000
0.117182 0.987805 0.000000
0.156591 0.986907 0.000000
0.196017 0.986010 0.000000
0.235461 0.985113 0.000000
0.274922 0.984216 0.000000
0.314400 0.983320 0.000000
0.364144 0.868125 0.000000
0.403660 0.867219 0.000000
0.443194 0.866313 0.000000
0.482747 0.865408 0.000000
0.522319 0.864503 0.000000
0.561909 0.863598 0.000000
