library/cube/Wanderlust_Gold_004.cube
# CINEGRADE LAB — Premium Cinematic LUT
# Title: Wanderlust Gold
# Category: Luxury Travel
# Description: Golden hour tones, rich landscapes, and vivid colors for travel content
# Mood: Wanderlust, golden, rich
# Variant: 5
# Generated: 2026-05-21T16:12:24.958575
TITLE "Wanderlust Gold"
LUT_3D_SIZE 9
0.000000 0.000000 0.000000
0.084063 0.000000 0.000000
0.239804 0.000000 0.000000
0.395587 0.000000 0.000000
0.551427 0.000000 0.000000
0.707341 0.000000 0.000000
0.863343 0.000000 0.000000
1.000000 0.000000 0.000000
1.000000 0.000000 0.000000
0.000000 0.102565 0.000000
0.076061 0.088674 0.000000
0.231918 0.084790 0.000000
0.387852 0.080909 0.000000
0.543878 0.077030 0.000000
0.700013 0.073153 0.000000
0.856272 0.069278 0.000000
1.000000 0.065435 0.000000
1.000000 0.063412 0.000000
0.000000 0.263819 0.000000
0.063575 0.231402 0.000000
0.219606 0.227542 0.000000
0.375749 0.223686 0.000000
0.532021 0.219834 0.000000
0.688435 0.215983 0.000000
0.845010 0.212136 0.000000
0.999571 0.208345 0.000000
1.000000 0.206384 0.000000
0.000000 0.425233 0.000000
0.046862 0.423213 0.000000
0.207513 0.370453 0.000000
0.363924 0.366632 0.000000
0.520499 0.362814 0.000000
0.677252 0.359000 0.000000
0.834201 0.355188 0.000000
0.987967 0.351465 0.000000
1.000000 0.349584 0.000000
0.000000 0.586864 0.000000
0.033022 0.584895 0.000000
0.195633 0.513576 0.000000
0.352371 0.509798 0.000000
0.509308 0.506025 0.000000
0.666459 0.502255 0.000000
0.823841 0.498489 0.000000
0.976608 0.494849 0.000000
1.000000 0.493066 0.000000
0.000000 0.748775 0.000000
0.019329 0.746868 0.000000
0.176233 0.743163 0.000000
0.341085 0.653239 0.000000
0.498443 0.649519 0.000000
0.656051 0.645803 0.000000
0.813924 0.642092 0.000000
0.965489 0.638550 0.000000
1.000000 0.636881 0.000000
0.000000 0.911025 0.000000
0.005778 0.909191 0.000000
0.163090 0.905557 0.000000
0.330062 0.797007 0.000000
0.487899 0.793349 0.000000
0.646023 0.789697 0.000000
0.804447 0.786049 0.000000
0.954605 0.782622 0.000000
1.000000 0.781085 0.000000
0.000000 1.000000 0.000000
0.000000 1.000000 0.000000
0.153506 1.000000 0.000000
0.311611 1.000000 0.000000
0.477673 0.937570 0.000000
0.636370 0.933990 0.000000
0.795404 0.930415 0.000000
0.943950 0.927118 0.000000
1.000000 0.925730 0.000000
0.000000 1.000000 0.000000
0.000000 1.000000 0.000000
0.155391 1.000000 0.000000
0.314067 1.000000 0.000000
0.473084 1.000000 0.000000
0.632458 1.000000 0.000000
0.792206 1.000000 0.000000
0.938985 1.000000 0.000000
1.000000 1.000000 0.000000
0.000000 0.000000 0.119065
0.083071 0.000000 0.116955
0.238822 0.000000 0.113045
0.394618 0.000000 0.109131
0.550474 0.000000 0.105213
0.706407 0.000000 0.101290
0.862432 0.000000 0.097362
1.000000 0.000000 0.093444
1.000000 0.000000 0.091331
0.000000 0.089773 0.110908
0.075087 0.087684 0.108787
0.230959 0.083801 0.104864
0.386912 0.079921 0.100936
0.542960 0.076043 0.097003
0.699121 0.072168 0.093064
0.855409 0.068294 0.089120
1.000000 0.064454 0.085202
1.000000 0.062435 0.083096
0.000000 0.262839 0.095342
0.059896 0.260781 0.093206
0.218670 0.226564 0.091990
0.374838 0.222709 0.088046
0.531138 0.218858 0.084095
0.687584 0.215010 0.080138
0.844195 0.211164 0.076174
0.998685 0.207377 0.072260
1.000000 0.205422 0.070168
0.000000 0.424267 0.080787
0.045921 0.422250 0.078637
0.206600 0.369489 0.079068
0.363042 0.365669 0.075105
0.519651 0.361854 0.071135
0.676443 0.358041 0.067157
0.833433 0.354232 0.063170
0.987108 0.350514 0.059264
1.000000 0.348640 0.057191
0.000000 0.585917 0.066182
0.032098 0.583952 0.064014
0.188685 0.580190 0.060036
0.351517 0.508854 0.062109
0.508495 0.505083 0.058116
0.665690 0.501316 0.054115
0.823120 0.497553 0.050104
0.975776 0.493919 0.046210
1.000000 0.492143 0.044161
0.000000 0.747851 0.051520
0.018422 0.745948 0.049332
0.175365 0.742247 0.045331
0.340260 0.652317 0.049052
0.497665 0.648599 0.045034
0.655323 0.644887 0.041007
0.813250 0.641179 0.036970
0.964683 0.637644 0.033092
1.000000 0.635985 0.031074
0.000000 0.910129 0.036795
0.004887 0.908299 0.034587
0.162244 0.904669 0.030560
0.319858 0.901047 0.026522
0.487157 0.792457 0.031885
0.645336 0.788807 0.027830
0.803820 0.785163 0.023763
0.953825 0.781744 0.019905
1.000000 0.780218 0.017924
0.000000 1.000000 0.025309
0.000000 1.000000 0.023113
0.152695 1.000000 0.019094
0.310855 1.000000 0.015064
0.476965 0.936708 0.018664
0.635724 0.933131 0.014578
0.794824 0.929560 0.010479
0.943197 0.926272 0.006646
1.000000 0.924896 0.004707
0.000000 1.000000 0.025074
0.000000 1.000000 0.022862
0.154606 1.000000 0.018821
0.313343 1.000000 0.014769
0.472425 1.000000 0.010706
0.631869 1.000000 0.006632
0.791689 1.000000 0.002546
0.938274 1.000000 0.000000
1.000000 1.000000 0.000000
0.000000 0.000000 0.266144
0.081847 0.000000 0.264030
0.237607 0.000000 0.260112
0.393416 0.000000 0.256187
0.549289 0.000000 0.252255
0.705243 0.000000 0.248315
0.861293 0.000000 0.244367
1.000000 0.000000 0.240428
1.000000 0.000000 0.238291
0.000000 0.088548 0.257960
0.073880 0.086460 0.255824
0.229768 0.082578 0.251883
0.385740 0.078700 0.247934
0.541811 0.074823 0.243977
0.697998 0.070949 0.240011
0.854317 0.067076 0.236036
1.000000 0.063239 0.232087
1.000000 0.061224 0.229949
0.000000 0.231269 0.245053
0.061429 0.229207 0.242894
0.217502 0.225351 0.238927
0.373696 0.221499 0.234952
0.530024 0.217649 0.230967
0.686504 0.213803 0.226972
0.843150 0.209958 0.222968
0.997568 0.206176 0.219013
1.000000 0.204226 0.216878
0.000000 0.423067 0.227682
0.044748 0.421053 0.225496
0.201066 0.417245 0.221500
0.361929 0.364474 0.221885
0.518573 0.360660 0.217870
0.675403 0.356850 0.213844
0.832436 0.353043 0.209807
0.986018 0.349330 0.205850
1.000000 0.347463 0.203725
0.000000 0.584738 0.212946
0.030942 0.582776 0.210733
0.187563 0.579017 0.206706
0.350433 0.507677 0.208727
0.507452 0.503909 0.204680
0.664692 0.500144 0.200620
0.822170 0.496383 0.196549
0.974713 0.492756 0.192595
1.000000 0.490988 0.190485
0.000000 0.746695 0.198119
0.017283 0.744796 0.195877
0.174265 0.741099 0.191816
0.331473 0.737409 0.187743
0.496657 0.647448 0.191393
0.654366 0.643739 0.187298
0.812348 0.640033 0.183189
0.963647 0.636507 0.179241
1.000000 0.634856 0.177152
0.000000 0.909001 0.183197
0.003765 0.907176 0.180923
0.161167 0.903550 0.176826
0.318831 0.899932 0.172716
0.486184 0.791332 0.178005
0.644420 0.787687 0.173871
0.802965 0.784046 0.169723
0.952816 0.780636 0.165786
1.000000 0.779120 0.163724
0.000000 1.000000 0.171489
0.000000 1.000000 0.169218
0.151654 1.000000 0.165119
0.309871 1.000000 0.161008
0.468400 1.000000 0.156883
0.634850 0.932041 0.160335
0.794016 0.928474 0.156145
0.942215 0.925197 0.152223
1.000000 0.923833 0.150193
0.000000 1.000000 0.170990
0.000000 1.000000 0.168693
0.153591 1.000000 0.164562
0.312390 1.000000 0.160418
0.471538 1.000000 0.156260
0.631051 1.000000 0.152087
0.790945 1.000000 0.147899
0.937335 1.000000 0.144044
1.000000 1.000000 0.142103
0.000000 0.000000 0.413222
0.080625 0.000000 0.411100
0.236395 0.000000 0.407173
0.392218 0.000000 0.403235
0.548109 0.000000 0.399287
0.704083 0.000000 0.395329
0.860158 0.000000 0.391358
1.000000 0.000000 0.387395
1.000000 0.000000 0.385233
0.000000 0.087322 0.405003
0.072675 0.085236 0.402850
0.228579 0.081356 0.398889
0.384571 0.077479 0.394917
0.540666 0.073603 0.390934
0.696880 0.069730 0.386939
0.853230 0.065858 0.382932
1.000000 0.062025 0.378949
1.000000 0.060015 0.376776
0.000000 0.230053 0.392028
0.060241 0.227994 0.389841
0.216337 0.224140 0.385845
0.372556 0.220289 0.381836
0.528914 0.216441 0.377815
0.685427 0.212596 0.373780
0.842110 0.208753 0.369733
0.996454 0.204975 0.365735
1.000000 0.203031 0.363556
0.000000 0.372936 0.378941
0.047966 0.370913 0.376718
0.204313 0.367094 0.372683
0.360818 0.363279 0.368635
0.517498 0.359468 0.364574
0.674368 0.355660 0.360498
0.831444 0.351854 0.356408
0.984931 0.348147 0.352399
1.000000 0.346287 0.350220
0.000000 0.516023 0.365736
0.029788 0.581601 0.357420
0.186443 0.577846 0.353342
0.343292 0.574097 0.349250
0.506413 0.502736 0.351206
0.663699 0.498974 0.347087
0.821225 0.495216 0.342952
0.973653 0.491595 0.338936
1.000000 0.489835 0.336762
0.000000 0.745541 0.344683
0.016146 0.743646 0.342382
0.173169 0.739953 0.338261
0.330421 0.736266 0.334124
0.495654 0.646298 0.337708
0.653414 0.642592 0.333542
0.811451 0.638890 0.329360
0.962614 0.635371 0.325340
1.000000 0.633730 0.323178
0.000000 0.907875 0.329555
0.002644 0.906055 0.327213
0.160094 0.902433 0.323045
0.317807 0.898819 0.318860
0.475801 0.895213 0.314659
0.643509 0.786568 0.319859
0.802115 0.782930 0.315627
0.951809 0.779529 0.311608
1.000000 0.778024 0.309464
0.000000 1.000000 0.317620
0.000000 1.000000 0.315271
0.150616 1.000000 0.311091
0.308889 1.000000 0.306895
0.467479 1.000000 0.302683
0.633980 0.930954 0.306032
0.793214 0.927391 0.301748
0.941235 0.924123 0.297735
1.000000 0.922771 0.295614
0.000000 1.000000 0.316850
0.000000 1.000000 0.314465
0.152579 1.000000 0.310243
0.311441 1.000000 0.306004
0.470656 1.000000 0.301749
0.630239 1.000000 0.297475
0.790206 1.000000 0.293183
0.936400 1.000000 0.289229
1.000000 1.000000 0.287187
0.000000 0.000000 0.560296
0.079404 0.000000 0.558166
0.235185 0.000000 0.554227
0.391023 0.000000 0.550274
0.546932 0.000000 0.546308
0.702928 0.000000 0.542328
0.859027 0.000000 0.538334
1.000000 0.000000 0.534346
1.000000 0.000000 0.532155
0.000000 0.086098 0.552036
0.071472 0.084013 0.549864
0.227393 0.080134 0.545881
0.383405 0.076258 0.541884
0.539524 0.072384 0.537873
0.695767 0.068512 0.533847
0.852148 0.064642 0.529805
1.000000 0.060812 0.525787
1.000000 0.058805 0.523576
0.000000 0.228839 0.538986
0.059055 0.226781 0.536770
0.215174 0.222929 0.532741
0.371420 0.219080 0.528697
0.527808 0.215234 0.524637
0.684355 0.211391 0.520562
0.841075 0.207549 0.516470
0.995342 0.203776 0.512427
1.000000 0.201837 0.510201
0.000000 0.371735 0.525789
0.046797 0.369715 0.523527
0.203173 0.365898 0.519450
0.359711 0.362085 0.515356
0.516428 0.358276 0.511246
0.673337 0.354470 0.507118
0.830456 0.350667 0.502974
0.983847 0.346966 0.498910
1.000000 0.345112 0.496675
0.000000 0.514840 0.512440
0.034693 0.512866 0.510132
0.191385 0.509094 0.506003
0.348275 0.505327 0.501857
0.505378 0.501564 0.497694
0.662709 0.497805 0.493512
0.820286 0.494049 0.489312
0.972595 0.490435 0.485232
1.000000 0.488684 0.482993
0.000000 0.658207 0.498936
0.022739 0.656289 0.496578
0.172075 0.738808 0.484664
0.329371 0.735125 0.480461
0.486917 0.731448 0.476239
0.652466 0.641447 0.479738
0.810559 0.637748 0.475481
0.961583 0.634237 0.471388
1.000000 0.632605 0.469151
0.000000 0.906751 0.475869
0.001526 0.904936 0.473457
0.159022 0.901318 0.469215
0.316787 0.897709 0.464954
0.474836 0.894106 0.460673
0.642603 0.785450 0.465792
0.801270 0.781817 0.461474
0.950806 0.778425 0.457373
1.000000 0.776930 0.455144
0.000000 1.000000 0.463699
0.000000 1.000000 0.461270
0.149581 1.000000 0.457008
0.307911 1.000000 0.452726
0.466563 1.000000 0.448424
0.625550 1.000000 0.444103
0.792416 0.926309 0.447288
0.940259 0.923052 0.443182
1.000000 0.921712 0.440967
0.000000 1.000000 0.462652
0.000000 1.000000 0.460177
0.151569 1.000000 0.455862
0.310495 1.000000 0.451527
0.469777 1.000000 0.447171
0.629431 1.000000 0.442795
0.789472 1.000000 0.438398
0.935467 1.000000 0.434341
1.000000 1.000000 0.432197
0.000000 0.000000 0.707366
0.078185 0.000000 0.705225
0.233978 0.000000 0.701272
0.389830 0.000000 0.697303
0.545758 0.000000 0.693317
0.701777 0.000000 0.689314
0.857902 0.000000 0.685293
1.000000 0.000000 0.681277
1.000000 0.000000 0.679057
0.000000 0.084874 0.699058
0.070270 0.082791 0.696865
0.226209 0.078913 0.692859
0.382242 0.075039 0.688834
0.538387 0.071166 0.684793
0.694657 0.067295 0.680733
0.851070 0.063426 0.676655
1.000000 0.059599 0.672600
1.000000 0.057597 0.670350
0.000000 0.227625 0.685926
0.057871 0.225570 0.683679
0.214013 0.221719 0.679616
0.370287 0.217872 0.675534
0.526706 0.214028 0.671434
0.683287 0.210186 0.667314
0.840046 0.206346 0.663176
0.994234 0.202577 0.659087
1.000000 0.200644 0.656812
0.000000 0.370536 0.672613
0.045630 0.368518 0.670310
0.202036 0.364703 0.666188
0.358608 0.360893 0.662046
0.515361 0.357086 0.657885
0.672311 0.353282 0.653704
0.829474 0.349481 0.649502
0.982765 0.345785 0.645382
1.000000 0.343939 0.643089
0.000000 0.513658 0.659114
0.033544 0.511688 0.656753
0.190272 0.507918 0.652570
0.347201 0.504154 0.648366
0.504346 0.500394 0.644141
0.661724 0.496637 0.639896
0.819351 0.492884 0.635629
0.971541 0.489276 0.631483
1.000000 0.487534 0.629176
0.000000 0.657047 0.645424
0.021607 0.655133 0.643005
0.178716 0.651418 0.638757
0.336061 0.647709 0.634489
0.493658 0.644004 0.630198
0.651523 0.640303 0.625886
0.809672 0.636607 0.621551
0.960556 0.633104 0.617383
1.000000 0.631482 0.615069
0.000000 0.800754 0.631540
0.009815 0.798908 0.629059
0.167363 0.795256 0.624746
0.315770 0.896600 0.610997
0.473874 0.893001 0.606634
0.632280 0.889410 0.602249
0.800431 0.780705 0.607264
0.949806 0.777322 0.603078
1.000000 0.775838 0.600762
0.000000 0.944835 0.617455
0.000000 1.000000 0.607216
0.148548 1.000000 0.602868
0.306937 1.000000 0.598498
0.465650 1.000000 0.594105
0.624703 1.000000 0.589690
0.791624 0.925230 0.592763
0.939286 0.921982 0.588563
1.000000 0.920655 0.586252
0.000000 1.000000 0.608395
0.000000 1.000000 0.605828
0.150563 1.000000 0.601418
0.309553 1.000000 0.596984
0.468902 1.000000 0.592527
0.628628 1.000000 0.588046
0.788744 1.000000 0.583541
0.934538 1.000000 0.579381
1.000000 1.000000 0.577131
0.000000 0.000000 0.854431
0.076968 0.000000 0.852277
0.232773 0.000000 0.848308
0.388641 0.000000 0.844320
0.544588 0.000000 0.840312
0.700630 0.000000 0.836284
0.856782 0.000000 0.832235
1.000000 0.000000 0.828190
1.000000 0.000000 0.825937
0.000000 0.083650 0.846068
0.069071 0.081569 0.843853
0.225028 0.077693 0.839819
0.381083 0.073820 0.835766
0.537252 0.069948 0.831692
0.693552 0.066078 0.827597
0.849998 0.062210 0.823480
1.000000 0.058387 0.819387
1.000000 0.056390 0.817095
0.000000 0.226412 0.832847
0.056688 0.224359 0.830567
0.212855 0.220511 0.826467
0.369157 0.216665 0.822346
0.525607 0.212823 0.818203
0.682223 0.208982 0.814038
0.839021 0.205144 0.809851
0.993128 0.201380 0.805713
1.000000 0.199453 0.803388
0.000000 0.369337 0.819410
0.044465 0.367322 0.817064
0.200901 0.363510 0.812896
0.357507 0.359702 0.808704
0.514298 0.355897 0.804490
0.671289 0.352095 0.800253
0.828497 0.348296 0.795992
0.981687 0.344606 0.791814
1.000000 0.342767 0.789461
0.000000 0.512478 0.805754
0.032396 0.510510 0.803340
0.189160 0.506744 0.799100
0.346129 0.502982 0.794836
0.503319 0.499225 0.790548
0.660744 0.495471 0.786237
0.818422 0.491720 0.781900
0.970490 0.488119 0.777686
1.000000 0.486385 0.775310
0.000000 0.655889 0.791873
0.020477 0.653979 0.789390
0.177628 0.650267 0.785076
0.335019 0.646560 0.780737
0.492666 0.642859 0.776373
0.650584 0.639161 0.771984
0.808790 0.635468 0.767569
0.959532 0.631973 0.763324
1.000000 0.630361 0.760931
0.000000 0.799622 0.777763
0.008702 0.797779 0.775209
0.166299 0.794131 0.770818
0.324171 0.790489 0.766401
0.482334 0.786853 0.761959
0.640804 0.783221 0.757491
0.799597 0.779595 0.752995
0.948809 0.776221 0.748722
1.000000 0.774748 0.746318
0.000000 0.943732 0.763419
0.000000 0.941966 0.760792
0.155168 0.938391 0.756322
0.313580 0.934823 0.751825
0.464741 1.000000 0.739725
0.623860 1.000000 0.735213
0.783339 1.000000 0.730674
0.938316 0.920915 0.733876
1.000000 0.919600 0.731468
0.000000 1.000000 0.754078
0.000000 1.000000 0.751418
0.149560 1.000000 0.746910
0.308614 1.000000 0.742376
0.468032 1.000000 0.737815
0.627829 1.000000 0.733227
0.788021 1.000000 0.728612
0.933612 1.000000 0.724346
1.000000 1.000000 0.721990
0.000000 0.000000 1.000000
0.075753 0.000000 0.999321
0.231571 0.000000 0.995334
0.387455 0.000000 0.991325
0.543422 0.000000 0.987293
0.699487 0.000000 0.983237
0.855667 0.000000 0.979159
1.000000 0.000000 0.975081
1.000000 0.000000 0.972796
0.000000 0.082428 0.993065
0.067873 0.080348 0.990825
0.223849 0.076473 0.986763
0.379926 0.072601 0.982679
0.536122 0.068731 0.978570
0.692451 0.064863 0.974438
0.848930 0.060995 0.970281
1.000000 0.057176 0.966146
1.000000 0.055183 0.963811
0.000000 0.225200 0.979748
0.055508 0.223149 0.977433
0.211700 0.219302 0.973295
0.368030 0.215459 0.969132
0.524512 0.211618 0.964945
0.681164 0.207780 0.960732
0.838001 0.203943 0.956494
0.992026 0.200183 0.952305
1.000000 0.198262 0.949927
0.000000 0.368140 0.966182
0.043302 0.366127 0.963790
0.199769 0.362317 0.959573
0.356409 0.358511 0.955330
0.513238 0.354709 0.951061
0.670272 0.350909 0.946766
0.827525 0.347112 0.942444
0.980612 0.343428 0.938206
1.000000 0.341596 0.935790
0.000000 0.511299 0.952361
0.031250 0.509335 0.949892
0.188052 0.505571 0.945592
0.345061 0.501812 0.941266
0.502295 0.498057 0.936914
0.659768 0.494305 0.932534
0.817497 0.490557 0.928126
0.969442 0.486964 0.923842
1.000000 0.485238 0.921395
0.000000 0.654732 0.938282
0.019348 0.652826 0.935733
0.176542 0.649117 0.931349
0.333980 0.645414 0.926938
0.491677 0.641715 0.922499
0.649650 0.638021 0.918031
0.807913 0.634331 0.913535
0.958511 0.630844 0.909210
1.000000 0.629242 0.906736
0.000000 0.798492 0.923939
0.007591 0.796653 0.921309
0.165237 0.793009 0.916838
0.323161 0.789371 0.912339
0.481381 0.785738 0.907811
0.639911 0.782110 0.903254
0.798767 0.778486 0.898667
0.947815 0.775122 0.894305
1.000000 0.773660 0.891811
0.000000 0.942632 0.909328
0.000000 0.940871 0.906615
0.154130 0.937300 0.902055
0.312600 0.933735 0.897466
0.471401 0.930177 0.892847
0.630547 0.926624 0.888197
0.790056 0.923077 0.883517
0.937349 0.919850 0.879121
1.000000 0.918547 0.876613
0.000000 1.000000 0.899701
0.000000 1.000000 0.896944
0.148559 1.000000 0.892337
0.307679 1.000000 0.887700
0.467166 1.000000 0.883034
0.627036 1.000000 0.878337
0.787304 1.000000 0.873610
0.932690 1.000000 0.869236
1.000000 1.000000 0.866772
0.000000 0.000000 1.000000
0.074774 0.000000 1.000000
0.230605 0.000000 1.000000
0.386507 0.000000 1.000000
0.542494 0.000000 1.000000
0.698584 0.000000 1.000000
0.854791 0.000000 1.000000
1.000000 0.000000 1.000000
1.000000 0.000000 1.000000
0.000000 0.081440 1.000000
0.066911 0.079362 1.000000
0.222907 0.075489 1.000000
0.379007 0.071618 1.000000
0.535230 0.067749 1.000000
0.691589 0.063882 1.000000
0.848102 0.060015 1.000000
1.000000 0.056200 1.000000
1.000000 0.054211 1.000000
0.000000 0.224224 1.000000
0.054564 0.222174 1.000000
0.210781 0.218330 1.000000
0.367140 0.214488 1.000000
0.523656 0.210649 1.000000
0.680344 0.206812 1.000000
0.837221 0.202977 1.000000
0.991161 0.199222 1.000000
1.000000 0.197306 1.000000
0.000000 0.367177 1.000000
0.042375 0.365167 1.000000
0.198874 0.361360 1.000000
0.355549 0.357556 1.000000
0.512417 0.353756 1.000000
0.669492 0.349959 1.000000
0.826792 0.346164 1.000000
0.979773 0.342485 1.000000
1.000000 0.340660 1.000000
0.000000 0.510355 1.000000
0.030340 0.508394 1.000000
0.187179 0.504633 1.000000
0.344230 0.500877 1.000000
0.501509 0.497124 1.000000
0.659030 0.493375 1.000000
0.816812 0.489630 1.000000
0.968630 0.486043 1.000000
1.000000 0.484325 1.000000
0.000000 0.653811 1.000000
0.018455 0.651908 1.000000
0.175693 0.648203 1.000000
0.333178 0.644502 1.000000
0.490926 0.640807 1.000000
0.648953 0.637116 1.000000
0.807275 0.633428 1.000000
0.957727 0.629949 1.000000
1.000000 0.628357 1.000000
0.000000 0.797596 1.000000
0.006715 0.795762 1.000000
0.164410 0.792121 1.000000
0.322388 0.788487 1.000000
0.480665 0.784857 1.000000
0.639255 0.781232 1.000000
0.798176 0.777612 1.000000
0.947057 0.774257 1.000000
1.000000 0.772807 1.000000
0.000000 0.941766 1.000000
0.000000 0.940010 1.000000
0.153326 0.936443 1.000000
0.311856 0.932883 1.000000
0.470720 0.929328 1.000000
0.629933 0.925779 1.000000
0.789511 0.922236 1.000000
0.936618 0.919019 0.996596
1.000000 0.917728 0.994006
0.000000 1.000000 1.000000
0.000000 1.000000 1.000000
0.147794 1.000000 1.000000
0.306980 1.000000 1.000000
0.466536 1.000000 1.000000
0.626479 1.000000 0.995701
0.786824 1.000000 0.990881
0.932002 1.000000 0.986417
1.000000 1.000000 0.983863
